; generated by PrusaSlicer 2.6.0+win64 on 2023-09-15 at 14:01:08 UTC


;
;
; 

; external perimeters extrusion width = 0.60mm
; perimeters extrusion width = 0.50mm
; infill extrusion width = 0.50mm
; solid infill extrusion width = 0.50mm
; top infill extrusion width = 0.45mm
; first layer extrusion width = 0.42mm

M73 P0 R76
M73 Q0 S76
M201 X1000 Y1000 Z200 E5000 ; sets maximum accelerations, mm/sec^2
M203 X200 Y200 Z12 E120 ; sets maximum feedrates, mm / sec
M204 S1250 T1250 ; sets acceleration (S) and retract acceleration (R), mm/sec^2
M205 X8.00 Y8.00 Z0.40 E4.50 ; sets the jerk limits, mm/sec
M205 S0 T0 ; sets the minimum extruding and travel feed rate, mm/sec
;TYPE:Custom
M862.3 P "MK3S" ; printer model check
M862.1 P0.4 ; nozzle diameter check
M115 U3.12.2 ; tell printer latest fw version
G90 ; use absolute coordinates
M83 ; extruder relative mode
M104 S215 ; set extruder temp
M140 S60 ; set bed temp
M190 S60 ; wait for bed temp
M109 S215 ; wait for extruder temp
G28 W ; home all without mesh bed level
G80 ; mesh bed leveling

G1 Z0.2 F720
G1 Y-3 F1000 ; go outside print area
G92 E0
G1 X60 E9 F1000 ; intro line
G1 X100 E12.5 F1000 ; intro line

G92 E0
M221 S95

; Don't change E values below. Excessive value can damage the printer.

M907 E538 ; set extruder motor current
G21 ; set units to millimeters
G90 ; use absolute coordinates
M83 ; use relative distances for extrusion
M900 K0.05 ; Filament gcode LA 1.5
M900 K30 ; Filament gcode LA 1.0
M107
;LAYER_CHANGE
;Z:0.2
;HEIGHT:0.2
;BEFORE_LAYER_CHANGE
G92 E0.0
;0.2


G1 E-.8 F2100
G1 Z.4 F720
;AFTER_LAYER_CHANGE
;0.2
G1 X63.762 Y45.714 F10800
G1 Z.2 F720
G1 E.8 F2100
M204 S800
;TYPE:Skirt/Brim
;WIDTH:0.42
G1 F1200
G1 X64.451 Y44.835 E.03502
G1 X65.05 Y44.261 E.02601
G1 X65.714 Y43.762 E.02604
G1 X66.929 Y43.125 E.04301
G1 X67.995 Y42.793 E.03501
M73 P0 R75
G1 X69.5 Y42.623 E.04749
G1 X180.644 Y42.627 E3.48484
G1 X182.005 Y42.793 E.04299
G1 X183.071 Y43.125 E.03501
G1 X184.286 Y43.762 E.04301
G1 X184.95 Y44.261 E.02604
G1 X185.549 Y44.835 E.02601
G1 X186.238 Y45.714 E.03502
G1 X186.875 Y46.929 E.04301
G1 X187.207 Y47.995 E.03501
G1 X187.373 Y49.356 E.04299
G1 X187.377 Y160.5 E3.48484
G1 X187.207 Y162.005 E.04749
G1 X186.875 Y163.071 E.03501
G1 X186.238 Y164.286 E.04301
G1 X185.549 Y165.165 E.03502
G1 X184.95 Y165.739 E.02601
G1 X184.286 Y166.238 E.02604
G1 X183.071 Y166.875 E.04301
G1 X182.005 Y167.207 E.03501
G1 X180.5 Y167.377 E.04749
G1 X69.5 Y167.377 E3.48033
G1 X67.995 Y167.207 E.04749
G1 X66.929 Y166.875 E.03501
G1 X65.714 Y166.238 E.04301
G1 X64.835 Y165.549 E.03502
G1 X64.261 Y164.95 E.02601
G1 X63.762 Y164.286 E.02604
G1 X63.125 Y163.071 E.04301
G1 X62.793 Y162.005 E.03501
G1 X62.623 Y160.5 E.04749
G1 X62.623 Y49.5 E3.48033
G1 X62.793 Y47.995 E.04749
G1 X63.125 Y46.929 E.03501
G1 X63.734 Y45.767 E.04113
M204 S1000
; printing object FAN_GRILL_BACK_AMSTUDIO.obj id:0 copy 0
;WIPE_START
G1 F8640
G1 X64.451 Y44.835 E-.27152
G1 X65.05 Y44.261 E-.19156
G1 X65.714 Y43.762 E-.19179
G1 X66.271 Y43.47 E-.14513
;WIPE_END
G1 Z.6 F720
G1 X182.662 Y46.497 F10800
G1 Z.2 F720
G1 E.8 F2100
M204 S800
;TYPE:Perimeter
;WIDTH:0.419999
G1 F1200
G1 X183.166 Y46.926 E.02075
G1 X183.554 Y47.392 E.01901
G1 X183.851 Y47.919 E.01897
G1 X184.057 Y48.463 E.01824
G1 X184.184 Y49.053 E.01892
G1 X184.213 Y49.599 E.01714
G1 X184.213 Y160.401 E3.47411
G1 X184.184 Y160.947 E.01714
G1 X184.057 Y161.538 E.01895
G1 X183.852 Y162.079 E.01814
G1 X183.554 Y162.608 E.01904
G1 X183.165 Y163.075 E.01906
G1 X182.734 Y163.456 E.01804
G1 X182.225 Y163.786 E.01902
G1 X181.665 Y164.017 E.01899
G1 X181.099 Y164.157 E.01828
G1 X180.476 Y164.213 E.01961
G1 X69.452 Y164.209 E3.48107
G1 X68.908 Y164.158 E.01713
M73 Q0 S75
G1 X68.415 Y164.042 E.01588
G1 X67.914 Y163.849 E.01683
G1 X67.392 Y163.554 E.0188
G1 X66.921 Y163.16 E.01925
G1 X66.54 Y162.728 E.01806
G1 X66.214 Y162.225 E.01879
G1 X65.985 Y161.673 E.01874
G1 X65.842 Y161.091 E.01879
G1 X65.787 Y160.476 E.01936
G1 X65.787 Y49.594 E3.47662
G1 X65.816 Y49.053 E.01699
M73 P1 R75
M73 Q1 S75
G1 X65.94 Y48.472 E.01863
G1 X66.152 Y47.912 E.01877
G1 X66.446 Y47.392 E.01873
G1 X66.829 Y46.932 E.01877
G1 X67.273 Y46.539 E.01859
G1 X67.775 Y46.214 E.01875
G1 X68.326 Y45.985 E.01871
G1 X68.909 Y45.842 E.01882
G1 X69.524 Y45.787 E.01936
G1 X180.55 Y45.792 E3.48114
G1 X181.097 Y45.843 E.01723
G1 X181.667 Y45.983 E.0184
G1 X182.225 Y46.214 E.01894
G1 X182.612 Y46.465 E.01446
M204 S1000
G1 X182.867 Y46.182 F10800
M204 S800
;TYPE:External perimeter
G1 F1200
G1 X182.966 Y46.247 E.00371
G1 X183.432 Y46.66 E.01952
G1 X183.865 Y47.177 E.02114
G1 X184.195 Y47.765 E.02114
G1 X184.417 Y48.351 E.01965
G1 X184.559 Y49.007 E.02104
G1 X184.59 Y49.599 E.01859
G1 X184.585 Y160.574 E3.47954
G1 X184.503 Y161.302 E.02297
G1 X184.324 Y161.95 E.02108
G1 X184.027 Y162.556 E.02116
G1 X183.7 Y163.035 E.01818
G1 X183.341 Y163.431 E.01676
G1 X182.823 Y163.865 E.02119
G1 X182.234 Y164.196 E.02118
G1 X181.649 Y164.417 E.01961
G1 X180.993 Y164.559 E.02104
G1 X180.488 Y164.59 E.01586
G1 X70.048 Y164.59 E3.46276
G1 X69.381 Y164.582 E.02091
M73 P1 R74
G1 X68.84 Y164.529 E.01704
G1 X68.216 Y164.375 E.02015
G1 X67.6 Y164.121 E.02089
G1 X67.039 Y163.757 E.02097
G1 X66.563 Y163.336 E.01992
G1 X66.135 Y162.823 E.02095
G1 X65.808 Y162.242 E.0209
G1 X65.58 Y161.642 E.02013
G1 X65.441 Y160.993 E.02081
G1 X65.41 Y160.488 E.01586
G1 X65.41 Y50.239 E3.45677
G1 X65.415 Y49.431 E.02533
G1 X65.471 Y48.843 E.01852
G1 X65.626 Y48.213 E.02034
G1 X65.879 Y47.6 E.02079
G1 X66.242 Y47.04 E.02092
G1 X66.665 Y46.562 E.02001
G1 X67.177 Y46.135 E.0209
G1 X67.757 Y45.808 E.02088
G1 X68.359 Y45.58 E.02018
G1 X69.007 Y45.441 E.02078
G1 X69.512 Y45.41 E.01586
G1 X180.076 Y45.41 E3.46665
G1 X180.66 Y45.42 E.01831
G1 X181.165 Y45.472 E.01592
G1 X181.779 Y45.623 E.01983
G1 X182.4 Y45.879 E.02106
G1 X182.816 Y46.149 E.01555
M204 S1000
G1 X182.864 Y46.3 F10800
;WIPE_START
G1 F8640
G1 X182.966 Y46.247 E-.04137
G1 X183.432 Y46.66 E-.14378
G1 X183.865 Y47.177 E-.15571
G1 X184.195 Y47.765 E-.15569
G1 X184.417 Y48.351 E-.14469
G1 X184.559 Y49.007 E-.15498
G1 X184.56 Y49.023 E-.00378
;WIPE_END
G1 Z.6 F720
G1 X179.574 Y50.822 F10800
G1 Z.2 F720
G1 E.8 F2100
M204 S800
;TYPE:Perimeter
G1 F1200
G1 X179.789 Y51.141 E.01206
G1 X179.998 Y51.608 E.01604
G1 X180.122 Y52.105 E.01606
G1 X180.158 Y52.615 E.01603
G1 X180.105 Y53.125 E.01608
G1 X179.964 Y53.617 E.01605
G1 X179.74 Y54.077 E.01604
G1 X179.44 Y54.491 E.01603
G1 X179.072 Y54.847 E.01605
G1 X178.647 Y55.133 E.01606
G1 X178.186 Y55.34 E.01584
G1 X177.684 Y55.466 E.01623
G1 X177.173 Y55.502 E.01606
G1 X176.664 Y55.449 E.01605
G1 X176.183 Y55.313 E.01567
G1 X175.712 Y55.084 E.01642
G1 X175.373 Y54.847 E.01297
G1 X175.005 Y54.491 E.01605
G1 X174.704 Y54.077 E.01605
G1 X174.48 Y53.617 E.01604
G1 X174.34 Y53.125 E.01604
G1 X174.287 Y52.615 E.01608
G1 X174.323 Y52.105 E.01603
G1 X174.447 Y51.608 E.01606
G1 X174.655 Y51.141 E.01603
G1 X174.942 Y50.717 E.01605
G1 X175.297 Y50.349 E.01603
G1 X175.712 Y50.048 E.01607
G1 X176.172 Y49.824 E.01604
G1 X176.664 Y49.684 E.01604
G1 X177.192 Y49.631 E.01664
G1 X177.781 Y49.684 E.01854
G1 X178.273 Y49.824 E.01604
G1 X178.733 Y50.048 E.01604
G1 X179.147 Y50.349 E.01605
G1 X179.54 Y50.772 E.0181
M204 S1000
G1 X179.27 Y51.042 F10800
M204 S800
;TYPE:External perimeter
G1 F1200
G1 X179.448 Y51.3 E.00983
G1 X179.634 Y51.706 E.014
G1 X179.746 Y52.138 E.01399
G1 X179.782 Y52.583 E.014
G1 X179.741 Y53.027 E.01398
G1 X179.622 Y53.457 E.01399
G1 X179.421 Y53.875 E.01454
G1 X179.173 Y54.224 E.01342
G1 X178.855 Y54.538 E.01401
G1 X178.488 Y54.792 E.01399
G1 X178.082 Y54.978 E.014
G1 X177.651 Y55.09 E.01396
G1 X177.082 Y55.115 E.01786
G1 X176.762 Y55.085 E.01008
G1 X176.331 Y54.966 E.01402
G1 X175.906 Y54.76 E.01481
G1 X175.589 Y54.538 E.01213
G1 X175.251 Y54.199 E.01501
G1 X174.997 Y53.832 E.01399
G1 X174.789 Y53.343 E.01666
G1 X174.698 Y52.995 E.01128
G1 X174.662 Y52.55 E.014
G1 X174.704 Y52.105 E.01401
G1 X174.822 Y51.675 E.01398
G1 X175.096 Y51.155 E.01843
G1 X175.272 Y50.908 E.00951
G1 X175.589 Y50.594 E.01399
G1 X175.956 Y50.341 E.01398
G1 X176.362 Y50.155 E.014
G1 X176.794 Y50.042 E.014
G1 X177.206 Y50.009 E.01296
G1 X177.683 Y50.048 E.01501
G1 X178.113 Y50.166 E.01398
G1 X178.517 Y50.357 E.01401
G1 X178.994 Y50.729 E.01897
G1 X179.231 Y50.996 E.01119
M204 S1000
G1 X179.58 Y50.993 F10800
;WIPE_START
G1 F8640
G1 X179.448 Y51.3 E-.08624
G1 X179.634 Y51.706 E-.10312
G1 X179.746 Y52.138 E-.10305
G1 X179.782 Y52.583 E-.10309
G1 X179.741 Y53.027 E-.10296
G1 X179.622 Y53.457 E-.10302
G1 X179.421 Y53.875 E-.1071
G1 X179.192 Y54.198 E-.09142
;WIPE_END
G1 Z.6 F720
G1 X179.826 Y57.428 F10800
G1 Z.2 F720
G1 E.8 F2100
M204 S800
;TYPE:Perimeter
G1 F1200
G1 X179.944 Y57.394 E.00385
G1 X180.236 Y57.459 E.00938
G1 X180.42 Y57.614 E.00754
G1 X180.505 Y57.772 E.00563
G1 X180.537 Y57.959 E.00595
G1 X180.537 Y65.449 E.23484
G1 X180.464 Y65.727 E.00901
G1 X180.254 Y65.939 E.00936
G1 X180.032 Y66.067 E.00803
G1 X179.556 Y66.108 E.01498
G1 X177.507 Y64.927 E.07415
G1 X177.297 Y64.714 E.00938
G1 X177.225 Y64.437 E.00897
G1 X177.242 Y58.577 E.18374
G1 X177.407 Y58.179 E.01351
G1 X177.678 Y58.028 E.00973
G1 X178.178 Y57.938 E.01593
G1 X178.847 Y57.777 E.02157
G1 X179.769 Y57.444 E.03074
M204 S1000
G1 X179.904 Y57.783 F10800
M204 S800
;TYPE:External perimeter
G1 F1200
G1 X180.06 Y57.793 E.0049
G1 X180.149 Y57.897 E.00429
G1 X180.16 Y57.959 E.00197
G1 X180.16 Y65.449 E.23484
G1 X180.115 Y65.571 E.00408
G1 X179.843 Y65.74 E.01004
G1 X179.655 Y65.739 E.00589
G1 X177.696 Y64.601 E.07103
G1 X177.604 Y64.461 E.00525
G1 X177.619 Y58.578 E.18446
G1 X177.674 Y58.445 E.00451
G1 X177.775 Y58.393 E.00356
G1 X178.525 Y58.258 E.02389
G1 X179.063 Y58.108 E.01751
G1 X179.848 Y57.805 E.02638
M204 S1000
G1 X179.972 Y57.643 F10800
;WIPE_START
G1 F8640
G1 X180.06 Y57.793 E-.04903
G1 X180.149 Y57.897 E-.03161
G1 X180.16 Y57.959 E-.01454
G1 X180.16 Y61.011 E-.70482
;WIPE_END
G1 Z.6 F720
G1 X176.455 Y65.498 F10800
G1 Z.2 F720
G1 E.8 F2100
M204 S800
;TYPE:Perimeter
;WIDTH:0.475845
G1 F1200
G1 X176.575 Y65.48 E.00437
;WIDTH:0.435833
G1 X176.915 Y65.56 E.01141
;WIDTH:0.419999
G1 X180.254 Y67.488 E.12089
G1 X180.464 Y67.7 E.00936
G1 X180.537 Y67.978 E.00901
G1 X180.537 Y81.954 E.43821
G1 X180.462 Y82.235 E.00912
G1 X180.254 Y82.444 E.00925
G1 X176.915 Y84.372 E.12089
G1 X176.714 Y84.442 E.00667
G1 X176.428 Y84.409 E.00903
G1 X176.35 Y84.372 E.00271
G1 X172.431 Y82.11 E.14188
;WIDTH:0.465691
G1 X172.333 Y82.079 E.00361
;WIDTH:0.511383
G1 X172.235 Y82.049 E.00399
;WIDTH:0.557075
G1 X172.137 Y82.019 E.00438
;WIDTH:0.602767
G1 X172.039 Y81.989 E.00477
G1 X168.981 Y80.202 E.16488
;WIDTH:0.567008
G1 X168.833 Y80.085 E.00822
;WIDTH:0.518005
G1 X168.686 Y79.967 E.00745
;WIDTH:0.469002
G1 X168.538 Y79.849 E.00671
;WIDTH:0.455719
G1 X168.371 Y79.645 E.00905
;WIDTH:0.494945
G1 X168.329 Y79.534 E.00446
;WIDTH:0.534171
G1 X168.288 Y79.424 E.0048
G1 X168.288 Y70.508 E.3642
;WIDTH:0.575074
G1 X168.281 Y70.417 E.00404
;WIDTH:0.615977
G1 X168.273 Y70.326 E.00435
;WIDTH:0.641
G1 X168.293 Y70.246 E.0041
;WIDTH:0.666023
G1 X168.313 Y70.166 E.00427
G1 X168.396 Y70.113 E.0051
;WIDTH:0.628482
G1 X168.478 Y70.06 E.00475
;WIDTH:0.59094
G1 X168.561 Y70.007 E.00449
;WIDTH:0.553399
G1 X168.643 Y69.954 E.00414
;WIDTH:0.515857
G1 X176.326 Y65.519 E.34886
G1 X176.396 Y65.508 E.00279
M204 S1000
G1 X176.538 Y65.887 F10800
M204 S800
;TYPE:External perimeter
;WIDTH:0.419999
G1 F1200
G1 X176.667 Y65.865 E.0041
G1 X176.727 Y65.887 E.002
G1 X180.066 Y67.815 E.12089
G1 X180.154 Y67.929 E.00452
G1 X180.16 Y67.978 E.00155
G1 X180.16 Y81.954 E.43821
G1 X180.114 Y82.077 E.00412
G1 X179.844 Y82.245 E.00997
G1 X176.727 Y84.045 E.11286
G1 X176.564 Y84.058 E.00513
G1 X168.817 Y79.587 E.28045
G1 X168.736 Y79.495 E.00384
G1 X168.722 Y79.424 E.00227
G1 X168.722 Y70.508 E.27955
G1 X168.774 Y70.378 E.00439
G1 X176.486 Y65.917 E.27934
M204 S1000
G1 X176.568 Y65.76 F10800
;WIPE_START
G1 F8640
G1 X176.667 Y65.865 E-.04348
G1 X176.727 Y65.887 E-.01476
G1 X179.509 Y67.493 E-.74176
;WIPE_END
G1 Z.6 F720
G1 X176.373 Y64.625 F10800
G1 Z.2 F720
G1 E.8 F2100
M204 S800
;TYPE:Perimeter
G1 F1200
G1 X176.344 Y64.771 E.00467
;WIDTH:0.468229
G1 X176.236 Y64.929 E.00677
;WIDTH:0.516458
G1 X176.128 Y65.087 E.00754
G1 X176.089 Y65.109 E.00176
;WIDTH:0.515857
G1 X168.407 Y69.545 E.34884
;WIDTH:0.553399
G1 X168.32 Y69.584 E.00405
;WIDTH:0.59094
G1 X168.234 Y69.623 E.0043
;WIDTH:0.628482
G1 X168.147 Y69.662 E.00464
;WIDTH:0.666023
G1 X168.06 Y69.701 E.00494
G1 X167.979 Y69.659 E.00473
;WIDTH:0.626807
G1 X167.898 Y69.617 E.00443
;WIDTH:0.587591
G1 X167.816 Y69.576 E.00415
;WIDTH:0.548375
G1 X167.739 Y69.53 E.00377
;WIDTH:0.544597
G1 X160.065 Y65.099 E.36965
;WIDTH:0.589964
G1 X159.967 Y65.047 E.00505
;WIDTH:0.635332
G1 X159.869 Y64.995 E.00546
;WIDTH:0.662606
G1 X159.813 Y64.936 E.00419
;WIDTH:0.689879
G1 X159.757 Y64.878 E.00434
G1 X159.756 Y64.797 E.00436
;WIDTH:0.650988
G1 X159.756 Y64.716 E.0041
;WIDTH:0.612097
G1 X159.756 Y64.636 E.00379
;WIDTH:0.573206
G1 X159.756 Y64.555 E.00357
;WIDTH:0.534315
G1 X159.76 Y64.401 E.00629
;WIDTH:0.525777
G1 X159.76 Y55.639 E.35179
;WIDTH:0.532745
G1 X159.767 Y55.528 E.00453
M73 P2 R74
G1 X159.823 Y55.448 E.00398
;WIDTH:0.495163
G1 X159.879 Y55.368 E.00367
;WIDTH:0.457581
G1 X159.935 Y55.288 E.00337
;WIDTH:0.419999
G1 X160.171 Y55.106 E.00934
G1 X167.817 Y50.692 E.27682
M73 Q2 S75
G1 X168.1 Y50.616 E.00919
G1 X168.383 Y50.692 E.00919
G1 X171.483 Y52.482 E.11224
G1 X171.69 Y52.689 E.00918
G1 X171.762 Y52.901 E.00702
G1 X171.857 Y53.591 E.02184
G1 X171.989 Y54.131 E.01743
G1 X172.175 Y54.654 E.0174
G1 X172.419 Y55.165 E.01775
G1 X172.702 Y55.631 E.01709
G1 X173.036 Y56.075 E.01742
G1 X173.414 Y56.482 E.01742
G1 X173.832 Y56.849 E.01744
G1 X174.285 Y57.171 E.01743
G1 X174.768 Y57.445 E.01741
G1 X175.276 Y57.67 E.01742
G1 X175.996 Y57.903 E.02373
G1 X176.145 Y57.977 E.00522
G1 X176.273 Y58.101 E.00559
G1 X176.387 Y58.441 E.01124
G1 X176.385 Y64.566 E.19204
M204 S1000
G1 X176.01 Y64.555 F10800
M204 S800
;TYPE:External perimeter
G1 F1200
G1 X175.969 Y64.673 E.00392
G1 X175.877 Y64.741 E.00359
G1 X168.194 Y69.177 E.27816
G1 X168.049 Y69.195 E.00458
G1 X167.959 Y69.149 E.00317
G1 X160.284 Y64.719 E.27785
G1 X160.196 Y64.604 E.00454
G1 X160.19 Y55.639 E.28109
G1 X160.231 Y55.522 E.00389
G1 X160.359 Y55.433 E.00489
G1 X168.006 Y51.018 E.27686
G1 X168.144 Y50.998 E.00437
G1 X168.194 Y51.018 E.00169
G1 X171.295 Y52.808 E.11227
G1 X171.387 Y52.945 E.00517
G1 X171.487 Y53.662 E.0227
G1 X171.627 Y54.239 E.01862
G1 X171.826 Y54.798 E.0186
G1 X172.087 Y55.344 E.01897
G1 X172.389 Y55.843 E.01829
G1 X172.747 Y56.317 E.01862
G1 X173.151 Y56.753 E.01864
G1 X173.598 Y57.145 E.01864
G1 X174.082 Y57.489 E.01862
G1 X174.598 Y57.783 E.01862
G1 X175.142 Y58.022 E.01863
G1 X175.88 Y58.262 E.02433
G1 X175.972 Y58.328 E.00355
G1 X176.01 Y58.576 E.00787
G1 X176.01 Y64.495 E.18559
M204 S1000
G1 X176.102 Y64.64 F10800
;WIPE_START
G1 F8640
G1 X175.969 Y64.673 E-.04218
G1 X175.877 Y64.741 E-.02642
G1 X173.134 Y66.325 E-.7314
;WIPE_END
G1 Z.6 F720
G1 X167.708 Y79.625 F10800
G1 Z.2 F720
G1 E.8 F2100
M204 S800
;TYPE:Perimeter
;WIDTH:0.498325
G1 F1200
G1 X167.674 Y79.681 E.00248
;WIDTH:0.459162
G1 X167.612 Y79.782 E.0041
;WIDTH:0.419999
G1 X167.457 Y79.914 E.00638
G1 X159.733 Y84.374 E.27965
G1 X159.445 Y84.448 E.00932
G1 X159.17 Y84.372 E.00895
G1 X151.448 Y79.914 E.27957
G1 X151.278 Y79.762 E.00715
;WIDTH:0.456468
G1 X151.223 Y79.667 E.00377
;WIDTH:0.492937
G1 X151.168 Y79.573 E.00408
;WIDTH:0.529406
G1 X151.113 Y79.478 E.00444
G1 X151.113 Y79.424 E.00218
;WIDTH:0.52612
G1 X151.113 Y70.508 E.35823
G1 X151.316 Y70.069 E.01943
;WIDTH:0.54078
G1 X151.362 Y70.008 E.00316
;WIDTH:0.583854
G1 X151.408 Y69.947 E.00344
G1 X151.528 Y69.881 E.00616
;WIDTH:0.578701
G1 X159.13 Y65.492 E.39106
;WIDTH:0.61576
G1 X159.242 Y65.444 E.0058
;WIDTH:0.65282
G1 X159.353 Y65.397 E.00611
;WIDTH:0.689879
G1 X159.464 Y65.35 E.00648
G1 X159.542 Y65.374 E.00439
;WIDTH:0.662606
G1 X159.619 Y65.398 E.00416
;WIDTH:0.635332
G1 X159.717 Y65.466 E.00588
;WIDTH:0.589964
G1 X159.814 Y65.534 E.00539
