; generated by PrusaSlicer 2.6.0+win64 on 2023-09-15 at 14:03:10 UTC


;
;
; 

; external perimeters extrusion width = 0.60mm
; perimeters extrusion width = 0.50mm
; infill extrusion width = 0.50mm
; solid infill extrusion width = 0.50mm
; top infill extrusion width = 0.45mm
; first layer extrusion width = 0.42mm

; external perimeters extrusion width = 0.60mm
; perimeters extrusion width = 0.50mm
; infill extrusion width = 0.50mm
; solid infill extrusion width = 0.50mm
; top infill extrusion width = 0.45mm
; first layer extrusion width = 0.42mm

M73 P0 R119
M73 Q0 S120
M201 X1000 Y1000 Z200 E5000 ; sets maximum accelerations, mm/sec^2
M203 X200 Y200 Z12 E120 ; sets maximum feedrates, mm / sec
M204 S1250 T1250 ; sets acceleration (S) and retract acceleration (R), mm/sec^2
M205 X8.00 Y8.00 Z0.40 E4.50 ; sets the jerk limits, mm/sec
M205 S0 T0 ; sets the minimum extruding and travel feed rate, mm/sec
;TYPE:Custom
M862.3 P "MK3S" ; printer model check
M862.1 P0.4 ; nozzle diameter check
M115 U3.12.2 ; tell printer latest fw version
G90 ; use absolute coordinates
M83 ; extruder relative mode
M104 S215 ; set extruder temp
M140 S60 ; set bed temp
M190 S60 ; wait for bed temp
M109 S215 ; wait for extruder temp
G28 W ; home all without mesh bed level
G80 ; mesh bed leveling

G1 Z0.2 F720
G1 Y-3 F1000 ; go outside print area
G92 E0
G1 X60 E9 F1000 ; intro line
G1 X100 E12.5 F1000 ; intro line

G92 E0
M221 S95

; Don't change E values below. Excessive value can damage the printer.

M907 E538 ; set extruder motor current
G21 ; set units to millimeters
G90 ; use absolute coordinates
M83 ; use relative distances for extrusion
M900 K0.05 ; Filament gcode LA 1.5
M900 K30 ; Filament gcode LA 1.0
M107
;LAYER_CHANGE
;Z:0.2
;HEIGHT:0.2
;BEFORE_LAYER_CHANGE
G92 E0.0
;0.2


G1 E-.8 F2100
G1 Z.4 F720
;AFTER_LAYER_CHANGE
;0.2
G1 X78.211 Y37.609 F10800
G1 Z.2 F720
G1 E.8 F2100
M204 S800
;TYPE:Skirt/Brim
;WIDTH:0.42
G1 F1200
G1 X78.787 Y36.839 E.03015
G1 X79.759 Y36.06 E.03906
G1 X80.911 Y35.587 E.03905
G1 X81.98 Y35.452 E.03378
G1 X158.149 Y35.458 E2.38823
G1 X158.769 Y35.527 E.01956
G1 X159.641 Y35.783 E.02849
G1 X160.2 Y36.06 E.01956
G1 X160.97 Y36.637 E.03017
G1 X161.394 Y37.095 E.01957
G1 X161.885 Y37.859 E.02848
G1 X162.221 Y38.76 E.03015
G1 X162.351 Y39.66 E.02851
G1 X162.357 Y100.829 E1.91791
G1 X158.063 Y175.111 E2.33295
G1 X157.868 Y176.092 E.03136
G1 X157.577 Y176.757 E.02276
G1 X157.02 Y177.521 E.02965
G1 X156.06 Y178.264 E.03806
G1 X155.033 Y178.645 E.03435
G1 X154.251 Y178.738 E.02469
G1 X78.194 Y178.738 E2.38471
G1 X77.378 Y178.637 E.02578
G1 X76.232 Y178.184 E.03864
G1 X75.583 Y177.687 E.02563
G1 X74.923 Y176.874 E.03283
G1 X74.47 Y175.729 E.03861
G1 X74.369 Y174.913 E.02578
G1 X74.369 Y113.863 E1.91418
G1 X77.605 Y39.725 E2.32676
G1 X77.738 Y38.76 E.03054
G1 X78.188 Y37.664 E.03715
M204 S1000
; printing object wind_sim_box.stl id:0 copy 0
;WIPE_START
G1 F8640
G1 X78.787 Y36.839 E-.23541
G1 X79.759 Y36.06 E-.28762
G1 X80.869 Y35.604 E-.27697
;WIPE_END
G1 Z.6 F720
G1 X136.064 Y144.278 F10800
G1 Z.2 F720
G1 E.8 F2100
M204 S800
;TYPE:Perimeter
;WIDTH:0.425956
G1 F1200
G1 X136.005 Y144.468 E.00634
G1 X136.014 Y144.778 E.00988
;WIDTH:0.419999
G1 X136.021 Y148.024 E.10178
G1 X134.758 Y144.684 E.11196
G1 X134.929 Y144.255 E.01448
G1 X134.995 Y144.242 E.00211
G1 X135.275 Y144.287 E.00889
;WIDTH:0.425956
G1 X135.888 Y144.372 E.01971
G1 X136.011 Y144.306 E.00445
M204 S1000
;WIPE_START
G1 F8640
G1 X136.005 Y144.468 E-.03743
G1 X136.014 Y144.778 E-.07161
G1 X136.02 Y147.77 E-.69096
;WIPE_END
G1 Z.6 F720
G1 X136.078 Y150.512 F10800
G1 Z.2 F720
G1 E.8 F2100
M204 S800
;WIDTH:0.419999
G1 F1200
G1 X135.504 Y150.607 E.01824
G1 X134.821 Y150.654 E.02147
G1 X134.559 Y150.608 E.00834
G1 X134.354 Y150.455 E.00802
G1 X134.253 Y150.281 E.00631
G1 X133.583 Y148.423 E.06193
G1 X133.481 Y148.072 E.01146
G1 X133.375 Y148.422 E.01147
G1 X132.697 Y150.289 E.06228
G1 X132.508 Y150.546 E.01
G1 X132.394 Y150.613 E.00415
G1 X132.165 Y150.661 E.00734
G1 X130.813 Y150.661 E.04239
G1 X130.568 Y150.606 E.00787
G1 X130.365 Y150.441 E.0082
G1 X130.253 Y150.176 E.00902
G1 X130.283 Y149.898 E.00877
G1 X132.48 Y144.024 E.19664
G1 X132.883 Y143.094 E.03178
G1 X133.184 Y142.62 E.01761
G1 X133.625 Y142.188 E.01936
G1 X134.063 Y141.946 E.01569
G1 X134.765 Y141.804 E.02246
G1 X135.278 Y141.839 E.01612
G1 X135.782 Y141.978 E.01639
G1 X135.999 Y142.096 E.00774
G1 X136.164 Y142.345 E.00937
G1 X136.188 Y142.456 E.00356
G1 X136.341 Y143.742 E.04061
G1 X136.275 Y144.022 E.00902
G1 X136.579 Y143.902 E.01025
G1 X137.935 Y143.902 E.04252
G1 X138.175 Y143.955 E.00771
G1 X138.29 Y144.027 E.00425
G1 X138.471 Y144.285 E.00988
G1 X138.501 Y144.47 E.00588
G1 X138.493 Y146.071 E.0502
G1 X139.101 Y144.285 E.05915
G1 X139.281 Y144.027 E.00986
G1 X139.497 Y143.919 E.00757
G1 X139.636 Y143.902 E.00439
G1 X140.807 Y143.902 E.03672
G1 X141.035 Y143.95 E.00731
G1 X141.151 Y144.019 E.00423
G1 X141.344 Y144.289 E.01041
G1 X141.935 Y146.063 E.05863
G1 X141.932 Y144.468 E.05001
G1 X141.961 Y144.289 E.00569
G1 X142.153 Y144.019 E.01039
G1 X142.428 Y143.906 E.00932
G1 X143.853 Y143.902 E.04468
G1 X144.108 Y143.962 E.00821
G1 X144.321 Y144.149 E.00889
G1 X144.412 Y144.381 E.00781
G1 X144.419 Y144.467 E.00271
G1 X144.419 Y152.068 E.23832
G1 X144.362 Y152.316 E.00798
G1 X144.22 Y152.499 E.00726
G1 X143.998 Y152.615 E.00785
G1 X142.047 Y152.634 E.06118
G1 X141.791 Y152.573 E.00825
G1 X141.594 Y152.408 E.00806
G1 X141.51 Y152.247 E.00569
G1 X140.233 Y148.407 E.12688
G1 X140.16 Y148.13 E.00898
G1 X140.061 Y148.478 E.01134
G1 X138.768 Y152.252 E.12508
G1 X138.603 Y152.496 E.00924
G1 X138.339 Y152.624 E.0092
G1 X138.233 Y152.634 E.00334
G1 X136.579 Y152.634 E.05186
G1 X136.301 Y152.561 E.00901
G1 X136.114 Y152.39 E.00795
G1 X136.024 Y152.175 E.00731
G1 X136.031 Y151.172 E.03145
G1 X136.074 Y150.572 E.01886
M204 S1000
G1 X136.169 Y150.004 F10800
M204 S800
;TYPE:External perimeter
G1 F1200
G1 X136.028 Y150.138 E.0061
G1 X135.443 Y150.235 E.01859
G1 X134.797 Y150.277 E.0203
G1 X134.672 Y150.24 E.00409
G1 X134.608 Y150.153 E.00339
G1 X133.937 Y148.292 E.06203
G1 X133.801 Y147.813 E.01561
G1 X133.652 Y146.923 E.02829
G1 X133.477 Y146.421 E.01667
G1 X133.323 Y146.902 E.01584
G1 X133.163 Y147.813 E.029
G1 X133.021 Y148.294 E.01572
G1 X132.343 Y150.16 E.06225
G1 X132.242 Y150.268 E.00464
G1 X130.813 Y150.284 E.04481
G1 X130.663 Y150.211 E.00523
G1 X130.625 Y150.112 E.00332
G1 X130.636 Y150.03 E.00259
G1 X132.833 Y144.156 E.19664
G1 X133.229 Y143.245 E.03115
G1 X133.508 Y142.815 E.01607
G1 X133.882 Y142.464 E.01608
G1 X134.282 Y142.267 E.01398
G1 X134.827 Y142.176 E.01732
G1 X135.238 Y142.216 E.01295
G1 X135.719 Y142.357 E.01572
G1 X135.813 Y142.49 E.00511
G1 X135.966 Y143.786 E.04092
;WIDTH:0.468132
G1 X135.976 Y143.841 E.00198
;WIDTH:0.516264
G1 X135.987 Y143.896 E.00221
;WIDTH:0.564396
G1 X135.997 Y143.951 E.00242
G1 X135.965 Y143.99 E.00219
;WIDTH:0.563338
G1 X135.852 Y143.984 E.0049
;WIDTH:0.515559
G1 X135.739 Y143.977 E.00445
;WIDTH:0.467779
G1 X135.626 Y143.971 E.004
;WIDTH:0.419999
G1 X135.017 Y143.853 E.01945
G1 X134.744 Y143.908 E.00873
G1 X134.583 Y144.107 E.00803
G1 X134.354 Y144.68 E.01935
G1 X135.771 Y148.432 E.12575
;WIDTH:0.452686
G1 X135.865 Y148.659 E.00837
;WIDTH:0.485373
G1 X135.958 Y148.885 E.00899
G1 X136.065 Y149.397 E.01924
;WIDTH:0.445002
G1 X136.172 Y149.908 E.01745
;WIDTH:0.404631
G1 X136.171 Y149.944 E.00108
M204 S1000
;WIPE_START
G1 F8640
G1 X136.028 Y150.138 E-.05565
G1 X135.443 Y150.235 E-.13692
G1 X134.797 Y150.277 E-.14948
G1 X134.672 Y150.24 E-.0301
G1 X134.608 Y150.153 E-.02494
G1 X134.016 Y148.512 E-.40291
;WIPE_END
G1 Z.6 F720
G1 X142.309 Y144.468 F10800
G1 Z.2 F720
G1 E.8 F2100
M204 S800
;WIDTH:0.419999
G1 F1200
G1 X142.382 Y144.318 E.00523
G1 X142.497 Y144.279 E.00381
G1 X143.853 Y144.279 E.04252
G1 X143.993 Y144.341 E.0048
G1 X144.042 Y144.467 E.00424
G1 X144.042 Y152.068 E.23832
G1 X143.976 Y152.212 E.00497
G1 X143.853 Y152.257 E.00411
G1 X142.047 Y152.257 E.05663
G1 X141.923 Y152.211 E.00415
G1 X141.868 Y152.128 E.00312
G1 X140.591 Y148.288 E.12688
G1 X140.465 Y147.802 E.01574
G1 X140.324 Y146.93 E.0277
G1 X140.16 Y146.42 E.0168
G1 X139.994 Y146.917 E.01643
G1 X139.843 Y147.861 E.02997
G1 X139.708 Y148.346 E.01578
G1 X138.412 Y152.13 E.12541
G1 X138.297 Y152.246 E.00512
G1 X138.233 Y152.257 E.00204
G1 X136.579 Y152.257 E.05186
G1 X136.468 Y152.221 E.00366
G1 X136.394 Y152.104 E.00434
G1 X136.408 Y151.179 E.02901
G1 X136.454 Y150.546 E.0199
G1 X136.528 Y150.017 E.01675
;WIDTH:0.404631
G1 X136.528 Y149.848 E.00508
;WIDTH:0.445002
G1 X136.46 Y149.33 E.01747
;WIDTH:0.485373
G1 X136.393 Y148.811 E.01925
G1 X136.395 Y148.564 E.00909
;WIDTH:0.452686
G1 X136.398 Y148.317 E.00842
;WIDTH:0.419999
G1 X136.391 Y144.777 E.11099
;WIDTH:0.468132
G1 X136.393 Y144.612 E.00583
;WIDTH:0.516264
G1 X136.395 Y144.446 E.00653
;WIDTH:0.564396
G1 X136.397 Y144.281 E.00716
G1 X136.458 Y144.28 E.00265
;WIDTH:0.516264
G1 X136.519 Y144.28 E.0024
;WIDTH:0.468132
G1 X136.579 Y144.279 E.00212
;WIDTH:0.419999
G1 X137.935 Y144.279 E.04252
G1 X138.054 Y144.321 E.00396
G1 X138.124 Y144.468 E.0051
;WIDTH:0.464184
G1 X138.134 Y146.688 E.07776
G1 X138.099 Y147.202 E.01805
;WIDTH:0.462509
G1 X137.941 Y148.186 E.03477
;WIDTH:0.428039
G1 X137.932 Y149.397 E.03878
G1 X138.306 Y148.318 E.03657
;WIDTH:0.460886
G1 X138.508 Y147.29 E.03641
;WIDTH:0.469324
G1 X138.629 Y146.771 E.01889
;WIDTH:0.464184
G1 X139.366 Y144.677 E.07776
;WIDTH:0.419999
G1 X139.518 Y144.321 E.01214
G1 X139.636 Y144.279 E.00393
G1 X140.807 Y144.279 E.03672
G1 X140.922 Y144.318 E.00381
G1 X141.073 Y144.669 E.01198
G1 X141.742 Y146.678 E.06639
;WIDTH:0.463849
G1 X141.9 Y147.138 E.01702
G1 X142.123 Y148.373 E.04392
;WIDTH:0.417697
G1 X142.51 Y149.519 E.03769
G1 X142.51 Y148.452 E.03325
;WIDTH:0.446307
G1 X142.358 Y147.352 E.03725
G1 X142.313 Y146.849 E.01694
;WIDTH:0.443871
G1 X142.313 Y146.565 E.00947
;WIDTH:0.419999
G1 X142.309 Y144.528 E.06387
M204 S1000
;WIPE_START
G1 F8640
G1 X142.382 Y144.318 E-.05134
G1 X142.497 Y144.279 E-.02804
G1 X143.853 Y144.279 E-.3131
G1 X143.993 Y144.341 E-.03535
G1 X144.042 Y144.467 E-.03122
G1 X144.042 Y145.944 E-.34095
;WIPE_END
G1 Z.6 F720
G1 X106.013 Y143.924 F10800
G1 Z.2 F720
G1 E.8 F2100
M204 S800
;TYPE:Perimeter
G1 F1200
G1 X106.567 Y143.961 E.01741
G1 X106.793 Y143.997 E.00718
G1 X107.33 Y144.186 E.01785
G1 X107.378 Y144.252 E.00256
G1 X107.829 Y143.951 E.017
G1 X108.32 Y143.815 E.01597
G1 X108.514 Y143.798 E.00611
G1 X109.014 Y143.842 E.01574
G1 X109.546 Y143.998 E.01738
G1 X110.039 Y144.252 E.01739
G1 X110.495 Y144.629 E.01855
G1 X110.847 Y145.049 E.01718
G1 X110.948 Y145.225 E.00636
G1 X110.945 Y144.47 E.02367
G1 X111.038 Y144.157 E.01024
G1 X111.239 Y143.972 E.00857
G1 X111.511 Y143.902 E.00881
G1 X112.833 Y143.902 E.04145
G1 X113.058 Y143.948 E.0072
G1 X113.281 Y144.123 E.00889
G1 X113.398 Y144.467 E.01139
G1 X113.398 Y147.83 E.10544
G1 X113.45 Y148.332 E.01582
M73 Q0 S119
G1 X113.592 Y148.427 E.00536
G1 X113.934 Y148.393 E.01078
G1 X114.099 Y148.295 E.00602
G1 X114.232 Y148.045 E.00888
G1 X114.28 Y147.493 E.01737
G1 X114.28 Y144.467 E.09488
G1 X114.397 Y144.123 E.01139
G1 X114.621 Y143.948 E.00891
G1 X114.846 Y143.902 E.0072
G1 X116.168 Y143.902 E.04145
G1 X116.451 Y143.978 E.00919
G1 X116.615 Y144.263 E.01031
G1 X116.779 Y143.978 E.01031
G1 X117.063 Y143.902 E.00922
G1 X118.385 Y143.902 E.04145
G1 X118.618 Y143.952 E.00747
G1 X118.801 Y144.085 E.00709
G1 X118.93 Y144.318 E.00835
G1 X118.95 Y144.468 E.00474
G1 X118.944 Y148.868 E.13796
G1 X120.188 Y144.318 E.1479
G1 X120.317 Y144.085 E.00835
G1 X120.578 Y143.924 E.00962
G1 X120.733 Y143.902 E.00491
G1 X121.984 Y143.902 E.03922
G1 X122.218 Y143.953 E.00751
G1 X122.435 Y144.126 E.0087
G1 X122.53 Y144.318 E.00672
G1 X123.543 Y148.032 E.1207
G1 X124.564 Y144.318 E.12077
G1 X124.658 Y144.126 E.0067
G1 X124.875 Y143.953 E.0087
G1 X125.109 Y143.902 E.00751
G1 X126.415 Y143.902 E.04095
G1 X126.684 Y143.97 E.0087
G1 X126.834 Y144.088 E.00598
G1 X126.961 Y144.322 E.00835
G1 X128.978 Y151.923 E.24657
G1 X128.987 Y152.174 E.00787
G1 X128.877 Y152.417 E.00836
G1 X128.652 Y152.589 E.00888
G1 X128.431 Y152.634 E.00707
G1 X126.996 Y152.634 E.04499
G1 X126.746 Y152.576 E.00805
G1 X126.568 Y152.438 E.00706
G1 X126.445 Y152.196 E.00851
G1 X125.712 Y148.995 E.10296
G1 X124.808 Y152.221 E.10505
G1 X124.691 Y152.438 E.00773
G1 X124.465 Y152.597 E.00866
G1 X124.263 Y152.634 E.00644
G1 X122.786 Y152.634 E.04631
G1 X122.535 Y152.575 E.00808
M73 P0 R118
G1 X122.357 Y152.438 E.00704
G1 X122.227 Y152.171 E.00931
G1 X121.363 Y149.062 E.10117
G1 X121.327 Y149.274 E.00674
G1 X120.606 Y152.195 E.09433
G1 X120.483 Y152.431 E.00834
G1 X120.256 Y152.588 E.00865
G1 X120.006 Y152.623 E.00792
G1 X119.357 Y152.565 E.02043
G1 X118.763 Y152.407 E.01927
G1 X118.627 Y152.349 E.00464
G1 X118.55 Y152.226 E.00455
G1 X118.473 Y152.349 E.00455
G1 X117.892 Y152.543 E.01921
G1 X117.124 Y152.621 E.0242
G1 X116.849 Y152.575 E.00874
G1 X116.639 Y152.416 E.00826
G1 X116.521 Y152.165 E.0087
G1 X116.512 Y151.508 E.0206
;WIDTH:0.458896
G1 X116.604 Y150.653 E.02974
;WIDTH:0.507104
G1 X116.642 Y150.454 E.00782
G1 X116.479 Y150.574 E.00781
;WIDTH:0.458896
G1 X116.103 Y150.65 E.01327
;WIDTH:0.419999
G1 X115.493 Y150.592 E.01921
G1 X114.953 Y150.426 E.01771
G1 X114.808 Y150.252 E.0071
G1 X114.341 Y150.558 E.01751
G1 X114.159 Y150.636 E.00621
G1 X113.64 Y150.757 E.01671
G1 X112.981 Y150.733 E.02068
G1 X112.393 Y150.569 E.01914
G1 X111.91 Y150.315 E.01711
G1 X111.531 Y149.968 E.01611
G1 X111.365 Y149.756 E.00844
G1 X111.087 Y149.148 E.02096
G1 X110.952 Y149.406 E.00913
G1 X110.645 Y149.832 E.01646
G1 X110.157 Y150.27 E.02056
G1 X109.535 Y150.578 E.02176
G1 X109.273 Y150.677 E.00878
G1 X108.848 Y150.745 E.0135
G1 X108.36 Y150.729 E.01531
G1 X107.897 Y150.603 E.01504
G1 X107.75 Y150.524 E.00523
G1 X107.842 Y151.156 E.02002
G1 X107.863 Y151.753 E.01873
G1 X107.842 Y152.231 E.015
G1 X107.703 Y152.465 E.00853
G1 X107.457 Y152.612 E.00899
G1 X107.301 Y152.634 E.00494
G1 X105.984 Y152.634 E.04129
G1 X105.766 Y152.591 E.00697
G1 X105.54 Y152.42 E.00889
G1 X105.428 Y152.174 E.00847
G1 X105.429 Y144.475 E.2414
G1 X105.48 Y144.242 E.00748
G1 X105.646 Y144.031 E.00842
G1 X105.909 Y143.917 E.00899
G1 X105.954 Y143.92 E.00141
M204 S1000
G1 X106.012 Y144.288 F10800
M204 S800
;TYPE:External perimeter
G1 F1200
G1 X106.635 Y144.346 E.01962
G1 X107.138 Y144.511 E.0166
G1 X107.231 Y144.676 E.00594
G1 X107.231 Y144.805 E.00404
G1 X107.363 Y144.69 E.00549
G1 X108.003 Y144.289 E.02368
G1 X108.481 Y144.174 E.01541
G1 X108.981 Y144.218 E.01574
G1 X109.375 Y144.334 E.01288
G1 X109.835 Y144.569 E.0162
G1 X110.252 Y144.917 E.01703
G1 X110.52 Y145.237 E.01309
G1 X110.777 Y145.684 E.01617
;WIDTH:0.449092
G1 X110.934 Y146.109 E.0153
G1 X111.017 Y146.988 E.02982
;WIDTH:0.423635
G1 X110.998 Y148.031 E.03302
G1 X110.884 Y148.55 E.01682
;WIDTH:0.419999
G1 X110.789 Y148.898 E.01131
G1 X110.646 Y149.185 E.01005
G1 X110.339 Y149.612 E.01649
G1 X109.912 Y149.984 E.01776
G1 X109.207 Y150.306 E.0243
G1 X108.843 Y150.368 E.01158
G1 X108.46 Y150.366 E.01201
G1 X107.923 Y150.2 E.01762
G1 X107.722 Y150.043 E.008
G1 X107.551 Y149.963 E.00592
G1 X107.289 Y149.764 E.01032
G1 X107.308 Y150.213 E.01409
G1 X107.448 Y150.953 E.02361
G1 X107.486 Y151.756 E.02521
G1 X107.462 Y152.164 E.01281
G1 X107.3 Y152.257 E.00586
G1 X105.984 Y152.257 E.04126
G1 X105.911 Y152.243 E.00233
G1 X105.802 Y152.12 E.00515
G1 X105.806 Y144.476 E.23967
G1 X105.878 Y144.328 E.00516
G1 X105.954 Y144.305 E.00249
M204 S1000
G1 X106.145 Y143.911 F10800
;WIPE_START
G1 F8640
G1 X106.635 Y144.346 E-.15753
G1 X107.138 Y144.511 E-.12223
G1 X107.231 Y144.676 E-.04373
G1 X107.231 Y144.805 E-.02979
G1 X107.363 Y144.69 E-.04042
G1 X108.003 Y144.289 E-.17439
G1 X108.481 Y144.174 E-.11352
G1 X108.981 Y144.218 E-.1159
G1 X108.991 Y144.221 E-.00249
;WIPE_END
G1 Z.6 F720
G1 X95.519 Y150.454 F10800
G1 Z.2 F720
G1 E.8 F2100
M204 S800
;TYPE:Perimeter
;WIDTH:0.507666
G1 F1200
G1 X95.357 Y150.573 E.00777
;WIDTH:0.459523
G1 X94.98 Y150.649 E.01332
;WIDTH:0.419999
G1 X94.373 Y150.592 E.01912
