; generated by PrusaSlicer 2.5.2+win64 on 2023-05-19 at 08:02:31 UTC


;
;
; 

; external perimeters extrusion width = 0.60mm
; perimeters extrusion width = 0.50mm
; infill extrusion width = 0.50mm
; solid infill extrusion width = 0.50mm
; top infill extrusion width = 0.45mm
; first layer extrusion width = 0.42mm

M73 P0 R125
M73 Q0 S126
M201 X1000 Y1000 Z200 E5000 ; sets maximum accelerations, mm/sec^2
M203 X200 Y200 Z12 E120 ; sets maximum feedrates, mm / sec
M204 P1250 R1250 T1250 ; sets acceleration (P, T) and retract acceleration (R), mm/sec^2
M205 X8.00 Y8.00 Z0.40 E4.50 ; sets the jerk limits, mm/sec
M205 S0 T0 ; sets the minimum extruding and travel feed rate, mm/sec
M107
;TYPE:Custom
M862.3 P "MK3S" ; printer model check
M862.1 P0.4 ; nozzle diameter check
M115 U3.11.0 ; tell printer latest fw version
G90 ; use absolute coordinates
M83 ; extruder relative mode
M104 S215 ; set extruder temp
M140 S60 ; set bed temp
M190 S60 ; wait for bed temp
M109 S215 ; wait for extruder temp
G28 W ; home all without mesh bed level
G80 ; mesh bed leveling

G1 Z0.2 F720
G1 Y-3 F1000 ; go outside print area
G92 E0
G1 X60 E9 F1000 ; intro line
G1 X100 E12.5 F1000 ; intro line

G92 E0
M221 S95

; Don't change E values below. Excessive value can damage the printer.

M907 E538 ; set extruder motor current
G21 ; set units to millimeters
G90 ; use absolute coordinates
M83 ; use relative distances for extrusion
M900 K0.05 ; Filament gcode LA 1.5
M900 K30 ; Filament gcode LA 1.0
M107
;LAYER_CHANGE
;Z:0.2
;HEIGHT:0.2
;BEFORE_LAYER_CHANGE
G92 E0.0
;0.2


G1 E-.8 F2100
G1 Z.4 F720
;AFTER_LAYER_CHANGE
;0.2
G1 X69.515 Y56.693 F10800
G1 Z.2 F720
G1 E.8 F2100
M204 S800
;TYPE:Skirt/Brim
;WIDTH:0.42
G1 F1200
G1 X70.56 Y55.817 E.04278
G1 X71.5 Y55.623 E.03008
G1 X178.5 Y55.623 E3.35491
G1 X179.807 Y56.015 E.04278
G1 X180.683 Y57.06 E.04278
G1 X180.877 Y58 E.03008
G1 X180.877 Y99 E1.28553
G1 X178.875 Y152.09 E1.66577
G1 X178.435 Y153.381 E.04278
G1 X177.357 Y154.217 E.04278
G1 X176.5 Y154.377 E.02733
G1 X71.5 Y154.377 E3.2922
G1 X70.193 Y153.985 E.04278
G1 X69.317 Y152.94 E.04278
G1 X69.123 Y152 E.03008
G1 X69.123 Y58 E2.9473
G1 X69.497 Y56.75 E.0409
M204 S1000
; printing object Lukas_Taschenlampe_Schalter_seitlich.stl id:0 copy 0
;WIPE_START
G1 F8640
G1 X70.56 Y55.817 E-.32671
G1 X71.5 Y55.623 E-.22155
G1 X72.417 Y55.623 E-.21174
;WIPE_END
G1 E-.04 F2100
G1 Z.6 F720
G1 X175.713 Y114.987 F10800
G1 Z.2 F720
G1 E.8 F2100
M204 S800
;TYPE:Perimeter
;WIDTH:0.419999
G1 F1200
G1 X175.713 Y151.213 E1.13583
G1 X72.287 Y151.213 E3.24284
G1 X72.287 Y114.987 E1.13583
M73 P0 R124
G1 X175.653 Y114.987 E3.24096
M204 S1000
G1 X176.09 Y114.61 F10800
M204 S800
;TYPE:External perimeter
G1 F1200
G1 X176.09 Y151.59 E1.15948
G1 X71.91 Y151.59 E3.26649
G1 X71.91 Y114.61 E1.15948
G1 X176.03 Y114.61 E3.2646
M204 S1000
M73 Q0 S125
G1 X175.931 Y114.977 F10800
;WIPE_START
G1 F8640
G1 X176.035 Y117.901 E-.76
;WIPE_END
G1 E-.04 F2100
G1 Z.6 F720
G1 X174.837 Y115.1 F10800
G1 Z.2 F720
G1 E.8 F2100
M204 S800
;TYPE:Solid infill
;WIDTH:0.420245
G1 F1200
G1 X175.43 Y115.693 E.02632
G1 X175.43 Y116.227 E.01674
G1 X174.473 Y115.27 E.04246
G1 X173.939 Y115.27 E.01674
G1 X175.43 Y116.761 E.06614
G1 X175.43 Y117.294 E.01674
G1 X173.406 Y115.27 E.08982
G1 X172.872 Y115.27 E.01674
G1 X175.43 Y117.828 E.1135
G1 X175.43 Y118.361 E.01674
G1 X172.339 Y115.27 E.13717
G1 X171.805 Y115.27 E.01674
G1 X175.43 Y118.895 E.16085
G1 X175.43 Y119.429 E.01674
G1 X171.271 Y115.27 E.18453
G1 X170.738 Y115.27 E.01674
G1 X175.43 Y119.962 E.2082
G1 X175.43 Y120.496 E.01674
G1 X170.204 Y115.27 E.23188
G1 X169.671 Y115.27 E.01674
G1 X175.43 Y121.029 E.25556
G1 X175.43 Y121.563 E.01674
G1 X169.137 Y115.27 E.27923
G1 X168.603 Y115.27 E.01674
G1 X175.43 Y122.097 E.30291
G1 X175.43 Y122.63 E.01674
G1 X168.07 Y115.27 E.32659
G1 X167.536 Y115.27 E.01674
G1 X175.43 Y123.164 E.35026
G1 X175.43 Y123.698 E.01674
G1 X167.002 Y115.27 E.37394
G1 X166.469 Y115.27 E.01674
G1 X175.43 Y124.231 E.39762
G1 X175.43 Y124.765 E.01674
G1 X165.935 Y115.27 E.42129
G1 X165.402 Y115.27 E.01674
G1 X175.43 Y125.298 E.44497
G1 X175.43 Y125.832 E.01674
G1 X164.868 Y115.27 E.46865
G1 X164.334 Y115.27 E.01674
G1 X175.43 Y126.366 E.49233
G1 X175.43 Y126.899 E.01674
G1 X163.801 Y115.27 E.516
G1 X163.267 Y115.27 E.01674
G1 X175.43 Y127.433 E.53968
G1 X175.43 Y127.967 E.01674
G1 X162.733 Y115.27 E.56336
G1 X162.2 Y115.27 E.01674
G1 X175.43 Y128.5 E.58703
G1 X175.43 Y129.034 E.01674
G1 X161.666 Y115.27 E.61071
G1 X161.133 Y115.27 E.01674
G1 X175.43 Y129.567 E.63439
G1 X175.43 Y130.101 E.01674
G1 X160.599 Y115.27 E.65806
G1 X160.065 Y115.27 E.01674
G1 X175.43 Y130.635 E.68174
G1 X175.43 Y131.168 E.01674
G1 X159.532 Y115.27 E.70542
G1 X158.998 Y115.27 E.01674
M73 P1 R124
M73 Q1 S125
G1 X175.43 Y131.702 E.72909
G1 X175.43 Y132.235 E.01674
G1 X158.465 Y115.27 E.75277
G1 X157.931 Y115.27 E.01674
G1 X175.43 Y132.769 E.77645
G1 X175.43 Y133.303 E.01674
G1 X157.397 Y115.27 E.80013
G1 X156.864 Y115.27 E.01674
G1 X175.43 Y133.836 E.8238
G1 X175.43 Y134.37 E.01674
G1 X156.33 Y115.27 E.84748
G1 X155.796 Y115.27 E.01674
G1 X175.43 Y134.904 E.87116
G1 X175.43 Y135.437 E.01674
G1 X155.263 Y115.27 E.89483
G1 X154.729 Y115.27 E.01674
G1 X175.43 Y135.971 E.91851
G1 X175.43 Y136.504 E.01674
G1 X154.196 Y115.27 E.94219
G1 X153.662 Y115.27 E.01674
G1 X175.43 Y137.038 E.96586
G1 X175.43 Y137.572 E.01674
G1 X153.128 Y115.27 E.98954
G1 X152.595 Y115.27 E.01674
G1 X175.43 Y138.105 E1.01322
G1 X175.43 Y138.639 E.01674
G1 X152.061 Y115.27 E1.03689
G1 X151.528 Y115.27 E.01674
M73 P1 R123
G1 X175.43 Y139.172 E1.06057
G1 X175.43 Y139.706 E.01674
G1 X150.994 Y115.27 E1.08425
G1 X150.46 Y115.27 E.01674
G1 X175.43 Y140.24 E1.10793
G1 X175.43 Y140.773 E.01674
G1 X149.927 Y115.27 E1.1316
G1 X149.393 Y115.27 E.01674
G1 X175.43 Y141.307 E1.15528
G1 X175.43 Y141.841 E.01674
G1 X148.859 Y115.27 E1.17896
G1 X148.326 Y115.27 E.01674
G1 X175.43 Y142.374 E1.20263
G1 X175.43 Y142.908 E.01674
G1 X147.792 Y115.27 E1.22631
G1 X147.259 Y115.27 E.01674
M73 Q1 S124
G1 X175.43 Y143.441 E1.24999
G1 X175.43 Y143.975 E.01674
G1 X146.725 Y115.27 E1.27366
G1 X146.191 Y115.27 E.01674
G1 X175.43 Y144.509 E1.29734
G1 X175.43 Y145.042 E.01674
G1 X145.658 Y115.27 E1.32102
G1 X145.124 Y115.27 E.01674
G1 X175.43 Y145.576 E1.34469
G1 X175.43 Y146.11 E.01674
G1 X144.59 Y115.27 E1.36837
G1 X144.057 Y115.27 E.01674
G1 X175.43 Y146.643 E1.39205
G1 X175.43 Y147.177 E.01674
G1 X143.523 Y115.27 E1.41573
G1 X142.99 Y115.27 E.01674
G1 X175.43 Y147.71 E1.4394
G1 X175.43 Y148.244 E.01674
G1 X142.456 Y115.27 E1.46308
G1 X141.922 Y115.27 E.01674
G1 X175.43 Y148.778 E1.48676
G1 X175.43 Y149.311 E.01674
G1 X141.389 Y115.27 E1.51043
G1 X140.855 Y115.27 E.01674
G1 X175.43 Y149.845 E1.53411
G1 X175.43 Y150.378 E.01674
G1 X140.322 Y115.27 E1.55779
G1 X139.788 Y115.27 E.01674
G1 X175.43 Y150.912 E1.58146
G1 X175.43 Y150.93 E.00057
G1 X174.915 Y150.93 E.01618
G1 X139.254 Y115.27 E1.58226
G1 X138.721 Y115.27 E.01674
G1 X174.381 Y150.93 E1.58226
G1 X173.847 Y150.93 E.01674
G1 X138.187 Y115.27 E1.58226
M73 P2 R123
G1 X137.653 Y115.27 E.01674
M73 Q2 S124
G1 X173.314 Y150.93 E1.58226
G1 X172.78 Y150.93 E.01674
M73 P2 R122
G1 X137.12 Y115.27 E1.58226
G1 X136.586 Y115.27 E.01674
G1 X172.246 Y150.93 E1.58226
G1 X171.713 Y150.93 E.01674
G1 X136.053 Y115.27 E1.58226
G1 X135.519 Y115.27 E.01674
G1 X171.179 Y150.93 E1.58226
G1 X170.646 Y150.93 E.01674
G1 X134.985 Y115.27 E1.58226
G1 X134.452 Y115.27 E.01674
G1 X170.112 Y150.93 E1.58226
G1 X169.578 Y150.93 E.01674
M73 Q2 S123
G1 X133.918 Y115.27 E1.58226
G1 X133.385 Y115.27 E.01674
G1 X169.045 Y150.93 E1.58226
G1 X168.511 Y150.93 E.01674
G1 X132.851 Y115.27 E1.58226
G1 X132.317 Y115.27 E.01674
G1 X167.978 Y150.93 E1.58226
G1 X167.444 Y150.93 E.01674
G1 X131.784 Y115.27 E1.58226
G1 X131.25 Y115.27 E.01674
G1 X166.91 Y150.93 E1.58226
G1 X166.377 Y150.93 E.01674
G1 X130.716 Y115.27 E1.58226
G1 X130.183 Y115.27 E.01674
G1 X165.843 Y150.93 E1.58226
G1 X165.309 Y150.93 E.01674
G1 X129.649 Y115.27 E1.58226
G1 X129.116 Y115.27 E.01674
G1 X164.776 Y150.93 E1.58226
G1 X164.242 Y150.93 E.01674
G1 X128.582 Y115.27 E1.58226
G1 X128.048 Y115.27 E.01674
G1 X163.709 Y150.93 E1.58226
G1 X163.175 Y150.93 E.01674
G1 X127.515 Y115.27 E1.58226
G1 X126.981 Y115.27 E.01674
G1 X162.641 Y150.93 E1.58226
G1 X162.108 Y150.93 E.01674
G1 X126.447 Y115.27 E1.58226
G1 X125.914 Y115.27 E.01674
G1 X161.574 Y150.93 E1.58226
G1 X161.04 Y150.93 E.01674
G1 X125.38 Y115.27 E1.58226
G1 X124.847 Y115.27 E.01674
G1 X160.507 Y150.93 E1.58226
G1 X159.973 Y150.93 E.01674
M73 P2 R121
G1 X124.313 Y115.27 E1.58226
G1 X123.779 Y115.27 E.01674
G1 X159.44 Y150.93 E1.58226
G1 X158.906 Y150.93 E.01674
G1 X123.246 Y115.27 E1.58226
G1 X122.712 Y115.27 E.01674
G1 X158.372 Y150.93 E1.58226
G1 X157.839 Y150.93 E.01674
M73 P3 R121
G1 X122.179 Y115.27 E1.58226
G1 X121.645 Y115.27 E.01674
M73 Q3 S123
G1 X157.305 Y150.93 E1.58226
G1 X156.772 Y150.93 E.01674
M73 Q3 S122
G1 X121.111 Y115.27 E1.58226
G1 X120.578 Y115.27 E.01674
G1 X156.238 Y150.93 E1.58226
G1 X155.704 Y150.93 E.01674
G1 X120.044 Y115.27 E1.58226
G1 X119.51 Y115.27 E.01674
G1 X155.171 Y150.93 E1.58226
G1 X154.637 Y150.93 E.01674
G1 X118.977 Y115.27 E1.58226
G1 X118.443 Y115.27 E.01674
G1 X154.103 Y150.93 E1.58226
G1 X153.57 Y150.93 E.01674
G1 X117.91 Y115.27 E1.58226
G1 X117.376 Y115.27 E.01674
G1 X153.036 Y150.93 E1.58226
G1 X152.503 Y150.93 E.01674
G1 X116.842 Y115.27 E1.58226
G1 X116.309 Y115.27 E.01674
G1 X151.969 Y150.93 E1.58226
G1 X151.435 Y150.93 E.01674
G1 X115.775 Y115.27 E1.58226
G1 X115.241 Y115.27 E.01674
G1 X150.902 Y150.93 E1.58226
G1 X150.368 Y150.93 E.01674
G1 X114.708 Y115.27 E1.58226
G1 X114.174 Y115.27 E.01674
G1 X149.835 Y150.93 E1.58226
G1 X149.301 Y150.93 E.01674
G1 X113.641 Y115.27 E1.58226
G1 X113.107 Y115.27 E.01674
G1 X148.767 Y150.93 E1.58226
G1 X148.234 Y150.93 E.01674
G1 X112.573 Y115.27 E1.58226
G1 X112.04 Y115.27 E.01674
M73 P3 R120
G1 X147.7 Y150.93 E1.58226
G1 X147.166 Y150.93 E.01674
G1 X111.506 Y115.27 E1.58226
G1 X110.973 Y115.27 E.01674
G1 X146.633 Y150.93 E1.58226
G1 X146.099 Y150.93 E.01674
G1 X110.439 Y115.27 E1.58226
G1 X109.905 Y115.27 E.01674
G1 X145.566 Y150.93 E1.58226
G1 X145.032 Y150.93 E.01674
G1 X109.372 Y115.27 E1.58226
G1 X108.838 Y115.27 E.01674
M73 Q3 S121
G1 X144.498 Y150.93 E1.58226
G1 X143.965 Y150.93 E.01674
G1 X108.304 Y115.27 E1.58226
G1 X107.771 Y115.27 E.01674
G1 X143.431 Y150.93 E1.58226
G1 X142.897 Y150.93 E.01674
G1 X107.237 Y115.27 E1.58226
G1 X106.704 Y115.27 E.01674
M73 P4 R120
G1 X142.364 Y150.93 E1.58226
G1 X141.83 Y150.93 E.01674
M73 Q4 S121
G1 X106.17 Y115.27 E1.58226
G1 X105.636 Y115.27 E.01674
G1 X141.297 Y150.93 E1.58226
G1 X140.763 Y150.93 E.01674
G1 X105.103 Y115.27 E1.58226
G1 X104.569 Y115.27 E.01674
G1 X140.229 Y150.93 E1.58226
G1 X139.696 Y150.93 E.01674
G1 X104.036 Y115.27 E1.58226
G1 X103.502 Y115.27 E.01674
G1 X139.162 Y150.93 E1.58226
G1 X138.629 Y150.93 E.01674
G1 X102.968 Y115.27 E1.58226
G1 X102.435 Y115.27 E.01674
G1 X138.095 Y150.93 E1.58226
G1 X137.561 Y150.93 E.01674
G1 X101.901 Y115.27 E1.58226
G1 X101.367 Y115.27 E.01674
G1 X137.028 Y150.93 E1.58226
G1 X136.494 Y150.93 E.01674
G1 X100.834 Y115.27 E1.58226
G1 X100.3 Y115.27 E.01674
G1 X135.96 Y150.93 E1.58226
G1 X135.427 Y150.93 E.01674
M73 P4 R119
G1 X99.767 Y115.27 E1.58226
G1 X99.233 Y115.27 E.01674
G1 X134.893 Y150.93 E1.58226
G1 X134.36 Y150.93 E.01674
G1 X98.699 Y115.27 E1.58226
G1 X98.166 Y115.27 E.01674
G1 X133.826 Y150.93 E1.58226
G1 X133.292 Y150.93 E.01674
G1 X97.632 Y115.27 E1.58226
G1 X97.098 Y115.27 E.01674
G1 X132.759 Y150.93 E1.58226
G1 X132.225 Y150.93 E.01674
G1 X96.565 Y115.27 E1.58226
G1 X96.031 Y115.27 E.01674
M73 Q4 S120
G1 X131.691 Y150.93 E1.58226
G1 X131.158 Y150.93 E.01674
G1 X95.498 Y115.27 E1.58226
G1 X94.964 Y115.27 E.01674
G1 X130.624 Y150.93 E1.58226
G1 X130.091 Y150.93 E.01674
G1 X94.43 Y115.27 E1.58226
G1 X93.897 Y115.27 E.01674
G1 X129.557 Y150.93 E1.58226
G1 X129.023 Y150.93 E.01674
G1 X93.363 Y115.27 E1.58226
G1 X92.83 Y115.27 E.01674
G1 X128.49 Y150.93 E1.58226
G1 X127.956 Y150.93 E.01674
G1 X92.296 Y115.27 E1.58226
G1 X91.762 Y115.27 E.01674
G1 X127.423 Y150.93 E1.58226
G1 X126.889 Y150.93 E.01674
G1 X91.229 Y115.27 E1.58226
G1 X90.695 Y115.27 E.01674
M73 P5 R119
G1 X126.355 Y150.93 E1.58226
G1 X125.822 Y150.93 E.01674
M73 Q5 S120
G1 X90.161 Y115.27 E1.58226
G1 X89.628 Y115.27 E.01674
G1 X125.288 Y150.93 E1.58226
G1 X124.754 Y150.93 E.01674
G1 X89.094 Y115.27 E1.58226
G1 X88.561 Y115.27 E.01674
G1 X124.221 Y150.93 E1.58226
G1 X123.687 Y150.93 E.01674
G1 X88.027 Y115.27 E1.58226
G1 X87.493 Y115.27 E.01674
G1 X123.154 Y150.93 E1.58226
G1 X122.62 Y150.93 E.01674
M73 P5 R118
G1 X86.96 Y115.27 E1.58226
G1 X86.426 Y115.27 E.01674
G1 X122.086 Y150.93 E1.58226
G1 X121.553 Y150.93 E.01674
G1 X85.892 Y115.27 E1.58226
G1 X85.359 Y115.27 E.01674
G1 X121.019 Y150.93 E1.58226
G1 X120.486 Y150.93 E.01674
G1 X84.825 Y115.27 E1.58226
G1 X84.292 Y115.27 E.01674
G1 X119.952 Y150.93 E1.58226
G1 X119.418 Y150.93 E.01674
M73 Q5 S119
G1 X83.758 Y115.27 E1.58226
G1 X83.224 Y115.27 E.01674
G1 X118.885 Y150.93 E1.58226
G1 X118.351 Y150.93 E.01674
G1 X82.691 Y115.27 E1.58226
G1 X82.157 Y115.27 E.01674
G1 X117.817 Y150.93 E1.58226
G1 X117.284 Y150.93 E.01674
G1 X81.624 Y115.27 E1.58226
G1 X81.09 Y115.27 E.01674
G1 X116.75 Y150.93 E1.58226
G1 X116.217 Y150.93 E.01674
G1 X80.556 Y115.27 E1.58226
G1 X80.023 Y115.27 E.01674
G1 X115.683 Y150.93 E1.58226
G1 X115.149 Y150.93 E.01674
G1 X79.489 Y115.27 E1.58226
G1 X78.955 Y115.27 E.01674
G1 X114.616 Y150.93 E1.58226
G1 X114.082 Y150.93 E.01674
G1 X78.422 Y115.27 E1.58226
G1 X77.888 Y115.27 E.01674
G1 X113.548 Y150.93 E1.58226
G1 X113.015 Y150.93 E.01674
G1 X77.355 Y115.27 E1.58226
G1 X76.821 Y115.27 E.01674
G1 X112.481 Y150.93 E1.58226
G1 X111.948 Y150.93 E.01674
G1 X76.287 Y115.27 E1.58226
G1 X75.754 Y115.27 E.01674
G1 X111.414 Y150.93 E1.58226
G1 X110.88 Y150.93 E.01674
M73 P6 R118
G1 X75.22 Y115.27 E1.58226
G1 X74.687 Y115.27 E.01674
M73 P6 R117
G1 X110.347 Y150.93 E1.58226
G1 X109.813 Y150.93 E.01674
M73 Q6 S119
G1 X74.153 Y115.27 E1.58226
G1 X73.619 Y115.27 E.01674
G1 X109.28 Y150.93 E1.58226
G1 X108.746 Y150.93 E.01674
G1 X73.086 Y115.27 E1.58226
G1 X72.57 Y115.27 E.01618
G1 X72.57 Y115.288 E.00056
G1 X108.212 Y150.93 E1.58147
G1 X107.679 Y150.93 E.01674
G1 X72.57 Y115.821 E1.5578
G1 X72.57 Y116.355 E.01674
G1 X107.145 Y150.93 E1.53412
G1 X106.611 Y150.93 E.01674
M73 Q6 S118
G1 X72.57 Y116.889 E1.51044
G1 X72.57 Y117.422 E.01674
G1 X106.078 Y150.93 E1.48677
G1 X105.544 Y150.93 E.01674
G1 X72.57 Y117.956 E1.46309
G1 X72.57 Y118.489 E.01674
G1 X105.011 Y150.93 E1.43941
G1 X104.477 Y150.93 E.01674
G1 X72.57 Y119.023 E1.41574
G1 X72.57 Y119.557 E.01674
G1 X103.943 Y150.93 E1.39206
G1 X103.41 Y150.93 E.01674
G1 X72.57 Y120.09 E1.36838
G1 X72.57 Y120.624 E.01674
G1 X102.876 Y150.93 E1.3447
G1 X102.343 Y150.93 E.01674
G1 X72.57 Y121.157 E1.32103
G1 X72.57 Y121.691 E.01674
G1 X101.809 Y150.93 E1.29735
G1 X101.275 Y150.93 E.01674
G1 X72.57 Y122.225 E1.27367
G1 X72.57 Y122.758 E.01674
G1 X100.742 Y150.93 E1.25
G1 X100.208 Y150.93 E.01674
G1 X72.57 Y123.292 E1.22632
G1 X72.57 Y123.826 E.01674
G1 X99.674 Y150.93 E1.20264
G1 X99.141 Y150.93 E.01674
G1 X72.57 Y124.359 E1.17897
G1 X72.57 Y124.893 E.01674
G1 X98.607 Y150.93 E1.15529
G1 X98.074 Y150.93 E.01674
G1 X72.57 Y125.426 E1.13161
G1 X72.57 Y125.96 E.01674
G1 X97.54 Y150.93 E1.10794
G1 X97.006 Y150.93 E.01674
G1 X72.57 Y126.494 E1.08426
G1 X72.57 Y127.027 E.01674
G1 X96.473 Y150.93 E1.06058
G1 X95.939 Y150.93 E.01674
M73 P6 R116
G1 X72.57 Y127.561 E1.0369
G1 X72.57 Y128.095 E.01674
G1 X95.405 Y150.93 E1.01323
G1 X94.872 Y150.93 E.01674
G1 X72.57 Y128.628 E.98955
G1 X72.57 Y129.162 E.01674
G1 X94.338 Y150.93 E.96587
G1 X93.805 Y150.93 E.01674
G1 X72.57 Y129.695 E.9422
G1 X72.57 Y130.229 E.01674
G1 X93.271 Y150.93 E.91852
G1 X92.737 Y150.93 E.01674
G1 X72.57 Y130.763 E.89484
G1 X72.57 Y131.296 E.01674
G1 X92.204 Y150.93 E.87117
G1 X91.67 Y150.93 E.01674
M73 P7 R116
G1 X72.57 Y131.83 E.84749
G1 X72.57 Y132.363 E.01674
