; generated by PrusaSlicer 2.7.2+win64 on 2024-07-12 at 11:16:39 UTC


;
;
; 

; external perimeters extrusion width = 0.60mm
; perimeters extrusion width = 0.50mm
; infill extrusion width = 0.50mm
; solid infill extrusion width = 0.50mm
; top infill extrusion width = 0.45mm
; first layer extrusion width = 0.42mm

M73 P0 R130
M73 Q0 S131
M201 X1000 Y1000 Z200 E5000 ; sets maximum accelerations, mm/sec^2
M203 X200 Y200 Z12 E120 ; sets maximum feedrates, mm / sec
M204 S1250 T1250 ; sets acceleration (S) and retract acceleration (R), mm/sec^2
M205 X8.00 Y8.00 Z0.40 E4.50 ; sets the jerk limits, mm/sec
M205 S0 T0 ; sets the minimum extruding and travel feed rate, mm/sec

; printing object Lukas_Taschenlampe_ AA_Stiwa_Logo3.stl id:0 copy 0
; stop printing object Lukas_Taschenlampe_ AA_Stiwa_Logo3.stl id:0 copy 0

;TYPE:Custom
M862.3 P "MK3S" ; printer model check
M862.1 P0.4 ; nozzle diameter check
M115 U3.11.0 ; tell printer latest fw version
G90 ; use absolute coordinates
M83 ; extruder relative mode
M104 S215 ; set extruder temp
M140 S60 ; set bed temp
M190 S60 ; wait for bed temp
M109 S215 ; wait for extruder temp
G28 W ; home all without mesh bed level
G80 ; mesh bed leveling

G1 Z0.2 F720
G1 Y-3 F1000 ; go outside print area
G92 E0
G1 X60 E9 F1000 ; intro line
G1 X100 E12.5 F1000 ; intro line

G92 E0
M221 S95

; Don't change E values below. Excessive value can damage the printer.

M907 E538 ; set extruder motor current
G21 ; set units to millimeters
G90 ; use absolute coordinates
M83 ; use relative distances for extrusion
M900 K0.05 ; Filament gcode LA 1.5
M900 K30 ; Filament gcode LA 1.0
M107
;LAYER_CHANGE
;Z:0.2
;HEIGHT:0.2
G1 E-.8 F2100
G1 Z.6 F720
G1 X71.953 Y61.903 F10800
G1 Z.2 F720
G1 E.8 F2100
M204 S800
;TYPE:Skirt/Brim
;WIDTH:0.42
G1 F1200
G1 X73.052 Y61.095 E.04277
G1 X73.852 Y60.956 E.02546
G1 X178.832 Y60.966 E3.29157
G1 X180.139 Y61.358 E.04278
G1 X181.015 Y62.403 E.04275
G1 X181.209 Y63.343 E.03009
G1 X181.208 Y101.078 E1.18315
G1 X180.545 Y146.702 E1.43066
G1 X180.135 Y148.003 E.04277
G1 X179.076 Y148.864 E.04279
G1 X178.169 Y149.044 E.02899
G1 X71.169 Y149.044 E3.35491
G1 X69.861 Y148.652 E.04281
G1 X68.985 Y147.607 E.04275
G1 X68.791 Y146.667 E.03009
G1 X68.796 Y105.517 E1.29023
G1 X71.479 Y63.183 E1.33002
G1 X71.932 Y61.959 E.04092
M204 S1000
; printing object Lukas_Taschenlampe_ AA_Stiwa_Logo3.stl id:0 copy 0
;WIPE_START
G1 F8640
G1 X71.953 Y61.903 E-.01381
G1 X73.052 Y61.095 E-.31497
G1 X73.852 Y60.956 E-.18749
G1 X75.081 Y60.956 E-.28373
;WIPE_END
G1 Z.6 F720
G1 X177.381 Y106.454 F10800
G1 Z.2 F720
G1 E.8 F2100
M204 S800
;TYPE:Perimeter
;WIDTH:0.419999
G1 F1200
G1 X177.381 Y126.167 E.61809
G1 X177.381 Y145.88 E.61809
G1 X71.956 Y145.88 E3.30552
G1 X71.956 Y106.454 E1.23617
G1 X177.321 Y106.454 E3.30364
M73 Q0 S130
M204 S1000
G1 X177.321 Y106.454 F10800
G1 X177.759 Y106.077
M204 S800
;TYPE:External perimeter
G1 F1200
G1 X177.759 Y126.167 E.62991
G1 X177.759 Y146.257 E.62991
G1 X71.579 Y146.257 E3.32919
M73 P0 R129
G1 X71.579 Y106.077 E1.25981
G1 X177.699 Y106.077 E3.32731
M204 S1000
;WIPE_START
G1 F8640
G1 X177.759 Y106.077 E-.01385
G1 X177.759 Y109.482 E-.78615
;WIPE_END
G1 Z.6 F720
G1 X177.268 Y107.332 F10800
G1 Z.2 F720
G1 E.8 F2100
M204 S800
;TYPE:Solid infill
;WIDTH:0.421286
G1 F1200
G1 X176.673 Y106.737 E.02647
G1 X176.138 Y106.737 E.01683
G1 X177.099 Y107.698 E.04276
G1 X177.099 Y108.233 E.01683
G1 X175.603 Y106.737 E.06656
G1 X175.068 Y106.737 E.01683
G1 X177.099 Y108.768 E.09037
G1 X177.099 Y109.303 E.01683
G1 X174.533 Y106.737 E.11417
G1 X173.998 Y106.737 E.01683
G1 X177.099 Y109.838 E.13797
G1 X177.099 Y110.373 E.01683
G1 X173.462 Y106.737 E.1618
G1 X172.927 Y106.737 E.01683
G1 X177.099 Y110.908 E.1856
G1 X177.099 Y111.443 E.01683
G1 X172.392 Y106.737 E.20941
G1 X171.857 Y106.737 E.01683
G1 X177.099 Y111.978 E.23321
G1 X177.099 Y112.513 E.01683
G1 X171.322 Y106.737 E.25701
G1 X170.787 Y106.737 E.01683
G1 X177.099 Y113.049 E.28084
G1 X177.099 Y113.584 E.01683
G1 X170.252 Y106.737 E.30464
G1 X169.717 Y106.737 E.01683
G1 X177.099 Y114.119 E.32845
G1 X177.099 Y114.654 E.01683
G1 X169.182 Y106.737 E.35225
G1 X168.647 Y106.737 E.01683
G1 X177.099 Y115.189 E.37605
G1 X177.099 Y115.724 E.01683
G1 X168.112 Y106.737 E.39986
G1 X167.576 Y106.737 E.01686
G1 X177.099 Y116.259 E.42368
G1 X177.099 Y116.794 E.01683
G1 X167.041 Y106.737 E.44749
G1 X166.506 Y106.737 E.01683
G1 X177.099 Y117.329 E.47129
G1 X177.099 Y117.864 E.01683
G1 X165.971 Y106.737 E.4951
G1 X165.436 Y106.737 E.01683
G1 X177.099 Y118.399 E.5189
G1 X177.099 Y118.934 E.01683
G1 X164.901 Y106.737 E.5427
G1 X164.366 Y106.737 E.01683
G1 X177.099 Y119.47 E.56653
G1 X177.099 Y120.005 E.01683
G1 X163.831 Y106.737 E.59033
G1 X163.296 Y106.737 E.01683
G1 X177.099 Y120.54 E.61414
G1 X177.099 Y121.075 E.01683
G1 X162.761 Y106.737 E.63794
G1 X162.226 Y106.737 E.01683
G1 X177.099 Y121.61 E.66174
G1 X177.099 Y122.145 E.01683
G1 X161.69 Y106.737 E.68557
G1 X161.155 Y106.737 E.01683
G1 X177.099 Y122.68 E.70937
G1 X177.099 Y123.215 E.01683
G1 X160.62 Y106.737 E.73318
G1 X160.085 Y106.737 E.01683
G1 X177.099 Y123.75 E.75698
G1 X177.099 Y124.285 E.01683
M73 Q1 S130
G1 X159.55 Y106.737 E.78078
M73 P1 R129
G1 X159.015 Y106.737 E.01683
G1 X177.099 Y124.82 E.80459
G1 X177.099 Y125.356 E.01686
G1 X158.48 Y106.737 E.82841
G1 X157.945 Y106.737 E.01683
G1 X177.099 Y125.891 E.85222
G1 X177.099 Y126.426 E.01683
G1 X157.41 Y106.737 E.87602
G1 X156.875 Y106.737 E.01683
G1 X177.099 Y126.961 E.89983
G1 X177.099 Y127.496 E.01683
G1 X156.34 Y106.737 E.92363
G1 X155.804 Y106.737 E.01686
G1 X177.099 Y128.031 E.94745
G1 X177.099 Y128.566 E.01683
G1 X155.269 Y106.737 E.97126
G1 X154.734 Y106.737 E.01683
G1 X177.099 Y129.101 E.99506
G1 X177.099 Y129.636 E.01683
G1 X154.199 Y106.737 E1.01887
G1 X153.664 Y106.737 E.01683
G1 X177.099 Y130.171 E1.04267
G1 X177.099 Y130.706 E.01683
M73 Q1 S129
G1 X153.129 Y106.737 E1.06647
G1 X152.594 Y106.737 E.01683
G1 X177.099 Y131.242 E1.0903
G1 X177.099 Y131.777 E.01683
G1 X152.059 Y106.737 E1.1141
G1 X151.524 Y106.737 E.01683
G1 X177.099 Y132.312 E1.13791
G1 X177.099 Y132.847 E.01683
G1 X150.989 Y106.737 E1.16171
G1 X150.454 Y106.737 E.01683
M73 P1 R128
G1 X177.099 Y133.382 E1.18551
G1 X177.099 Y133.917 E.01683
G1 X149.918 Y106.737 E1.20934
G1 X149.383 Y106.737 E.01683
G1 X177.099 Y134.452 E1.23314
G1 X177.099 Y134.987 E.01683
G1 X148.848 Y106.737 E1.25695
G1 X148.313 Y106.737 E.01683
G1 X177.099 Y135.522 E1.28075
G1 X177.099 Y136.057 E.01683
G1 X147.778 Y106.737 E1.30456
G1 X147.243 Y106.737 E.01683
G1 X177.099 Y136.592 E1.32836
G1 X177.099 Y137.128 E.01686
G1 X146.708 Y106.737 E1.35218
G1 X146.173 Y106.737 E.01683
G1 X177.099 Y137.663 E1.37599
G1 X177.099 Y138.198 E.01683
G1 X145.638 Y106.737 E1.39979
G1 X145.103 Y106.737 E.01683
G1 X177.099 Y138.733 E1.4236
G1 X177.099 Y139.268 E.01683
G1 X144.568 Y106.737 E1.4474
G1 X144.032 Y106.737 E.01686
G1 X177.099 Y139.803 E1.47123
G1 X177.099 Y140.338 E.01683
G1 X143.497 Y106.737 E1.49503
G1 X142.962 Y106.737 E.01683
G1 X177.099 Y140.873 E1.51883
G1 X177.099 Y141.408 E.01683
G1 X142.427 Y106.737 E1.54264
G1 X141.892 Y106.737 E.01683
G1 X177.099 Y141.943 E1.56644
G1 X177.099 Y142.478 E.01683
G1 X141.357 Y106.737 E1.59024
G1 X140.822 Y106.737 E.01683
G1 X177.099 Y143.014 E1.61407
G1 X177.099 Y143.549 E.01683
G1 X140.287 Y106.737 E1.63787
G1 X139.752 Y106.737 E.01683
G1 X177.099 Y144.084 E1.66168
G1 X177.099 Y144.619 E.01683
G1 X139.217 Y106.737 E1.68548
G1 X138.682 Y106.737 E.01683
M73 Q1 S128
G1 X177.099 Y145.154 E1.70929
G1 X177.099 Y145.597 E.01394
M73 P2 R128
M73 Q2 S128
G1 X177.007 Y145.597 E.00289
G1 X138.146 Y106.737 E1.72902
G1 X137.611 Y106.737 E.01683
G1 X176.472 Y145.597 E1.72902
G1 X175.937 Y145.597 E.01683
M73 P2 R127
G1 X137.076 Y106.737 E1.72902
G1 X136.541 Y106.737 E.01683
G1 X175.401 Y145.597 E1.729
G1 X174.866 Y145.597 E.01683
G1 X136.006 Y106.737 E1.729
G1 X135.471 Y106.737 E.01683
G1 X174.331 Y145.597 E1.729
G1 X173.796 Y145.597 E.01683
G1 X134.936 Y106.737 E1.729
G1 X134.401 Y106.737 E.01683
G1 X173.261 Y145.597 E1.729
G1 X172.726 Y145.597 E.01683
G1 X133.866 Y106.737 E1.729
G1 X133.331 Y106.737 E.01683
G1 X172.191 Y145.597 E1.729
G1 X171.656 Y145.597 E.01683
G1 X132.796 Y106.737 E1.729
G1 X132.261 Y106.737 E.01683
G1 X171.121 Y145.597 E1.729
G1 X170.586 Y145.597 E.01683
G1 X131.725 Y106.737 E1.72902
G1 X131.19 Y106.737 E.01683
G1 X170.051 Y145.597 E1.72902
G1 X169.515 Y145.597 E.01686
G1 X130.655 Y106.737 E1.729
G1 X130.12 Y106.737 E.01683
G1 X168.98 Y145.597 E1.729
G1 X168.445 Y145.597 E.01683
G1 X129.585 Y106.737 E1.729
G1 X129.05 Y106.737 E.01683
G1 X167.91 Y145.597 E1.729
G1 X167.375 Y145.597 E.01683
G1 X128.515 Y106.737 E1.729
G1 X127.98 Y106.737 E.01683
G1 X166.84 Y145.597 E1.729
G1 X166.305 Y145.597 E.01683
G1 X127.445 Y106.737 E1.729
G1 X126.91 Y106.737 E.01683
M73 Q2 S127
G1 X165.77 Y145.597 E1.729
G1 X165.235 Y145.597 E.01683
G1 X126.375 Y106.737 E1.729
G1 X125.839 Y106.737 E.01686
G1 X164.7 Y145.597 E1.72902
G1 X164.165 Y145.597 E.01683
M73 P2 R126
G1 X125.304 Y106.737 E1.72902
G1 X124.769 Y106.737 E.01683
G1 X163.629 Y145.597 E1.729
G1 X163.094 Y145.597 E.01683
G1 X124.234 Y106.737 E1.729
G1 X123.699 Y106.737 E.01683
G1 X162.559 Y145.597 E1.729
G1 X162.024 Y145.597 E.01683
M73 P3 R126
M73 Q3 S127
G1 X123.164 Y106.737 E1.729
G1 X122.629 Y106.737 E.01683
G1 X161.489 Y145.597 E1.729
G1 X160.954 Y145.597 E.01683
G1 X122.094 Y106.737 E1.729
G1 X121.559 Y106.737 E.01683
G1 X160.419 Y145.597 E1.729
G1 X159.884 Y145.597 E.01683
G1 X121.024 Y106.737 E1.729
G1 X120.489 Y106.737 E.01683
G1 X159.349 Y145.597 E1.729
G1 X158.814 Y145.597 E.01683
G1 X119.953 Y106.737 E1.72902
G1 X119.418 Y106.737 E.01683
G1 X158.279 Y145.597 E1.72902
G1 X157.743 Y145.597 E.01686
G1 X118.883 Y106.737 E1.729
G1 X118.348 Y106.737 E.01683
G1 X157.208 Y145.597 E1.729
G1 X156.673 Y145.597 E.01683
G1 X117.813 Y106.737 E1.729
G1 X117.278 Y106.737 E.01683
G1 X156.138 Y145.597 E1.729
G1 X155.603 Y145.597 E.01683
G1 X116.743 Y106.737 E1.729
G1 X116.208 Y106.737 E.01683
G1 X155.068 Y145.597 E1.729
G1 X154.533 Y145.597 E.01683
M73 Q3 S126
G1 X115.673 Y106.737 E1.729
G1 X115.138 Y106.737 E.01683
G1 X153.998 Y145.597 E1.729
G1 X153.463 Y145.597 E.01683
G1 X114.603 Y106.737 E1.729
G1 X114.067 Y106.737 E.01686
M73 P3 R125
G1 X152.928 Y145.597 E1.72902
G1 X152.393 Y145.597 E.01683
G1 X113.532 Y106.737 E1.72902
G1 X112.997 Y106.737 E.01683
G1 X151.857 Y145.597 E1.729
G1 X151.322 Y145.597 E.01683
G1 X112.462 Y106.737 E1.729
G1 X111.927 Y106.737 E.01683
G1 X150.787 Y145.597 E1.729
G1 X150.252 Y145.597 E.01683
G1 X111.392 Y106.737 E1.729
G1 X110.857 Y106.737 E.01683
G1 X149.717 Y145.597 E1.729
G1 X149.182 Y145.597 E.01683
G1 X110.322 Y106.737 E1.729
G1 X109.787 Y106.737 E.01683
G1 X148.647 Y145.597 E1.729
G1 X148.112 Y145.597 E.01683
G1 X109.252 Y106.737 E1.729
G1 X108.717 Y106.737 E.01683
G1 X147.577 Y145.597 E1.729
G1 X147.042 Y145.597 E.01683
M73 P4 R125
M73 Q4 S126
G1 X108.181 Y106.737 E1.72902
G1 X107.646 Y106.737 E.01683
G1 X146.507 Y145.597 E1.72902
G1 X145.972 Y145.597 E.01683
G1 X107.111 Y106.737 E1.72902
G1 X106.576 Y106.737 E.01683
G1 X145.436 Y145.597 E1.729
G1 X144.901 Y145.597 E.01683
G1 X106.041 Y106.737 E1.729
G1 X105.506 Y106.737 E.01683
G1 X144.366 Y145.597 E1.729
G1 X143.831 Y145.597 E.01683
G1 X104.971 Y106.737 E1.729
G1 X104.436 Y106.737 E.01683
G1 X143.296 Y145.597 E1.729
G1 X142.761 Y145.597 E.01683
M73 Q4 S125
G1 X103.901 Y106.737 E1.729
G1 X103.366 Y106.737 E.01683
G1 X142.226 Y145.597 E1.729
G1 X141.691 Y145.597 E.01683
G1 X102.831 Y106.737 E1.729
G1 X102.295 Y106.737 E.01686
M73 P4 R124
G1 X141.156 Y145.597 E1.72902
G1 X140.621 Y145.597 E.01683
G1 X101.76 Y106.737 E1.72902
G1 X101.225 Y106.737 E.01683
G1 X140.086 Y145.597 E1.72902
G1 X139.55 Y145.597 E.01686
G1 X100.69 Y106.737 E1.729
G1 X100.155 Y106.737 E.01683
G1 X139.015 Y145.597 E1.729
G1 X138.48 Y145.597 E.01683
G1 X99.62 Y106.737 E1.729
G1 X99.085 Y106.737 E.01683
G1 X137.945 Y145.597 E1.729
G1 X137.41 Y145.597 E.01683
G1 X98.55 Y106.737 E1.729
G1 X98.015 Y106.737 E.01683
G1 X136.875 Y145.597 E1.729
G1 X136.34 Y145.597 E.01683
G1 X97.48 Y106.737 E1.729
G1 X96.945 Y106.737 E.01683
G1 X135.805 Y145.597 E1.729
G1 X135.27 Y145.597 E.01683
G1 X96.409 Y106.737 E1.72902
G1 X95.874 Y106.737 E.01683
G1 X134.735 Y145.597 E1.72902
G1 X134.2 Y145.597 E.01683
G1 X95.339 Y106.737 E1.72902
G1 X94.804 Y106.737 E.01683
G1 X133.664 Y145.597 E1.729
G1 X133.129 Y145.597 E.01683
G1 X94.269 Y106.737 E1.729
G1 X93.734 Y106.737 E.01683
G1 X132.594 Y145.597 E1.729
G1 X132.059 Y145.597 E.01683
M73 P5 R124
G1 X93.199 Y106.737 E1.729
G1 X92.664 Y106.737 E.01683
M73 Q5 S124
G1 X131.524 Y145.597 E1.729
G1 X130.989 Y145.597 E.01683
G1 X92.129 Y106.737 E1.729
G1 X91.594 Y106.737 E.01683
G1 X130.454 Y145.597 E1.729
G1 X129.919 Y145.597 E.01683
M73 P5 R123
G1 X91.059 Y106.737 E1.729
G1 X90.523 Y106.737 E.01686
G1 X129.384 Y145.597 E1.72902
G1 X128.849 Y145.597 E.01683
G1 X89.988 Y106.737 E1.72902
G1 X89.453 Y106.737 E.01683
G1 X128.314 Y145.597 E1.72902
G1 X127.778 Y145.597 E.01686
G1 X88.918 Y106.737 E1.729
G1 X88.383 Y106.737 E.01683
G1 X127.243 Y145.597 E1.729
G1 X126.708 Y145.597 E.01683
G1 X87.848 Y106.737 E1.729
G1 X87.313 Y106.737 E.01683
G1 X126.173 Y145.597 E1.729
G1 X125.638 Y145.597 E.01683
G1 X86.778 Y106.737 E1.729
G1 X86.243 Y106.737 E.01683
G1 X125.103 Y145.597 E1.729
G1 X124.568 Y145.597 E.01683
G1 X85.708 Y106.737 E1.729
G1 X85.173 Y106.737 E.01683
G1 X124.033 Y145.597 E1.729
G1 X123.498 Y145.597 E.01683
G1 X84.637 Y106.737 E1.72902
G1 X84.102 Y106.737 E.01683
G1 X122.963 Y145.597 E1.72902
G1 X122.428 Y145.597 E.01683
G1 X83.567 Y106.737 E1.72902
G1 X83.032 Y106.737 E.01683
G1 X121.892 Y145.597 E1.729
G1 X121.357 Y145.597 E.01683
G1 X82.497 Y106.737 E1.729
G1 X81.962 Y106.737 E.01683
G1 X120.822 Y145.597 E1.729
G1 X120.287 Y145.597 E.01683
G1 X81.427 Y106.737 E1.729
G1 X80.892 Y106.737 E.01683
M73 Q5 S123
G1 X119.752 Y145.597 E1.729
G1 X119.217 Y145.597 E.01683
G1 X80.357 Y106.737 E1.729
G1 X79.822 Y106.737 E.01683
G1 X118.682 Y145.597 E1.729
G1 X118.147 Y145.597 E.01683
M73 P5 R122
G1 X79.287 Y106.737 E1.729
G1 X78.751 Y106.737 E.01686
G1 X117.612 Y145.597 E1.72902
G1 X117.077 Y145.597 E.01683
M73 P6 R122
G1 X78.216 Y106.737 E1.72902
G1 X77.681 Y106.737 E.01683
M73 Q6 S123
G1 X116.542 Y145.597 E1.72902
G1 X116.006 Y145.597 E.01686
G1 X77.146 Y106.737 E1.729
G1 X76.611 Y106.737 E.01683
G1 X115.471 Y145.597 E1.729
G1 X114.936 Y145.597 E.01683
G1 X76.076 Y106.737 E1.729
G1 X75.541 Y106.737 E.01683
G1 X114.401 Y145.597 E1.729
G1 X113.866 Y145.597 E.01683
G1 X75.006 Y106.737 E1.729
G1 X74.471 Y106.737 E.01683
G1 X113.331 Y145.597 E1.729
G1 X112.796 Y145.597 E.01683
G1 X73.936 Y106.737 E1.729
G1 X73.401 Y106.737 E.01683
G1 X112.261 Y145.597 E1.729
G1 X111.726 Y145.597 E.01683
G1 X72.865 Y106.737 E1.72902
G1 X72.33 Y106.737 E.01683
G1 X111.191 Y145.597 E1.72902
G1 X110.656 Y145.597 E.01683
G1 X72.238 Y107.18 E1.70931
G1 X72.238 Y107.715 E.01683
G1 X110.12 Y145.597 E1.68548
G1 X109.585 Y145.597 E.01683
G1 X72.238 Y108.25 E1.66168
G1 X72.238 Y108.785 E.01683
G1 X109.05 Y145.597 E1.63787
G1 X108.515 Y145.597 E.01683
M73 Q6 S122
G1 X72.238 Y109.32 E1.61407
G1 X72.238 Y109.855 E.01683
G1 X107.98 Y145.597 E1.59027
G1 X107.445 Y145.597 E.01683
G1 X72.238 Y110.391 E1.56644
G1 X72.238 Y110.926 E.01683
G1 X106.91 Y145.597 E1.54264
G1 X106.375 Y145.597 E.01683
M73 P6 R121
G1 X72.238 Y111.461 E1.51883
G1 X72.238 Y111.996 E.01683
G1 X105.84 Y145.597 E1.49503
G1 X105.305 Y145.597 E.01683
G1 X72.238 Y112.531 E1.47123
G1 X72.238 Y113.066 E.01683
G1 X104.77 Y145.597 E1.44742
G1 X104.234 Y145.597 E.01686
G1 X72.238 Y113.601 E1.4236
G1 X72.238 Y114.136 E.01683
G1 X103.699 Y145.597 E1.39979
G1 X103.164 Y145.597 E.01683
G1 X72.238 Y114.671 E1.37599
G1 X72.238 Y115.206 E.01683
G1 X102.629 Y145.597 E1.35218
G1 X102.094 Y145.597 E.01683
G1 X72.238 Y115.741 E1.32838
G1 X72.238 Y116.277 E.01686
G1 X101.559 Y145.597 E1.30456
G1 X101.024 Y145.597 E.01683
G1 X72.238 Y116.812 E1.28075
G1 X72.238 Y117.347 E.01683
M73 P7 R121
G1 X100.489 Y145.597 E1.25695
