; generated by PrusaSlicer 2.4.1+win64 on 2023-06-05 at 07:15:42 UTC


;
;
; 

; external perimeters extrusion width = 0.60mm
; perimeters extrusion width = 0.50mm
; infill extrusion width = 0.50mm
; solid infill extrusion width = 0.50mm
; top infill extrusion width = 0.45mm
; first layer extrusion width = 0.42mm

M73 P0 R85
M73 Q0 S85
M201 X1000 Y1000 Z200 E5000 ; sets maximum accelerations, mm/sec^2
M203 X200 Y200 Z12 E120 ; sets maximum feedrates, mm / sec
M204 P1250 R1250 T1250 ; sets acceleration (P, T) and retract acceleration (R), mm/sec^2
M205 X8.00 Y8.00 Z0.40 E4.50 ; sets the jerk limits, mm/sec
M205 S0 T0 ; sets the minimum extruding and travel feed rate, mm/sec
M107
;TYPE:Custom
M862.3 P "MK3S" ; printer model check
M862.1 P0.4 ; nozzle diameter check
M115 U3.11.0 ; tell printer latest fw version
G90 ; use absolute coordinates
M83 ; extruder relative mode
M104 S215 ; set extruder temp
M140 S60 ; set bed temp
M190 S60 ; wait for bed temp
M109 S215 ; wait for extruder temp
G28 W ; home all without mesh bed level
G80 ; mesh bed leveling

G1 Z0.2 F720
G1 Y-3 F1000 ; go outside print area
G92 E0
G1 X60 E9 F1000 ; intro line
G1 X100 E12.5 F1000 ; intro line

G92 E0
M221 S95

; Don't change E values below. Excessive value can damage the printer.

M907 E538 ; set extruder motor current
G21 ; set units to millimeters
G90 ; use absolute coordinates
M83 ; use relative distances for extrusion
M900 K0.05 ; Filament gcode LA 1.5
M900 K30 ; Filament gcode LA 1.0
M107
;LAYER_CHANGE
;Z:0.2
;HEIGHT:0.2
;BEFORE_LAYER_CHANGE
G92 E0.0
;0.2


M73 P0 R84
G1 E-.8 F2100
G1 Z.4 F720
;AFTER_LAYER_CHANGE
;0.2
G1 X99.09 Y40.193 F10800
G1 Z.2 F720
G1 E.8 F2100
M204 S800
;TYPE:Skirt/Brim
;WIDTH:0.42
G1 F1200
G1 X100.135 Y39.317 E.04278
G1 X100.983 Y39.125 E.02726
G1 X126.833 Y38.125 E.81111
G1 X148.925 Y38.123 E.69268
G1 X150.232 Y38.515 E.04278
G1 X151.108 Y39.56 E.04278
G1 X151.302 Y40.5 E.03008
G1 X151.302 Y169.5 E4.0447
G1 X150.91 Y170.807 E.04278
G1 X149.865 Y171.683 E.04278
G1 X148.925 Y171.877 E.03008
G1 X126.925 Y171.877 E.68979
G1 X100.983 Y170.875 E.814
G1 X99.692 Y170.433 E.04278
G1 X98.857 Y169.355 E.04278
G1 X98.698 Y168.5 E.02726
G1 X98.698 Y41.5 E3.982
G1 X99.072 Y40.25 E.0409
M204 S1000
; printing object Taschenlampe lang AAA 3.stl id:0 copy 0
;WIPE_START
G1 F8640
G1 X100.135 Y39.317 E-.32671
G1 X100.983 Y39.125 E-.20072
G1 X101.99 Y39.086 E-.23257
;WIPE_END
G1 E-.04 F2100
G1 Z.6 F720
G1 X127.712 Y41.287 F10800
G1 Z.2 F720
G1 E.8 F2100
M204 S800
;TYPE:Perimeter
G1 F1200
G1 X148.138 Y41.287 E.64044
G1 X148.138 Y168.713 E3.99535
G1 X127.712 Y168.713 E.64044
G1 X127.712 Y41.347 E3.99347
M204 S1000
G1 X127.335 Y40.91 F10800
M204 S800
;TYPE:External perimeter
G1 F1200
G1 X148.515 Y40.91 E.66408
G1 X148.515 Y169.09 E4.01899
G1 X127.335 Y169.09 E.66408
M73 Q0 S84
G1 X127.335 Y40.97 E4.01711
M204 S1000
G1 X127.692 Y41.091 F10800
;WIPE_START
M73 P1 R84
M73 Q1 S84
G1 F8640
G1 X130.626 Y40.961 E-.76
;WIPE_END
G1 E-.04 F2100
G1 Z.6 F720
G1 X147.261 Y41.4 F10800
G1 Z.2 F720
G1 E.8 F2100
M204 S800
;TYPE:Solid infill
;WIDTH:0.420747
G1 F1200
G1 X147.855 Y41.994 E.0264
G1 X147.855 Y42.529 E.01679
G1 X146.896 Y41.57 E.0426
G1 X146.362 Y41.57 E.01679
G1 X147.855 Y43.063 E.06634
G1 X147.855 Y43.597 E.01679
G1 X145.828 Y41.57 E.09008
G1 X145.293 Y41.57 E.01679
G1 X147.855 Y44.132 E.11382
G1 X147.855 Y44.666 E.01679
G1 X144.759 Y41.57 E.13756
G1 X144.225 Y41.57 E.01679
G1 X147.855 Y45.2 E.1613
G1 X147.855 Y45.735 E.01679
G1 X143.69 Y41.57 E.18504
G1 X143.156 Y41.57 E.01679
G1 X147.855 Y46.269 E.20878
G1 X147.855 Y46.803 E.01679
G1 X142.622 Y41.57 E.23252
G1 X142.087 Y41.57 E.01679
G1 X147.855 Y47.338 E.25626
G1 X147.855 Y47.872 E.01679
G1 X141.553 Y41.57 E.28
G1 X141.019 Y41.57 E.01679
G1 X147.855 Y48.406 E.30374
G1 X147.855 Y48.941 E.01679
G1 X140.484 Y41.57 E.32748
G1 X139.95 Y41.57 E.01679
G1 X147.855 Y49.475 E.35122
G1 X147.855 Y50.009 E.01679
G1 X139.416 Y41.57 E.37496
G1 X138.881 Y41.57 E.01679
G1 X147.855 Y50.544 E.3987
G1 X147.855 Y51.078 E.01679
G1 X138.347 Y41.57 E.42244
G1 X137.813 Y41.57 E.01679
M73 P1 R83
G1 X147.855 Y51.612 E.44618
G1 X147.855 Y52.147 E.01679
G1 X137.278 Y41.57 E.46992
G1 X136.744 Y41.57 E.01679
G1 X147.855 Y52.681 E.49366
G1 X147.855 Y53.215 E.01679
G1 X136.21 Y41.57 E.5174
G1 X135.675 Y41.57 E.01679
G1 X147.855 Y53.75 E.54114
G1 X147.855 Y54.284 E.01679
G1 X135.141 Y41.57 E.56488
G1 X134.607 Y41.57 E.01679
G1 X147.855 Y54.818 E.58862
G1 X147.855 Y55.353 E.01679
G1 X134.072 Y41.57 E.61236
G1 X133.538 Y41.57 E.01679
G1 X147.855 Y55.887 E.6361
G1 X147.855 Y56.421 E.01679
G1 X133.004 Y41.57 E.65984
G1 X132.469 Y41.57 E.01679
G1 X147.855 Y56.956 E.68358
G1 X147.855 Y57.49 E.01679
G1 X131.935 Y41.57 E.70732
G1 X131.401 Y41.57 E.01679
G1 X147.855 Y58.024 E.73106
G1 X147.855 Y58.559 E.01679
G1 X130.866 Y41.57 E.7548
G1 X130.332 Y41.57 E.01679
G1 X147.855 Y59.093 E.77854
G1 X147.855 Y59.627 E.01679
G1 X129.798 Y41.57 E.80228
G1 X129.263 Y41.57 E.01679
G1 X147.855 Y60.162 E.82602
G1 X147.855 Y60.696 E.01679
G1 X128.729 Y41.57 E.84976
G1 X128.195 Y41.57 E.01679
G1 X147.855 Y61.23 E.8735
G1 X147.855 Y61.764 E.01679
G1 X127.995 Y41.904 E.88238
G1 X127.995 Y42.439 E.01679
G1 X147.855 Y62.299 E.88238
G1 X147.855 Y62.833 E.01679
G1 X127.995 Y42.973 E.88238
G1 X127.995 Y43.507 E.01679
G1 X147.855 Y63.367 E.88238
G1 X147.855 Y63.902 E.01679
G1 X127.995 Y44.042 E.88238
G1 X127.995 Y44.576 E.01679
G1 X147.855 Y64.436 E.88238
G1 X147.855 Y64.97 E.01679
G1 X127.995 Y45.11 E.88238
G1 X127.995 Y45.645 E.01679
G1 X147.855 Y65.505 E.88238
G1 X147.855 Y66.039 E.01679
G1 X127.995 Y46.179 E.88238
G1 X127.995 Y46.713 E.01679
G1 X147.855 Y66.573 E.88238
G1 X147.855 Y67.108 E.01679
G1 X127.995 Y47.248 E.88238
G1 X127.995 Y47.782 E.01679
G1 X147.855 Y67.642 E.88238
G1 X147.855 Y68.176 E.01679
G1 X127.995 Y48.316 E.88238
G1 X127.995 Y48.85 E.01679
M73 P2 R83
G1 X147.855 Y68.711 E.88238
M73 Q2 S84
G1 X147.855 Y69.245 E.01679
M73 Q2 S83
G1 X127.995 Y49.385 E.88238
G1 X127.995 Y49.919 E.01679
G1 X147.855 Y69.779 E.88238
G1 X147.855 Y70.314 E.01679
G1 X127.995 Y50.453 E.88238
G1 X127.995 Y50.988 E.01679
G1 X147.855 Y70.848 E.88238
G1 X147.855 Y71.382 E.01679
G1 X127.995 Y51.522 E.88238
G1 X127.995 Y52.056 E.01679
G1 X147.855 Y71.917 E.88238
G1 X147.855 Y72.451 E.01679
G1 X127.995 Y52.591 E.88238
G1 X127.995 Y53.125 E.01679
G1 X147.855 Y72.985 E.88238
G1 X147.855 Y73.52 E.01679
G1 X127.995 Y53.659 E.88238
G1 X127.995 Y54.194 E.01679
G1 X147.855 Y74.054 E.88238
G1 X147.855 Y74.588 E.01679
G1 X127.995 Y54.728 E.88238
G1 X127.995 Y55.262 E.01679
G1 X147.855 Y75.123 E.88238
G1 X147.855 Y75.657 E.01679
G1 X127.995 Y55.797 E.88238
G1 X127.995 Y56.331 E.01679
M73 P2 R82
G1 X147.855 Y76.191 E.88238
G1 X147.855 Y76.726 E.01679
G1 X127.995 Y56.865 E.88238
G1 X127.995 Y57.4 E.01679
G1 X147.855 Y77.26 E.88238
G1 X147.855 Y77.794 E.01679
G1 X127.995 Y57.934 E.88238
G1 X127.995 Y58.468 E.01679
G1 X147.855 Y78.329 E.88238
G1 X147.855 Y78.863 E.01679
G1 X127.995 Y59.003 E.88238
G1 X127.995 Y59.537 E.01679
G1 X147.855 Y79.397 E.88238
G1 X147.855 Y79.932 E.01679
G1 X127.995 Y60.071 E.88238
G1 X127.995 Y60.606 E.01679
G1 X147.855 Y80.466 E.88238
G1 X147.855 Y81 E.01679
G1 X127.995 Y61.14 E.88238
G1 X127.995 Y61.674 E.01679
G1 X147.855 Y81.535 E.88238
G1 X147.855 Y82.069 E.01679
G1 X127.995 Y62.209 E.88238
G1 X127.995 Y62.743 E.01679
G1 X147.855 Y82.603 E.88238
G1 X147.855 Y83.138 E.01679
G1 X127.995 Y63.277 E.88238
G1 X127.995 Y63.812 E.01679
G1 X147.855 Y83.672 E.88238
G1 X147.855 Y84.206 E.01679
G1 X127.995 Y64.346 E.88238
G1 X127.995 Y64.88 E.01679
G1 X147.855 Y84.741 E.88238
G1 X147.855 Y85.275 E.01679
G1 X127.995 Y65.415 E.88238
G1 X127.995 Y65.949 E.01679
G1 X147.855 Y85.809 E.88238
G1 X147.855 Y86.344 E.01679
G1 X127.995 Y66.483 E.88238
G1 X127.995 Y67.018 E.01679
G1 X147.855 Y86.878 E.88238
G1 X147.855 Y87.412 E.01679
M73 P3 R82
G1 X127.995 Y67.552 E.88238
G1 X127.995 Y68.086 E.01679
M73 Q3 S83
G1 X147.855 Y87.947 E.88238
G1 X147.855 Y88.481 E.01679
G1 X127.995 Y68.621 E.88238
G1 X127.995 Y69.155 E.01679
G1 X147.855 Y89.015 E.88238
G1 X147.855 Y89.55 E.01679
G1 X127.995 Y69.689 E.88238
G1 X127.995 Y70.224 E.01679
G1 X147.855 Y90.084 E.88238
G1 X147.855 Y90.618 E.01679
G1 X127.995 Y70.758 E.88238
G1 X127.995 Y71.292 E.01679
G1 X147.855 Y91.153 E.88238
G1 X147.855 Y91.687 E.01679
M73 Q3 S82
G1 X127.995 Y71.827 E.88238
G1 X127.995 Y72.361 E.01679
G1 X147.855 Y92.221 E.88238
G1 X147.855 Y92.756 E.01679
G1 X127.995 Y72.895 E.88238
G1 X127.995 Y73.43 E.01679
G1 X147.855 Y93.29 E.88238
G1 X147.855 Y93.824 E.01679
G1 X127.995 Y73.964 E.88238
G1 X127.995 Y74.498 E.01679
G1 X147.855 Y94.359 E.88238
G1 X147.855 Y94.893 E.01679
G1 X127.995 Y75.033 E.88238
G1 X127.995 Y75.567 E.01679
G1 X147.855 Y95.427 E.88238
G1 X147.855 Y95.961 E.01679
G1 X127.995 Y76.101 E.88238
G1 X127.995 Y76.636 E.01679
G1 X147.855 Y96.496 E.88238
G1 X147.855 Y97.03 E.01679
G1 X127.995 Y77.17 E.88238
G1 X127.995 Y77.704 E.01679
G1 X147.855 Y97.564 E.88238
G1 X147.855 Y98.099 E.01679
G1 X127.995 Y78.239 E.88238
G1 X127.995 Y78.773 E.01679
M73 P3 R81
G1 X147.855 Y98.633 E.88238
G1 X147.855 Y99.167 E.01679
G1 X127.995 Y79.307 E.88238
G1 X127.995 Y79.842 E.01679
G1 X147.855 Y99.702 E.88238
G1 X147.855 Y100.236 E.01679
G1 X127.995 Y80.376 E.88238
G1 X127.995 Y80.91 E.01679
G1 X147.855 Y100.77 E.88238
G1 X147.855 Y101.305 E.01679
G1 X127.995 Y81.445 E.88238
G1 X127.995 Y81.979 E.01679
G1 X147.855 Y101.839 E.88238
G1 X147.855 Y102.373 E.01679
G1 X127.995 Y82.513 E.88238
G1 X127.995 Y83.047 E.01679
G1 X147.855 Y102.908 E.88238
G1 X147.855 Y103.442 E.01679
G1 X127.995 Y83.582 E.88238
G1 X127.995 Y84.116 E.01679
G1 X147.855 Y103.976 E.88238
G1 X147.855 Y104.511 E.01679
G1 X127.995 Y84.65 E.88238
G1 X127.995 Y85.185 E.01679
G1 X147.855 Y105.045 E.88238
G1 X147.855 Y105.579 E.01679
G1 X127.995 Y85.719 E.88238
G1 X127.995 Y86.253 E.01679
G1 X147.855 Y106.114 E.88238
G1 X147.855 Y106.648 E.01679
M73 P4 R81
G1 X127.995 Y86.788 E.88238
G1 X127.995 Y87.322 E.01679
M73 Q4 S82
G1 X147.855 Y107.182 E.88238
G1 X147.855 Y107.717 E.01679
G1 X127.995 Y87.856 E.88238
G1 X127.995 Y88.391 E.01679
G1 X147.855 Y108.251 E.88238
G1 X147.855 Y108.785 E.01679
G1 X127.995 Y88.925 E.88238
G1 X127.995 Y89.459 E.01679
G1 X147.855 Y109.32 E.88238
G1 X147.855 Y109.854 E.01679
G1 X127.995 Y89.994 E.88238
G1 X127.995 Y90.528 E.01679
G1 X147.855 Y110.388 E.88238
G1 X147.855 Y110.923 E.01679
G1 X127.995 Y91.062 E.88238
G1 X127.995 Y91.597 E.01679
G1 X147.855 Y111.457 E.88238
G1 X147.855 Y111.991 E.01679
G1 X127.995 Y92.131 E.88238
G1 X127.995 Y92.665 E.01679
G1 X147.855 Y112.526 E.88238
G1 X147.855 Y113.06 E.01679
G1 X127.995 Y93.2 E.88238
G1 X127.995 Y93.734 E.01679
M73 Q4 S81
G1 X147.855 Y113.594 E.88238
G1 X147.855 Y114.129 E.01679
G1 X127.995 Y94.268 E.88238
G1 X127.995 Y94.803 E.01679
G1 X147.855 Y114.663 E.88238
G1 X147.855 Y115.197 E.01679
G1 X127.995 Y95.337 E.88238
G1 X127.995 Y95.871 E.01679
G1 X147.855 Y115.732 E.88238
G1 X147.855 Y116.266 E.01679
G1 X127.995 Y96.406 E.88238
G1 X127.995 Y96.94 E.01679
G1 X147.855 Y116.8 E.88238
G1 X147.855 Y117.335 E.01679
G1 X127.995 Y97.474 E.88238
G1 X127.995 Y98.009 E.01679
G1 X147.855 Y117.869 E.88238
G1 X147.855 Y118.403 E.01679
G1 X127.995 Y98.543 E.88238
G1 X127.995 Y99.077 E.01679
G1 X147.855 Y118.938 E.88238
G1 X147.855 Y119.472 E.01679
G1 X127.995 Y99.612 E.88238
G1 X127.995 Y100.146 E.01679
G1 X147.855 Y120.006 E.88238
G1 X147.855 Y120.541 E.01679
G1 X127.995 Y100.68 E.88238
G1 X127.995 Y101.215 E.01679
M73 P4 R80
G1 X147.855 Y121.075 E.88238
G1 X147.855 Y121.609 E.01679
G1 X127.995 Y101.749 E.88238
G1 X127.995 Y102.283 E.01679
G1 X147.855 Y122.144 E.88238
G1 X147.855 Y122.678 E.01679
G1 X127.995 Y102.818 E.88238
G1 X127.995 Y103.352 E.01679
G1 X147.855 Y123.212 E.88238
G1 X147.855 Y123.747 E.01679
G1 X127.995 Y103.886 E.88238
G1 X127.995 Y104.421 E.01679
G1 X147.855 Y124.281 E.88238
G1 X147.855 Y124.815 E.01679
G1 X127.995 Y104.955 E.88238
G1 X127.995 Y105.489 E.01679
M73 P5 R80
G1 X147.855 Y125.35 E.88238
G1 X147.855 Y125.884 E.01679
M73 Q5 S81
G1 X127.995 Y106.024 E.88238
G1 X127.995 Y106.558 E.01679
G1 X147.855 Y126.418 E.88238
G1 X147.855 Y126.953 E.01679
G1 X127.995 Y107.092 E.88238
G1 X127.995 Y107.627 E.01679
G1 X147.855 Y127.487 E.88238
G1 X147.855 Y128.021 E.01679
G1 X127.995 Y108.161 E.88238
G1 X127.995 Y108.695 E.01679
G1 X147.855 Y128.555 E.88238
G1 X147.855 Y129.09 E.01679
G1 X127.995 Y109.23 E.88238
G1 X127.995 Y109.764 E.01679
G1 X147.855 Y129.624 E.88238
G1 X147.855 Y130.158 E.01679
G1 X127.995 Y110.298 E.88238
G1 X127.995 Y110.833 E.01679
G1 X147.855 Y130.693 E.88238
G1 X147.855 Y131.227 E.01679
G1 X127.995 Y111.367 E.88238
G1 X127.995 Y111.901 E.01679
G1 X147.855 Y131.761 E.88238
G1 X147.855 Y132.296 E.01679
G1 X127.995 Y112.436 E.88238
G1 X127.995 Y112.97 E.01679
G1 X147.855 Y132.83 E.88238
G1 X147.855 Y133.364 E.01679
G1 X127.995 Y113.504 E.88238
G1 X127.995 Y114.039 E.01679
G1 X147.855 Y133.899 E.88238
G1 X147.855 Y134.433 E.01679
G1 X127.995 Y114.573 E.88238
G1 X127.995 Y115.107 E.01679
G1 X147.855 Y134.967 E.88238
G1 X147.855 Y135.502 E.01679
G1 X127.995 Y115.641 E.88238
G1 X127.995 Y116.176 E.01679
M73 Q5 S80
G1 X147.855 Y136.036 E.88238
G1 X147.855 Y136.57 E.01679
G1 X127.995 Y116.71 E.88238
G1 X127.995 Y117.244 E.01679
G1 X147.855 Y137.105 E.88238
G1 X147.855 Y137.639 E.01679
G1 X127.995 Y117.779 E.88238
G1 X127.995 Y118.313 E.01679
G1 X147.855 Y138.173 E.88238
G1 X147.855 Y138.708 E.01679
G1 X127.995 Y118.847 E.88238
G1 X127.995 Y119.382 E.01679
G1 X147.855 Y139.242 E.88238
G1 X147.855 Y139.776 E.01679
G1 X127.995 Y119.916 E.88238
G1 X127.995 Y120.45 E.01679
G1 X147.855 Y140.311 E.88238
G1 X147.855 Y140.845 E.01679
G1 X127.995 Y120.985 E.88238
G1 X127.995 Y121.519 E.01679
G1 X147.855 Y141.379 E.88238
G1 X147.855 Y141.914 E.01679
G1 X127.995 Y122.053 E.88238
G1 X127.995 Y122.588 E.01679
G1 X147.855 Y142.448 E.88238
G1 X147.855 Y142.982 E.01679
M73 P5 R79
G1 X127.995 Y123.122 E.88238
G1 X127.995 Y123.656 E.01679
G1 X147.855 Y143.517 E.88238
G1 X147.855 Y144.051 E.01679
M73 P6 R79
G1 X127.995 Y124.191 E.88238
G1 X127.995 Y124.725 E.01679
G1 X147.855 Y144.585 E.88238
G1 X147.855 Y145.12 E.01679
M73 Q6 S80
G1 X127.995 Y125.259 E.88238
G1 X127.995 Y125.794 E.01679
G1 X147.855 Y145.654 E.88238
G1 X147.855 Y146.188 E.01679
G1 X127.995 Y126.328 E.88238
G1 X127.995 Y126.862 E.01679
G1 X147.855 Y146.723 E.88238
G1 X147.855 Y147.257 E.01679
G1 X127.995 Y127.397 E.88238
G1 X127.995 Y127.931 E.01679
G1 X147.855 Y147.791 E.88238
G1 X147.855 Y148.326 E.01679
G1 X127.995 Y128.465 E.88238
G1 X127.995 Y129 E.01679
G1 X147.855 Y148.86 E.88238
G1 X147.855 Y149.394 E.01679
G1 X127.995 Y129.534 E.88238
G1 X127.995 Y130.068 E.01679
G1 X147.855 Y149.929 E.88238
G1 X147.855 Y150.463 E.01679
G1 X127.995 Y130.603 E.88238
G1 X127.995 Y131.137 E.01679
G1 X147.855 Y150.997 E.88238
G1 X147.855 Y151.532 E.01679
G1 X127.995 Y131.671 E.88238
G1 X127.995 Y132.206 E.01679
G1 X147.855 Y152.066 E.88238
G1 X147.855 Y152.6 E.01679
G1 X127.995 Y132.74 E.88238
G1 X127.995 Y133.274 E.01679
G1 X147.855 Y153.135 E.88238
G1 X147.855 Y153.669 E.01679
G1 X127.995 Y133.809 E.88238
G1 X127.995 Y134.343 E.01679
G1 X147.855 Y154.203 E.88238
G1 X147.855 Y154.738 E.01679
G1 X127.995 Y134.877 E.88238
G1 X127.995 Y135.412 E.01679
G1 X147.855 Y155.272 E.88238
G1 X147.855 Y155.806 E.01679
G1 X127.995 Y135.946 E.88238
G1 X127.995 Y136.48 E.01679
G1 X147.855 Y156.341 E.88238
G1 X147.855 Y156.875 E.01679
G1 X127.995 Y137.015 E.88238
G1 X127.995 Y137.549 E.01679
G1 X147.855 Y157.409 E.88238
G1 X147.855 Y157.944 E.01679
M73 Q6 S79
G1 X127.995 Y138.083 E.88238
G1 X127.995 Y138.618 E.01679
G1 X147.855 Y158.478 E.88238
G1 X147.855 Y159.012 E.01679
G1 X127.995 Y139.152 E.88238
G1 X127.995 Y139.686 E.01679
G1 X147.855 Y159.547 E.88238
G1 X147.855 Y160.081 E.01679
G1 X127.995 Y140.221 E.88238
G1 X127.995 Y140.755 E.01679
G1 X147.855 Y160.615 E.88238
G1 X147.855 Y161.15 E.01679
G1 X127.995 Y141.289 E.88238
G1 X127.995 Y141.824 E.01679
G1 X147.855 Y161.684 E.88238
G1 X147.855 Y162.218 E.01679
