; generated by PrusaSlicer 2.4.1+win64 on 2023-04-19 at 16:51:19 UTC


;
;
; 

; external perimeters extrusion width = 0.60mm
; perimeters extrusion width = 0.50mm
; infill extrusion width = 0.50mm
; solid infill extrusion width = 0.50mm
; top infill extrusion width = 0.45mm
; first layer extrusion width = 0.42mm

M73 P0 R55
M73 Q0 S56
M201 X1000 Y1000 Z200 E5000 ; sets maximum accelerations, mm/sec^2
M203 X200 Y200 Z12 E120 ; sets maximum feedrates, mm / sec
M204 P1250 R1250 T1250 ; sets acceleration (P, T) and retract acceleration (R), mm/sec^2
M205 X8.00 Y8.00 Z0.40 E4.50 ; sets the jerk limits, mm/sec
M205 S0 T0 ; sets the minimum extruding and travel feed rate, mm/sec
M107
;TYPE:Custom
M862.3 P "MK3S" ; printer model check
M862.1 P0.4 ; nozzle diameter check
M115 U3.11.0 ; tell printer latest fw version
G90 ; use absolute coordinates
M83 ; extruder relative mode
M104 S215 ; set extruder temp
M140 S60 ; set bed temp
M190 S60 ; wait for bed temp
M109 S215 ; wait for extruder temp
G28 W ; home all without mesh bed level
G80 ; mesh bed leveling

G1 Z0.2 F720
G1 Y-3 F1000 ; go outside print area
G92 E0
G1 X60 E9 F1000 ; intro line
G1 X100 E12.5 F1000 ; intro line

G92 E0
M221 S95

; Don't change E values below. Excessive value can damage the printer.

M907 E538 ; set extruder motor current
G21 ; set units to millimeters
G90 ; use absolute coordinates
M83 ; use relative distances for extrusion
M900 K0.05 ; Filament gcode LA 1.5
M900 K30 ; Filament gcode LA 1.0
M107
;LAYER_CHANGE
;Z:0.2
;HEIGHT:0.2
;BEFORE_LAYER_CHANGE
G92 E0.0
;0.2


G1 E-.8 F2100
G1 Z.4 F720
;AFTER_LAYER_CHANGE
;0.2
G1 X87.943 Y86.564 F10800
G1 Z.2 F720
G1 E.8 F2100
M204 S800
;TYPE:Skirt/Brim
;WIDTH:0.42
G1 F1200
G1 X88.382 Y86.124 E.0195
G1 X89.324 Y85.402 E.03721
G1 X89.861 Y85.093 E.01941
G1 X90.957 Y84.639 E.0372
G1 X91.553 Y84.479 E.01937
G1 X93.033 Y84.303 E.04671
G1 X99.796 Y84.303 E.21206
G1 X161.515 Y84.623 E1.93518
G1 X162.82 Y85.021 E.04278
M73 Q0 S55
G1 X163.691 Y86.072 E.04278
G1 X163.88 Y87 E.02971
G1 X163.88 Y123 E1.12875
G1 X163.488 Y124.307 E.04278
G1 X162.442 Y125.183 E.04278
G1 X161.515 Y125.377 E.02971
G1 X99.796 Y125.697 E1.93518
G1 X92.719 Y125.676 E.22188
G1 X91.553 Y125.521 E.03688
G1 X90.957 Y125.361 E.01936
G1 X89.861 Y124.907 E.0372
G1 X89.324 Y124.598 E.01941
G1 X88.389 Y123.881 E.03694
G1 X87.952 Y123.445 E.01936
G1 X86.972 Y122.089 E.05245
G1 X86.456 Y120.86 E.0418
G1 X86.296 Y120.262 E.01942
G1 X86.141 Y119.086 E.03719
G1 X86.12 Y91.225 E.87355
G1 X86.296 Y89.738 E.04694
G1 X86.456 Y89.14 E.01942
G1 X86.91 Y88.043 E.03723
G1 X87.221 Y87.505 E.01948
G1 X87.906 Y86.612 E.03531
M204 S1000
; printing object TaschenlampeAA.stl id:0 copy 0
;WIPE_START
G1 F8640
G1 X88.382 Y86.124 E-.15735
G1 X89.324 Y85.402 E-.27405
G1 X89.861 Y85.093 E-.14298
G1 X90.603 Y84.785 E-.18562
;WIPE_END
G1 E-.04 F2100
G1 Z.6 F720
G1 X105.451 Y121.513 F10800
G1 Z.2 F720
G1 E.8 F2100
M204 S800
;TYPE:Perimeter
G1 F1200
G1 X105.451 Y118.252 E.10223
G1 X100.471 Y118.252 E.15614
G1 X100.471 Y115.588 E.08355
G1 X109.744 Y115.588 E.29077
G1 X109.746 Y117.32 E.05432
G1 X109.611 Y117.14 E.00704
G1 X109.188 Y116.812 E.01681
G1 X108.694 Y116.607 E.01677
G1 X108.165 Y116.536 E.01673
G1 X107.635 Y116.606 E.01676
G1 X107.142 Y116.81 E.01673
G1 X106.719 Y117.135 E.01669
G1 X106.394 Y117.558 E.01674
G1 X106.19 Y118.051 E.01674
G1 X106.12 Y118.58 E.01672
G1 X106.19 Y119.11 E.01678
G1 X106.394 Y119.602 E.01671
G1 X106.719 Y120.025 E.0167
G1 X107.142 Y120.351 E.01675
G1 X107.636 Y120.554 E.01675
G1 X108.165 Y120.624 E.01673
G1 X108.693 Y120.554 E.0167
G1 X109.188 Y120.35 E.01679
G1 X109.612 Y120.019 E.01686
G1 X109.745 Y119.84 E.00701
G1 X109.744 Y121.513 E.05246
G1 X105.511 Y121.513 E.13274
M204 S1000
;WIPE_START
G1 F8640
G1 X105.451 Y118.252 E-.753
G1 X105.42 Y118.252 E-.007
;WIPE_END
G1 E-.04 F2100
G1 Z.6 F720
G1 X106.988 Y119.756 F10800
G1 Z.2 F720
G1 E.8 F2100
M204 S800
;TYPE:External perimeter
G1 F1200
G1 X106.724 Y119.412 E.0136
G1 X106.557 Y119.011 E.0136
G1 X106.5 Y118.58 E.01365
G1 X106.557 Y118.15 E.01361
G1 X106.723 Y117.748 E.01363
G1 X106.988 Y117.404 E.01363
G1 X107.332 Y117.14 E.01358
G1 X107.733 Y116.974 E.01363
G1 X108.165 Y116.916 E.01364
G1 X108.595 Y116.974 E.01361
G1 X108.997 Y117.141 E.01364
G1 X109.34 Y117.407 E.01361
G1 X109.6 Y117.756 E.01367
G1 X109.755 Y118.164 E.01366
G1 X109.786 Y118.58 E.01309
G1 X109.755 Y118.998 E.01313
G1 X109.6 Y119.404 E.01363
G1 X109.34 Y119.753 E.01365
G1 X108.997 Y120.021 E.01365
G1 X108.594 Y120.186 E.01364
G1 X108.165 Y120.244 E.01359
G1 X107.734 Y120.186 E.01362
G1 X107.332 Y120.021 E.01363
G1 X107.035 Y119.793 E.01174
M204 S1000
G1 X106.602 Y119.86 F10800
;WIPE_START
G1 F8640
G1 X106.724 Y119.412 E-.11363
G1 X106.557 Y119.011 E-.10016
G1 X106.5 Y118.58 E-.10051
G1 X106.557 Y118.15 E-.1002
G1 X106.723 Y117.748 E-.10036
G1 X106.988 Y117.404 E-.10035
G1 X107.332 Y117.14 E-.1
G1 X107.511 Y117.066 E-.04478
;WIPE_END
G1 E-.04 F2100
G1 Z.6 F720
G1 X100.439 Y121.66 F10800
G1 Z.2 F720
G1 E.8 F2100
M204 S800
;TYPE:Perimeter
G1 F1200
G1 X100.294 Y121.693 E.00465
G1 X100.301 Y121.656 E.00119
G1 X100.379 Y121.658 E.00243
M204 S1000
;WIPE_START
G1 F8640
G1 X100.294 Y121.693 E-.02113
G1 X100.301 Y121.656 E-.00874
G1 X100.379 Y121.658 E-.01791
;WIPE_END
G1 E-.75222 F2100
G1 Z.6 F720
G1 X105.074 Y121.29 F10800
G1 Z.2 F720
G1 E.8 F2100
M204 S800
;TYPE:External perimeter
G1 F1200
G1 X105.074 Y118.63 E.08343
G1 X100.093 Y118.63 E.15614
G1 X100.093 Y115.211 E.1072
G1 X110.121 Y115.211 E.31441
G1 X110.122 Y117.303 E.06559
G1 X110.152 Y118.799 E.04694
G1 X110.123 Y119.797 E.0313
G1 X110.121 Y121.89 E.06562
G1 X102.224 Y121.89 E.24762
G1 X101.233 Y121.914 E.03108
G1 X100.723 Y121.982 E.01611
G1 X100.248 Y122.09 E.01527
G1 X99.893 Y122.09 E.01113
G1 X99.893 Y121.78 E.00971
G1 X99.992 Y121.269 E.01633
G1 X100.676 Y121.29 E.02147
G1 X105.014 Y121.29 E.13599
M204 S1000
G1 X105.474 Y121.291 F10800
;WIPE_START
G1 F8640
G1 X105.074 Y118.63 E-.61458
G1 X104.444 Y118.63 E-.14542
;WIPE_END
G1 E-.04 F2100
G1 Z.6 F720
G1 X97.899 Y115.209 F10800
G1 Z.2 F720
G1 E.8 F2100
M204 S800
G1 F1200
G1 X97.92 Y115.651 E.01388
G1 X97.922 Y116.892 E.03889
G1 X97.805 Y117.789 E.02837
G1 X97.468 Y118.604 E.02764
G1 X96.931 Y119.303 E.02764
G1 X96.232 Y119.839 E.02763
G1 X95.417 Y120.177 E.02764
G1 X94.529 Y120.293 E.0281
G1 X93.586 Y120.299 E.02957
G1 X93.568 Y120.208 E.0029
G1 X92.934 Y120.199 E.01989
G1 X92.9 Y120.011 E.006
G1 X92.9 Y119.655 E.01115
G1 X93.378 Y119.759 E.01531
G1 X93.372 Y119.825 E.00207
G1 X94.103 Y119.892 E.02302
G1 X94.562 Y119.908 E.0144
G1 X95.319 Y119.811 E.02392
G1 X96.042 Y119.511 E.02456
G1 X96.663 Y119.036 E.02452
G1 X97.14 Y118.414 E.02457
G1 X97.439 Y117.692 E.0245
G1 X97.538 Y116.94 E.02379
G1 X97.543 Y115.652 E.04038
G1 X97.564 Y115.209 E.01389
G1 X97.839 Y115.209 E.0086
M204 S1000
G1 X97.822 Y115.602 F10800
;WIPE_START
G1 F8640
G1 X97.92 Y115.651 E-.10382
G1 X97.922 Y116.892 E-.28639
G1 X97.805 Y117.789 E-.20893
G1 X97.538 Y118.433 E-.16085
;WIPE_END
G1 E-.04 F2100
G1 Z.6 F720
G1 X93.306 Y114.941 F10800
G1 Z.2 F720
G1 E.8 F2100
M204 S800
G1 F1200
G1 X92.759 Y114.863 E.01734
G1 X92.702 Y114.876 E.00181
G1 X92.702 Y114.66 E.00676
G1 X92.744 Y114.456 E.00654
G1 X93.187 Y114.468 E.0139
G1 X93.193 Y114.519 E.0016
G1 X93.924 Y114.644 E.02325
G1 X94.296 Y114.808 E.01275
G1 X94.614 Y115.049 E.01251
G1 X94.853 Y115.36 E.01229
G1 X95 Y115.726 E.01238
G1 X95.052 Y116.12 E.01245
G1 X95.005 Y116.51 E.01231
G1 X94.851 Y116.87 E.01229
G1 X94.609 Y117.183 E.0124
G1 X94.296 Y117.422 E.01235
G1 X93.936 Y117.571 E.01222
G1 X93.123 Y117.656 E.02563
G1 X92.716 Y117.79 E.01343
G1 X92.399 Y118.108 E.01407
G1 X92.227 Y118.535 E.01444
G1 X92.353 Y119.049 E.01658
G1 X92.501 Y119.333 E.01006
G1 X91.725 Y119.333 E.02433
G1 X91.676 Y119.217 E.00393
G1 X91.657 Y118.805 E.01293
G1 X91.777 Y118.412 E.0129
G1 X91.97 Y118.033 E.01333
G1 X92.225 Y117.708 E.01295
G1 X92.535 Y117.466 E.01234
G1 X92.908 Y117.319 E.01256
G1 X93.318 Y117.249 E.01305
G1 X93.322 Y117.211 E.00118
G1 X93.96 Y117.188 E.02001
G1 X94.435 Y116.823 E.01878
G1 X94.647 Y116.413 E.01448
G1 X94.661 Y115.961 E.01417
G1 X94.502 Y115.565 E.01338
G1 X94.279 Y115.31 E.01061
G1 X93.878 Y115.186 E.01315
G1 X93.27 Y115.152 E.01909
G1 X93.296 Y115 E.00484
M204 S1000
G1 X93.19 Y114.558 F10800
;WIPE_START
G1 F8640
G1 X92.759 Y114.863 E-.12807
G1 X92.702 Y114.876 E-.01331
G1 X92.702 Y114.66 E-.04977
G1 X92.744 Y114.456 E-.04817
G1 X93.187 Y114.468 E-.10239
G1 X93.193 Y114.519 E-.01179
G1 X93.924 Y114.644 E-.17121
G1 X94.296 Y114.808 E-.09387
G1 X94.614 Y115.049 E-.09212
G1 X94.744 Y115.218 E-.0493
;WIPE_END
G1 E-.04 F2100
G1 Z.6 F720
G1 X91.643 Y115.356 F10800
G1 Z.2 F720
G1 E.8 F2100
M204 S800
G1 F1200
G1 X91.666 Y115.448 E.00297
G1 X90.814 Y115.811 E.02903
G1 X90.372 Y116.089 E.01638
G1 X89.757 Y116.877 E.03135
G1 X89.377 Y117.793 E.03108
G1 X89.248 Y118.775 E.03105
G1 X89.377 Y119.758 E.03108
G1 X89.756 Y120.673 E.03106
G1 X90.359 Y121.459 E.03105
G1 X91.146 Y122.061 E.03107
G1 X92.061 Y122.44 E.03105
G1 X93.018 Y122.567 E.03028
G1 X97.313 Y122.571 E.13467
G1 X98.273 Y122.555 E.0301
G1 X98.767 Y122.503 E.01555
G1 X99.23 Y122.41 E.01482
G1 X99.574 Y122.41 E.01077
G1 X99.563 Y122.98 E.01788
G1 X99.313 Y122.957 E.00788
G1 X98.821 Y122.949 E.01542
G1 X93.056 Y122.95 E.18074
G1 X91.963 Y122.806 E.03458
G1 X90.956 Y122.389 E.03416
G1 X90.091 Y121.726 E.03417
G1 X89.428 Y120.862 E.03416
G1 X89.011 Y119.855 E.03417
G1 X88.869 Y118.775 E.03416
G1 X89.011 Y117.695 E.03415
G1 X89.428 Y116.688 E.03417
G1 X90.091 Y115.824 E.03415
G1 X90.957 Y115.16 E.0342
G1 X91.534 Y114.917 E.01963
G1 X91.629 Y115.298 E.0123
M204 S1000
G1 X91.602 Y115.441 F10800
G1 X91.424 Y115.257
M204 S800
;TYPE:Gap fill
;WIDTH:0.208536
G1 F1200
G1 X91.094 Y115.397 E.00493
M204 S1000
M204 S800
;WIDTH:0.208535
G1 X90.968 Y115.471 E.00201
M204 S1000
M204 S800
;WIDTH:0.171992
G1 X90.842 Y115.544 E.00157
M204 S1000
M204 S800
;WIDTH:0.135448
G1 X90.716 Y115.618 E.00112
M204 S1000
M204 S800
;WIDTH:0.0989029
G1 X90.712 Y115.62 E.00002
M204 S1000
M204 S800
;WIDTH:0.0981479
G1 X90.649 Y115.664 E.00035
M204 S1000
;WIPE_START
G1 F8640
G1 X90.712 Y115.62 E-.0178
;WIPE_END
G1 E-.7822 F2100
G1 Z.6 F720
G1 X92.167 Y118.123 F10800
G1 Z.2 F720
G1 E.8 F2100
M204 S800
;WIDTH:0.0946921
G1 F1200
G1 X92.151 Y118.149 E.00013
M204 S1000
M204 S800
;WIDTH:0.128177
G1 X91.992 Y118.499 E.00273
M204 S1000
M204 S800
;WIDTH:0.128176
G1 X91.99 Y118.505 E.00005
M204 S1000
M204 S800
;WIDTH:0.133859
G1 X91.873 Y119.144 E.00492
M204 S1000
G1 X92.02 Y119.144 F10800
M204 S800
;WIDTH:0.330427
G1 F1200
G1 X91.933 Y118.547 E.01444
M204 S1000
;WIPE_START
G1 F8640
G1 X92.02 Y119.144 E-.13946
;WIPE_END
G1 E-.66054 F2100
G1 Z.6 F720
G1 X93.735 Y120.079 F10800
G1 Z.2 F720
G1 E.8 F2100
M204 S800
;WIDTH:0.102105
G1 F1200
G1 X93.881 Y120.085 E.00072
M204 S1000
;WIPE_START
G1 F8640
G1 X93.735 Y120.079 E-.03367
;WIPE_END
G1 E-.76633 F2100
G1 Z.6 F720
G1 X94.354 Y115.114 F10800
G1 Z.2 F720
G1 E.8 F2100
M204 S800
;WIDTH:0.124487
G1 F1200
G1 X94.262 Y115.067 E.0007
M204 S1000
M204 S800
;WIDTH:0.155652
G1 X94.171 Y115.021 E.00096
M204 S1000
M204 S800
;WIDTH:0.184832
G1 X93.933 Y114.932 E.003
M204 S1000
M204 S800
;WIDTH:0.189016
G1 X93.916 Y114.926 E.00021
M204 S1000
M204 S800
;WIDTH:0.21533
G1 X93.844 Y114.909 E.00106
M204 S1000
M204 S800
;WIDTH:0.242283
G1 X93.509 Y114.871 E.00559
M204 S1000
;WIPE_START
G1 F8640
G1 X93.844 Y114.909 E-.07791
;WIPE_END
G1 E-.72209 F2100
G1 Z.6 F720
G1 X98.574 Y122.737 F10800
G1 Z.2 F720
G1 E.8 F2100
M204 S800
;WIDTH:0.114353
G1 F1200
G1 X98.799 Y122.725 E.00133
M204 S1000
M204 S800
;WIDTH:0.114853
G1 X98.802 Y122.725 E.00002
M204 S1000
M204 S800
;WIDTH:0.118848
G1 X98.822 Y122.723 E.00013
M204 S1000
M204 S800
;WIDTH:0.118979
G1 X98.823 Y122.722 E0
M204 S1000
M204 S800
;WIDTH:0.165481
G1 X99.04 Y122.703 E.00222
M204 S1000
M204 S800
;WIDTH:0.211985
G1 X99.257 Y122.683 E.00306
M204 S1000
M204 S800
;WIDTH:0.212689
G1 X99.3 Y122.683 E.00061
M204 S1000
M204 S800
;WIDTH:0.212688
G1 X99.324 Y122.708 E.00048
M204 S1000
M204 S800
;WIDTH:0.165152
G1 X99.385 Y122.772 E.0009
M204 S1000
;WIPE_START
G1 F8640
G1 X99.324 Y122.708 E-.02051
;WIPE_END
G1 E-.77949 F2100
G1 Z.6 F720
G1 X100.626 Y121.641 F10800
G1 Z.2 F720
G1 E.8 F2100
M204 S800
;WIDTH:0.347364
G1 F1200
G1 X100.914 Y121.622 E.00729
M204 S1000
M204 S800
;WIDTH:0.319334
G1 X101.201 Y121.603 E.00662
M204 S1000
M204 S800
;WIDTH:0.291305
G1 X101.215 Y121.602 E.00028
M204 S1000
M204 S800
;WIDTH:0.290256
G1 X102.219 Y121.59 E.02064
M204 S1000
M204 S800
;WIDTH:0.265815
G1 X102.221 Y121.59 E.00005
M204 S1000
M204 S800
;WIDTH:0.265781
G1 X105.262 Y121.59 E.05635
M204 S1000
;WIPE_START
G1 F8640
G1 X102.221 Y121.59 E-.70212
;WIPE_END
G1 E-.09788 F2100
G1 Z.6 F720
G1 X105.813 Y119.032 F10800
G1 Z.2 F720
G1 E.8 F2100
M204 S800
;WIDTH:0.369816
G1 F1200
M73 Q1 S55
G1 X105.785 Y118.599 E.01179
M204 S1000
M204 S800
;WIDTH:0.334377
G1 X105.785 Y118.561 E.00093
M204 S1000
M204 S800
;WIDTH:0.369698
G1 X105.813 Y118.13 E.01173
M204 S1000
;WIPE_START
G1 F8640
G1 X105.785 Y118.561 E-.09971
;WIPE_END
G1 E-.70029 F2100
G1 Z.6 F720
M73 P1 R55
G1 X109.426 Y116.73 F10800
G1 Z.2 F720
G1 E.8 F2100
M204 S800
;WIDTH:0.115537
G1 F1200
G1 X109.556 Y116.806 E.00091
M204 S1000
G1 X109.807 Y117.499 F10800
M204 S800
;WIDTH:0.243538
G1 F1200
G1 X109.844 Y117.608 E.00192
M204 S1000
M204 S800
;WIDTH:0.234508
G1 X109.851 Y117.633 E.00042
M204 S1000
M204 S800
;WIDTH:0.22184
G1 X109.876 Y117.765 E.00199
M204 S1000
M204 S800
;WIDTH:0.179
G1 X109.902 Y117.896 E.00152
M204 S1000
M204 S800
;WIDTH:0.13616
G1 X109.927 Y118.028 E.00104
M204 S1000
;WIPE_START
G1 F8640
G1 X109.902 Y117.896 E-.03094
;WIPE_END
G1 E-.76906 F2100
G1 Z.6 F720
G1 X109.933 Y119.119 F10800
G1 Z.2 F720
G1 E.8 F2100
M204 S800
;WIDTH:0.136772
G1 F1200
G1 X109.906 Y119.255 E.00108
M204 S1000
M204 S800
;WIDTH:0.180224
G1 X109.878 Y119.391 E.00159
M204 S1000
M204 S800
;WIDTH:0.223676
G1 X109.851 Y119.528 E.00209
M204 S1000
M204 S800
;WIDTH:0.236164
G1 X109.844 Y119.553 E.00043
M204 S1000
M204 S800
;WIDTH:0.244503
G1 X109.807 Y119.662 E.00192
M204 S1000
G1 X109.557 Y120.355 F10800
M204 S800
;WIDTH:0.116797
G1 F1200
G1 X109.423 Y120.433 E.00095
M204 S1000
G1 X108.916 Y120.584 F10800
M204 S800
;TYPE:Solid infill
;WIDTH:0.439483
G1 F1200
G1 X109.462 Y121.13 E.02545
G1 X109.462 Y121.23 E.00332
G1 X109.002 Y121.23 E.01517
G1 X108.62 Y120.849 E.01779
G1 X108.113 Y120.902 E.01681
G1 X108.441 Y121.23 E.01529
G1 X107.88 Y121.23 E.01849
G1 X107.421 Y120.771 E.0214
G1 X106.999 Y120.598 E.01504
G1 X106.517 Y120.226 E.02008
G1 X106.147 Y119.745 E.02
G1 X105.955 Y119.306 E.01581
G1 X105.733 Y119.32 E.00734
G1 X105.733 Y119.645 E.01069
G1 X107.319 Y121.23 E.07395
G1 X106.758 Y121.23 E.01849
G1 X105.733 Y120.205 E.04779
G1 X105.733 Y120.766 E.01849
G1 X106.367 Y121.4 E.02955
M204 S1000
;WIPE_START
G1 F8640
G1 X105.733 Y120.766 E-.20695
G1 X105.733 Y120.205 E-.1295
G1 X106.758 Y121.23 E-.33467
G1 X107.143 Y121.23 E-.08888
;WIPE_END
G1 E-.04 F2100
G1 Z.6 F720
G1 X108.843 Y115.701 F10800
G1 Z.2 F720
G1 E.8 F2100
M204 S800
;WIDTH:0.432214
G1 F1200
G1 X109.462 Y116.32 E.02834
G1 X109.462 Y116.357 E.00121
G1 X109.353 Y116.294 E.0041
G1 X109.221 Y116.519 E.00846
G1 X109.033 Y116.441 E.00661
G1 X108.462 Y115.87 E.02612
G1 X107.912 Y115.87 E.01782
G1 X108.311 Y116.27 E.0183
G1 X108.165 Y116.251 E.00479
G1 X107.791 Y116.3 E.01221
G1 X107.361 Y115.87 E.01968
G1 X106.81 Y115.87 E.01782
G1 X107.356 Y116.416 E.02496
G1 X106.973 Y116.583 E.01353
G1 X106.26 Y115.87 E.03264
G1 X105.709 Y115.87 E.01782
G1 X106.661 Y116.822 E.04358
G1 X106.518 Y116.933 E.00586
G1 X106.389 Y117.1 E.00685
G1 X105.159 Y115.87 E.05631
G1 X104.608 Y115.87 E.01782
G1 X106.15 Y117.412 E.07056
G1 X105.988 Y117.8 E.01363
G1 X104.058 Y115.87 E.08835
G1 X103.507 Y115.87 E.01782
G1 X105.46 Y117.823 E.08938
G1 X105.365 Y117.817 E.00305
G1 X105.355 Y117.97 E.00497
G1 X105.056 Y117.97 E.00969
G1 X102.957 Y115.87 E.0961
G1 X102.406 Y115.87 E.01782
G1 X104.505 Y117.97 E.0961
G1 X103.955 Y117.97 E.01782
G1 X101.856 Y115.87 E.0961
