; generated by PrusaSlicer 2.4.1+win64 on 2023-05-03 at 08:21:43 UTC


;
;
; 

; external perimeters extrusion width = 0.60mm
; perimeters extrusion width = 0.50mm
; infill extrusion width = 0.50mm
; solid infill extrusion width = 0.50mm
; top infill extrusion width = 0.45mm
; first layer extrusion width = 0.42mm

M73 P0 R5
M73 Q0 S5
M201 X1000 Y1000 Z200 E5000 ; sets maximum accelerations, mm/sec^2
M203 X200 Y200 Z12 E120 ; sets maximum feedrates, mm / sec
M204 P1250 R1250 T1250 ; sets acceleration (P, T) and retract acceleration (R), mm/sec^2
M205 X8.00 Y8.00 Z0.40 E4.50 ; sets the jerk limits, mm/sec
M205 S0 T0 ; sets the minimum extruding and travel feed rate, mm/sec
M107
;TYPE:Custom
M862.3 P "MK3S" ; printer model check
M862.1 P0.4 ; nozzle diameter check
M115 U3.11.0 ; tell printer latest fw version
G90 ; use absolute coordinates
M83 ; extruder relative mode
M104 S215 ; set extruder temp
M140 S60 ; set bed temp
M190 S60 ; wait for bed temp
M109 S215 ; wait for extruder temp
G28 W ; home all without mesh bed level
G80 ; mesh bed leveling

G1 Z0.2 F720
G1 Y-3 F1000 ; go outside print area
G92 E0
G1 X60 E9 F1000 ; intro line
G1 X100 E12.5 F1000 ; intro line

G92 E0
M221 S95

; Don't change E values below. Excessive value can damage the printer.

M907 E538 ; set extruder motor current
G21 ; set units to millimeters
G90 ; use absolute coordinates
M83 ; use relative distances for extrusion
M900 K0.05 ; Filament gcode LA 1.5
M900 K30 ; Filament gcode LA 1.0
M107
;LAYER_CHANGE
;Z:0.2
;HEIGHT:0.2
;BEFORE_LAYER_CHANGE
G92 E0.0
;0.2


M73 P1 R5
M73 Q1 S5
G1 E-.8 F2100
G1 Z.4 F720
;AFTER_LAYER_CHANGE
;0.2
G1 X115.772 Y97.763 F10800
G1 Z.2 F720
M73 P2 R5
M73 Q2 S5
G1 E.8 F2100
M204 S800
;TYPE:Skirt/Brim
;WIDTH:0.42
G1 F1200
G1 X117.763 Y95.772 E.08828
G1 X118.459 Y95.265 E.027
G1 X120.968 Y93.986 E.0883
G1 X121.789 Y93.72 E.02705
G1 X124.57 Y93.28 E.08828
G1 X125.43 Y93.28 E.02699
G1 X128.211 Y93.72 E.08828
G1 X129.032 Y93.986 E.02705
G1 X131.541 Y95.265 E.0883
G1 X132.237 Y95.772 E.027
G1 X134.228 Y97.763 E.08828
G1 X134.735 Y98.459 E.027
G1 X136.014 Y100.968 E.0883
G1 X136.28 Y101.789 E.02705
G1 X136.72 Y104.57 E.08828
G1 X136.72 Y105.43 E.02699
G1 X136.28 Y108.211 E.08828
G1 X136.014 Y109.032 E.02705
G1 X134.735 Y111.541 E.0883
G1 X134.228 Y112.237 E.027
G1 X132.237 Y114.228 E.08828
G1 X131.541 Y114.735 E.027
G1 X129.032 Y116.014 E.0883
G1 X128.211 Y116.28 E.02705
G1 X125.43 Y116.72 E.08828
G1 X124.57 Y116.72 E.02699
G1 X121.789 Y116.28 E.08828
G1 X120.968 Y116.014 E.02705
M73 Q3 S5
G1 X118.459 Y114.735 E.0883
G1 X117.763 Y114.228 E.027
G1 X115.772 Y112.237 E.08828
G1 X115.265 Y111.541 E.027
M73 P3 R5
G1 X113.986 Y109.032 E.0883
G1 X113.72 Y108.211 E.02705
G1 X113.28 Y105.43 E.08828
G1 X113.28 Y104.57 E.02699
G1 X113.72 Y101.789 E.08828
G1 X113.986 Y100.968 E.02705
G1 X115.265 Y98.459 E.0883
G1 X115.736 Y97.811 E.02512
M204 S1000
G1 X116.038 Y98.03 F10800
M204 S800
G1 F1200
G1 X118.029 Y96.038 E.08832
G1 X118.63 Y95.601 E.0233
G1 X121.139 Y94.322 E.0883
G1 X121.848 Y94.092 E.02334
G1 X124.629 Y93.652 E.08828
G1 X125.371 Y93.652 E.02329
G1 X128.152 Y94.092 E.08828
G1 X128.861 Y94.322 E.02334
G1 X131.37 Y95.601 E.0883
G1 X131.971 Y96.038 E.0233
G1 X133.962 Y98.029 E.08828
G1 X134.399 Y98.63 E.0233
G1 X135.678 Y101.139 E.0883
G1 X135.908 Y101.848 E.02334
G1 X136.348 Y104.629 E.08828
G1 X136.348 Y105.371 E.02329
G1 X135.908 Y108.152 E.08828
G1 X135.678 Y108.861 E.02334
G1 X134.399 Y111.37 E.0883
G1 X133.962 Y111.971 E.0233
G1 X131.971 Y113.962 E.08828
G1 X131.37 Y114.399 E.0233
G1 X128.861 Y115.678 E.0883
G1 X128.152 Y115.908 E.02334
G1 X125.371 Y116.348 E.08828
G1 X124.629 Y116.348 E.02329
M73 Q4 S5
G1 X121.848 Y115.908 E.08828
G1 X121.139 Y115.678 E.02334
G1 X118.63 Y114.399 E.0883
M73 P4 R5
G1 X118.029 Y113.962 E.0233
G1 X116.038 Y111.971 E.08828
G1 X115.601 Y111.37 E.0233
G1 X114.322 Y108.861 E.0883
G1 X114.092 Y108.152 E.02334
G1 X113.652 Y105.371 E.08828
G1 X113.652 Y104.629 E.02329
G1 X114.092 Y101.848 E.08828
G1 X114.322 Y101.139 E.02334
G1 X115.601 Y98.63 E.0883
G1 X116.002 Y98.079 E.02139
M204 S1000
; printing object TaschenlampeStab.stl id:0 copy 0
;WIPE_START
G1 F8640
G1 X118.029 Y96.038 E-.66408
G1 X118.365 Y95.794 E-.09592
;WIPE_END
G1 E-.04 F2100
G1 Z.6 F720
G1 X121.926 Y102.766 F10800
G1 Z.2 F720
G1 E.8 F2100
M204 S800
;TYPE:Perimeter
G1 F1200
G1 X122.766 Y101.926 E.03725
G1 X123.826 Y101.386 E.03728
G1 X125 Y101.2 E.03728
G1 X126.174 Y101.386 E.03728
G1 X127.234 Y101.926 E.03728
G1 X128.074 Y102.766 E.03725
G1 X128.614 Y103.826 E.03729
G1 X128.799 Y105 E.03727
G1 X128.614 Y106.174 E.03727
G1 X128.074 Y107.234 E.03729
G1 X127.234 Y108.074 E.03725
G1 X126.174 Y108.614 E.03729
G1 X125 Y108.799 E.03727
G1 X123.826 Y108.614 E.03727
G1 X122.766 Y108.074 E.03729
G1 X121.926 Y107.234 E.03725
G1 X121.386 Y106.174 E.03728
G1 X121.2 Y105 E.03728
G1 X121.386 Y103.826 E.03728
G1 X121.899 Y102.82 E.0354
M204 S1000
G1 X122.235 Y102.991 F10800
M204 S800
;TYPE:External perimeter
G1 F1200
G1 X122.991 Y102.235 E.03351
G1 X123.944 Y101.749 E.03353
G1 X125 Y101.582 E.03354
G1 X126.056 Y101.749 E.03354
G1 X127.009 Y102.235 E.03353
G1 X127.765 Y102.991 E.03351
M73 Q5 S5
G1 X128.251 Y103.944 E.03354
G1 X128.417 Y105 E.03352
G1 X128.251 Y106.056 E.03352
G1 X127.765 Y107.009 E.03354
G1 X127.009 Y107.765 E.03351
G1 X126.056 Y108.251 E.03354
M73 P5 R5
G1 X125 Y108.417 E.03352
G1 X123.944 Y108.251 E.03352
G1 X122.991 Y107.765 E.03354
G1 X122.235 Y107.009 E.03351
G1 X121.749 Y106.056 E.03353
G1 X121.582 Y105 E.03354
G1 X121.749 Y103.944 E.03354
G1 X122.208 Y103.044 E.03165
M204 S1000
G1 X122.073 Y102.625 F10800
;WIPE_START
G1 F8640
G1 X122.991 Y102.235 E-.25998
G1 X123.944 Y101.749 E-.24695
G1 X125 Y101.582 E-.24696
G1 X125.026 Y101.586 E-.00611
;WIPE_END
G1 E-.04 F2100
G1 Z.6 F720
G1 X118.364 Y100.178 F10800
G1 Z.2 F720
G1 E.8 F2100
M204 S800
;TYPE:Perimeter
G1 F1200
G1 X120.178 Y98.364 E.08047
G1 X122.465 Y97.198 E.08048
G1 X125 Y96.797 E.08046
G1 X127.535 Y97.198 E.08046
G1 X129.822 Y98.364 E.08048
G1 X131.636 Y100.178 E.08047
G1 X132.802 Y102.465 E.08048
G1 X133.203 Y105 E.08046
G1 X132.802 Y107.535 E.08046
G1 X131.636 Y109.822 E.08048
G1 X129.822 Y111.636 E.08047
G1 X127.535 Y112.802 E.08048
G1 X125 Y113.203 E.08046
G1 X122.465 Y112.802 E.08046
G1 X120.178 Y111.636 E.08048
G1 X118.364 Y109.822 E.08047
G1 X117.198 Y107.535 E.08048
M73 Q6 S5
G1 X116.797 Y105 E.08046
G1 X117.198 Y102.465 E.08046
G1 X118.336 Y100.232 E.0786
M204 S1000
M73 P6 R5
G1 X118.055 Y99.954 F10800
M204 S800
;TYPE:External perimeter
G1 F1200
G1 X119.954 Y98.055 E.08421
G1 X122.347 Y96.835 E.08423
G1 X125 Y96.415 E.08421
G1 X127.653 Y96.835 E.08421
G1 X130.046 Y98.055 E.08423
G1 X131.945 Y99.954 E.08421
G1 X133.165 Y102.347 E.08423
G1 X133.585 Y105 E.08421
G1 X133.165 Y107.653 E.08421
G1 X131.945 Y110.046 E.08423
G1 X130.046 Y111.945 E.08421
G1 X127.653 Y113.165 E.08423
G1 X125 Y113.585 E.08421
G1 X122.347 Y113.165 E.08421
G1 X119.954 Y111.945 E.08423
G1 X118.055 Y110.046 E.08421
G1 X116.835 Y107.653 E.08423
G1 X116.415 Y105 E.08421
G1 X116.835 Y102.347 E.08421
G1 X118.028 Y100.007 E.08235
M204 S1000
G1 X118.453 Y99.996 F10800
;WIPE_START
G1 F8640
G1 X119.954 Y98.055 E-.63337
G1 X120.443 Y97.806 E-.12663
;WIPE_END
M73 Q7 S5
G1 E-.04 F2100
G1 Z.6 F720
G1 X129.258 Y98.204 F10800
G1 Z.2 F720
G1 E.8 F2100
M204 S800
;TYPE:Solid infill
;WIDTH:0.424239
M73 P7 R5
G1 F1200
G1 X131.408 Y100.353 E.09638
G1 X131.969 Y101.453 E.03915
G1 X128.547 Y98.031 E.15343
G1 X127.447 Y97.471 E.03915
G1 X132.529 Y102.553 E.2279
G1 X132.631 Y103.194 E.02058
G1 X126.806 Y97.369 E.2612
G1 X126.165 Y97.268 E.02056
G1 X132.732 Y103.835 E.29447
G1 X132.834 Y104.475 E.02056
G1 X125.525 Y97.166 E.32774
G1 X125 Y97.083 E.01685
G1 X124.916 Y97.097 E.0027
G1 X132.903 Y105.084 E.35817
G1 X132.83 Y105.55 E.01495
M73 Q8 S5
G1 X124.45 Y97.17 E.37574
G1 X123.985 Y97.244 E.01495
M73 P8 R5
G1 X132.756 Y106.015 E.39332
G1 X132.682 Y106.481 E.01495
G1 X123.519 Y97.318 E.41089
G1 X123.053 Y97.391 E.01495
G1 X132.609 Y106.947 E.42847
G1 X132.535 Y107.412 E.01495
G1 X128.891 Y103.768 E.16339
G1 X128.992 Y104.408 E.02054
G1 X132.361 Y107.777 E.15107
G1 X132.179 Y108.134 E.01271
M73 Q9 S5
G1 X129.08 Y105.035 E.13898
G1 X129.006 Y105.501 E.01496
G1 X131.997 Y108.492 E.1341
G1 X131.815 Y108.849 E.01271
M73 P9 R5
G1 X128.933 Y105.967 E.12922
G1 X128.886 Y106.263 E.00948
G1 X128.82 Y106.393 E.00465
G1 X131.633 Y109.206 E.12613
G1 X131.451 Y109.563 E.01271
G1 X128.638 Y106.75 E.12614
G1 X128.455 Y107.107 E.01271
G1 X131.203 Y109.855 E.1232
G1 X130.933 Y110.125 E.01209
G1 X128.258 Y107.449 E.11997
G1 X127.988 Y107.719 E.01209
G1 X130.664 Y110.394 E.11997
G1 X130.394 Y110.664 E.01209
G1 X127.719 Y107.988 E.11997
G1 X127.449 Y108.258 E.01209
G1 X130.125 Y110.933 E.11997
G1 X129.855 Y111.203 E.01209
G1 X127.107 Y108.455 E.1232
G1 X126.75 Y108.638 E.01271
G1 X129.563 Y111.451 E.12614
G1 X129.206 Y111.633 E.01271
G1 X126.393 Y108.82 E.12613
G1 X126.263 Y108.886 E.00465
G1 X125.967 Y108.933 E.00949
G1 X128.849 Y111.815 E.12922
G1 X128.492 Y111.997 E.01271
G1 X125.501 Y109.006 E.1341
G1 X125.035 Y109.08 E.01496
M73 Q10 S5
G1 X128.134 Y112.179 E.13898
G1 X127.777 Y112.361 E.01271
M73 P10 R5
G1 X124.408 Y108.992 E.15107
G1 X123.768 Y108.891 E.02054
G1 X127.546 Y112.669 E.16941
M204 S1000
;WIPE_START
G1 F8640
G1 X125.219 Y110.342 E-.76
;WIPE_END
G1 E-.04 F2100
G1 Z.6 F720
G1 X122.454 Y97.331 F10800
G1 Z.2 F720
M73 P10 R4
G1 E.8 F2100
M204 S800
G1 F1200
M73 Q10 S4
G1 X126.232 Y101.109 E.16941
G1 X125.591 Y101.007 E.02057
G1 X122.223 Y97.639 E.15104
G1 X121.866 Y97.821 E.01271
G1 X124.964 Y100.919 E.13893
G1 X124.498 Y100.993 E.01494
G1 X121.508 Y98.003 E.13408
G1 X121.151 Y98.185 E.01271
G1 X124.033 Y101.067 E.12922
G1 X123.737 Y101.114 E.0095
G1 X123.607 Y101.18 E.00463
G1 X120.794 Y98.367 E.12613
G1 X120.437 Y98.549 E.01271
G1 X123.25 Y101.362 E.12614
G1 X122.893 Y101.545 E.01271
G1 X120.145 Y98.797 E.1232
G1 X119.875 Y99.067 E.01209
M73 Q11 S4
G1 X122.551 Y101.742 E.11997
G1 X122.281 Y102.012 E.01209
M73 P11 R4
G1 X119.606 Y99.336 E.11997
G1 X119.336 Y99.606 E.01209
G1 X122.012 Y102.281 E.11997
G1 X121.742 Y102.551 E.01209
G1 X119.067 Y99.875 E.11997
G1 X118.797 Y100.145 E.01209
G1 X121.545 Y102.893 E.1232
G1 X121.362 Y103.25 E.01271
G1 X118.549 Y100.437 E.12614
G1 X118.367 Y100.794 E.01271
G1 X121.18 Y103.607 E.12613
G1 X121.114 Y103.737 E.00463
G1 X121.067 Y104.033 E.0095
G1 X118.185 Y101.151 E.12922
G1 X118.003 Y101.508 E.01271
G1 X120.993 Y104.499 E.13408
G1 X120.919 Y104.964 E.01494
G1 X117.821 Y101.866 E.13894
G1 X117.639 Y102.223 E.01271
G1 X121.007 Y105.591 E.15104
G1 X121.109 Y106.232 E.02057
G1 X117.465 Y102.588 E.1634
G1 X117.391 Y103.054 E.01495
G1 X126.946 Y112.609 E.42846
G1 X126.481 Y112.683 E.01495
M73 P12 R4
M73 Q12 S4
G1 X117.317 Y103.519 E.41089
G1 X117.244 Y103.985 E.01495
G1 X126.015 Y112.756 E.39331
G1 X125.55 Y112.83 E.01495
G1 X117.17 Y104.45 E.37574
G1 X117.096 Y104.916 E.01495
G1 X125.084 Y112.904 E.35817
G1 X125 Y112.917 E.0027
G1 X124.475 Y112.834 E.01685
G1 X117.166 Y105.525 E.32773
G1 X117.268 Y106.166 E.02056
M73 Q13 S4
G1 X123.834 Y112.732 E.29446
G1 X123.194 Y112.631 E.02056
M73 P13 R4
G1 X117.369 Y106.806 E.26119
G1 X117.471 Y107.447 E.02058
G1 X122.553 Y112.529 E.22788
G1 X121.453 Y111.969 E.03915
G1 X118.031 Y108.547 E.15341
G1 X118.592 Y109.647 E.03915
G1 X120.741 Y111.796 E.09636
M204 S1000
; stop printing object TaschenlampeStab.stl id:0 copy 0
M106 S84.15
;LAYER_CHANGE
;Z:0.5
;HEIGHT:0.3
;BEFORE_LAYER_CHANGE
G92 E0.0
;0.5


;WIPE_START
G1 F8640
G1 X118.592 Y109.647 E-.70177
G1 X118.478 Y109.423 E-.05823
;WIPE_END
G1 E-.04 F2100
G1 Z.6 F720
;AFTER_LAYER_CHANGE
;0.5
M104 S210 ; set temperature
G1 X115.071 Y111.159 F10800
G1 Z.5 F720
G1 E.8 F2100
;TYPE:Skirt/Brim
;WIDTH:0.42
G1 F2700
G1 X113.986 Y109.032 E.10592
G1 X113.72 Y108.211 E.03826
G1 X113.28 Y105.43 E.12489
G1 X113.28 Y104.57 E.03818
G1 X113.72 Y101.789 E.12489
G1 X113.986 Y100.968 E.03826
G1 X115.265 Y98.459 E.12491
G1 X115.772 Y97.763 E.0382
G1 X117.763 Y95.772 E.12489
G1 X118.459 Y95.265 E.0382
G1 X120.968 Y93.986 E.12491
G1 X121.789 Y93.72 E.03826
G1 X124.57 Y93.28 E.12489
G1 X125.43 Y93.28 E.03818
G1 X128.211 Y93.72 E.12489
G1 X129.032 Y93.986 E.03826
G1 X131.541 Y95.265 E.12491
G1 X132.237 Y95.772 E.0382
G1 X134.228 Y97.763 E.12489
G1 X134.735 Y98.459 E.0382
G1 X136.014 Y100.968 E.12491
G1 X136.28 Y101.789 E.03826
G1 X136.72 Y104.57 E.12489
G1 X136.72 Y105.43 E.03818
M73 Q14 S4
G1 X136.28 Y108.211 E.12489
G1 X136.014 Y109.032 E.03826
G1 X134.735 Y111.541 E.12491
G1 X134.228 Y112.237 E.0382
G1 X132.237 Y114.228 E.12489
G1 X131.541 Y114.735 E.0382
G1 X129.032 Y116.014 E.12491
M73 P14 R4
G1 X128.211 Y116.28 E.03826
G1 X125.43 Y116.72 E.12489
G1 X124.57 Y116.72 E.03818
G1 X121.789 Y116.28 E.12489
G1 X120.968 Y116.014 E.03826
G1 X118.459 Y114.735 E.12491
G1 X117.763 Y114.228 E.0382
G1 X115.772 Y112.237 E.12489
G1 X115.265 Y111.541 E.0382
G1 X115.098 Y111.213 E.01633
G1 X115.434 Y111.041 F10800
G1 F2700
G1 X114.322 Y108.861 E.10858
G1 X114.092 Y108.152 E.03302
G1 X113.652 Y105.371 E.12489
G1 X113.652 Y104.629 E.03295
G1 X114.092 Y101.848 E.12489
G1 X114.322 Y101.139 E.03302
G1 X115.601 Y98.63 E.12491
G1 X116.038 Y98.029 E.03297
G1 X118.029 Y96.038 E.12489
G1 X118.63 Y95.601 E.03297
G1 X121.139 Y94.322 E.12491
G1 X121.848 Y94.092 E.03302
G1 X124.629 Y93.652 E.12489
G1 X125.371 Y93.652 E.03295
G1 X128.152 Y94.092 E.12489
G1 X128.861 Y94.322 E.03302
G1 X131.37 Y95.601 E.12491
G1 X131.971 Y96.038 E.03297
G1 X133.962 Y98.029 E.12489
G1 X134.399 Y98.63 E.03297
G1 X135.678 Y101.139 E.12491
G1 X135.908 Y101.848 E.03302
G1 X136.348 Y104.629 E.12489
G1 X136.348 Y105.371 E.03295
G1 X135.908 Y108.152 E.12489
G1 X135.678 Y108.861 E.03302
G1 X134.399 Y111.37 E.12491
G1 X133.962 Y111.971 E.03297
G1 X131.971 Y113.962 E.12489
G1 X131.37 Y114.399 E.03297
G1 X128.861 Y115.678 E.12491
G1 X128.152 Y115.908 E.03302
G1 X125.371 Y116.348 E.12489
G1 X124.629 Y116.348 E.03295
G1 X121.848 Y115.908 E.12489
G1 X121.139 Y115.678 E.03302
G1 X118.63 Y114.399 E.12491
G1 X118.029 Y113.962 E.03297
G1 X116.038 Y111.971 E.12489
G1 X115.601 Y111.37 E.03297
G1 X115.461 Y111.095 E.01367
; printing object TaschenlampeStab.stl id:0 copy 0
;WIPE_START
G1 F8640
G1 X114.322 Y108.861 E-.57908
G1 X114.092 Y108.152 E-.17192
G1 X114.086 Y108.114 E-.009
;WIPE_END
G1 E-.04 F2100
G1 Z.9 F720
G1 X121.928 Y107.233 F10800
G1 Z.5 F720
G1 E.8 F2100
M204 S800
;TYPE:Perimeter
;WIDTH:0.5
G1 F1800
G1 X121.388 Y106.174 E.06457
G1 X121.202 Y105 E.06458
G1 X121.388 Y103.826 E.06458
G1 X121.928 Y102.767 E.06457
G1 X122.767 Y101.928 E.06452
G1 X123.826 Y101.388 E.06457
G1 X125 Y101.202 E.06458
G1 X126.174 Y101.388 E.06458
G1 X127.233 Y101.928 E.06457
G1 X128.072 Y102.767 E.06452
G1 X128.613 Y103.826 E.0646
G1 X128.797 Y105 E.06455
G1 X128.613 Y106.174 E.06455
M73 Q15 S4
G1 X128.072 Y107.233 E.0646
G1 X127.233 Y108.072 E.06452
G1 X126.174 Y108.613 E.0646
G1 X125 Y108.797 E.06455
G1 X123.826 Y108.613 E.06455
G1 X122.767 Y108.072 E.0646
G1 X121.97 Y107.275 E.06126
M204 S1000
G1 X122.325 Y106.944 F10800
M204 S800
;TYPE:External perimeter
;WIDTH:0.6
M73 P15 R4
G1 F1800
G1 X121.855 Y106.022 E.06912
G1 X121.693 Y105 E.06912
G1 X121.855 Y103.978 E.06912
G1 X122.325 Y103.056 E.06912
G1 X123.056 Y102.325 E.06907
G1 X123.978 Y101.855 E.06912
G1 X125 Y101.693 E.06912
G1 X126.022 Y101.855 E.06912
G1 X126.944 Y102.325 E.06912
G1 X127.675 Y103.056 E.06907
G1 X128.145 Y103.978 E.06913
G1 X128.306 Y105 E.0691
G1 X128.145 Y106.022 E.0691
G1 X127.675 Y106.944 E.06913
G1 X126.944 Y107.675 E.06907
G1 X126.022 Y108.145 E.06913
G1 X125 Y108.306 E.0691
G1 X123.978 Y108.145 E.0691
G1 X123.056 Y107.675 E.06913
G1 X122.368 Y106.986 E.06506
M204 S1000
G1 X121.928 Y106.986 F10800
;WIPE_START
G1 F8640
G1 X121.855 Y106.022 E-.25212
G1 X121.693 Y105 E-.23891
G1 X121.855 Y103.978 E-.23891
G1 X121.914 Y103.862 E-.03006
;WIPE_END
G1 E-.04 F2100
G1 Z.9 F720
G1 X118.362 Y109.822 F10800
G1 Z.5 F720
G1 E.8 F2100
M204 S800
;TYPE:Perimeter
;WIDTH:0.5
G1 F3000
G1 X117.197 Y107.535 E.13949
