; generated by PrusaSlicer 2.7.2+win64 on 2024-07-16 at 14:38:32 UTC


;
;
; 

; external perimeters extrusion width = 0.60mm
; perimeters extrusion width = 0.50mm
; infill extrusion width = 0.50mm
; solid infill extrusion width = 0.50mm
; top infill extrusion width = 0.45mm
; first layer extrusion width = 0.42mm

M73 P0 R99
M73 Q0 S100
M201 X1000 Y1000 Z200 E5000 ; sets maximum accelerations, mm/sec^2
M203 X200 Y200 Z12 E120 ; sets maximum feedrates, mm / sec
M204 S1250 T1250 ; sets acceleration (S) and retract acceleration (R), mm/sec^2
M205 X8.00 Y8.00 Z0.40 E4.50 ; sets the jerk limits, mm/sec
M205 S0 T0 ; sets the minimum extruding and travel feed rate, mm/sec

; printing object TaschenlampeOhneDeckel.stl id:0 copy 0
; stop printing object TaschenlampeOhneDeckel.stl id:0 copy 0

;TYPE:Custom
M862.3 P "MK3S" ; printer model check
M862.1 P0.4 ; nozzle diameter check
M115 U3.11.0 ; tell printer latest fw version
G90 ; use absolute coordinates
M83 ; extruder relative mode
M104 S215 ; set extruder temp
M140 S60 ; set bed temp
M190 S60 ; wait for bed temp
M109 S215 ; wait for extruder temp
G28 W ; home all without mesh bed level
G80 ; mesh bed leveling

G1 Z0.2 F720
G1 Y-3 F1000 ; go outside print area
G92 E0
G1 X60 E9 F1000 ; intro line
G1 X100 E12.5 F1000 ; intro line

G92 E0
M221 S95

; Don't change E values below. Excessive value can damage the printer.

M907 E538 ; set extruder motor current
G21 ; set units to millimeters
G90 ; use absolute coordinates
M83 ; use relative distances for extrusion
M900 K0.05 ; Filament gcode LA 1.5
M900 K30 ; Filament gcode LA 1.0
M107
;LAYER_CHANGE
;Z:0.2
;HEIGHT:0.2
G1 E-.8 F2100
G1 Z.6 F720
G1 X102.515 Y50.193 F10800
G1 Z.2 F720
G1 E.8 F2100
M204 S800
;TYPE:Skirt/Brim
;WIDTH:0.42
G1 F1200
G1 X103.56 Y49.317 E.04275
G1 X104.5 Y49.123 E.03009
G1 X145.5 Y49.123 E1.28553
G1 X146.807 Y49.515 E.04278
G1 X147.683 Y50.56 E.04275
G1 X147.877 Y51.5 E.03009
G1 X147.877 Y158.5 E3.35491
G1 X147.485 Y159.807 E.04278
G1 X146.44 Y160.683 E.04275
G1 X145.5 Y160.877 E.03009
G1 X104.5 Y160.877 E1.28553
G1 X103.193 Y160.485 E.04278
G1 X102.317 Y159.44 E.04275
G1 X102.123 Y158.5 E.03009
G1 X102.123 Y51.5 E3.35491
G1 X102.497 Y50.25 E.04091
M204 S1000
; printing object TaschenlampeOhneDeckel.stl id:0 copy 0
;WIPE_START
G1 F8640
G1 X102.515 Y50.193 E-.0138
G1 X103.56 Y49.317 E-.31486
G1 X104.5 Y49.123 E-.22162
G1 X105.581 Y49.123 E-.24972
;WIPE_END
G1 Z.6 F720
G1 X105.287 Y52.287 F10800
G1 Z.2 F720
G1 E.8 F2100
M204 S800
;TYPE:Perimeter
;WIDTH:0.419999
G1 F1200
G1 X144.713 Y52.287 E1.23617
G1 X144.713 Y72 E.61809
G1 X144.713 Y157.713 E2.68747
G1 X105.287 Y157.713 E1.23617
G1 X105.287 Y52.347 E3.30367
M204 S1000
G1 X104.91 Y51.91 F10800
M204 S800
;TYPE:External perimeter
G1 F1200
G1 X145.09 Y51.91 E1.25981
G1 X145.09 Y72 E.62991
M73 Q0 S99
G1 X145.09 Y158.09 E2.69929
G1 X104.91 Y158.09 E1.25981
G1 X104.91 Y51.97 E3.32731
M204 S1000
;WIPE_START
G1 F8640
G1 X104.91 Y51.91 E-.01385
G1 X108.315 Y51.91 E-.78615
;WIPE_END
G1 Z.6 F720
G1 X144.6 Y53.165 F10800
G1 Z.2 F720
G1 E.8 F2100
M204 S800
;TYPE:Solid infill
;WIDTH:0.421286
G1 F1200
G1 X144.004 Y52.57 E.0265
G1 X143.469 Y52.57 E.01683
G1 X144.43 Y53.531 E.04276
G1 X144.43 Y54.066 E.01683
G1 X142.934 Y52.57 E.06656
G1 X142.399 Y52.57 E.01683
G1 X144.43 Y54.601 E.09037
G1 X144.43 Y55.136 E.01683
G1 X141.864 Y52.57 E.11417
G1 X141.329 Y52.57 E.01683
G1 X144.43 Y55.671 E.13797
G1 X144.43 Y56.206 E.01683
G1 X140.794 Y52.57 E.16178
G1 X140.259 Y52.57 E.01683
G1 X144.43 Y56.741 E.18558
G1 X144.43 Y57.276 E.01683
G1 X139.724 Y52.57 E.20938
G1 X139.189 Y52.57 E.01683
G1 X144.43 Y57.811 E.23319
G1 X144.43 Y58.346 E.01683
G1 X138.654 Y52.57 E.25699
G1 X138.118 Y52.57 E.01686
G1 X144.43 Y58.882 E.28084
G1 X144.43 Y59.417 E.01683
G1 X137.583 Y52.57 E.30464
G1 X137.048 Y52.57 E.01683
G1 X144.43 Y59.952 E.32845
G1 X144.43 Y60.487 E.01683
G1 X136.513 Y52.57 E.35225
G1 X135.978 Y52.57 E.01683
G1 X144.43 Y61.022 E.37605
G1 X144.43 Y61.557 E.01683
G1 X135.443 Y52.57 E.39986
G1 X134.908 Y52.57 E.01683
G1 X144.43 Y62.092 E.42366
G1 X144.43 Y62.627 E.01683
M73 P0 R98
G1 X134.373 Y52.57 E.44747
G1 X133.838 Y52.57 E.01683
M73 P1 R98
M73 Q1 S99
G1 X144.43 Y63.162 E.47127
G1 X144.43 Y63.697 E.01683
G1 X133.303 Y52.57 E.49507
G1 X132.768 Y52.57 E.01683
G1 X144.43 Y64.232 E.51888
G1 X144.43 Y64.768 E.01686
G1 X132.232 Y52.57 E.54272
G1 X131.697 Y52.57 E.01683
G1 X144.43 Y65.303 E.56653
G1 X144.43 Y65.838 E.01683
G1 X131.162 Y52.57 E.59033
G1 X130.627 Y52.57 E.01683
G1 X144.43 Y66.373 E.61414
G1 X144.43 Y66.908 E.01683
G1 X130.092 Y52.57 E.63794
G1 X129.557 Y52.57 E.01683
G1 X144.43 Y67.443 E.66174
G1 X144.43 Y67.978 E.01683
G1 X129.022 Y52.57 E.68555
G1 X128.487 Y52.57 E.01683
G1 X144.43 Y68.513 E.70935
G1 X144.43 Y69.048 E.01683
G1 X127.952 Y52.57 E.73315
G1 X127.417 Y52.57 E.01683
G1 X144.43 Y69.583 E.75696
G1 X144.43 Y70.118 E.01683
G1 X126.882 Y52.57 E.78076
G1 X126.347 Y52.57 E.01683
G1 X144.43 Y70.653 E.80457
G1 X144.43 Y71.189 E.01686
G1 X125.811 Y52.57 E.82841
G1 X125.276 Y52.57 E.01683
G1 X144.43 Y71.724 E.85222
G1 X144.43 Y72.259 E.01683
G1 X124.741 Y52.57 E.87602
G1 X124.206 Y52.57 E.01683
G1 X144.43 Y72.794 E.89983
G1 X144.43 Y73.329 E.01683
G1 X123.671 Y52.57 E.92363
G1 X123.136 Y52.57 E.01683
G1 X144.43 Y73.864 E.94743
G1 X144.43 Y74.399 E.01683
G1 X122.601 Y52.57 E.97124
G1 X122.066 Y52.57 E.01683
G1 X144.43 Y74.934 E.99504
G1 X144.43 Y75.469 E.01683
G1 X121.531 Y52.57 E1.01884
G1 X120.996 Y52.57 E.01683
G1 X144.43 Y76.004 E1.04265
G1 X144.43 Y76.539 E.01683
G1 X120.461 Y52.57 E1.06645
G1 X119.925 Y52.57 E.01686
G1 X144.43 Y77.075 E1.0903
G1 X144.43 Y77.61 E.01683
G1 X119.39 Y52.57 E1.1141
G1 X118.855 Y52.57 E.01683
G1 X144.43 Y78.145 E1.13791
G1 X144.43 Y78.68 E.01683
M73 Q1 S98
G1 X118.32 Y52.57 E1.16171
G1 X117.785 Y52.57 E.01683
G1 X144.43 Y79.215 E1.18551
G1 X144.43 Y79.75 E.01683
G1 X117.25 Y52.57 E1.20932
G1 X116.715 Y52.57 E.01683
G1 X144.43 Y80.285 E1.23312
G1 X144.43 Y80.82 E.01683
G1 X116.18 Y52.57 E1.25693
G1 X115.645 Y52.57 E.01683
G1 X144.43 Y81.355 E1.28073
G1 X144.43 Y81.89 E.01683
G1 X115.11 Y52.57 E1.30453
G1 X114.575 Y52.57 E.01683
G1 X144.43 Y82.425 E1.32834
G1 X144.43 Y82.961 E.01686
G1 X114.039 Y52.57 E1.35218
G1 X113.504 Y52.57 E.01683
G1 X144.43 Y83.496 E1.37599
G1 X144.43 Y84.031 E.01683
G1 X112.969 Y52.57 E1.39979
G1 X112.434 Y52.57 E.01683
M73 P2 R97
M73 Q2 S98
G1 X144.43 Y84.566 E1.4236
G1 X144.43 Y85.101 E.01683
G1 X111.899 Y52.57 E1.4474
G1 X111.364 Y52.57 E.01683
G1 X144.43 Y85.636 E1.4712
G1 X144.43 Y86.171 E.01683
G1 X110.829 Y52.57 E1.49501
G1 X110.294 Y52.57 E.01683
G1 X144.43 Y86.706 E1.51881
G1 X144.43 Y87.241 E.01683
G1 X109.759 Y52.57 E1.54261
G1 X109.224 Y52.57 E.01683
G1 X144.43 Y87.776 E1.56642
G1 X144.43 Y88.311 E.01683
G1 X108.689 Y52.57 E1.59022
G1 X108.153 Y52.57 E.01686
G1 X144.43 Y88.847 E1.61407
G1 X144.43 Y89.382 E.01683
G1 X107.618 Y52.57 E1.63787
G1 X107.083 Y52.57 E.01683
G1 X144.43 Y89.917 E1.66168
G1 X144.43 Y90.452 E.01683
G1 X106.548 Y52.57 E1.68548
G1 X106.013 Y52.57 E.01683
G1 X144.43 Y90.987 E1.70929
G1 X144.43 Y91.522 E.01683
G1 X105.57 Y52.662 E1.729
G1 X105.57 Y53.197 E.01683
G1 X144.43 Y92.057 E1.729
G1 X144.43 Y92.592 E.01683
M73 Q2 S97
G1 X105.57 Y53.732 E1.729
G1 X105.57 Y54.267 E.01683
G1 X144.43 Y93.127 E1.729
G1 X144.43 Y93.662 E.01683
G1 X105.57 Y54.802 E1.729
G1 X105.57 Y55.337 E.01683
G1 X144.43 Y94.197 E1.729
G1 X144.43 Y94.733 E.01686
G1 X105.57 Y55.872 E1.72902
G1 X105.57 Y56.407 E.01683
G1 X144.43 Y95.268 E1.72902
G1 X144.43 Y95.803 E.01683
G1 X105.57 Y56.943 E1.729
G1 X105.57 Y57.478 E.01683
G1 X144.43 Y96.338 E1.729
G1 X144.43 Y96.873 E.01683
M73 P3 R96
M73 Q3 S97
G1 X105.57 Y58.013 E1.729
G1 X105.57 Y58.548 E.01683
G1 X144.43 Y97.408 E1.729
G1 X144.43 Y97.943 E.01683
G1 X105.57 Y59.083 E1.729
G1 X105.57 Y59.618 E.01683
G1 X144.43 Y98.478 E1.729
G1 X144.43 Y99.013 E.01683
G1 X105.57 Y60.153 E1.729
G1 X105.57 Y60.688 E.01683
G1 X144.43 Y99.548 E1.729
G1 X144.43 Y100.083 E.01683
G1 X105.57 Y61.223 E1.729
G1 X105.57 Y61.758 E.01683
G1 X144.43 Y100.619 E1.72902
G1 X144.43 Y101.154 E.01683
G1 X105.57 Y62.293 E1.72902
G1 X105.57 Y62.829 E.01686
G1 X144.43 Y101.689 E1.729
G1 X144.43 Y102.224 E.01683
G1 X105.57 Y63.364 E1.729
G1 X105.57 Y63.899 E.01683
G1 X144.43 Y102.759 E1.729
G1 X144.43 Y103.294 E.01683
G1 X105.57 Y64.434 E1.729
G1 X105.57 Y64.969 E.01683
M73 Q3 S96
G1 X144.43 Y103.829 E1.729
G1 X144.43 Y104.364 E.01683
G1 X105.57 Y65.504 E1.729
G1 X105.57 Y66.039 E.01683
G1 X144.43 Y104.899 E1.729
G1 X144.43 Y105.434 E.01683
G1 X105.57 Y66.574 E1.729
G1 X105.57 Y67.109 E.01683
G1 X144.43 Y105.969 E1.729
G1 X144.43 Y106.505 E.01686
G1 X105.57 Y67.644 E1.72902
G1 X105.57 Y68.179 E.01683
G1 X144.43 Y107.04 E1.72902
G1 X144.43 Y107.575 E.01683
G1 X105.57 Y68.715 E1.729
G1 X105.57 Y69.25 E.01683
M73 P4 R95
G1 X144.43 Y108.11 E1.729
G1 X144.43 Y108.645 E.01683
M73 Q4 S96
G1 X105.57 Y69.785 E1.729
G1 X105.57 Y70.32 E.01683
G1 X144.43 Y109.18 E1.729
G1 X144.43 Y109.715 E.01683
G1 X105.57 Y70.855 E1.729
G1 X105.57 Y71.39 E.01683
G1 X144.43 Y110.25 E1.729
G1 X144.43 Y110.785 E.01683
G1 X105.57 Y71.925 E1.729
G1 X105.57 Y72.46 E.01683
G1 X144.43 Y111.32 E1.729
G1 X144.43 Y111.855 E.01683
G1 X105.57 Y72.995 E1.729
G1 X105.57 Y73.53 E.01683
G1 X144.43 Y112.391 E1.72902
G1 X144.43 Y112.926 E.01683
G1 X105.57 Y74.065 E1.72902
G1 X105.57 Y74.6 E.01683
G1 X144.43 Y113.461 E1.72902
G1 X144.43 Y113.996 E.01683
G1 X105.57 Y75.136 E1.729
G1 X105.57 Y75.671 E.01683
G1 X144.43 Y114.531 E1.729
G1 X144.43 Y115.066 E.01683
G1 X105.57 Y76.206 E1.729
G1 X105.57 Y76.741 E.01683
M73 Q4 S95
G1 X144.43 Y115.601 E1.729
G1 X144.43 Y116.136 E.01683
G1 X105.57 Y77.276 E1.729
G1 X105.57 Y77.811 E.01683
G1 X144.43 Y116.671 E1.729
G1 X144.43 Y117.206 E.01683
G1 X105.57 Y78.346 E1.729
G1 X105.57 Y78.881 E.01683
G1 X144.43 Y117.741 E1.729
G1 X144.43 Y118.277 E.01686
G1 X105.57 Y79.416 E1.72902
G1 X105.57 Y79.951 E.01683
G1 X144.43 Y118.812 E1.72902
G1 X144.43 Y119.347 E.01683
G1 X105.57 Y80.486 E1.72902
G1 X105.57 Y81.022 E.01686
M73 P5 R94
M73 Q5 S95
G1 X144.43 Y119.882 E1.729
G1 X144.43 Y120.417 E.01683
G1 X105.57 Y81.557 E1.729
G1 X105.57 Y82.092 E.01683
G1 X144.43 Y120.952 E1.729
G1 X144.43 Y121.487 E.01683
G1 X105.57 Y82.627 E1.729
G1 X105.57 Y83.162 E.01683
G1 X144.43 Y122.022 E1.729
G1 X144.43 Y122.557 E.01683
G1 X105.57 Y83.697 E1.729
G1 X105.57 Y84.232 E.01683
G1 X144.43 Y123.092 E1.729
G1 X144.43 Y123.627 E.01683
G1 X105.57 Y84.767 E1.729
G1 X105.57 Y85.302 E.01683
G1 X144.43 Y124.163 E1.72902
G1 X144.43 Y124.698 E.01683
G1 X105.57 Y85.837 E1.72902
G1 X105.57 Y86.372 E.01683
G1 X144.43 Y125.233 E1.72902
G1 X144.43 Y125.768 E.01683
G1 X105.57 Y86.908 E1.729
G1 X105.57 Y87.443 E.01683
G1 X144.43 Y126.303 E1.729
G1 X144.43 Y126.838 E.01683
M73 Q5 S94
G1 X105.57 Y87.978 E1.729
G1 X105.57 Y88.513 E.01683
G1 X144.43 Y127.373 E1.729
G1 X144.43 Y127.908 E.01683
G1 X105.57 Y89.048 E1.729
G1 X105.57 Y89.583 E.01683
G1 X144.43 Y128.443 E1.729
G1 X144.43 Y128.978 E.01683
G1 X105.57 Y90.118 E1.729
G1 X105.57 Y90.653 E.01683
G1 X144.43 Y129.513 E1.729
G1 X144.43 Y130.049 E.01686
G1 X105.57 Y91.188 E1.72902
G1 X105.57 Y91.723 E.01683
G1 X144.43 Y130.584 E1.72902
G1 X144.43 Y131.119 E.01683
M73 P6 R93
G1 X105.57 Y92.258 E1.72902
G1 X105.57 Y92.794 E.01686
M73 Q6 S94
G1 X144.43 Y131.654 E1.729
G1 X144.43 Y132.189 E.01683
G1 X105.57 Y93.329 E1.729
G1 X105.57 Y93.864 E.01683
G1 X144.43 Y132.724 E1.729
G1 X144.43 Y133.259 E.01683
G1 X105.57 Y94.399 E1.729
G1 X105.57 Y94.934 E.01683
G1 X144.43 Y133.794 E1.729
G1 X144.43 Y134.329 E.01683
G1 X105.57 Y95.469 E1.729
G1 X105.57 Y96.004 E.01683
G1 X144.43 Y134.864 E1.729
G1 X144.43 Y135.399 E.01683
G1 X105.57 Y96.539 E1.729
G1 X105.57 Y97.074 E.01683
G1 X144.43 Y135.935 E1.72902
G1 X144.43 Y136.47 E.01683
G1 X105.57 Y97.609 E1.72902
G1 X105.57 Y98.144 E.01683
G1 X144.43 Y137.005 E1.72902
G1 X144.43 Y137.54 E.01683
G1 X105.57 Y98.68 E1.729
G1 X105.57 Y99.215 E.01683
G1 X144.43 Y138.075 E1.729
G1 X144.43 Y138.61 E.01683
M73 Q6 S93
G1 X105.57 Y99.75 E1.729
G1 X105.57 Y100.285 E.01683
G1 X144.43 Y139.145 E1.729
G1 X144.43 Y139.68 E.01683
G1 X105.57 Y100.82 E1.729
G1 X105.57 Y101.355 E.01683
G1 X144.43 Y140.215 E1.729
G1 X144.43 Y140.75 E.01683
G1 X105.57 Y101.89 E1.729
G1 X105.57 Y102.425 E.01683
G1 X144.43 Y141.285 E1.729
G1 X144.43 Y141.821 E.01686
G1 X105.57 Y102.96 E1.72902
G1 X105.57 Y103.495 E.01683
G1 X144.43 Y142.356 E1.72902
G1 X144.43 Y142.891 E.01683
M73 P7 R92
G1 X105.57 Y104.03 E1.72902
G1 X105.57 Y104.566 E.01686
M73 Q7 S93
G1 X144.43 Y143.426 E1.729
G1 X144.43 Y143.961 E.01683
G1 X105.57 Y105.101 E1.729
G1 X105.57 Y105.636 E.01683
G1 X144.43 Y144.496 E1.729
G1 X144.43 Y145.031 E.01683
G1 X105.57 Y106.171 E1.729
G1 X105.57 Y106.706 E.01683
G1 X144.43 Y145.566 E1.729
G1 X144.43 Y146.101 E.01683
G1 X105.57 Y107.241 E1.729
G1 X105.57 Y107.776 E.01683
G1 X144.43 Y146.636 E1.729
G1 X144.43 Y147.171 E.01683
G1 X105.57 Y108.311 E1.729
G1 X105.57 Y108.846 E.01683
G1 X144.43 Y147.707 E1.72902
G1 X144.43 Y148.242 E.01683
G1 X105.57 Y109.381 E1.72902
G1 X105.57 Y109.916 E.01683
G1 X144.43 Y148.777 E1.72902
G1 X144.43 Y149.312 E.01683
G1 X105.57 Y110.452 E1.729
G1 X105.57 Y110.987 E.01683
M73 Q7 S92
G1 X144.43 Y149.847 E1.729
G1 X144.43 Y150.382 E.01683
G1 X105.57 Y111.522 E1.729
G1 X105.57 Y112.057 E.01683
G1 X144.43 Y150.917 E1.729
G1 X144.43 Y151.452 E.01683
G1 X105.57 Y112.592 E1.729
G1 X105.57 Y113.127 E.01683
G1 X144.43 Y151.987 E1.729
G1 X144.43 Y152.522 E.01683
G1 X105.57 Y113.662 E1.729
G1 X105.57 Y114.197 E.01683
G1 X144.43 Y153.057 E1.729
G1 X144.43 Y153.593 E.01686
G1 X105.57 Y114.732 E1.72902
G1 X105.57 Y115.267 E.01683
M73 P8 R91
G1 X144.43 Y154.128 E1.72902
G1 X144.43 Y154.663 E.01683
M73 Q8 S92
G1 X105.57 Y115.802 E1.72902
G1 X105.57 Y116.338 E.01686
G1 X144.43 Y155.198 E1.729
G1 X144.43 Y155.733 E.01683
G1 X105.57 Y116.873 E1.729
G1 X105.57 Y117.408 E.01683
G1 X144.43 Y156.268 E1.729
G1 X144.43 Y156.803 E.01683
G1 X105.57 Y117.943 E1.729
G1 X105.57 Y118.478 E.01683
G1 X144.43 Y157.338 E1.729
G1 X144.43 Y157.43 E.00289
G1 X143.987 Y157.43 E.01394
G1 X105.57 Y119.013 E1.70929
G1 X105.57 Y119.548 E.01683
G1 X143.452 Y157.43 E1.68548
G1 X142.917 Y157.43 E.01683
G1 X105.57 Y120.083 E1.66168
G1 X105.57 Y120.618 E.01683
G1 X142.382 Y157.43 E1.63787
G1 X141.847 Y157.43 E.01683
G1 X105.57 Y121.153 E1.61407
G1 X105.57 Y121.688 E.01683
G1 X141.312 Y157.43 E1.59027
G1 X140.776 Y157.43 E.01686
G1 X105.57 Y122.224 E1.56642
G1 X105.57 Y122.759 E.01683
M73 Q8 S91
G1 X140.241 Y157.43 E1.54261
G1 X139.706 Y157.43 E.01683
G1 X105.57 Y123.294 E1.51881
G1 X105.57 Y123.829 E.01683
G1 X139.171 Y157.43 E1.49501
G1 X138.636 Y157.43 E.01683
G1 X105.57 Y124.364 E1.4712
G1 X105.57 Y124.899 E.01683
G1 X138.101 Y157.43 E1.4474
G1 X137.566 Y157.43 E.01683
G1 X105.57 Y125.434 E1.4236
G1 X105.57 Y125.969 E.01683
G1 X137.031 Y157.43 E1.39979
G1 X136.496 Y157.43 E.01683
G1 X105.57 Y126.504 E1.37599
G1 X105.57 Y127.039 E.01683
G1 X135.961 Y157.43 E1.35218
G1 X135.426 Y157.43 E.01683
M73 P8 R90
G1 X105.57 Y127.574 E1.32838
G1 X105.57 Y128.11 E.01686
M73 P9 R90
G1 X134.89 Y157.43 E1.30453
G1 X134.355 Y157.43 E.01683
M73 Q9 S91
G1 X105.57 Y128.645 E1.28073
G1 X105.57 Y129.18 E.01683
G1 X133.82 Y157.43 E1.25693
G1 X133.285 Y157.43 E.01683
G1 X105.57 Y129.715 E1.23312
G1 X105.57 Y130.25 E.01683
G1 X132.75 Y157.43 E1.20932
G1 X132.215 Y157.43 E.01683
G1 X105.57 Y130.785 E1.18551
G1 X105.57 Y131.32 E.01683
G1 X131.68 Y157.43 E1.16171
G1 X131.145 Y157.43 E.01683
G1 X105.57 Y131.855 E1.13791
G1 X105.57 Y132.39 E.01683
G1 X130.61 Y157.43 E1.1141
G1 X130.075 Y157.43 E.01683
G1 X105.57 Y132.925 E1.0903
G1 X105.57 Y133.46 E.01683
G1 X129.54 Y157.43 E1.0665
G1 X129.004 Y157.43 E.01686
G1 X105.57 Y133.996 E1.04265
G1 X105.57 Y134.531 E.01683
G1 X128.469 Y157.43 E1.01884
G1 X127.934 Y157.43 E.01683
G1 X105.57 Y135.066 E.99504
G1 X105.57 Y135.601 E.01683
G1 X127.399 Y157.43 E.97124
G1 X126.864 Y157.43 E.01683
G1 X105.57 Y136.136 E.94743
G1 X105.57 Y136.671 E.01683
G1 X126.329 Y157.43 E.92363
