; generated by PrusaSlicer 2.4.1+win64 on 2023-04-21 at 09:10:27 UTC


;
;
; 

; external perimeters extrusion width = 0.60mm
; perimeters extrusion width = 0.50mm
; infill extrusion width = 0.50mm
; solid infill extrusion width = 0.50mm
; top infill extrusion width = 0.45mm
; first layer extrusion width = 0.42mm

M73 P0 R44
M73 Q0 S44
M201 X1000 Y1000 Z200 E5000 ; sets maximum accelerations, mm/sec^2
M203 X200 Y200 Z12 E120 ; sets maximum feedrates, mm / sec
M204 P1250 R1250 T1250 ; sets acceleration (P, T) and retract acceleration (R), mm/sec^2
M205 X8.00 Y8.00 Z0.40 E4.50 ; sets the jerk limits, mm/sec
M205 S0 T0 ; sets the minimum extruding and travel feed rate, mm/sec
M107
;TYPE:Custom
M862.3 P "MK3S" ; printer model check
M862.1 P0.4 ; nozzle diameter check
M115 U3.11.0 ; tell printer latest fw version
G90 ; use absolute coordinates
M83 ; extruder relative mode
M104 S215 ; set extruder temp
M140 S60 ; set bed temp
M190 S60 ; wait for bed temp
M109 S215 ; wait for extruder temp
G28 W ; home all without mesh bed level
G80 ; mesh bed leveling

G1 Z0.2 F720
G1 Y-3 F1000 ; go outside print area
G92 E0
G1 X60 E9 F1000 ; intro line
G1 X100 E12.5 F1000 ; intro line

G92 E0
M221 S95

; Don't change E values below. Excessive value can damage the printer.

M907 E538 ; set extruder motor current
G21 ; set units to millimeters
G90 ; use absolute coordinates
M83 ; use relative distances for extrusion
M900 K0.05 ; Filament gcode LA 1.5
M900 K30 ; Filament gcode LA 1.0
M107
;LAYER_CHANGE
;Z:0.2
;HEIGHT:0.2
;BEFORE_LAYER_CHANGE
G92 E0.0
;0.2


G1 E-.8 F2100
G1 Z.4 F720
;AFTER_LAYER_CHANGE
;0.2
G1 X85.846 Y85.407 F10800
G1 Z.2 F720
G1 E.8 F2100
M204 S800
;TYPE:Skirt/Brim
;WIDTH:0.42
G1 F1200
G1 X86.59 Y84.938 E.02759
G1 X87.431 Y84.677 E.02759
G1 X88 Y84.623 E.01792
G1 X162.31 Y84.643 E2.32994
G1 X163.41 Y84.938 E.03569
G1 X164.154 Y85.407 E.02759
G1 X164.593 Y85.846 E.01946
G1 X165.162 Y86.831 E.03568
G1 X165.377 Y88 E.03725
G1 X165.377 Y122 E1.06605
G1 X165.162 Y123.169 E.03725
G1 X164.752 Y123.947 E.02759
G1 X164.154 Y124.593 E.02759
G1 X163.41 Y125.062 E.0276
G1 X162.569 Y125.323 E.02759
G1 X162 Y125.377 E.01792
G1 X88 Y125.377 E2.32022
G1 X86.832 Y125.162 E.03725
G1 X86.053 Y124.752 E.02759
G1 X85.407 Y124.154 E.02759
G1 X84.938 Y123.41 E.0276
G1 X84.677 Y122.569 E.02759
G1 X84.623 Y122 E.01792
G1 X84.623 Y88 E1.06605
G1 X84.838 Y86.832 E.03725
G1 X85.248 Y86.053 E.02759
G1 X85.805 Y85.451 E.02571
M204 S1000
; printing object TaschenlampeLed id:0 copy 0
;WIPE_START
G1 F8640
G1 X86.59 Y84.938 E-.2166
G1 X87.431 Y84.677 E-.20321
G1 X88 Y84.623 E-.132
G1 X88.902 Y84.623 E-.20818
;WIPE_END
G1 E-.04 F2100
G1 Z.6 F720
G1 X87.821 Y87.897 F10800
G1 Z.2 F720
G1 E.8 F2100
M204 S800
;TYPE:Perimeter
G1 F1200
G1 X87.897 Y87.821 E.00335
G1 X88.052 Y87.787 E.00497
G1 X161.948 Y87.787 E2.31698
G1 X162.103 Y87.821 E.00497
G1 X162.179 Y87.897 E.00335
G1 X162.213 Y88.052 E.00497
G1 X162.213 Y121.948 E1.06281
G1 X162.179 Y122.103 E.00497
G1 X162.103 Y122.179 E.00335
G1 X161.948 Y122.213 E.00497
G1 X88.052 Y122.213 E2.31698
G1 X87.897 Y122.179 E.00497
M73 P1 R44
M73 Q1 S44
G1 X87.821 Y122.103 E.00335
G1 X87.787 Y121.948 E.00497
G1 X87.787 Y88.052 E1.06281
G1 X87.8 Y87.953 E.00312
M204 S1000
G1 X87.492 Y87.707 F10800
M204 S800
;TYPE:External perimeter
G1 F1200
G1 X87.585 Y87.585 E.0048
G1 X87.707 Y87.492 E.0048
G1 X87.848 Y87.434 E.0048
G1 X88.027 Y87.41 E.00565
G1 X161.973 Y87.41 E2.31853
G1 X162.152 Y87.434 E.00565
M73 P1 R43
G1 X162.293 Y87.492 E.0048
G1 X162.415 Y87.585 E.0048
G1 X162.508 Y87.707 E.0048
G1 X162.566 Y87.848 E.0048
G1 X162.59 Y88.027 E.00565
G1 X162.59 Y121.973 E1.06436
G1 X162.566 Y122.152 E.00565
G1 X162.508 Y122.293 E.0048
G1 X162.415 Y122.415 E.0048
G1 X162.293 Y122.508 E.0048
G1 X162.152 Y122.566 E.0048
G1 X161.973 Y122.59 E.00565
G1 X88.027 Y122.59 E2.31853
G1 X87.848 Y122.566 E.00565
M73 Q1 S43
G1 X87.707 Y122.508 E.0048
G1 X87.585 Y122.415 E.0048
G1 X87.492 Y122.293 E.0048
G1 X87.434 Y122.152 E.0048
G1 X87.41 Y121.973 E.00565
G1 X87.41 Y88.027 E1.06436
G1 X87.434 Y87.848 E.00565
G1 X87.469 Y87.762 E.00292
M204 S1000
G1 X87.645 Y87.706 F10800
;WIPE_START
G1 F8640
G1 X87.585 Y87.585 E-.04886
G1 X87.707 Y87.492 E-.03535
G1 X87.848 Y87.434 E-.03535
G1 X88.027 Y87.41 E-.04161
G1 X90.62 Y87.41 E-.59883
;WIPE_END
G1 E-.04 F2100
G1 Z.6 F720
G1 X161.259 Y87.9 F10800
G1 Z.2 F720
G1 E.8 F2100
M204 S800
;TYPE:Solid infill
;WIDTH:0.420265
G1 F1200
G1 X161.93 Y88.572 E.0298
G1 X161.93 Y89.105 E.01674
G1 X160.895 Y88.07 E.04595
G1 X160.361 Y88.07 E.01674
G1 X161.93 Y89.639 E.06963
G1 X161.93 Y90.173 E.01674
G1 X159.827 Y88.07 E.09331
G1 X159.294 Y88.07 E.01674
G1 X161.93 Y90.706 E.11699
G1 X161.93 Y91.24 E.01674
G1 X158.76 Y88.07 E.14067
G1 X158.226 Y88.07 E.01674
G1 X161.93 Y91.774 E.16435
G1 X161.93 Y92.307 E.01674
G1 X157.693 Y88.07 E.18803
G1 X157.159 Y88.07 E.01674
G1 X161.93 Y92.841 E.21171
G1 X161.93 Y93.375 E.01674
G1 X156.625 Y88.07 E.23539
G1 X156.092 Y88.07 E.01674
G1 X161.93 Y93.908 E.25907
G1 X161.93 Y94.442 E.01674
G1 X155.558 Y88.07 E.28275
G1 X155.024 Y88.07 E.01674
G1 X161.93 Y94.976 E.30642
G1 X161.93 Y95.509 E.01674
G1 X154.491 Y88.07 E.3301
G1 X153.957 Y88.07 E.01674
G1 X161.93 Y96.043 E.35378
G1 X161.93 Y96.576 E.01674
G1 X153.424 Y88.07 E.37746
G1 X152.89 Y88.07 E.01674
G1 X161.93 Y97.11 E.40114
G1 X161.93 Y97.644 E.01674
G1 X152.356 Y88.07 E.42482
G1 X151.823 Y88.07 E.01674
G1 X161.93 Y98.177 E.4485
G1 X161.93 Y98.711 E.01674
G1 X151.289 Y88.07 E.47218
G1 X150.755 Y88.07 E.01674
G1 X161.93 Y99.245 E.49586
G1 X161.93 Y99.778 E.01674
G1 X150.222 Y88.07 E.51954
G1 X149.688 Y88.07 E.01674
G1 X161.93 Y100.312 E.54322
G1 X161.93 Y100.846 E.01674
M73 Q2 S43
G1 X149.154 Y88.07 E.5669
G1 X148.621 Y88.07 E.01674
M73 P2 R43
G1 X161.93 Y101.379 E.59058
G1 X161.93 Y101.913 E.01674
G1 X148.087 Y88.07 E.61426
G1 X147.553 Y88.07 E.01674
G1 X161.93 Y102.447 E.63794
G1 X161.93 Y102.98 E.01674
G1 X147.02 Y88.07 E.66162
G1 X146.486 Y88.07 E.01674
G1 X161.93 Y103.514 E.6853
G1 X161.93 Y104.048 E.01674
G1 X145.952 Y88.07 E.70898
G1 X145.419 Y88.07 E.01674
G1 X161.93 Y104.581 E.73265
G1 X161.93 Y105.115 E.01674
G1 X144.885 Y88.07 E.75633
G1 X144.352 Y88.07 E.01674
G1 X161.93 Y105.648 E.78001
G1 X161.93 Y106.182 E.01674
G1 X143.818 Y88.07 E.80369
G1 X143.284 Y88.07 E.01674
G1 X161.93 Y106.716 E.82737
G1 X161.93 Y107.249 E.01674
G1 X142.751 Y88.07 E.85105
G1 X142.217 Y88.07 E.01674
G1 X161.93 Y107.783 E.87473
G1 X161.93 Y108.317 E.01674
G1 X141.683 Y88.07 E.89841
G1 X141.15 Y88.07 E.01674
G1 X161.93 Y108.85 E.92209
G1 X161.93 Y109.384 E.01674
G1 X140.616 Y88.07 E.94577
G1 X140.082 Y88.07 E.01674
G1 X161.93 Y109.918 E.96945
G1 X161.93 Y110.451 E.01674
G1 X139.549 Y88.07 E.99313
G1 X139.015 Y88.07 E.01674
G1 X161.93 Y110.985 E1.01681
G1 X161.93 Y111.519 E.01674
G1 X138.481 Y88.07 E1.04049
G1 X137.948 Y88.07 E.01674
M73 P3 R43
M73 Q3 S43
G1 X161.93 Y112.052 E1.06417
G1 X161.93 Y112.586 E.01674
G1 X137.414 Y88.07 E1.08785
G1 X136.88 Y88.07 E.01674
G1 X161.93 Y113.12 E1.11153
G1 X161.93 Y113.653 E.01674
G1 X136.347 Y88.07 E1.1352
G1 X135.813 Y88.07 E.01674
G1 X161.93 Y114.187 E1.15888
G1 X161.93 Y114.72 E.01674
G1 X135.28 Y88.07 E1.18256
G1 X134.746 Y88.07 E.01674
M73 P3 R42
G1 X161.93 Y115.254 E1.20624
G1 X161.93 Y115.788 E.01674
G1 X134.212 Y88.07 E1.22992
G1 X133.679 Y88.07 E.01674
G1 X161.93 Y116.321 E1.2536
G1 X161.93 Y116.855 E.01674
M73 Q3 S42
G1 X133.145 Y88.07 E1.27728
G1 X132.611 Y88.07 E.01674
G1 X161.93 Y117.389 E1.30096
G1 X161.93 Y117.922 E.01674
G1 X132.078 Y88.07 E1.32464
G1 X131.544 Y88.07 E.01674
G1 X161.93 Y118.456 E1.34832
G1 X161.93 Y118.99 E.01674
M73 Q4 S42
G1 X131.01 Y88.07 E1.372
G1 X130.477 Y88.07 E.01674
M73 P4 R42
G1 X161.93 Y119.523 E1.39568
G1 X161.93 Y120.057 E.01674
G1 X129.943 Y88.07 E1.41936
G1 X129.409 Y88.07 E.01674
G1 X161.93 Y120.591 E1.44304
G1 X161.93 Y121.124 E.01674
G1 X128.876 Y88.07 E1.46672
G1 X128.342 Y88.07 E.01674
G1 X161.93 Y121.658 E1.4904
G1 X161.928 Y121.928 E.00847
G1 X161.669 Y121.93 E.00813
G1 X127.808 Y88.07 E1.50248
G1 X127.275 Y88.07 E.01674
G1 X161.135 Y121.93 E1.50248
G1 X160.601 Y121.93 E.01674
G1 X126.741 Y88.07 E1.50248
G1 X126.208 Y88.07 E.01674
G1 X160.068 Y121.93 E1.50248
G1 X159.534 Y121.93 E.01674
G1 X125.674 Y88.07 E1.50248
G1 X125.14 Y88.07 E.01674
G1 X159 Y121.93 E1.50248
G1 X158.467 Y121.93 E.01674
M73 P5 R42
M73 Q5 S42
G1 X124.607 Y88.07 E1.50248
G1 X124.073 Y88.07 E.01674
G1 X157.933 Y121.93 E1.50248
G1 X157.4 Y121.93 E.01674
G1 X123.539 Y88.07 E1.50248
G1 X123.006 Y88.07 E.01674
G1 X156.866 Y121.93 E1.50248
G1 X156.332 Y121.93 E.01674
G1 X122.472 Y88.07 E1.50248
G1 X121.938 Y88.07 E.01674
G1 X155.799 Y121.93 E1.50248
G1 X155.265 Y121.93 E.01674
G1 X121.405 Y88.07 E1.50248
G1 X120.871 Y88.07 E.01674
M73 P5 R41
G1 X154.731 Y121.93 E1.50248
G1 X154.198 Y121.93 E.01674
G1 X120.337 Y88.07 E1.50248
G1 X119.804 Y88.07 E.01674
M73 Q5 S41
G1 X153.664 Y121.93 E1.50248
G1 X153.13 Y121.93 E.01674
G1 X119.27 Y88.07 E1.50248
G1 X118.736 Y88.07 E.01674
M73 P6 R41
M73 Q6 S41
G1 X152.597 Y121.93 E1.50248
G1 X152.063 Y121.93 E.01674
G1 X118.203 Y88.07 E1.50248
G1 X117.669 Y88.07 E.01674
G1 X151.529 Y121.93 E1.50248
G1 X150.996 Y121.93 E.01674
G1 X117.136 Y88.07 E1.50248
G1 X116.602 Y88.07 E.01674
G1 X150.462 Y121.93 E1.50248
G1 X149.929 Y121.93 E.01674
G1 X116.068 Y88.07 E1.50248
G1 X115.535 Y88.07 E.01674
G1 X149.395 Y121.93 E1.50248
G1 X148.861 Y121.93 E.01674
G1 X115.001 Y88.07 E1.50248
G1 X114.467 Y88.07 E.01674
G1 X148.328 Y121.93 E1.50248
G1 X147.794 Y121.93 E.01674
G1 X113.934 Y88.07 E1.50248
G1 X113.4 Y88.07 E.01674
G1 X147.26 Y121.93 E1.50248
G1 X146.727 Y121.93 E.01674
M73 P7 R41
M73 Q7 S41
G1 X112.866 Y88.07 E1.50248
G1 X112.333 Y88.07 E.01674
G1 X146.193 Y121.93 E1.50248
G1 X145.659 Y121.93 E.01674
G1 X111.799 Y88.07 E1.50248
G1 X111.265 Y88.07 E.01674
G1 X145.126 Y121.93 E1.50248
G1 X144.592 Y121.93 E.01674
G1 X110.732 Y88.07 E1.50248
G1 X110.198 Y88.07 E.01674
G1 X144.058 Y121.93 E1.50248
G1 X143.525 Y121.93 E.01674
G1 X109.664 Y88.07 E1.50248
G1 X109.131 Y88.07 E.01674
G1 X142.991 Y121.93 E1.50248
G1 X142.457 Y121.93 E.01674
G1 X108.597 Y88.07 E1.50248
G1 X108.064 Y88.07 E.01674
G1 X141.924 Y121.93 E1.50248
G1 X141.39 Y121.93 E.01674
M73 P7 R40
G1 X107.53 Y88.07 E1.50248
G1 X106.996 Y88.07 E.01674
M73 P8 R40
M73 Q8 S41
G1 X140.857 Y121.93 E1.50248
G1 X140.323 Y121.93 E.01674
M73 Q8 S40
G1 X106.463 Y88.07 E1.50248
G1 X105.929 Y88.07 E.01674
G1 X139.789 Y121.93 E1.50248
G1 X139.256 Y121.93 E.01674
G1 X105.395 Y88.07 E1.50248
G1 X104.862 Y88.07 E.01674
G1 X138.722 Y121.93 E1.50248
G1 X138.188 Y121.93 E.01674
G1 X104.328 Y88.07 E1.50248
G1 X103.794 Y88.07 E.01674
G1 X137.655 Y121.93 E1.50248
G1 X137.121 Y121.93 E.01674
G1 X103.261 Y88.07 E1.50248
G1 X102.727 Y88.07 E.01674
G1 X136.587 Y121.93 E1.50248
G1 X136.054 Y121.93 E.01674
G1 X102.193 Y88.07 E1.50248
G1 X101.66 Y88.07 E.01674
G1 X135.52 Y121.93 E1.50248
G1 X134.986 Y121.93 E.01674
M73 P9 R40
M73 Q9 S40
G1 X101.126 Y88.07 E1.50248
G1 X100.593 Y88.07 E.01674
G1 X134.453 Y121.93 E1.50248
G1 X133.919 Y121.93 E.01674
G1 X100.059 Y88.07 E1.50248
G1 X99.525 Y88.07 E.01674
G1 X133.385 Y121.93 E1.50248
G1 X132.852 Y121.93 E.01674
G1 X98.992 Y88.07 E1.50248
G1 X98.458 Y88.07 E.01674
G1 X132.318 Y121.93 E1.50248
G1 X131.785 Y121.93 E.01674
G1 X97.924 Y88.07 E1.50248
G1 X97.391 Y88.07 E.01674
G1 X131.251 Y121.93 E1.50248
G1 X130.717 Y121.93 E.01674
G1 X96.857 Y88.07 E1.50248
G1 X96.323 Y88.07 E.01674
G1 X130.184 Y121.93 E1.50248
G1 X129.65 Y121.93 E.01674
G1 X95.79 Y88.07 E1.50248
G1 X95.256 Y88.07 E.01674
M73 P10 R40
M73 Q10 S40
G1 X129.116 Y121.93 E1.50248
G1 X128.583 Y121.93 E.01674
G1 X94.722 Y88.07 E1.50248
G1 X94.189 Y88.07 E.01674
M73 P10 R39
G1 X128.049 Y121.93 E1.50248
G1 X127.515 Y121.93 E.01674
M73 Q10 S39
G1 X93.655 Y88.07 E1.50248
G1 X93.121 Y88.07 E.01674
G1 X126.982 Y121.93 E1.50248
G1 X126.448 Y121.93 E.01674
G1 X92.588 Y88.07 E1.50248
G1 X92.054 Y88.07 E.01674
G1 X125.914 Y121.93 E1.50248
G1 X125.381 Y121.93 E.01674
G1 X91.521 Y88.07 E1.50248
G1 X90.987 Y88.07 E.01674
G1 X124.847 Y121.93 E1.50248
G1 X124.313 Y121.93 E.01674
G1 X90.453 Y88.07 E1.50248
G1 X89.92 Y88.07 E.01674
G1 X123.78 Y121.93 E1.50248
G1 X123.246 Y121.93 E.01674
M73 P11 R39
M73 Q11 S39
G1 X89.386 Y88.07 E1.50248
G1 X88.852 Y88.07 E.01674
G1 X122.713 Y121.93 E1.50248
G1 X122.179 Y121.93 E.01674
G1 X88.319 Y88.07 E1.50248
G1 X88.083 Y88.07 E.0074
G1 X88.07 Y88.355 E.00895
G1 X121.645 Y121.93 E1.48984
G1 X121.112 Y121.93 E.01674
G1 X88.07 Y88.888 E1.46616
G1 X88.07 Y89.422 E.01674
G1 X120.578 Y121.93 E1.44248
G1 X120.044 Y121.93 E.01674
G1 X88.07 Y89.956 E1.4188
G1 X88.07 Y90.489 E.01674
G1 X119.511 Y121.93 E1.39512
G1 X118.977 Y121.93 E.01674
G1 X88.07 Y91.023 E1.37144
G1 X88.07 Y91.557 E.01674
G1 X118.443 Y121.93 E1.34776
G1 X117.91 Y121.93 E.01674
G1 X88.07 Y92.09 E1.32408
G1 X88.07 Y92.624 E.01674
M73 P12 R39
M73 Q12 S39
G1 X117.376 Y121.93 E1.3004
G1 X116.842 Y121.93 E.01674
G1 X88.07 Y93.158 E1.27672
G1 X88.07 Y93.691 E.01674
G1 X116.309 Y121.93 E1.25304
G1 X115.775 Y121.93 E.01674
G1 X88.07 Y94.225 E1.22936
G1 X88.07 Y94.759 E.01674
G1 X115.241 Y121.93 E1.20568
G1 X114.708 Y121.93 E.01674
G1 X88.07 Y95.292 E1.182
G1 X88.07 Y95.826 E.01674
M73 P12 R38
G1 X114.174 Y121.93 E1.15832
G1 X113.641 Y121.93 E.01674
G1 X88.07 Y96.359 E1.13464
G1 X88.07 Y96.893 E.01674
M73 Q12 S38
G1 X113.107 Y121.93 E1.11096
G1 X112.573 Y121.93 E.01674
G1 X88.07 Y97.427 E1.08729
G1 X88.07 Y97.96 E.01674
G1 X112.04 Y121.93 E1.06361
G1 X111.506 Y121.93 E.01674
G1 X88.07 Y98.494 E1.03993
G1 X88.07 Y99.028 E.01674
G1 X110.972 Y121.93 E1.01625
G1 X110.439 Y121.93 E.01674
G1 X88.07 Y99.561 E.99257
G1 X88.07 Y100.095 E.01674
M73 P13 R38
M73 Q13 S38
G1 X109.905 Y121.93 E.96889
G1 X109.371 Y121.93 E.01674
G1 X88.07 Y100.629 E.94521
G1 X88.07 Y101.162 E.01674
G1 X108.838 Y121.93 E.92153
G1 X108.304 Y121.93 E.01674
G1 X88.07 Y101.696 E.89785
G1 X88.07 Y102.23 E.01674
G1 X107.77 Y121.93 E.87417
G1 X107.237 Y121.93 E.01674
G1 X88.07 Y102.763 E.85049
G1 X88.07 Y103.297 E.01674
G1 X106.703 Y121.93 E.82681
G1 X106.169 Y121.93 E.01674
G1 X88.07 Y103.831 E.80313
G1 X88.07 Y104.364 E.01674
G1 X105.636 Y121.93 E.77945
G1 X105.102 Y121.93 E.01674
G1 X88.07 Y104.898 E.75577
G1 X88.07 Y105.431 E.01674
G1 X104.569 Y121.93 E.73209
G1 X104.035 Y121.93 E.01674
G1 X88.07 Y105.965 E.70841
G1 X88.07 Y106.499 E.01674
G1 X103.501 Y121.93 E.68474
G1 X102.968 Y121.93 E.01674
G1 X88.07 Y107.032 E.66106
G1 X88.07 Y107.566 E.01674
G1 X102.434 Y121.93 E.63738
G1 X101.9 Y121.93 E.01674
G1 X88.07 Y108.1 E.6137
G1 X88.07 Y108.633 E.01674
G1 X101.367 Y121.93 E.59002
G1 X100.833 Y121.93 E.01674
G1 X88.07 Y109.167 E.56634
G1 X88.07 Y109.701 E.01674
G1 X100.299 Y121.93 E.54266
G1 X99.766 Y121.93 E.01674
G1 X88.07 Y110.234 E.51898
G1 X88.07 Y110.768 E.01674
G1 X99.232 Y121.93 E.4953
G1 X98.698 Y121.93 E.01674
G1 X88.07 Y111.302 E.47162
G1 X88.07 Y111.835 E.01674
G1 X98.165 Y121.93 E.44794
G1 X97.631 Y121.93 E.01674
M73 P14 R38
M73 Q14 S38
G1 X88.07 Y112.369 E.42426
G1 X88.07 Y112.902 E.01674
G1 X97.098 Y121.93 E.40058
G1 X96.564 Y121.93 E.01674
G1 X88.07 Y113.436 E.3769
G1 X88.07 Y113.97 E.01674
G1 X96.03 Y121.93 E.35322
G1 X95.497 Y121.93 E.01674
G1 X88.07 Y114.503 E.32954
G1 X88.07 Y115.037 E.01674
G1 X94.963 Y121.93 E.30586
G1 X94.429 Y121.93 E.01674
G1 X88.07 Y115.571 E.28219
G1 X88.07 Y116.104 E.01674
G1 X93.896 Y121.93 E.25851
G1 X93.362 Y121.93 E.01674
G1 X88.07 Y116.638 E.23483
G1 X88.07 Y117.172 E.01674
G1 X92.828 Y121.93 E.21115
G1 X92.295 Y121.93 E.01674
G1 X88.07 Y117.705 E.18747
G1 X88.07 Y118.239 E.01674
G1 X91.761 Y121.93 E.16379
G1 X91.227 Y121.93 E.01674
G1 X88.07 Y118.773 E.14011
G1 X88.07 Y119.306 E.01674
G1 X90.694 Y121.93 E.11643
G1 X90.16 Y121.93 E.01674
G1 X88.07 Y119.84 E.09275
G1 X88.07 Y120.374 E.01674
G1 X89.626 Y121.93 E.06907
G1 X89.093 Y121.93 E.01674
G1 X88.07 Y120.907 E.04539
G1 X88.07 Y121.441 E.01674
G1 X88.729 Y122.1 E.02924
M204 S1000
; stop printing object TaschenlampeLed id:0 copy 0
M106 S84.15
;LAYER_CHANGE
;Z:0.5
;HEIGHT:0.3
;BEFORE_LAYER_CHANGE
