; generated by PrusaSlicer 2.4.1+win64 on 2023-11-16 at 10:35:44 UTC


;
;
; 

; external perimeters extrusion width = 0.60mm
; perimeters extrusion width = 0.50mm
; infill extrusion width = 0.50mm
; solid infill extrusion width = 0.50mm
; top infill extrusion width = 0.45mm
; first layer extrusion width = 0.42mm

M73 P0 R63
M73 Q0 S64
M201 X1000 Y1000 Z200 E5000 ; sets maximum accelerations, mm/sec^2
M203 X200 Y200 Z12 E120 ; sets maximum feedrates, mm / sec
M204 P1250 R1250 T1250 ; sets acceleration (P, T) and retract acceleration (R), mm/sec^2
M205 X8.00 Y8.00 Z0.40 E4.50 ; sets the jerk limits, mm/sec
M205 S0 T0 ; sets the minimum extruding and travel feed rate, mm/sec
M107
;TYPE:Custom
M862.3 P "MK3S" ; printer model check
M862.1 P0.4 ; nozzle diameter check
M115 U3.11.0 ; tell printer latest fw version
G90 ; use absolute coordinates
M83 ; extruder relative mode
M104 S215 ; set extruder temp
M140 S60 ; set bed temp
M190 S60 ; wait for bed temp
M109 S215 ; wait for extruder temp
G28 W ; home all without mesh bed level
G80 ; mesh bed leveling

G1 Z0.2 F720
G1 Y-3 F1000 ; go outside print area
G92 E0
G1 X60 E9 F1000 ; intro line
G1 X100 E12.5 F1000 ; intro line

G92 E0
M221 S95

; Don't change E values below. Excessive value can damage the printer.

M907 E538 ; set extruder motor current
G21 ; set units to millimeters
G90 ; use absolute coordinates
M83 ; use relative distances for extrusion
M900 K0.05 ; Filament gcode LA 1.5
M900 K30 ; Filament gcode LA 1.0
M107
;LAYER_CHANGE
;Z:0.2
;HEIGHT:0.2
;BEFORE_LAYER_CHANGE
G92 E0.0
;0.2


G1 E-.8 F2100
G1 Z.4 F720
;AFTER_LAYER_CHANGE
;0.2
G1 X86.066 Y63.942 F10800
G1 Z.2 F720
G1 E.8 F2100
M204 S800
;TYPE:Skirt/Brim
;WIDTH:0.42
G1 F1200
G1 X96.077 Y50.467 E.52633
G1 X98.159 Y48.514 E.0895
G1 X98.812 Y48.093 E.02436
G1 X100.494 Y47.363 E.0575
G1 X101.955 Y46.918 E.04788
G1 X104.72 Y46.36 E.08843
G1 X107.612 Y46.056 E.09118
G1 X140.896 Y46.016 E1.0436
G1 X142.388 Y46.056 E.04678
G1 X145.173 Y46.344 E.08779
G1 X147.903 Y46.882 E.08724
G1 X149.224 Y47.261 E.04308
G1 X151.188 Y48.093 E.06688
G1 X151.841 Y48.514 E.02436
G1 X153.923 Y50.467 E.0895
G1 X194.896 Y105.617 E2.15421
G1 X195.925 Y107.11 E.05683
G1 X196.835 Y108.842 E.06134
G1 X197.49 Y110.587 E.05844
G1 X197.914 Y112.307 E.05553
G1 X198.133 Y113.975 E.05275
G1 X198.174 Y115.577 E.05025
G1 X198.054 Y117.11 E.04822
G1 X197.783 Y118.585 E.04702
G1 X197.352 Y120.007 E.04658
G1 X196.757 Y121.356 E.04624
G1 X196.02 Y122.603 E.04541
G1 X195.151 Y123.744 E.04498
G1 X194.01 Y124.912 E.05121
G1 X151.482 Y161.266 E1.7542
G1 X149.857 Y162.535 E.06466
G1 X148.276 Y163.347 E.05571
G1 X147.625 Y163.57 E.02159
G1 X145.168 Y163.985 E.07813
G1 X104.832 Y163.985 E1.26469
G1 X102.375 Y163.57 E.07813
M73 Q0 S63
G1 X101.724 Y163.347 E.02159
G1 X100.143 Y162.535 E.05571
G1 X98.55 Y161.292 E.06336
G1 X55.99 Y124.912 E1.75551
G1 X55.03 Y123.95 E.04262
G1 X53.98 Y122.603 E.05357
G1 X53.243 Y121.356 E.04541
G1 X52.648 Y120.007 E.04624
G1 X52.217 Y118.585 E.04658
G1 X51.98 Y117.357 E.0392
G1 X51.826 Y115.577 E.05604
G1 X51.867 Y113.975 E.05025
G1 X52.086 Y112.307 E.05275
G1 X52.51 Y110.587 E.05553
G1 X53.165 Y108.842 E.05845
G1 X53.917 Y107.374 E.05169
G1 X55.104 Y105.617 E.06648
G1 X86.031 Y63.99 E1.62599
M204 S1000
; printing object cookie_cat_7cm.STL id:0 copy 0
;WIPE_START
G1 F8640
G1 X87.993 Y61.348 E-.76
;WIPE_END
G1 E-.04 F2100
G1 Z.6 F720
G1 X138.209 Y120.947 F10800
G1 Z.2 F720
G1 E.8 F2100
M204 S800
;TYPE:Perimeter
G1 F1200
G1 X154.846 Y123.941 E.53004
G1 X154.537 Y126.537 E.08197
G1 X153.855 Y131.713 E.16369
G1 X153.159 Y136.593 E.15458
G1 X152.411 Y141.42 E.15315
G1 X152.043 Y143.317 E.06058
G1 X151.529 Y145.558 E.07209
G1 X150.847 Y148.155 E.08419
G1 X144.822 Y142.998 E.24866
G1 X141.719 Y139.732 E.14124
G1 X140.873 Y132.356 E.23282
G1 X140.133 Y128.394 E.12636
G1 X138.839 Y124.577 E.12637
G1 X137.623 Y121.677 E.09859
G1 X138.171 Y120.994 E.02747
M204 S1000
G1 X138.363 Y121.358 F10800
M204 S800
;TYPE:External perimeter
G1 F1200
G1 X154.43 Y124.249 E.51187
G1 X154.162 Y126.49 E.07076
G1 X153.482 Y131.661 E.16355
G1 X152.786 Y136.538 E.15446
G1 X152.224 Y140.23 E.11707
G1 X152.039 Y141.354 E.03572
G1 X151.674 Y143.239 E.06021
G1 X151.163 Y145.468 E.0717
G1 X150.635 Y147.477 E.06514
G1 X145.082 Y142.725 E.22919
G1 X142.08 Y139.564 E.13668
G1 X141.246 Y132.299 E.22928
G1 X140.499 Y128.298 E.12762
G1 X139.192 Y124.443 E.12762
G1 X138.057 Y121.738 E.09197
G1 X138.325 Y121.405 E.01341
M204 S1000
G1 X138.375 Y120.958 F10800
;WIPE_START
G1 F8640
G1 X141.566 Y121.977 E-.76
;WIPE_END
G1 E-.04 F2100
G1 Z.6 F720
G1 X138.363 Y143.738 F10800
G1 Z.2 F720
G1 E.8 F2100
M204 S800
;TYPE:Perimeter
G1 F1200
G1 X140.369 Y143.784 E.06292
G1 X144.571 Y148.547 E.19913
G1 X149.244 Y152.625 E.19447
G1 X148.876 Y153.405 E.02703
G1 X148.417 Y154.254 E.03026
G1 X147.937 Y155.038 E.02884
G1 X147.433 Y155.739 E.02706
G1 X146.903 Y156.336 E.02503
G1 X146.34 Y156.807 E.023
G1 X145.738 Y157.126 E.02136
G1 X145.095 Y157.252 E.02057
G1 X144.432 Y157.145 E.02104
G1 X143.783 Y156.793 E.02316
G1 X143.156 Y156.196 E.02713
G1 X142.546 Y155.349 E.03274
G1 X141.517 Y153.621 E.06305
G1 X140.742 Y152.196 E.05085
G1 X140.125 Y150.956 E.04344
G1 X139 Y148.567 E.08279
G1 X138.366 Y147.308 E.04421
G1 X137.935 Y146.62 E.02543
G1 X136.162 Y145.57 E.06461
G1 X138.317 Y143.777 E.08788
M204 S1000
G1 X138.495 Y144.118 F10800
M204 S800
;TYPE:External perimeter
G1 F1200
G1 X140.195 Y144.157 E.05332
G1 X144.304 Y148.815 E.19473
G1 X148.781 Y152.722 E.18631
M73 P1 R63
M73 Q1 S63
G1 X148.539 Y153.235 E.01778
G1 X148.09 Y154.066 E.02961
G1 X147.623 Y154.83 E.02808
G1 X147.138 Y155.503 E.02602
G1 X146.639 Y156.065 E.02356
G1 X146.129 Y156.493 E.02088
G1 X145.611 Y156.766 E.01836
G1 X145.088 Y156.869 E.01671
G1 X144.556 Y156.783 E.01691
G1 X144.007 Y156.485 E.01958
G1 X143.442 Y155.947 E.02446
G1 X142.862 Y155.142 E.03112
G1 X141.845 Y153.434 E.06231
G1 X141.076 Y152.022 E.05041
G1 X140.464 Y150.792 E.04309
G1 X139.339 Y148.402 E.08282
G1 X138.695 Y147.122 E.04492
G1 X138.206 Y146.342 E.02886
G1 X136.814 Y145.518 E.05073
G1 X138.449 Y144.157 E.06669
M204 S1000
G1 X138.519 Y143.719 F10800
;WIPE_START
G1 F8640
G1 X140.195 Y144.157 E-.40321
G1 X141.218 Y145.316 E-.35679
;WIPE_END
G1 E-.04 F2100
G1 Z.6 F720
G1 X113.838 Y145.57 F10800
G1 Z.2 F720
G1 E.8 F2100
M204 S800
;TYPE:Perimeter
G1 F1200
G1 X112.065 Y146.62 E.06461
G1 X111.634 Y147.308 E.02543
G1 X111 Y148.567 E.04421
G1 X109.875 Y150.956 E.08279
G1 X109.258 Y152.196 E.04343
G1 X108.483 Y153.621 E.05085
G1 X107.454 Y155.349 E.06305
G1 X106.844 Y156.196 E.03274
G1 X106.217 Y156.793 E.02713
G1 X105.568 Y157.145 E.02316
G1 X104.905 Y157.252 E.02104
G1 X104.262 Y157.126 E.02056
G1 X103.66 Y156.807 E.02136
G1 X103.097 Y156.336 E.023
G1 X102.567 Y155.739 E.02503
G1 X102.063 Y155.038 E.02706
G1 X101.583 Y154.254 E.02884
G1 X101.124 Y153.405 E.03026
G1 X100.756 Y152.625 E.02703
G1 X105.429 Y148.547 E.19447
G1 X109.631 Y143.784 E.19913
G1 X111.637 Y143.738 E.06292
G1 X113.791 Y145.531 E.08788
M204 S1000
G1 X113.186 Y145.518 F10800
M204 S800
;TYPE:External perimeter
G1 F1200
G1 X111.794 Y146.342 E.05073
G1 X111.305 Y147.122 E.02885
G1 X110.661 Y148.402 E.04492
G1 X109.536 Y150.792 E.08282
G1 X108.924 Y152.022 E.04309
G1 X108.155 Y153.434 E.05041
G1 X107.138 Y155.142 E.06231
G1 X106.558 Y155.947 E.03112
G1 X105.993 Y156.485 E.02446
G1 X105.444 Y156.783 E.01958
G1 X104.912 Y156.869 E.01691
G1 X104.389 Y156.766 E.01671
G1 X103.871 Y156.493 E.01836
G1 X103.361 Y156.065 E.02088
G1 X102.862 Y155.503 E.02356
G1 X102.377 Y154.83 E.02602
G1 X101.91 Y154.066 E.02808
G1 X101.461 Y153.235 E.02961
G1 X101.219 Y152.722 E.01778
G1 X105.696 Y148.815 E.18631
G1 X109.805 Y144.157 E.19473
G1 X111.505 Y144.118 E.05332
G1 X113.139 Y145.479 E.06669
M204 S1000
G1 X113.459 Y145.81 F10800
;WIPE_START
G1 F8640
G1 X111.794 Y146.342 E-.36918
G1 X111.305 Y147.122 E-.21249
G1 X110.958 Y147.812 E-.17832
;WIPE_END
G1 E-.04 F2100
G1 Z.6 F720
G1 X111.791 Y120.947 F10800
G1 Z.2 F720
G1 E.8 F2100
M204 S800
;TYPE:Perimeter
G1 F1200
G1 X112.377 Y121.677 E.02935
G1 X111.161 Y124.577 E.09859
G1 X109.867 Y128.394 E.12637
G1 X109.127 Y132.356 E.12636
G1 X108.281 Y139.732 E.23282
G1 X105.178 Y142.998 E.14124
G1 X99.153 Y148.155 E.24866
G1 X98.471 Y145.558 E.08419
G1 X97.957 Y143.317 E.07209
G1 X97.589 Y141.42 E.06058
G1 X96.841 Y136.593 E.15315
G1 X96.145 Y131.713 E.15458
G1 X95.463 Y126.537 E.16369
G1 X95.154 Y123.941 E.08197
G1 X111.732 Y120.958 E.52815
M204 S1000
G1 X111.637 Y121.358 F10800
M204 S800
;TYPE:External perimeter
G1 F1200
G1 X111.942 Y121.738 E.01529
G1 X110.808 Y124.443 E.09197
G1 X109.501 Y128.298 E.12762
G1 X108.754 Y132.299 E.12762
G1 X107.92 Y139.564 E.22928
G1 X104.918 Y142.725 E.13668
G1 X99.365 Y147.477 E.22918
G1 X98.837 Y145.468 E.06514
G1 X98.326 Y143.239 E.0717
G1 X97.961 Y141.354 E.06021
G1 X97.776 Y140.23 E.03571
G1 X97.214 Y136.538 E.11708
G1 X96.518 Y131.661 E.15446
G1 X95.838 Y126.49 E.16355
G1 X95.57 Y124.249 E.07076
G1 X111.578 Y121.368 E.50998
M204 S1000
G1 X111.977 Y121.147 F10800
;WIPE_START
G1 F8640
G1 X111.942 Y121.738 E-.11983
G1 X110.87 Y124.295 E-.64017
;WIPE_END
G1 E-.04 F2100
G1 Z.6 F720
G1 X114.416 Y112.8 F10800
G1 Z.2 F720
G1 E.8 F2100
M204 S800
;TYPE:Perimeter
G1 F1200
G1 X94.598 Y118.758 E.64885
G1 X94.22 Y118.289 E.0189
G1 X92.561 Y117.908 E.05337
G1 X89.913 Y117.831 E.08304
G1 X86.583 Y118.017 E.10458
G1 X82.824 Y118.404 E.11849
G1 X78.88 Y118.925 E.12474
G1 X74.992 Y119.514 E.12329
G1 X71.401 Y120.107 E.11411
G1 X64.797 Y121.251 E.21017
M73 P1 R62
G1 X64.097 Y121.298 E.02199
G1 X63.411 Y121.254 E.02154
G1 X62.75 Y121.125 E.02114
G1 X62.118 Y120.916 E.02087
G1 X61.521 Y120.634 E.02069
G1 X60.965 Y120.286 E.02058
G1 X60.455 Y119.876 E.02051
G1 X59.997 Y119.41 E.02048
G1 X59.595 Y118.895 E.02048
G1 X59.255 Y118.336 E.02052
G1 X58.983 Y117.738 E.0206
G1 X58.774 Y117.069 E.02196
G1 X58.627 Y116.307 E.02434
G1 X58.555 Y115.468 E.02642
G1 X58.57 Y114.567 E.02825
G1 X58.686 Y113.621 E.02987
G1 X58.916 Y112.648 E.03136
G1 X59.273 Y111.664 E.03282
G1 X59.773 Y110.688 E.03438
G1 X60.426 Y109.738 E.03615
G1 X61.247 Y108.833 E.0383
G1 X62.24 Y107.996 E.04073
G1 X63.378 Y107.188 E.04376
G1 X64.624 Y106.356 E.04698
G1 X65.968 Y105.509 E.04981
G1 X67.393 Y104.659 E.05202
G1 X68.883 Y103.82 E.05361
G1 X70.421 Y103.004 E.05459
G1 X71.99 Y102.224 E.05494
G1 X73.574 Y101.493 E.0547
G1 X75.157 Y100.825 E.05387
G1 X76.722 Y100.231 E.05247
G1 X78.249 Y99.726 E.05044
G1 X79.72 Y99.292 E.04809
G1 X82.482 Y98.546 E.0897
G1 X83.797 Y98.222 E.04246
G1 X86.301 Y97.658 E.08047
G1 X88.69 Y97.174 E.07644
G1 X91.922 Y96.574 E.10308
G1 X93.047 Y78.361 E.57216
G1 X93.36 Y76.308 E.06512
G1 X93.9 Y73.882 E.07792
G1 X94.624 Y71.197 E.0872
G1 X95.491 Y68.366 E.09284
G1 X96.458 Y65.501 E.09478
G1 X97.482 Y62.719 E.09297
G1 X98.522 Y60.132 E.08741
G1 X99.537 Y57.855 E.07817
G1 X100.487 Y55.998 E.0654
G1 X101.342 Y54.66 E.04977
G1 X102.084 Y53.959 E.03203
G1 X102.831 Y53.67 E.02511
G1 X103.702 Y53.418 E.02842
G1 X104.696 Y53.195 E.03194
G1 X105.775 Y53.007 E.03434
G1 X106.899 Y52.864 E.03555
G1 X108.03 Y52.774 E.03556
G1 X109.112 Y52.746 E.03396
G1 X110.151 Y52.789 E.03259
G1 X111.068 Y52.916 E.02901
G1 X111.845 Y53.142 E.02537
G1 X112.454 Y53.503 E.02221
G1 X112.881 Y54.153 E.02438
G1 X113.206 Y55.112 E.03176
G1 X113.47 Y56.308 E.0384
G1 X113.696 Y57.673 E.04339
G1 X114.28 Y61.978 E.13622
G1 X114.485 Y63.203 E.03892
G1 X114.712 Y64.172 E.03122
G1 X115.014 Y64.919 E.02525
G1 X115.03 Y106.691 E1.30975
G1 X114.894 Y109.534 E.08924
G1 X114.424 Y112.741 E.10162
M204 S1000
G1 X114.077 Y112.508 F10800
M204 S800
;TYPE:External perimeter
G1 F1200
G1 X94.732 Y118.324 E.63336
G1 X94.431 Y117.95 E.01505
G1 X92.609 Y117.533 E.05863
G1 X89.908 Y117.454 E.08471
G1 X86.553 Y117.641 E.10536
G1 X82.78 Y118.029 E.11894
G1 X78.827 Y118.551 E.12502
G1 X74.933 Y119.142 E.12348
G1 X71.339 Y119.736 E.11423
G1 X64.752 Y120.876 E.20959
G1 X64.096 Y120.92 E.0206
G1 X63.46 Y120.88 E.02
G1 X62.845 Y120.759 E.01963
G1 X62.258 Y120.565 E.0194
G1 X61.702 Y120.303 E.01926
G1 X61.184 Y119.978 E.01918
G1 X60.709 Y119.595 E.01914
G1 X60.281 Y119.161 E.01912
G1 X59.906 Y118.681 E.01911
G1 X59.589 Y118.159 E.01913
G1 X59.336 Y117.603 E.01917
G1 X59.14 Y116.977 E.02056
G1 X59.001 Y116.255 E.02305
G1 X58.932 Y115.455 E.02519
G1 X58.947 Y114.593 E.02702
G1 X59.057 Y113.688 E.0286
G1 X59.278 Y112.756 E.03002
G1 X59.62 Y111.815 E.0314
G1 X60.097 Y110.881 E.03287
G1 X60.723 Y109.972 E.03459
G1 X61.509 Y109.105 E.03671
G1 X62.471 Y108.295 E.03945
G1 X63.592 Y107.498 E.0431
G1 X64.829 Y106.672 E.04665
G1 X66.165 Y105.83 E.04951
G1 X67.582 Y104.985 E.05173
G1 X69.064 Y104.15 E.05332
G1 X70.593 Y103.339 E.05428
G1 X72.153 Y102.564 E.05462
G1 X73.727 Y101.838 E.05434
G1 X75.297 Y101.175 E.05346
G1 X76.848 Y100.586 E.05199
G1 X78.362 Y100.086 E.04999
G1 X79.823 Y99.655 E.04776
G1 X82.576 Y98.911 E.08943
G1 X83.883 Y98.589 E.04221
G1 X86.379 Y98.027 E.08023
G1 X88.762 Y97.544 E.07621
G1 X92.281 Y96.891 E.11221
G1 X93.422 Y78.401 E.58086
G1 X93.73 Y76.377 E.06419
G1 X94.266 Y73.972 E.07726
G1 X94.987 Y71.301 E.08674
G1 X95.85 Y68.481 E.09248
G1 X96.813 Y65.627 E.09445
G1 X97.834 Y62.855 E.09263
G1 X98.87 Y60.28 E.08702
G1 X99.878 Y58.018 E.07764
G1 X100.814 Y56.186 E.06452
G1 X101.634 Y54.902 E.04775
G1 X102.289 Y54.284 E.02825
G1 X102.951 Y54.028 E.02227
G1 X103.795 Y53.784 E.02755
G1 X104.769 Y53.565 E.03129
G1 X105.831 Y53.38 E.03378
G1 X106.938 Y53.239 E.035
G1 X108.05 Y53.151 E.03496
G1 X109.109 Y53.123 E.03324
G1 X110.117 Y53.165 E.03163
G1 X110.989 Y53.286 E.02758
G1 X111.693 Y53.491 E.02301
G1 X112.187 Y53.783 E.01798
G1 X112.54 Y54.319 E.02013
G1 X112.842 Y55.213 E.0296
G1 X113.1 Y56.379 E.03744
G1 X113.323 Y57.729 E.0429
G1 X113.907 Y62.035 E.13623
G1 X114.115 Y63.277 E.03949
G1 X114.352 Y64.286 E.03251
G1 X114.637 Y64.992 E.02386
G1 X114.653 Y106.682 E1.30717
G1 X114.518 Y109.498 E.08837
G1 X114.086 Y112.449 E.09352
M204 S1000
G1 X114.142 Y112.903 F10800
;WIPE_START
G1 F8640
G1 X110.937 Y113.405 E-.76
;WIPE_END
G1 E-.04 F2100
G1 Z.6 F720
G1 X155.78 Y118.289 F10800
G1 Z.2 F720
G1 E.8 F2100
M204 S800
;TYPE:Perimeter
G1 F1200
G1 X155.402 Y118.758 E.0189
G1 X135.584 Y112.8 E.64885
G1 X135.106 Y109.534 E.10351
G1 X134.97 Y106.691 E.08924
G1 X134.986 Y64.919 E1.30974
M73 Q2 S63
G1 X135.288 Y64.172 E.02526
M73 P2 R62
M73 Q2 S62
G1 X135.515 Y63.203 E.03122
G1 X135.72 Y61.978 E.03892
G1 X136.304 Y57.673 E.13622
G1 X136.53 Y56.308 E.04339
G1 X136.794 Y55.112 E.0384
G1 X137.119 Y54.153 E.03176
G1 X137.546 Y53.503 E.02438
G1 X138.155 Y53.142 E.02221
G1 X138.932 Y52.916 E.02538
G1 X139.849 Y52.789 E.029
G1 X140.873 Y52.746 E.03216
G1 X141.97 Y52.774 E.0344
G1 X143.101 Y52.864 E.03556
G1 X144.225 Y53.007 E.03555
G1 X145.304 Y53.195 E.03434
G1 X146.298 Y53.418 E.03194
G1 X147.169 Y53.67 E.02842
G1 X147.916 Y53.959 E.02511
G1 X148.658 Y54.66 E.03203
G1 X149.513 Y55.998 E.04977
G1 X150.463 Y57.855 E.0654
G1 X151.478 Y60.132 E.07817
G1 X152.518 Y62.719 E.08741
G1 X153.542 Y65.501 E.09297
G1 X154.509 Y68.366 E.09478
G1 X155.376 Y71.197 E.09284
G1 X156.1 Y73.882 E.0872
G1 X156.64 Y76.308 E.07792
G1 X156.953 Y78.361 E.06512
G1 X158.078 Y96.574 E.57216
G1 X161.31 Y97.174 E.10308
G1 X163.699 Y97.658 E.07644
G1 X166.203 Y98.222 E.08047
G1 X167.518 Y98.546 E.04247
G1 X170.28 Y99.292 E.0897
G1 X171.751 Y99.726 E.04809
G1 X173.278 Y100.231 E.05044
G1 X174.843 Y100.825 E.05247
G1 X176.426 Y101.493 E.05387
G1 X178.01 Y102.224 E.0547
G1 X179.579 Y103.004 E.05495
G1 X181.117 Y103.82 E.05459
G1 X182.607 Y104.659 E.05361
G1 X184.032 Y105.509 E.05202
G1 X185.376 Y106.356 E.04981
G1 X186.622 Y107.188 E.04698
G1 X187.76 Y107.996 E.04376
G1 X188.753 Y108.833 E.04073
G1 X189.574 Y109.738 E.0383
G1 X190.227 Y110.688 E.03615
G1 X190.727 Y111.664 E.03438
G1 X191.084 Y112.648 E.03282
G1 X191.314 Y113.621 E.03136
G1 X191.43 Y114.567 E.02987
G1 X191.445 Y115.468 E.02825
G1 X191.373 Y116.307 E.02642
G1 X191.226 Y117.069 E.02434
G1 X191.017 Y117.738 E.02196
G1 X190.745 Y118.336 E.0206
G1 X190.405 Y118.895 E.02052
G1 X190.003 Y119.41 E.02048
