; generated by PrusaSlicer 2.4.1+win64 on 2022-12-23 at 08:53:18 UTC


;
;
; 

; external perimeters extrusion width = 0.60mm
; perimeters extrusion width = 0.50mm
; infill extrusion width = 0.50mm
; solid infill extrusion width = 0.50mm
; top infill extrusion width = 0.45mm
; first layer extrusion width = 0.42mm

M73 P0 R29
M73 Q0 S29
M201 X1000 Y1000 Z200 E5000 ; sets maximum accelerations, mm/sec^2
M203 X200 Y200 Z12 E120 ; sets maximum feedrates, mm / sec
M204 P1250 R1250 T1250 ; sets acceleration (P, T) and retract acceleration (R), mm/sec^2
M205 X8.00 Y8.00 Z0.40 E4.50 ; sets the jerk limits, mm/sec
M205 S0 T0 ; sets the minimum extruding and travel feed rate, mm/sec
M107
;TYPE:Custom
M862.3 P "MK3S" ; printer model check
M862.1 P0.4 ; nozzle diameter check
M115 U3.11.0 ; tell printer latest fw version
G90 ; use absolute coordinates
M83 ; extruder relative mode
M104 S215 ; set extruder temp
M140 S60 ; set bed temp
M190 S60 ; wait for bed temp
M109 S215 ; wait for extruder temp
G28 W ; home all without mesh bed level
G80 ; mesh bed leveling

G1 Z0.2 F720
G1 Y-3 F1000 ; go outside print area
G92 E0
G1 X60 E9 F1000 ; intro line
G1 X100 E12.5 F1000 ; intro line

G92 E0
M221 S95

; Don't change E values below. Excessive value can damage the printer.

M907 E538 ; set extruder motor current
G21 ; set units to millimeters
G90 ; use absolute coordinates
M83 ; use relative distances for extrusion
M900 K0.05 ; Filament gcode LA 1.5
M900 K30 ; Filament gcode LA 1.0
M107
;LAYER_CHANGE
;Z:0.2
;HEIGHT:0.2
;BEFORE_LAYER_CHANGE
G92 E0.0
;0.2


G1 E-.8 F2100
G1 Z.4 F720
;AFTER_LAYER_CHANGE
;0.2
G1 X96.686 Y68.065 F10800
G1 Z.2 F720
G1 E.8 F2100
M204 S800
;TYPE:Skirt/Brim
;WIDTH:0.42
G1 F1200
G1 X97.31 Y67.187 E.03379
G1 X98.175 Y66.395 E.03677
G1 X99.079 Y65.837 E.0333
G1 X100.319 Y65.365 E.04162
G1 X101.565 Y65.111 E.03985
G1 X102.952 Y65.032 E.04356
G1 X151.098 Y70.029 E1.51772
G1 X152.358 Y70.34 E.04068
G1 X153.018 Y70.615 E.02241
G1 X153.755 Y71.045 E.02675
G1 X154.863 Y72 E.04588
G1 X155.922 Y73.443 E.05612
G1 X156.443 Y74.575 E.03907
G1 X157.036 Y76.704 E.06929
G1 X157.361 Y79.012 E.07308
G1 X157.489 Y80.934 E.06042
G1 X156.381 Y125.62 E1.40151
G1 X156.236 Y127.424 E.05677
G1 X155.756 Y130.037 E.08328
G1 X155.101 Y132.189 E.07055
G1 X154.198 Y134.356 E.07361
G1 X153.033 Y136.466 E.07556
G1 X151.665 Y138.368 E.07345
G1 X150.286 Y139.89 E.06441
G1 X149.193 Y140.878 E.04619
G1 X148.18 Y141.658 E.04011
G1 X146.642 Y142.661 E.05755
G1 X144.347 Y143.807 E.08044
G1 X142.73 Y144.396 E.05394
G1 X140.59 Y144.889 E.06886
G1 X138.963 Y144.951 E.05105
G1 X97.049 Y140.545 E1.32142
G1 X95.874 Y140.21 E.03832
G1 X95.03 Y139.745 E.03019
G1 X94.189 Y138.996 E.03533
G1 X93.585 Y138.147 E.03265
G1 X93.077 Y136.948 E.04084
G1 X92.875 Y135.788 E.03693
G1 X92.511 Y122.872 E.40511
G1 X92.753 Y106.307 E.51945
G1 X92.843 Y104.642 E.05229
M73 P1 R29
M73 Q1 S29
G1 X96.046 Y69.996 E1.09093
G1 X96.243 Y69.09 E.02906
G1 X96.662 Y68.121 E.03312
M204 S1000
; printing object Cookie_Cutter_Cat_2.stl id:0 copy 0
;WIPE_START
G1 F8640
G1 X97.31 Y67.187 E-.26242
G1 X98.175 Y66.395 E-.2708
G1 X99.011 Y65.879 E-.22678
;WIPE_END
G1 E-.04 F2100
G1 Z.6 F720
G1 X116.903 Y135.663 F10800
G1 Z.2 F720
G1 E.8 F2100
M204 S800
;TYPE:Perimeter
G1 F1200
G1 X115.998 Y135.716 E.02843
G1 X115.641 Y135.669 E.01129
G1 X115.286 Y135.569 E.01156
G1 X114.94 Y135.43 E.01169
G1 X114.308 Y135.104 E.02231
G1 X113.734 Y134.756 E.02103
G1 X111.275 Y133.158 E.09196
G1 X111.001 Y133.029 E.0095
G1 X110.714 Y132.998 E.00906
G1 X110.562 Y133.014 E.00478
G1 X108.189 Y133.564 E.07637
G1 X107.491 Y133.678 E.0222
G1 X106.784 Y133.727 E.0222
G1 X105.442 Y133.691 E.0421
G1 X104.707 Y133.617 E.02316
G1 X103.365 Y133.354 E.04288
G1 X102.694 Y133.251 E.02129
G1 X102.558 Y133.251 E.00426
G1 X102.357 Y133.303 E.00652
G1 X102.18 Y133.436 E.00693
G1 X100.216 Y135.381 E.08669
G1 X99.684 Y135.875 E.02275
G1 X99.125 Y136.305 E.0221
G1 X98.504 Y136.625 E.02193
G1 X98.134 Y136.738 E.01212
G1 X97.77 Y136.772 E.01147
G1 X97.348 Y136.686 E.0135
G1 X97.053 Y136.448 E.01189
G1 X96.919 Y136.255 E.00735
G1 X96.819 Y136.054 E.00704
G1 X96.727 Y135.732 E.01051
G1 X96.686 Y135 E.02298
G1 X96.697 Y134.283 E.02249
G1 X96.787 Y132.949 E.04195
G1 X96.991 Y131.477 E.04658
G1 X97.208 Y130.164 E.04172
G1 X97.592 Y128.148 E.06434
G1 X97.608 Y127.986 E.00513
G1 X97.57 Y127.683 E.00956
G1 X96.7 Y124.906 E.09125
G1 X96.531 Y124.217 E.02226
G1 X96.405 Y123.467 E.02381
G1 X96.351 Y122.827 E.02015
G1 X96.353 Y122.124 E.02206
G1 X96.412 Y121.422 E.02208
G1 X96.529 Y120.728 E.02209
G1 X96.711 Y120.044 E.02218
G1 X97.444 Y118.163 E.06331
G1 X97.743 Y117.453 E.02414
G1 X97.841 Y117.16 E.0097
G1 X97.909 Y116.824 E.01073
G1 X97.926 Y116.505 E.01003
G1 X97.902 Y116.182 E.01015
G1 X97.844 Y115.868 E.01
G1 X97.394 Y114.202 E.05413
G1 X97.1 Y112.862 E.043
G1 X96.872 Y111.508 E.04305
G1 X96.71 Y110.144 E.04306
G1 X96.609 Y108.676 E.04613
G1 X96.579 Y107.303 E.04308
G1 X96.607 Y105.925 E.04321
G1 X96.721 Y104.452 E.04631
G1 X96.91 Y103.19 E.04
G1 X97.256 Y101.751 E.04641
G1 X97.69 Y100.44 E.0433
G1 X98.178 Y99.26 E.04005
G1 X98.819 Y97.934 E.04618
G1 X99.476 Y96.727 E.04307
G1 X100.872 Y94.327 E.08706
G1 X101.021 Y94.029 E.01044
G1 X101.144 Y93.716 E.01056
G1 X101.232 Y93.392 E.01051
G1 X101.29 Y93.089 E.00968
G1 X101.494 Y91.714 E.04358
G1 X101.981 Y87.571 E.13081
G1 X102.171 Y86.246 E.04195
G1 X102.321 Y85.523 E.02315
G1 X102.525 Y84.814 E.02316
G1 X102.957 Y83.621 E.03977
G1 X104.094 Y80.672 E.09909
G1 X104.189 Y80.35 E.01052
G1 X104.247 Y80.02 E.01052
G1 X104.258 Y79.693 E.01026
G1 X104.214 Y79.009 E.02148
G1 X104.134 Y78.342 E.02107
G1 X104.013 Y77.691 E.02075
G1 X103.844 Y77.05 E.02081
G1 X103.672 Y76.528 E.01723
G1 X103.612 Y76.399 E.00445
G1 X103.516 Y76.259 E.00532
G1 X103.384 Y76.171 E.00498
G1 X103.175 Y76.106 E.00687
G1 X102.132 Y75.901 E.03332
G1 X101.78 Y75.803 E.01148
G1 X101.442 Y75.633 E.01185
G1 X101.168 Y75.35 E.01235
G1 X100.81 Y74.722 E.02266
G1 X100.68 Y74.338 E.01272
G1 X100.629 Y74.03 E.00978
G1 X100.633 Y73.787 E.00763
G1 X100.694 Y73.542 E.00792
G1 X100.923 Y73.208 E.01269
G1 X101.148 Y73.086 E.00802
G1 X100.603 Y72.499 E.02511
G1 X100.196 Y71.998 E.02022
G1 X99.98 Y71.622 E.0136
G1 X99.868 Y71.286 E.01114
G1 X99.824 Y70.925 E.01139
G1 X99.839 Y70.535 E.01223
G1 X99.922 Y70.174 E.01163
G1 X100.092 Y69.84 E.01176
G1 X100.374 Y69.54 E.0129
G1 X100.68 Y69.33 E.01163
G1 X101.024 Y69.169 E.01192
G1 X101.738 Y68.959 E.02333
G1 X102.522 Y68.875 E.02472
G1 X103.251 Y68.887 E.02286
G1 X103.989 Y68.992 E.02335
G1 X104.699 Y69.177 E.02302
G1 X105.361 Y69.435 E.02227
G1 X105.721 Y69.607 E.01253
G1 X106.014 Y69.777 E.01061
G1 X106.332 Y70.028 E.0127
G1 X106.567 Y70.327 E.01192
G1 X106.674 Y70.561 E.00809
G1 X106.808 Y71.062 E.01626
G1 X107.126 Y72.465 E.04511
G1 X107.334 Y73.123 E.02164
G1 X107.607 Y73.792 E.02266
G1 X108.22 Y75.093 E.04507
G1 X108.895 Y76.365 E.04516
G1 X110.316 Y78.821 E.08896
G1 X111.774 Y81.285 E.08978
G1 X112.454 Y82.495 E.0435
G1 X112.813 Y83.173 E.02405
G1 X113.1 Y83.814 E.02204
G1 X113.546 Y85.218 E.04617
G1 X114.778 Y89.343 E.135
G1 X115.224 Y90.631 E.04274
G1 X115.52 Y91.342 E.02414
G1 X115.761 Y91.821 E.01682
G1 X115.845 Y91.937 E.00449
G1 X115.966 Y92.048 E.00515
G1 X116.111 Y92.103 E.00488
G1 X116.366 Y92.112 E.00797
G1 X116.705 Y92.081 E.01068
G1 X117.762 Y91.901 E.03361
G1 X118.459 Y91.81 E.02204
G1 X119.17 Y91.779 E.02232
M73 P1 R28
G1 X119.935 Y91.807 E.02401
G1 X121.351 Y91.995 E.04479
G1 X121.514 Y91.997 E.00512
G1 X121.821 Y91.947 E.00975
G1 X122 Y91.845 E.00645
G1 X122.113 Y91.673 E.00647
G1 X122.229 Y91.349 E.01079
G1 X122.3 Y91.049 E.00966
G1 X122.641 Y88.53 E.07968
G1 X122.827 Y87.809 E.02337
G1 X123.095 Y87.124 E.02306
G1 X124.027 Y85.223 E.06637
G1 X124.165 Y84.901 E.01098
G1 X124.246 Y84.569 E.01075
G1 X124.317 Y83.863 E.02223
G1 X124.315 Y83.521 E.01074
G1 X124.291 Y83.203 E.01
G1 X124.234 Y82.859 E.01092
G1 X124.133 Y82.528 E.01085
G1 X123.98 Y82.232 E.01046
G1 X123.779 Y81.965 E.01048
G1 X123.559 Y81.736 E.00997
G1 X123.288 Y81.495 E.01135
G1 X122.724 Y81.069 E.02215
G1 X121.548 Y80.262 E.04473
G1 X120.313 Y79.473 E.04595
G1 X119.084 Y78.794 E.04404
G1 X118.792 Y78.652 E.01016
G1 X118.476 Y78.533 E.01059
G1 X118.165 Y78.495 E.00983
G1 X117.821 Y78.514 E.0108
G1 X117.1 Y78.639 E.02294
G1 X116.731 Y78.667 E.01159
G1 X116.392 Y78.645 E.01066
G1 X115.982 Y78.559 E.01312
G1 X115.629 Y78.408 E.01206
G1 X115.307 Y78.182 E.01233
G1 X115.023 Y77.856 E.01355
G1 X114.87 Y77.495 E.0123
G1 X114.828 Y77.107 E.01222
G1 X114.837 Y76.75 E.0112
G1 X114.911 Y76.328 E.01344
G1 X115.075 Y75.979 E.01211
G1 X115.353 Y75.661 E.01323
G1 X115.673 Y75.429 E.0124
G1 X115.985 Y75.277 E.01086
G1 X116.382 Y75.14 E.01318
G1 X117.07 Y74.976 E.02217
G1 X117.449 Y74.924 E.012
G1 X118.157 Y74.895 E.0222
G1 X119.639 Y74.894 E.04648
G1 X120.348 Y74.928 E.02226
G1 X120.721 Y75.016 E.01201
G1 X121.094 Y75.155 E.01247
G1 X123.067 Y76.102 E.06861
G1 X125.546 Y77.464 E.08869
G1 X126.724 Y78.178 E.04321
G1 X127.974 Y78.992 E.04675
G1 X129.154 Y79.839 E.04557
G1 X130.269 Y80.753 E.04518
G1 X130.827 Y81.262 E.0237
G1 X131.314 Y81.765 E.02196
G1 X131.551 Y82.116 E.01328
G1 X131.685 Y82.47 E.01187
G1 X131.742 Y82.853 E.01213
G1 X131.729 Y83.247 E.01236
G1 X131.663 Y83.598 E.01119
G1 X131.117 Y85.321 E.05669
G1 X131.091 Y85.469 E.00472
G1 X131.093 Y85.636 E.00522
G1 X131.17 Y85.92 E.00925
G1 X131.486 Y86.539 E.02177
G1 X132.277 Y87.795 E.04653
G1 X132.643 Y88.419 E.0227
G1 X132.937 Y89.013 E.02077
G1 X133.216 Y89.682 E.02274
G1 X133.734 Y91.035 E.04544
G1 X133.953 Y91.508 E.01632
G1 X134.134 Y91.765 E.00986
G1 X134.242 Y91.86 E.00453
G1 X134.368 Y91.931 E.00451
G1 X134.569 Y91.972 E.00644
G1 X134.769 Y91.915 E.00653
G1 X134.893 Y91.837 E.0046
G1 X134.999 Y91.739 E.00452
G1 X137.208 Y88.947 E.11163
G1 X137.701 Y88.382 E.02352
G1 X138.22 Y87.845 E.02343
G1 X138.709 Y87.394 E.02086
G1 X139.288 Y86.921 E.02344
G1 X139.894 Y86.483 E.02345
G1 X140.454 Y86.12 E.02092
G1 X141.101 Y85.745 E.02343
G1 X141.773 Y85.408 E.02357
G1 X143.066 Y84.872 E.04389
G1 X144.547 Y84.352 E.04922
G1 X145.803 Y83.973 E.04113
G1 X147.215 Y83.584 E.04593
G1 X147.878 Y83.33 E.02225
G1 X148.18 Y83.177 E.01062
G1 X148.477 Y82.991 E.01098
G1 X148.738 Y82.777 E.01061
G1 X148.958 Y82.514 E.01073
G1 X149.025 Y82.393 E.00433
G1 X149.076 Y82.265 E.00432
G1 X149.149 Y81.924 E.01094
G1 X149.17 Y81.567 E.01121
G1 X149.15 Y80.5 E.03347
G1 X149.084 Y79.792 E.02228
G1 X148.973 Y79.162 E.02007
G1 X148.757 Y78.252 E.02931
G1 X148.63 Y77.973 E.00965
G1 X148.416 Y77.737 E.00996
G1 X147.72 Y77.124 E.02909
G1 X147.478 Y76.868 E.01104
G1 X147.248 Y76.543 E.0125
G1 X147.099 Y76.201 E.01167
G1 X147.03 Y75.824 E.01204
G1 X147.035 Y75.415 E.01281
G1 X147.13 Y75.007 E.01313
G1 X147.299 Y74.672 E.01176
G1 X147.567 Y74.358 E.01296
G1 X147.869 Y74.126 E.01192
G1 X148.38 Y73.866 E.01797
G1 X148.599 Y73.805 E.00713
G1 X148.967 Y73.766 E.01162
G1 X150.027 Y73.775 E.03322
G1 X150.425 Y73.81 E.01254
G1 X150.797 Y73.875 E.01183
G1 X151.159 Y73.985 E.01187
G1 X151.492 Y74.15 E.01167
G1 X151.806 Y74.376 E.01212
G1 X152.108 Y74.671 E.01323
G1 X152.532 Y75.246 E.02241
G1 X152.703 Y75.566 E.01138
G1 X152.853 Y75.936 E.01251
G1 X153.235 Y77.297 E.04433
G1 X153.375 Y78.05 E.024
G1 X153.473 Y78.78 E.02311
G1 X153.611 Y80.157 E.0434
G1 X153.648 Y80.894 E.02315
G1 X153.645 Y81.688 E.02487
G1 X153.606 Y82.35 E.0208
G1 X153.524 Y83.111 E.024
G1 X153.311 Y84.516 E.04454
G1 X153.177 Y85.223 E.02258
G1 X153.002 Y85.919 E.02249
G1 X152.77 Y86.599 E.02255
G1 X152.48 Y87.26 E.02261
G1 X152.142 Y87.896 E.0226
G1 X150.631 Y90.342 E.09012
G1 X150.091 Y91.283 E.03402
G1 X149.939 Y91.606 E.0112
G1 X149.706 Y92.213 E.02038
G1 X149.471 Y92.941 E.02401
G1 X149.404 Y93.248 E.00983
G1 X149.353 Y93.611 E.01151
G1 X149.306 Y94.317 E.02218
G1 X149.299 Y95.015 E.02188
G1 X149.366 Y96.459 E.04534
G1 X149.595 Y99.317 E.08988
G1 X149.595 Y100.044 E.02281
G1 X149.545 Y100.765 E.02265
G1 X149.447 Y101.48 E.02265
G1 X149.302 Y102.192 E.02278
G1 X148.922 Y103.559 E.04448
G1 X148.486 Y104.946 E.04557
G1 X148.294 Y105.628 E.02222
G1 X148.144 Y106.313 E.02201
G1 X148.069 Y107.015 E.02214
G1 X148.072 Y107.343 E.01028
G1 X148.108 Y107.682 E.01069
G1 X148.187 Y108.04 E.01148
G1 X148.278 Y108.343 E.00992
G1 X150.455 Y114.256 E.19757
G1 X150.958 Y115.769 E.05001
G1 X151.374 Y117.166 E.04569
M73 Q1 S28
G1 X151.711 Y118.443 E.04142
G1 X152.035 Y119.864 E.04569
G1 X152.296 Y121.317 E.04628
G1 X152.467 Y122.709 E.04396
G1 X152.556 Y124.186 E.04641
G1 X152.537 Y125.668 E.04648
G1 X152.41 Y127.067 E.04404
G1 X152.163 Y128.53 E.04653
G1 X151.796 Y129.972 E.04664
G1 X151.312 Y131.375 E.04653
G1 X150.757 Y132.655 E.04375
G1 X150.278 Y133.607 E.0334
G1 X149.718 Y134.524 E.03372
G1 X149.273 Y135.183 E.02492
G1 X148.875 Y135.717 E.02088
G1 X148.409 Y136.285 E.02303
G1 X147.838 Y136.908 E.02649
G1 X147.232 Y137.496 E.0265
G1 X146.591 Y138.047 E.0265
G1 X145.919 Y138.559 E.02649
G1 X145.219 Y139.034 E.02649
G1 X144.494 Y139.469 E.02654
M73 Q2 S28
G1 X143.745 Y139.866 E.02656
G1 X142.977 Y140.221 E.02655
G1 X142.195 Y140.529 E.02632
G1 X141.397 Y140.786 E.0263
G1 X140.589 Y140.99 E.02615
G1 X140.134 Y141.077 E.01453
G1 X139.695 Y141.127 E.01385
G1 X139.24 Y141.125 E.01426
G1 X138.805 Y141.049 E.01383
M73 P2 R28
G1 X138.424 Y140.872 E.01319
G1 X138.177 Y140.665 E.0101
G1 X137.939 Y140.331 E.01286
G1 X137.833 Y140.03 E.01
G1 X137.78 Y139.667 E.01151
G1 X137.789 Y139.354 E.00982
G1 X137.904 Y138.962 E.01279
G1 X138.114 Y138.639 E.01208
G1 X139.378 Y138.063 E.04357
G1 X140.349 Y137.595 E.03381
G1 X141.44 Y136.963 E.03951
G1 X142.319 Y136.34 E.03377
G1 X142.771 Y135.966 E.01839
G1 X143.204 Y135.565 E.01852
G1 X143.985 Y134.728 E.03588
G1 X144.357 Y134.275 E.01839
G1 X144.688 Y133.817 E.01772
G1 X145.267 Y132.826 E.036
G1 X145.521 Y132.306 E.01813
G1 X145.746 Y131.771 E.01821
G1 X146.138 Y130.654 E.03712
G1 X146.417 Y129.619 E.03359
G1 X146.652 Y128.409 E.03866
G1 X146.777 Y127.288 E.03537
G1 X146.844 Y126.083 E.03781
G1 X146.863 Y124.895 E.03726
G1 X146.829 Y123.706 E.0373
G1 X146.754 Y122.637 E.0336
G1 X146.625 Y121.455 E.03728
G1 X146.462 Y120.395 E.03364
G1 X146.278 Y119.472 E.02951
G1 X146.139 Y119.019 E.01484
G1 X146.047 Y118.641 E.0122
G1 X145.832 Y118.077 E.01894
G1 X145.343 Y117.025 E.03635
G1 X145.072 Y116.539 E.01746
G1 X144.771 Y116.1 E.0167
G1 X144.4 Y115.644 E.01843
G1 X143.987 Y115.227 E.0184
G1 X143.55 Y114.864 E.0178
G1 X143.082 Y114.538 E.01789
G1 X142.833 Y114.408 E.0088
G1 X142.599 Y114.326 E.00778
G1 X142.326 Y114.282 E.00867
G1 X142.061 Y114.285 E.00831
G1 X141.503 Y114.385 E.01778
G1 X140.896 Y114.566 E.01985
G1 X139.796 Y114.958 E.03664
G1 X137.629 Y115.822 E.07313
G1 X135.488 Y116.611 E.07156
G1 X134.308 Y117.001 E.03897
G1 X133.273 Y117.314 E.0339
G1 X132.137 Y117.621 E.03688
G1 X130.992 Y117.888 E.03686
G1 X129.838 Y118.112 E.03686
G1 X128.576 Y118.307 E.04006
G1 X126.311 Y118.56 E.07145
G1 X124.01 Y118.717 E.07232
G1 X121.627 Y118.769 E.07471
G1 X116.341 Y118.756 E.16576
G1 X115.8 Y118.776 E.01697
G1 X115.521 Y118.81 E.00882
G1 X115.299 Y118.893 E.00743
G1 X115.215 Y118.961 E.00338
G1 X115.095 Y119.151 E.00704
G1 X115.058 Y119.368 E.00692
G1 X115.092 Y119.666 E.00938
G1 X115.521 Y121.484 E.05858
G1 X115.627 Y122.071 E.01871
G1 X115.697 Y122.662 E.01865
G1 X115.722 Y123.26 E.01875
G1 X115.693 Y123.909 E.02038
G1 X115.622 Y124.453 E.01721
G1 X115.479 Y125.082 E.02023
G1 X115.318 Y125.602 E.01706
G1 X115.11 Y126.155 E.01853
G1 X114.656 Y127.265 E.03759
G1 X114.559 Y127.565 E.00989
G1 X114.546 Y127.704 E.00438
G1 X114.594 Y127.869 E.00537
G1 X115.165 Y129.352 E.04983
G1 X115.641 Y130.5 E.03896
G1 X116.426 Y132.5 E.06736
G1 X116.658 Y133.186 E.0227
G1 X116.8 Y133.776 E.01904
G1 X116.875 Y134.311 E.01695
G1 X116.901 Y134.664 E.0111
G1 X116.903 Y135.603 E.02944
M204 S1000
G1 X116.525 Y135.308 F10800
M204 S800
;TYPE:External perimeter
G1 F1200
G1 X116.012 Y135.338 E.01613
G1 X115.718 Y135.299 E.00931
G1 X115.408 Y135.211 E.01008
G1 X115.097 Y135.087 E.0105
G1 X114.492 Y134.774 E.02134
G1 X113.935 Y134.437 E.02044
