; generated by PrusaSlicer 2.4.1+win64 on 2023-11-14 at 15:38:16 UTC


;
;
; 

; external perimeters extrusion width = 0.60mm
; perimeters extrusion width = 0.50mm
; infill extrusion width = 0.50mm
; solid infill extrusion width = 0.50mm
; top infill extrusion width = 0.45mm
; first layer extrusion width = 0.42mm

M73 P0 R27
M73 Q0 S27
M201 X1000 Y1000 Z200 E5000 ; sets maximum accelerations, mm/sec^2
M203 X200 Y200 Z12 E120 ; sets maximum feedrates, mm / sec
M204 P1250 R1250 T1250 ; sets acceleration (P, T) and retract acceleration (R), mm/sec^2
M205 X8.00 Y8.00 Z0.40 E4.50 ; sets the jerk limits, mm/sec
M205 S0 T0 ; sets the minimum extruding and travel feed rate, mm/sec
M107
;TYPE:Custom
M862.3 P "MK3S" ; printer model check
M862.1 P0.4 ; nozzle diameter check
M115 U3.11.0 ; tell printer latest fw version
G90 ; use absolute coordinates
M83 ; extruder relative mode
M104 S215 ; set extruder temp
M140 S60 ; set bed temp
M190 S60 ; wait for bed temp
M109 S215 ; wait for extruder temp
G28 W ; home all without mesh bed level
G80 ; mesh bed leveling

G1 Z0.2 F720
G1 Y-3 F1000 ; go outside print area
G92 E0
G1 X60 E9 F1000 ; intro line
G1 X100 E12.5 F1000 ; intro line

G92 E0
M221 S95

; Don't change E values below. Excessive value can damage the printer.

M907 E538 ; set extruder motor current
G21 ; set units to millimeters
G90 ; use absolute coordinates
M83 ; use relative distances for extrusion
M900 K0.05 ; Filament gcode LA 1.5
M900 K30 ; Filament gcode LA 1.0
M107
;LAYER_CHANGE
;Z:0.2
;HEIGHT:0.2
;BEFORE_LAYER_CHANGE
G92 E0.0
;0.2


G1 E-.8 F2100
M73 P0 R26
G1 Z.4 F720
;AFTER_LAYER_CHANGE
;0.2
G1 X100.344 Y74.549 F10800
G1 Z.2 F720
G1 E.8 F2100
M204 S800
;TYPE:Skirt/Brim
;WIDTH:0.42
G1 F1200
G1 X105.082 Y68.172 E.2491
G1 X106.573 Y66.756 E.06447
G1 X107.226 Y66.335 E.02436
G1 X108.348 Y65.848 E.03833
G1 X109.416 Y65.518 E.03505
G1 X111.344 Y65.126 E.06171
G1 X113.345 Y64.914 E.06309
G1 X135.617 Y64.885 E.69832
G1 X138.549 Y65.11 E.09218
G1 X140.443 Y65.481 E.06052
G1 X141.37 Y65.747 E.03025
G1 X142.774 Y66.335 E.04772
G1 X143.427 Y66.756 E.02436
G1 X144.918 Y68.172 E.06447
G1 X172.936 Y105.957 E1.4749
G1 X173.595 Y107.2 E.04412
M73 Q0 S26
G1 X174.071 Y108.453 E.04203
G1 X174.38 Y109.688 E.03992
G1 X174.542 Y110.886 E.0379
G1 X174.575 Y112.038 E.03611
G1 X174.492 Y113.141 E.0347
G1 X174.3 Y114.207 E.03396
G1 X173.99 Y115.242 E.03387
G1 X173.56 Y116.232 E.03386
G1 X173.024 Y117.146 E.03322
G1 X172.392 Y117.983 E.03288
G1 X171.521 Y118.877 E.03913
G1 X143.138 Y143.139 E1.17077
G1 X141.933 Y144.062 E.04757
G1 X140.88 Y144.603 E.03714
G1 X140.228 Y144.825 E.02159
G1 X138.445 Y145.116 E.05663
G1 X111.555 Y145.116 E.84313
G1 X109.772 Y144.825 E.05663
G1 X109.12 Y144.603 E.02159
M73 Q1 S26
G1 X108.067 Y144.062 E.03714
G1 X106.862 Y143.139 E.04757
G1 X78.479 Y118.877 E1.17077
M73 P1 R26
G1 X77.789 Y118.19 E.03053
G1 X76.976 Y117.146 E.04147
G1 X76.44 Y116.232 E.03322
G1 X76.01 Y115.242 E.03386
G1 X75.542 Y113.389 E.05993
G1 X75.425 Y112.037 E.04252
G1 X75.458 Y110.886 E.03611
G1 X75.62 Y109.688 E.0379
G1 X75.929 Y108.454 E.03992
G1 X76.405 Y107.2 E.04203
G1 X76.906 Y106.222 E.03446
G1 X77.767 Y104.939 E.04843
G1 X100.308 Y74.597 E1.18516
M204 S1000
; printing object cookie_cat_7cm.STL id:0 copy 0
;WIPE_START
G1 F8640
G1 X102.271 Y71.955 E-.76
;WIPE_END
G1 E-.04 F2100
G1 Z.6 F720
G1 X133.699 Y115.345 F10800
G1 Z.2 F720
G1 E.8 F2100
M204 S800
;TYPE:Perimeter
G1 F1200
G1 X145.192 Y117.414 E.36615
G1 X144.497 Y122.843 E.17163
G1 X144.032 Y126.1 E.10317
G1 X143.532 Y129.326 E.10234
G1 X143.285 Y130.599 E.04065
G1 X142.941 Y132.102 E.04834
G1 X142.377 Y134.24 E.06933
G1 X138.034 Y130.523 E.17924
G1 X135.896 Y128.272 E.09734
G1 X135.322 Y123.276 E.15767
G1 X134.834 Y120.662 E.08337
G1 X133.981 Y118.144 E.08337
G1 X133.113 Y116.076 E.07033
G1 X133.661 Y115.392 E.02747
M204 S1000
G1 X133.853 Y115.756 F10800
M204 S800
;TYPE:External perimeter
G1 F1200
G1 X144.772 Y117.721 E.34788
G1 X144.123 Y122.793 E.1603
G1 X143.659 Y126.045 E.10303
G1 X143.161 Y129.26 E.10198
G1 X142.917 Y130.521 E.04028
G1 X142.575 Y132.011 E.04795
G1 X142.166 Y133.563 E.0503
G1 X138.294 Y130.249 E.15979
G1 X136.256 Y128.104 E.09277
G1 X135.695 Y123.22 E.15413
G1 X135.2 Y120.567 E.08463
G1 X134.334 Y118.011 E.08463
G1 X133.548 Y116.137 E.06371
G1 X133.815 Y115.803 E.01341
M204 S1000
G1 X133.872 Y115.357 F10800
;WIPE_START
G1 F8640
G1 X137.057 Y116.371 E-.76
;WIPE_END
G1 E-.04 F2100
G1 Z.6 F720
G1 X133.816 Y130.561 F10800
G1 Z.2 F720
G1 E.8 F2100
M204 S800
;TYPE:Perimeter
G1 F1200
G1 X135.367 Y130.596 E.04863
G1 X138.233 Y133.845 E.13582
G1 X141.497 Y136.694 E.13585
G1 X140.842 Y137.962 E.04476
G1 X140.51 Y138.504 E.01992
G1 X140.16 Y138.99 E.01877
G1 X139.785 Y139.413 E.01772
G1 X139.374 Y139.757 E.01681
G1 X138.914 Y140.001 E.01633
G1 X138.401 Y140.101 E.01639
G1 X137.869 Y140.015 E.0169
G1 X137.366 Y139.742 E.01793
G1 X136.906 Y139.304 E.01994
G1 X136.478 Y138.71 E.02295
G1 X135.784 Y137.544 E.04255
G1 X135.262 Y136.585 E.03421
G1 X134.847 Y135.752 E.0292
G1 X134.097 Y134.16 E.05517
G1 X133.682 Y133.334 E.02898
G1 X133.435 Y132.94 E.01458
G1 X131.988 Y132.083 E.05274
G1 X133.77 Y130.599 E.0727
M204 S1000
G1 X133.949 Y130.941 F10800
M204 S800
;TYPE:External perimeter
G1 F1200
G1 X135.193 Y130.97 E.03903
G1 X137.966 Y134.113 E.13142
G1 X141.026 Y136.784 E.12735
G1 X140.513 Y137.777 E.03506
G1 X140.196 Y138.295 E.01905
G1 X139.866 Y138.754 E.01772
G1 X139.522 Y139.141 E.01624
G1 X139.163 Y139.442 E.01469
G1 X138.787 Y139.641 E.01333
G1 X138.394 Y139.718 E.01254
G1 X137.992 Y139.653 E.01277
G1 X137.59 Y139.435 E.01435
G1 X137.191 Y139.055 E.01728
G1 X136.794 Y138.503 E.02133
G1 X136.111 Y137.357 E.04181
G1 X135.596 Y136.411 E.03377
G1 X135.186 Y135.587 E.02885
G1 X134.436 Y133.995 E.0552
G1 X134.011 Y133.149 E.02969
G1 X133.706 Y132.662 E.018
G1 X132.64 Y132.031 E.03885
G1 X133.903 Y130.98 E.05151
M204 S1000
G1 X133.974 Y130.542 F10800
;WIPE_START
G1 F8640
G1 X135.193 Y130.97 E-.29799
G1 X136.517 Y132.47 E-.46201
;WIPE_END
G1 E-.04 F2100
G1 Z.6 F720
G1 X116.565 Y132.94 F10800
G1 Z.2 F720
G1 E.8 F2100
M204 S800
;TYPE:Perimeter
G1 F1200
G1 X116.318 Y133.334 E.01457
G1 X115.903 Y134.16 E.02898
G1 X115.153 Y135.752 E.05517
G1 X114.738 Y136.585 E.0292
G1 X114.216 Y137.544 E.03421
G1 X113.522 Y138.71 E.04255
G1 X113.094 Y139.304 E.02295
G1 X112.634 Y139.742 E.01994
G1 X112.131 Y140.015 E.01793
G1 X111.599 Y140.101 E.0169
G1 X111.086 Y140 E.01639
G1 X110.626 Y139.757 E.01633
G1 X110.215 Y139.413 E.01681
G1 X109.84 Y138.99 E.01772
G1 X109.49 Y138.504 E.01877
G1 X109.158 Y137.962 E.01992
G1 X108.503 Y136.694 E.04476
G1 X111.767 Y133.845 E.13585
G1 X114.633 Y130.596 E.13582
G1 X116.184 Y130.561 E.04863
G1 X118.012 Y132.083 E.07458
G1 X116.617 Y132.909 E.05085
M204 S1000
;WIPE_START
G1 F8640
G1 X116.318 Y133.334 E-.11981
G1 X115.903 Y134.16 E-.21343
G1 X115.153 Y135.752 E-.40631
G1 X115.114 Y135.831 E-.02045
;WIPE_END
G1 E-.04 F2100
G1 Z.6 F720
G1 X117.36 Y132.031 F10800
G1 Z.2 F720
M73 Q2 S26
G1 E.8 F2100
M204 S800
;TYPE:External perimeter
G1 F1200
G1 X116.294 Y132.662 E.03885
G1 X115.989 Y133.149 E.018
G1 X115.564 Y133.995 E.02969
G1 X114.814 Y135.587 E.0552
M73 P2 R26
G1 X114.404 Y136.411 E.02885
G1 X113.889 Y137.357 E.03377
G1 X113.206 Y138.503 E.04181
G1 X112.809 Y139.055 E.02133
G1 X112.41 Y139.435 E.01728
G1 X112.008 Y139.653 E.01435
G1 X111.606 Y139.718 E.01277
G1 X111.213 Y139.641 E.01254
G1 X110.837 Y139.442 E.01333
G1 X110.478 Y139.141 E.01469
G1 X110.134 Y138.754 E.01624
G1 X109.804 Y138.295 E.01772
G1 X109.487 Y137.777 E.01905
G1 X108.974 Y136.784 E.03506
G1 X112.034 Y134.113 E.12735
G1 X114.807 Y130.97 E.13142
G1 X116.051 Y130.941 E.03903
G1 X117.314 Y131.992 E.05151
M204 S1000
G1 X117.632 Y132.324 F10800
;WIPE_START
G1 F8640
G1 X116.294 Y132.662 E-.28178
G1 X115.989 Y133.149 E-.13253
G1 X115.564 Y133.995 E-.21863
G1 X115.329 Y134.492 E-.12705
;WIPE_END
G1 E-.04 F2100
G1 Z.6 F720
G1 X116.301 Y115.345 F10800
G1 Z.2 F720
G1 E.8 F2100
M204 S800
;TYPE:Perimeter
G1 F1200
G1 X116.887 Y116.076 E.02935
G1 X116.019 Y118.144 E.07033
G1 X115.166 Y120.662 E.08337
G1 X114.678 Y123.276 E.08337
G1 X114.104 Y128.272 E.15767
G1 X111.966 Y130.523 E.09734
G1 X107.623 Y134.24 E.17924
G1 X107.059 Y132.102 E.06933
G1 X106.715 Y130.599 E.04834
G1 X106.468 Y129.326 E.04065
G1 X105.968 Y126.1 E.10234
G1 X105.503 Y122.843 E.10317
G1 X104.808 Y117.414 E.17163
G1 X116.242 Y115.356 E.36427
M204 S1000
G1 X116.147 Y115.756 F10800
M204 S800
;TYPE:External perimeter
G1 F1200
G1 X116.452 Y116.137 E.01529
G1 X115.666 Y118.011 E.06371
G1 X114.8 Y120.567 E.08463
G1 X114.304 Y123.22 E.08463
G1 X113.744 Y128.104 E.15413
G1 X111.706 Y130.249 E.09277
G1 X107.834 Y133.563 E.15978
G1 X107.425 Y132.011 E.0503
G1 X107.083 Y130.521 E.04795
G1 X106.839 Y129.26 E.04028
G1 X106.341 Y126.045 E.10198
G1 X105.877 Y122.793 E.10303
G1 X105.228 Y117.721 E.16031
G1 X116.088 Y115.767 E.346
M204 S1000
G1 X116.466 Y115.514 F10800
;WIPE_START
G1 F8640
G1 X116.452 Y116.137 E-.11983
G1 X115.666 Y118.011 E-.46919
G1 X115.429 Y118.712 E-.17098
;WIPE_END
G1 E-.04 F2100
G1 Z.6 F720
G1 X118.179 Y110.404 F10800
G1 Z.2 F720
G1 E.8 F2100
M204 S800
;TYPE:Perimeter
G1 F1200
G1 X104.638 Y114.474 E.44334
G1 X104.333 Y114.094 E.01529
G1 X103.34 Y113.867 E.03192
G1 X101.612 Y113.817 E.0542
G1 X99.409 Y113.94 E.06918
G1 X96.913 Y114.196 E.07868
G1 X94.29 Y114.543 E.08296
G1 X91.703 Y114.935 E.08206
G1 X89.311 Y115.33 E.07599
G1 X84.896 Y116.095 E.14052
G1 X84.398 Y116.128 E.01563
G1 X83.907 Y116.097 E.01543
G1 X83.433 Y116.004 E.01514
G1 X82.981 Y115.855 E.01493
G1 X82.555 Y115.654 E.01479
G1 X82.158 Y115.405 E.01469
G1 X81.794 Y115.112 E.01463
G1 X81.467 Y114.78 E.01461
G1 X81.18 Y114.413 E.01461
G1 X80.938 Y114.014 E.01465
G1 X80.743 Y113.586 E.01473
G1 X80.594 Y113.111 E.01562
G1 X80.491 Y112.574 E.01712
G1 X80.441 Y111.987 E.01846
G1 X80.451 Y111.36 E.01969
G1 X80.532 Y110.701 E.0208
G1 X80.692 Y110.023 E.02184
G1 X80.941 Y109.338 E.02287
G1 X81.289 Y108.657 E.02396
G1 X81.745 Y107.995 E.02519
G1 X82.315 Y107.366 E.02664
G1 X82.999 Y106.79 E.02804
G1 X83.77 Y106.243 E.02963
G1 X84.607 Y105.684 E.03155
G1 X85.508 Y105.115 E.03342
G1 X86.464 Y104.546 E.03489
G1 X87.463 Y103.983 E.03595
G1 X88.494 Y103.436 E.0366
G1 X89.547 Y102.913 E.03686
G1 X90.61 Y102.422 E.03672
G1 X91.674 Y101.973 E.0362
G1 X92.727 Y101.573 E.03531
G1 X93.754 Y101.234 E.03394
G1 X94.742 Y100.943 E.03228
G1 X96.593 Y100.442 E.06012
G1 X99.144 Y99.849 E.08211
G1 X100.743 Y99.525 E.05117
G1 X102.699 Y99.162 E.06237
G1 X103.437 Y87.213 E.37538
G1 X103.648 Y85.824 E.04406
G1 X104.012 Y84.192 E.05241
G1 X104.497 Y82.392 E.05845
G1 X105.078 Y80.497 E.06215
G1 X105.724 Y78.58 E.06341
G1 X106.41 Y76.718 E.06221
G1 X107.107 Y74.986 E.05855
G1 X107.788 Y73.457 E.05249
G1 X108.43 Y72.201 E.04422
G1 X109.024 Y71.272 E.03459
G1 X109.58 Y70.746 E.02398
G1 X110.137 Y70.531 E.01872
G1 X110.736 Y70.358 E.01956
G1 X111.412 Y70.206 E.02174
G1 X112.144 Y70.079 E.02328
G1 X112.906 Y69.982 E.02408
G1 X113.673 Y69.921 E.02412
G1 X114.406 Y69.902 E.02299
G1 X115.124 Y69.931 E.02254
G1 X115.767 Y70.02 E.02034
G1 X116.335 Y70.185 E.01856
G1 X116.822 Y70.474 E.01775
G1 X117.159 Y70.986 E.01921
G1 X117.39 Y71.671 E.02268
G1 X117.571 Y72.489 E.02627
G1 X117.724 Y73.41 E.02926
G1 X118.113 Y76.279 E.0908
G1 X118.247 Y77.083 E.02556
G1 X118.392 Y77.702 E.01991
G1 X118.605 Y78.228 E.0178
G1 X118.616 Y106.134 E.87496
G1 X118.524 Y108.048 E.06009
G1 X118.188 Y110.344 E.07276
M204 S1000
G1 X117.841 Y110.111 F10800
M204 S800
;TYPE:External perimeter
G1 F1200
G1 X104.773 Y114.04 E.42785
G1 X104.544 Y113.756 E.01143
G1 X103.388 Y113.491 E.03718
G1 X101.607 Y113.439 E.05587
G1 X99.38 Y113.564 E.06996
G1 X96.869 Y113.822 E.07913
G1 X94.237 Y114.169 E.08324
G1 X91.644 Y114.563 E.08225
G1 X89.249 Y114.958 E.07611
M73 Q3 S26
G1 X84.851 Y115.72 E.13994
G1 X84.398 Y115.751 E.01423
M73 P3 R26
G1 X83.956 Y115.722 E.01389
G1 X83.529 Y115.639 E.01363
G1 X83.121 Y115.504 E.01347
G1 X82.736 Y115.322 E.01336
G1 X82.377 Y115.097 E.01329
G1 X82.047 Y114.832 E.01326
G1 X81.751 Y114.531 E.01324
G1 X81.491 Y114.198 E.01324
G1 X81.272 Y113.837 E.01325
G1 X81.096 Y113.451 E.0133
G1 X80.96 Y113.018 E.01421
G1 X80.865 Y112.522 E.01583
G1 X80.818 Y111.975 E.01724
G1 X80.828 Y111.386 E.01846
G1 X80.904 Y110.768 E.01953
G1 X81.054 Y110.131 E.0205
G1 X81.288 Y109.488 E.02145
G1 X81.614 Y108.851 E.02246
G1 X82.041 Y108.23 E.02363
G1 X82.578 Y107.638 E.02505
G1 X83.231 Y107.088 E.02676
G1 X83.984 Y106.553 E.02897
G1 X84.812 Y106 E.03122
G1 X85.705 Y105.437 E.03312
G1 X86.653 Y104.872 E.03459
G1 X87.644 Y104.314 E.03565
G1 X88.666 Y103.771 E.0363
G1 X89.71 Y103.253 E.03653
G1 X90.763 Y102.767 E.03636
G1 X91.814 Y102.323 E.03579
G1 X92.853 Y101.929 E.03483
G1 X93.867 Y101.594 E.03349
G1 X94.844 Y101.305 E.03195
G1 X96.685 Y100.808 E.05978
G1 X99.224 Y100.218 E.08173
G1 X100.815 Y99.895 E.05091
G1 X103.057 Y99.479 E.0715
G1 X103.812 Y87.253 E.38408
G1 X104.019 Y85.893 E.04313
G1 X104.378 Y84.282 E.05175
G1 X104.86 Y82.496 E.05799
G1 X105.437 Y80.612 E.06178
G1 X106.08 Y78.706 E.06309
G1 X106.762 Y76.854 E.06188
G1 X107.454 Y75.133 E.05816
G1 X108.128 Y73.62 E.05195
G1 X108.757 Y72.389 E.04333
G1 X109.317 Y71.514 E.03256
G1 X109.785 Y71.071 E.0202
G1 X110.257 Y70.889 E.01588
G1 X110.83 Y70.723 E.01868
G1 X111.486 Y70.576 E.0211
G1 X112.2 Y70.452 E.02272
G1 X112.945 Y70.357 E.02353
G1 X113.693 Y70.297 E.02352
G1 X114.403 Y70.279 E.02227
G1 X115.09 Y70.307 E.02158
G1 X115.688 Y70.39 E.01891
G1 X116.184 Y70.534 E.0162
G1 X116.555 Y70.754 E.01352
G1 X116.817 Y71.152 E.01496
G1 X117.027 Y71.772 E.02052
G1 X117.201 Y72.56 E.02531
G1 X117.351 Y73.466 E.02878
G1 X117.74 Y76.336 E.09082
G1 X117.877 Y77.158 E.02612
G1 X118.032 Y77.816 E.0212
G1 X118.228 Y78.301 E.01641
G1 X118.238 Y106.125 E.87238
G1 X118.148 Y108.012 E.05923
G1 X117.85 Y110.052 E.06466
M204 S1000
G1 X117.905 Y110.506 F10800
;WIPE_START
G1 F8640
G1 X114.701 Y111.012 E-.76
;WIPE_END
G1 E-.04 F2100
G1 Z.6 F720
G1 X145.667 Y114.094 F10800
G1 Z.2 F720
G1 E.8 F2100
M204 S800
;TYPE:Perimeter
G1 F1200
G1 X145.362 Y114.474 E.01529
G1 X131.821 Y110.404 E.44334
G1 X131.476 Y108.048 E.07464
G1 X131.384 Y106.134 E.06009
G1 X131.395 Y78.228 E.87496
G1 X131.608 Y77.702 E.0178
G1 X131.753 Y77.083 E.01992
G1 X131.887 Y76.279 E.02556
G1 X132.276 Y73.41 E.09081
G1 X132.429 Y72.489 E.02927
G1 X132.61 Y71.671 E.02627
G1 X132.841 Y70.986 E.02268
G1 X133.178 Y70.474 E.01921
G1 X133.665 Y70.185 E.01775
G1 X134.233 Y70.02 E.01856
G1 X134.876 Y69.931 E.02033
G1 X135.58 Y69.901 E.02211
G1 X136.327 Y69.921 E.02344
G1 X137.094 Y69.982 E.02412
G1 X137.856 Y70.079 E.02408
G1 X138.588 Y70.206 E.02328
G1 X139.264 Y70.358 E.02174
G1 X139.863 Y70.531 E.01956
G1 X140.42 Y70.746 E.01872
G1 X140.976 Y71.272 E.02398
G1 X141.57 Y72.201 E.03459
G1 X142.212 Y73.457 E.04422
G1 X142.893 Y74.986 E.05249
G1 X143.59 Y76.718 E.05855
G1 X144.276 Y78.58 E.06221
G1 X144.922 Y80.497 E.06342
G1 X145.503 Y82.392 E.06215
G1 X145.988 Y84.192 E.05845
G1 X146.352 Y85.824 E.05241
G1 X146.563 Y87.213 E.04406
G1 X147.301 Y99.162 E.37538
G1 X149.257 Y99.525 E.06236
G1 X150.856 Y99.849 E.05118
G1 X153.407 Y100.442 E.08211
G1 X155.258 Y100.943 E.06012
G1 X156.246 Y101.234 E.03228
G1 X157.273 Y101.573 E.03394
G1 X158.326 Y101.973 E.03531
G1 X159.39 Y102.422 E.0362
G1 X160.453 Y102.913 E.03672
G1 X161.506 Y103.436 E.03686
G1 X162.537 Y103.983 E.0366
G1 X163.536 Y104.546 E.03595
G1 X164.492 Y105.115 E.03489
G1 X165.394 Y105.684 E.03342
G1 X166.23 Y106.243 E.03155
G1 X167 Y106.79 E.02963
G1 X167.685 Y107.366 E.02804
G1 X168.255 Y107.995 E.02664
G1 X168.711 Y108.657 E.02519
G1 X169.059 Y109.338 E.02396
G1 X169.308 Y110.023 E.02287
G1 X169.468 Y110.701 E.02184
G1 X169.549 Y111.36 E.0208
G1 X169.559 Y111.987 E.01969
G1 X169.509 Y112.574 E.01846
G1 X169.406 Y113.111 E.01712
G1 X169.257 Y113.586 E.01562
G1 X169.062 Y114.013 E.01473
G1 X168.82 Y114.413 E.01465
G1 X168.533 Y114.78 E.01461
G1 X168.206 Y115.112 E.01461
G1 X167.842 Y115.405 E.01463
G1 X167.446 Y115.654 E.01469
G1 X167.019 Y115.855 E.01479
