; generated by PrusaSlicer 2.4.1+win64 on 2022-12-23 at 08:34:19 UTC


;
;
; 

; external perimeters extrusion width = 0.60mm
; perimeters extrusion width = 0.50mm
; infill extrusion width = 0.50mm
; solid infill extrusion width = 0.50mm
; top infill extrusion width = 0.45mm
; first layer extrusion width = 0.42mm

M73 P0 R9
M73 Q0 S9
M201 X1000 Y1000 Z200 E5000 ; sets maximum accelerations, mm/sec^2
M203 X200 Y200 Z12 E120 ; sets maximum feedrates, mm / sec
M204 P1250 R1250 T1250 ; sets acceleration (P, T) and retract acceleration (R), mm/sec^2
M205 X8.00 Y8.00 Z0.40 E4.50 ; sets the jerk limits, mm/sec
M205 S0 T0 ; sets the minimum extruding and travel feed rate, mm/sec
M107
;TYPE:Custom
M862.3 P "MK3S" ; printer model check
M862.1 P0.4 ; nozzle diameter check
M115 U3.11.0 ; tell printer latest fw version
G90 ; use absolute coordinates
M83 ; extruder relative mode
M104 S215 ; set extruder temp
M140 S60 ; set bed temp
M190 S60 ; wait for bed temp
M109 S215 ; wait for extruder temp
G28 W ; home all without mesh bed level
G80 ; mesh bed leveling

G1 Z0.2 F720
G1 Y-3 F1000 ; go outside print area
G92 E0
G1 X60 E9 F1000 ; intro line
G1 X100 E12.5 F1000 ; intro line

G92 E0
M221 S95

; Don't change E values below. Excessive value can damage the printer.

M907 E538 ; set extruder motor current
G21 ; set units to millimeters
G90 ; use absolute coordinates
M83 ; use relative distances for extrusion
M900 K0.05 ; Filament gcode LA 1.5
M900 K30 ; Filament gcode LA 1.0
M107
;LAYER_CHANGE
;Z:0.2
;HEIGHT:0.2
;BEFORE_LAYER_CHANGE
G92 E0.0
;0.2


G1 E-.8 F2100
M73 P1 R9
M73 Q1 S9
G1 Z.4 F720
;AFTER_LAYER_CHANGE
;0.2
G1 X94.134 Y82.948 F10800
G1 Z.2 F720
G1 E.8 F2100
M204 S800
;TYPE:Skirt/Brim
;WIDTH:0.42
G1 F1200
G1 X95.094 Y81.903 E.0445
G1 X96.193 Y81.099 E.0427
G1 X99.311 Y79.53 E.10943
G1 X109.992 Y75.122 E.36229
G1 X121.664 Y72.747 E.37348
G1 X123.662 Y72.424 E.06347
G1 X145.337 Y70.616 E.68196
G1 X146.547 Y70.599 E.03793
G1 X147.529 Y70.676 E.0309
G1 X148.516 Y70.922 E.03188
G1 X149.327 Y71.325 E.02841
G1 X149.901 Y71.783 E.02301
G1 X150.623 Y72.642 E.03518
G1 X152.142 Y75.034 E.08886
G1 X152.589 Y76.124 E.03692
G1 X157.311 Y111.449 E1.11745
G1 X157.332 Y113.405 E.06133
M73 P2 R9
M73 Q2 S9
G1 X155 Y135.399 E.69347
G1 X154.84 Y135.959 E.01825
G1 X154.472 Y136.787 E.02842
G1 X153.532 Y138.107 E.05082
G1 X152.901 Y138.66 E.0263
G1 X152.369 Y138.972 E.01932
G1 X151.161 Y139.364 E.03984
G1 X150.434 Y139.403 E.02282
G1 X132.503 Y138.334 E.56321
G1 X131.404 Y137.893 E.03714
G1 X130.594 Y137.212 E.03316
G1 X95.978 Y96.137 E1.68426
G1 X95.491 Y95.347 E.02909
G1 X94.79 Y93.884 E.05085
G1 X92.928 Y88.254 E.18595
G1 X92.634 Y86.724 E.04884
M73 Q3 S9
G1 X92.734 Y85.569 E.03635
M73 P3 R9
G1 X93.187 Y84.401 E.03927
G1 X94.101 Y82.999 E.05249
M204 S1000
; printing object Cookie_Cutter_Cat_1.stl id:0 copy 0
;WIPE_START
G1 F8640
G1 X95.094 Y81.903 E-.34141
G1 X96.193 Y81.099 E-.31448
G1 X96.596 Y80.896 E-.10411
;WIPE_END
G1 E-.04 F2100
G1 Z.6 F720
G1 X125.646 Y78.893 F10800
G1 Z.2 F720
G1 E.8 F2100
M204 S800
;TYPE:External perimeter
G1 F1200
G1 X125.616 Y78.983 E.00298
G1 X125.627 Y79.073 E.00286
G1 X125.673 Y79.15 E.00281
G1 X125.753 Y79.205 E.00303
G1 X126.134 Y79.305 E.01236
G1 X126.49 Y79.33 E.01118
G1 X127.648 Y79.226 E.03644
G1 X130.724 Y78.841 E.09722
G1 X131.489 Y78.78 E.02407
G1 X132.271 Y78.748 E.02454
G1 X133.015 Y78.762 E.02331
G1 X133.784 Y78.844 E.02425
G1 X134.161 Y78.92 E.01207
G1 X134.509 Y79.024 E.01139
G1 X134.846 Y79.173 E.01154
G1 X135.149 Y79.377 E.01144
G1 X135.36 Y79.623 E.01016
G1 X135.466 Y79.939 E.01048
G1 X135.482 Y80.288 E.01095
G1 X135.443 Y80.669 E.01201
G1 X135.372 Y81.039 E.01181
G1 X135.268 Y81.385 E.01134
G1 X135.123 Y81.724 E.01155
G1 X134.931 Y82.057 E.01205
G1 X134.715 Y82.347 E.01134
G1 X134.457 Y82.616 E.01168
G1 X134.164 Y82.843 E.01162
G1 X133.862 Y82.998 E.01066
G1 X133.511 Y83.094 E.01141
G1 X133.133 Y83.152 E.01198
G1 X132.37 Y83.219 E.02402
G1 X130.835 Y83.262 E.04815
G1 X129.249 Y83.278 E.04973
G1 X128.51 Y83.308 E.0232
G1 X127.694 Y83.384 E.02568
G1 X127.592 Y83.411 E.00333
G1 X127.409 Y83.504 E.00644
G1 X127.333 Y83.583 E.00342
G1 X127.289 Y83.707 E.00411
G1 X127.303 Y83.856 E.00471
G1 X127.341 Y83.971 E.0038
G1 X127.479 Y84.184 E.00795
G1 X127.638 Y84.345 E.0071
G1 X127.81 Y84.48 E.00684
G1 X128.168 Y84.681 E.01288
G1 X129.573 Y85.296 E.0481
G1 X130.245 Y85.66 E.02395
G1 X130.889 Y86.068 E.02391
G1 X131.529 Y86.518 E.02452
G1 X132.134 Y86.982 E.02391
G1 X132.714 Y87.481 E.02397
G1 X133.243 Y88.014 E.02357
G1 X133.753 Y88.607 E.02451
G1 X133.986 Y88.907 E.01192
G1 X134.173 Y89.218 E.01137
G1 X134.337 Y89.741 E.01718
G1 X134.437 Y89.962 E.00761
G1 X134.518 Y90.055 E.00386
G1 X134.64 Y90.142 E.00471
G1 X134.767 Y90.175 E.00413
G1 X134.917 Y90.168 E.00469
G1 X135.107 Y90.088 E.00647
G1 X135.251 Y89.924 E.00685
G1 X135.418 Y89.478 E.01494
G1 X135.913 Y88.43 E.03634
G1 X136.514 Y86.991 E.04888
G1 X139.094 Y81.343 E.19469
G1 X139.694 Y79.878 E.04964
G1 X140.228 Y78.437 E.04819
G1 X140.727 Y76.982 E.04822
G1 X141.011 Y76.26 E.02433
G1 X141.344 Y75.575 E.02391
G1 X141.546 Y75.237 E.01231
G1 X141.764 Y74.929 E.01185
G1 X142.008 Y74.655 E.01151
G1 X142.277 Y74.423 E.01114
G1 X142.587 Y74.23 E.01145
G1 X142.925 Y74.072 E.01169
G1 X143.665 Y73.809 E.02461
G1 X144.657 Y73.615 E.0317
G1 X145.636 Y73.52 E.03083
G1 X146.642 Y73.517 E.03157
G1 X147.122 Y73.564 E.0151
G1 X147.366 Y73.613 E.00781
G1 X147.584 Y73.685 E.00719
G1 X147.765 Y73.788 E.00655
G1 X147.936 Y73.939 E.00713
G1 X148.229 Y74.309 E.0148
G1 X148.355 Y74.52 E.00773
G1 X148.452 Y74.733 E.0073
G1 X148.575 Y75.325 E.01897
G1 X148.622 Y75.466 E.00468
G1 X148.78 Y75.729 E.00961
G1 X148.965 Y75.931 E.00858
G1 X149.386 Y76.273 E.017
G1 X149.617 Y76.489 E.00992
G1 X149.748 Y76.771 E.00976
G1 X149.79 Y77.007 E.00752
G1 X149.794 Y77.75 E.0233
G1 X149.758 Y78.244 E.01552
G1 X149.65 Y78.688 E.01433
G1 X149.549 Y78.902 E.00741
G1 X149.416 Y79.095 E.00734
G1 X149.26 Y79.263 E.0072
G1 X149.074 Y79.413 E.0075
G1 X148.873 Y79.529 E.00729
G1 X148.667 Y79.605 E.00689
G1 X148.451 Y79.649 E.00691
G1 X148.213 Y79.661 E.00746
G1 X147.747 Y79.608 E.0147
G1 X146.94 Y79.407 E.02607
G1 X146.64 Y79.393 E.00943
G1 X146.501 Y79.421 E.00444
G1 X146.358 Y79.485 E.0049
G1 X146.237 Y79.574 E.00471
G1 X146.135 Y79.679 E.00459
G1 X145.962 Y79.928 E.0095
G1 X145.835 Y80.178 E.0088
G1 X145.651 Y80.695 E.01721
G1 X145.542 Y81.203 E.01628
G1 X145.47 Y81.709 E.01605
G1 X145.166 Y83.056 E.04328
G1 X145.14 Y83.237 E.00575
G1 X145.14 Y83.413 E.00552
G1 X145.168 Y83.595 E.00576
G1 X145.759 Y86.113 E.08111
G1 X146.265 Y88.569 E.07863
G1 X146.662 Y91.007 E.07743
G1 X147.026 Y93.53 E.07993
G1 X147.261 Y94.769 E.03954
G1 X147.552 Y96 E.03966
G1 X147.641 Y96.606 E.01921
G1 X147.732 Y97.862 E.03949
G1 X147.806 Y98.194 E.01065
G1 X147.924 Y98.5 E.01029
G1 X148.083 Y98.798 E.01061
G1 X148.27 Y99.078 E.01055
G1 X148.666 Y99.573 E.01986
G1 X149.469 Y100.519 E.0389
G1 X149.835 Y101.024 E.01957
G1 X150.181 Y101.555 E.01987
G1 X150.798 Y102.606 E.03821
G1 X151.988 Y104.853 E.07971
G1 X153.075 Y107.099 E.07825
G1 X153.578 Y108.259 E.03963
G1 X153.79 Y108.826 E.01899
G1 X153.978 Y109.415 E.01939
M73 Q4 S9
G1 X154.131 Y110.013 E.01935
G1 X154.249 Y110.609 E.01904
G1 X154.421 Y111.853 E.03939
G1 X154.455 Y112.469 E.01933
G1 X154.433 Y113.084 E.01929
G1 X154.364 Y113.681 E.01886
G1 X154.254 Y114.301 E.01972
G1 X153.973 Y115.526 E.03943
G1 X153.64 Y116.735 E.0393
M73 P4 R9
G1 X153.261 Y117.919 E.03898
G1 X152.818 Y119.112 E.03992
G1 X152.334 Y120.221 E.03794
G1 X151.914 Y121.086 E.03016
G1 X151.807 Y121.422 E.01104
G1 X151.785 Y121.6 E.00563
G1 X151.8 Y121.798 E.00621
G1 X152.01 Y122.408 E.02023
G1 X152.071 Y122.695 E.00921
G1 X152.151 Y123.305 E.01929
G1 X152.196 Y123.94 E.01996
G1 X152.282 Y126.438 E.07835
G1 X152.344 Y127.071 E.01997
G1 X152.44 Y127.662 E.01876
G1 X152.395 Y127.936 E.00872
G1 X152.149 Y128.85 E.02967
G1 X152.1 Y129.186 E.01066
G1 X152.093 Y129.52 E.01047
G1 X152.241 Y130.787 E.03999
G1 X152.289 Y131.388 E.0189
G1 X152.314 Y132.62 E.03866
G1 X152.27 Y133.892 E.03991
G1 X152.202 Y134.503 E.01925
G1 X152.147 Y134.794 E.0093
G1 X152.061 Y135.077 E.00928
G1 X151.936 Y135.346 E.00929
G1 X151.612 Y135.858 E.01899
G1 X151.423 Y136.094 E.00948
G1 X151.218 Y136.279 E.00867
G1 X150.975 Y136.414 E.00869
G1 X150.709 Y136.485 E.00865
G1 X150.442 Y136.481 E.00838
G1 X150.164 Y136.411 E.00899
G1 X149.885 Y136.299 E.00942
G1 X149.337 Y136.019 E.01926
G1 X148.809 Y135.689 E.01955
G1 X148.307 Y135.334 E.01928
G1 X147.873 Y134.938 E.01842
G1 X147.684 Y134.699 E.00954
G1 X147.526 Y134.431 E.00975
G1 X147.231 Y133.812 E.02151
G1 X147.055 Y133.505 E.01108
G1 X146.828 Y133.24 E.01094
G1 X146.695 Y133.142 E.0052
G1 X146.533 Y133.066 E.00561
G1 X146.355 Y133.022 E.00576
G1 X145.53 Y132.964 E.02591
G1 X139.926 Y132.732 E.17587
G1 X139.265 Y132.746 E.02074
G1 X138.922 Y132.799 E.01088
G1 X138.614 Y132.882 E.00999
G1 X137.997 Y133.133 E.02088
G1 X136.906 Y133.702 E.03859
G1 X135.258 Y134.527 E.05778
G1 X133.761 Y135.329 E.05326
G1 X133.474 Y135.444 E.0097
G1 X133.33 Y135.48 E.00465
G1 X133.099 Y135.486 E.00723
G1 X132.908 Y135.401 E.00656
G1 X132.707 Y135.193 E.00905
G1 X132.589 Y134.954 E.00837
G1 X132.564 Y134.7 E.00799
G1 X132.666 Y134.306 E.01276
G1 X133.068 Y133.391 E.03134
G1 X133.718 Y131.641 E.05854
G1 X134.201 Y130.517 E.03837
G1 X135.31 Y128.263 E.07877
G1 X135.399 Y128.03 E.0078
G1 X135.436 Y127.795 E.00745
G1 X135.425 Y127.547 E.00779
G1 X135.125 Y125.477 E.0656
G1 X135.229 Y122.752 E.0855
G1 X135.211 Y122.489 E.00826
G1 X135.139 Y122.247 E.00793
G1 X135.018 Y122.027 E.00787
G1 X134.843 Y121.829 E.00827
G1 X134.349 Y121.377 E.021
G1 X133.651 Y120.808 E.02823
G1 X132.939 Y120.302 E.0274
G1 X131.783 Y119.583 E.04268
G1 X131.371 Y119.373 E.01449
G1 X130.949 Y119.211 E.01419
G1 X130.487 Y119.097 E.01491
G1 X130.029 Y119.047 E.01445
G1 X128.693 Y119.019 E.04189
G1 X127.81 Y118.969 E.02772
G1 X126.936 Y118.872 E.02757
G1 X126.071 Y118.717 E.02755
G1 X125.219 Y118.497 E.0276
G1 X124.392 Y118.206 E.02749
G1 X123.597 Y117.842 E.0274
G1 X122.856 Y117.423 E.02671
G1 X122.115 Y116.942 E.02771
G1 X121.375 Y116.419 E.0284
G1 X119.976 Y115.344 E.0553
G1 X118.629 Y114.204 E.05533
G1 X117.334 Y113.006 E.05532
G1 X116.07 Y111.736 E.05619
G1 X114.878 Y110.442 E.05517
G1 X113.74 Y109.101 E.05515
G1 X112.656 Y107.701 E.05551
G1 X111.648 Y106.248 E.05544
G1 X110.723 Y104.74 E.05546
G1 X109.887 Y103.18 E.0555
G1 X109.146 Y101.572 E.05551
G1 X108.486 Y99.879 E.05698
G1 X107.958 Y98.242 E.05393
G1 X107.508 Y96.533 E.05542
G1 X107.135 Y94.78 E.05619
G1 X106.856 Y93.083 E.05392
G1 X106.67 Y91.306 E.05603
G1 X106.633 Y90.408 E.02817
G1 X106.664 Y89.542 E.02719
G1 X106.838 Y88.212 E.04204
G1 X106.837 Y87.97 E.00761
G1 X106.804 Y87.73 E.00759
G1 X106.729 Y87.48 E.00817
G1 X106.613 Y87.253 E.00801
G1 X106.445 Y87.052 E.0082
G1 X106.244 Y86.899 E.00793
G1 X106.024 Y86.784 E.00777
G1 X105.798 Y86.698 E.00758
G1 X105.348 Y86.578 E.0146
G1 X104.894 Y86.506 E.01441
G1 X104.44 Y86.47 E.01429
G1 X103.541 Y86.472 E.02819
G1 X100.765 Y86.745 E.08746
G1 X100.257 Y86.851 E.01626
M73 Q5 S9
G1 X100.034 Y86.94 E.00755
G1 X99.83 Y87.072 E.0076
G1 X99.678 Y87.245 E.00723
G1 X99.581 Y87.482 E.00802
G1 X99.553 Y87.722 E.00757
G1 X99.564 Y87.969 E.00777
G1 X99.807 Y89.76 E.05666
G1 X100.115 Y91.529 E.05629
G1 X100.202 Y92.36 E.0262
G1 X100.196 Y93.22 E.02698
M73 P5 R9
G1 X100.119 Y94.186 E.03036
G1 X100.013 Y94.606 E.0136
G1 X99.925 Y94.775 E.00597
G1 X99.775 Y94.922 E.00658
G1 X99.546 Y94.986 E.00747
G1 X99.341 Y94.984 E.00641
G1 X99.127 Y94.946 E.00684
G1 X98.912 Y94.873 E.00711
G1 X98.715 Y94.772 E.00694
G1 X98.553 Y94.655 E.00628
G1 X98.406 Y94.51 E.00648
G1 X98.173 Y94.175 E.01278
G1 X97.577 Y92.989 E.04161
G1 X97.28 Y92.19 E.02674
G1 X96.701 Y90.504 E.05589
G1 X96.193 Y88.825 E.05499
G1 X95.898 Y87.964 E.02855
G1 X95.642 Y87.132 E.0273
G1 X95.554 Y86.686 E.01423
G1 X95.558 Y86.298 E.01219
G1 X95.603 Y86.113 E.00596
G1 X95.683 Y85.923 E.00646
G1 X95.885 Y85.553 E.01321
G1 X96.365 Y84.833 E.02713
G1 X96.643 Y84.482 E.01405
G1 X96.929 Y84.179 E.01308
G1 X97.254 Y83.899 E.01342
G1 X97.615 Y83.65 E.01376
G1 X98.371 Y83.222 E.02725
G1 X99.969 Y82.44 E.05579
G1 X100.783 Y82.07 E.02803
G1 X101.592 Y81.76 E.02717
G1 X102.425 Y81.519 E.02717
G1 X103.278 Y81.346 E.02731
G1 X104.145 Y81.231 E.02742
G1 X105.036 Y81.161 E.02802
G1 X106.79 Y81.105 E.05501
G1 X107.694 Y81.037 E.02845
G1 X108.15 Y80.961 E.01449
G1 X108.614 Y80.844 E.015
G1 X109.07 Y80.651 E.01552
G1 X109.268 Y80.52 E.00745
G1 X109.445 Y80.349 E.00772
G1 X109.588 Y80.145 E.0078
G1 X109.694 Y79.93 E.00754
G1 X110.114 Y78.65 E.04222
G1 X110.346 Y78.139 E.01758
G1 X110.485 Y78.016 E.00584
G1 X111.353 Y77.788 E.02812
G1 X112.179 Y77.626 E.02641
G1 X113.954 Y77.356 E.0563
G1 X115.708 Y77.06 E.05577
G1 X117.416 Y76.714 E.05464
G1 X120.916 Y75.888 E.11276
G1 X122.656 Y75.529 E.05569
G1 X124.384 Y75.274 E.05478
G1 X125.262 Y75.19 E.02764
G1 X126.143 Y75.146 E.02765
G1 X126.574 Y75.156 E.01354
G1 X126.804 Y75.229 E.00756
G1 X126.994 Y75.43 E.00867
G1 X127.117 Y75.621 E.00712
G1 X127.283 Y75.992 E.01275
G1 X127.368 Y76.392 E.01281
G1 X127.367 Y76.796 E.01268
G1 X127.33 Y76.997 E.00641
G1 X127.265 Y77.198 E.00661
G1 X127.064 Y77.55 E.01269
G1 X126.794 Y77.833 E.01229
G1 X126.095 Y78.365 E.02754
G1 X125.813 Y78.674 E.01312
G1 X125.683 Y78.845 E.00673
M204 S1000
G1 X125.7 Y78.971 F10800
G1 X126.271 Y78.645
M204 S800
G1 F1200
G1 X126.414 Y79.008 E.01223
G1 X127.639 Y78.895 E.03858
G1 X130.081 Y78.576 E.07722
G1 X131.311 Y78.461 E.03874
G1 X132.555 Y78.418 E.039
G1 X133.186 Y78.443 E.0198
G1 X133.806 Y78.514 E.0196
G1 X134.433 Y78.652 E.0201
G1 X134.742 Y78.761 E.01027
G1 X135.036 Y78.903 E.01026
G1 X135.311 Y79.087 E.01038
G1 X135.56 Y79.339 E.01108
G1 X135.657 Y79.49 E.00565
G1 X135.726 Y79.648 E.0054
G1 X135.803 Y79.992 E.01106
G1 X135.809 Y80.332 E.01065
G1 X135.779 Y80.648 E.00995
G1 X135.652 Y81.267 E.01981
G1 X135.547 Y81.58 E.01036
G1 X135.416 Y81.877 E.01018
G1 X135.263 Y82.151 E.00984
G1 X135.075 Y82.424 E.01039
G1 X134.865 Y82.673 E.01021
G1 X134.636 Y82.897 E.01005
G1 X134.366 Y83.104 E.01065
G1 X134.074 Y83.265 E.01045
G1 X133.76 Y83.375 E.01046
G1 X133.445 Y83.441 E.01009
G1 X132.823 Y83.517 E.01962
G1 X131.583 Y83.581 E.03895
G1 X129.109 Y83.611 E.07755
G1 X127.41 Y83.724 E.05339
G1 X128.003 Y84.215 E.02413
G1 X128.218 Y84.339 E.00776
G1 X129.721 Y85.001 E.05151
G1 X130.236 Y85.274 E.01828
G1 X130.735 Y85.574 E.01823
G1 X131.637 Y86.189 E.03422
G1 X132.524 Y86.876 E.03519
G1 X132.956 Y87.256 E.01803
G1 X133.358 Y87.652 E.01772
G1 X134.091 Y88.5 E.03512
G1 X134.269 Y88.738 E.00934
G1 X134.426 Y88.992 E.00937
G1 X134.547 Y89.27 E.00948
G1 X134.791 Y90.112 E.0275
G1 X136.895 Y85.329 E.16383
G1 X137.896 Y83.182 E.07429
G1 X138.835 Y81.108 E.07137
G1 X139.263 Y80.071 E.0352
G1 X139.684 Y78.977 E.03676
G1 X140.44 Y76.808 E.07201
G1 X140.658 Y76.249 E.01881
G1 X140.903 Y75.708 E.0186
G1 X141.184 Y75.194 E.0184
G1 X141.535 Y74.689 E.01929
G1 X141.745 Y74.453 E.0099
G1 X141.962 Y74.253 E.00925
G1 X142.213 Y74.068 E.00977
G1 X142.471 Y73.92 E.00932
G1 X143.011 Y73.685 E.01848
G1 X143.577 Y73.492 E.01875
G1 X144.573 Y73.294 E.03184
G1 X145.594 Y73.192 E.03217
G1 X146.634 Y73.188 E.0326
G1 X147.157 Y73.236 E.01648
G1 X147.423 Y73.288 E.00848
G1 X147.687 Y73.373 E.00871
G1 X147.942 Y73.512 E.00912
G1 X148.158 Y73.696 E.0089
G1 X148.499 Y74.121 E.01709
G1 X148.636 Y74.348 E.00833
G1 X148.753 Y74.6 E.00871
G1 X148.828 Y74.876 E.00894
G1 X148.873 Y75.142 E.00847
G1 X148.963 Y75.423 E.00926
G1 X149.187 Y75.689 E.0109
G1 X149.782 Y76.181 E.0242
G1 X149.956 Y76.419 E.00924
M73 Q6 S9
G1 X150.065 Y76.69 E.00917
G1 X150.116 Y76.975 E.00906
G1 X150.123 Y77.763 E.02471
G1 X150.082 Y78.295 E.01675
G1 X150.032 Y78.561 E.00847
G1 X149.949 Y78.824 E.00864
G1 X149.827 Y79.079 E.00886
G1 X149.664 Y79.312 E.00893
G1 X149.466 Y79.521 E.00902
G1 X149.249 Y79.692 E.00867
G1 X149.002 Y79.831 E.00891
G1 X148.738 Y79.927 E.00881
G1 X148.478 Y79.977 E.00829
G1 X148.198 Y79.989 E.00878
G1 X147.655 Y79.924 E.01715
