; generated by PrusaSlicer 2.7.4+win64 on 2024-12-04 at 11:49:06 UTC


;
;
; 

; external perimeters extrusion width = 0.60mm
; perimeters extrusion width = 0.50mm
; infill extrusion width = 0.50mm
; solid infill extrusion width = 0.50mm
; top infill extrusion width = 0.45mm
; first layer extrusion width = 0.42mm

M73 P0 R9
M73 Q0 S9
M201 X1000 Y1000 Z200 E5000 ; sets maximum accelerations, mm/sec^2
M203 X200 Y200 Z12 E120 ; sets maximum feedrates, mm / sec
M204 S1250 T1250 ; sets acceleration (S) and retract acceleration (R), mm/sec^2
M205 X8.00 Y8.00 Z0.40 E4.50 ; sets the jerk limits, mm/sec
M205 S0 T0 ; sets the minimum extruding and travel feed rate, mm/sec

; printing object snowflake1.stl id:0 copy 0
; stop printing object snowflake1.stl id:0 copy 0

;TYPE:Custom
M862.3 P "MK3S" ; printer model check
M862.1 P0.4 ; nozzle diameter check
M115 U3.11.0 ; tell printer latest fw version
G90 ; use absolute coordinates
M83 ; extruder relative mode
M104 S215 ; set extruder temp
M140 S60 ; set bed temp
M190 S60 ; wait for bed temp
M109 S215 ; wait for extruder temp
G28 W ; home all without mesh bed level
G80 ; mesh bed leveling

G1 Z0.2 F720
G1 Y-3 F1000 ; go outside print area
G92 E0
G1 X60 E9 F1000 ; intro line
G1 X100 E12.5 F1000 ; intro line

G92 E0
M221 S95

; Don't change E values below. Excessive value can damage the printer.

M907 E538 ; set extruder motor current
G21 ; set units to millimeters
G90 ; use absolute coordinates
M83 ; use relative distances for extrusion
M900 K0.05 ; Filament gcode LA 1.5
M900 K30 ; Filament gcode LA 1.0
M107
;LAYER_CHANGE
;Z:0.2
;HEIGHT:0.2
G1 E-.8 F2100
M73 P1 R9
M73 Q1 S9
G1 Z.6 F720
G1 X105.123 Y92.401 F10800
G1 Z.2 F720
G1 E.8 F2100
M204 S800
;TYPE:Skirt/Brim
;WIDTH:0.42
G1 F1200
G1 X105.801 Y91.848 E.02743
G1 X123.054 Y81.819 E.62571
G1 X123.652 Y81.554 E.02051
G1 X124.606 Y81.3 E.03095
G1 X125.578 Y81.294 E.03048
G1 X126.254 Y81.461 E.02183
G1 X126.912 Y81.772 E.02282
G1 X144.204 Y91.846 E.62748
G1 X144.792 Y92.281 E.02293
G1 X145.273 Y92.853 E.02343
G1 X145.764 Y93.932 E.03717
G1 X145.913 Y95.011 E.03415
G1 X145.899 Y115.304 E.63627
G1 X145.802 Y116.012 E.02241
G1 X145.552 Y116.7 E.02295
G1 X145.171 Y117.303 E.02236
G1 X144.389 Y118.028 E.03344
G1 X126.888 Y128.232 E.63519
G1 X125.936 Y128.615 E.03217
M73 P2 R9
M73 Q2 S9
G1 X124.831 Y128.741 E.03487
G1 X124.19 Y128.654 E.02028
G1 X123.33 Y128.33 E.02881
G1 X105.842 Y118.188 E.63386
G1 X105.032 Y117.534 E.03264
G1 X104.583 Y116.914 E.024
G1 X104.253 Y116.076 E.02824
G1 X104.147 Y115.264 E.02568
G1 X104.087 Y94.94 E.63725
G1 X104.188 Y94.127 E.02569
G1 X104.634 Y93.051 E.03652
G1 X105.087 Y92.449 E.02362
M204 S1000
;WIPE_START
G1 F8640
G1 X105.123 Y92.401 E-.01385
G1 X105.801 Y91.848 E-.20202
G1 X107.988 Y90.577 E-.58413
;WIPE_END
G1 Z.6 F720
; printing object snowflake1.stl id:0 copy 0
G1 X134.886 Y97.816 F10800
G1 Z.2 F720
G1 E.8 F2100
M204 S800
;TYPE:External perimeter
;WIDTH:0.38292
G1 F1200
G1 X135.029 Y97.738 E.00461
G1 X135.094 Y97.356 E.01095
G1 X135.301 Y96.999 E.01167
G1 X135.436 Y96.507 E.01442
G1 X135.541 Y95.883 E.01789
G1 X135.703 Y95.408 E.01419
G1 X135.882 Y94.657 E.02183
G1 X136.029 Y94.307 E.01073
G1 X136.34 Y93.966 E.01305
G1 X136.61 Y93.809 E.00883
G1 X137.007 Y93.692 E.0117
G1 X137.472 Y93.768 E.01332
G1 X137.878 Y94.085 E.01456
G1 X138.049 Y94.392 E.00993
G1 X138.096 Y94.786 E.01122
G1 X137.932 Y95.547 E.02201
G1 X137.875 Y96.101 E.01574
G1 X137.921 Y96.133 E.00158
G1 X138.06 Y96.116 E.00396
G1 X141.747 Y93.988 E.12035
G1 X142.235 Y93.865 E.01423
G1 X142.579 Y93.899 E.00977
G1 X142.989 Y94.08 E.01267
G1 X143.206 Y94.31 E.00894
G1 X143.296 Y94.53 E.00672
G1 X143.373 Y94.989 E.01316
G1 X143.305 Y95.433 E.0127
G1 X143.092 Y95.703 E.00972
G1 X140.711 Y97.15 E.07877
G1 X139.136 Y98.062 E.05145
;WIDTH:0.4095
G1 X139.02 Y98.189 E.00524
G1 X139.154 Y98.297 E.00525
;WIDTH:0.38292
G1 X140.155 Y98.693 E.03043
G1 X140.291 Y98.759 E.00427
G1 X140.669 Y99.016 E.01292
G1 X140.868 Y99.419 E.01271
G1 X140.896 Y99.815 E.01122
G1 X140.796 Y100.191 E.011
G1 X140.635 Y100.392 E.00728
G1 X140.163 Y100.625 E.01488
G1 X139.663 Y100.677 E.01421
G1 X139.467 Y100.649 E.0056
G1 X136.431 Y99.921 E.08826
G1 X136.168 Y99.909 E.00744
;WIDTH:0.402884
G1 X136.009 Y99.959 E.00499
G1 X136.048 Y100.108 E.00461
;WIDTH:0.38292
G1 X136.513 Y100.929 E.02667
G1 X136.805 Y101.312 E.01362
G1 X137.044 Y101.51 E.00877
G1 X137.388 Y101.666 E.01068
M73 Q3 S9
G1 X138.057 Y101.834 E.0195
G1 X138.365 Y102.072 E.011
G1 X138.577 Y102.501 E.01353
G1 X138.611 Y102.983 E.01366
G1 X138.482 Y103.431 E.01318
G1 X138.234 Y103.719 E.01074
G1 X137.825 Y103.887 E.0125
G1 X137.312 Y103.893 E.0145
G1 X132.042 Y102.504 E.15408
G1 X131.736 Y102.481 E.00868
M73 P3 R9
G1 X131.408 Y102.568 E.00959
G1 X127.598 Y104.742 E.12401
G1 X127.572 Y104.764 E.00096
G1 X127.512 Y105.022 E.00749
G1 X127.568 Y105.132 E.00349
G1 X131.196 Y107.317 E.11973
G1 X131.565 Y107.457 E.01116
G1 X132.016 Y107.481 E.01277
G1 X137.042 Y106.147 E.14701
G1 X137.64 Y106.071 E.01704
G1 X137.884 Y106.105 E.00696
G1 X138.15 Y106.236 E.00838
G1 X138.44 Y106.519 E.01146
G1 X138.651 Y106.967 E.014
G1 X138.61 Y107.484 E.01466
G1 X138.369 Y107.877 E.01303
G1 X137.955 Y108.161 E.01419
G1 X137.235 Y108.39 E.02136
G1 X136.789 Y108.658 E.01471
G1 X136.553 Y108.961 E.01086
G1 X136.073 Y109.913 E.03014
G1 X136.124 Y110.053 E.00421
G1 X136.316 Y110.091 E.00553
G1 X139.616 Y109.247 E.0963
G1 X140.039 Y109.256 E.01196
G1 X140.284 Y109.34 E.00732
G1 X140.632 Y109.618 E.01259
G1 X140.833 Y109.984 E.0118
G1 X140.872 Y110.409 E.01207
G1 X140.732 Y110.855 E.01322
G1 X140.482 Y111.152 E.01098
G1 X140.081 Y111.396 E.01327
G1 X139.064 Y111.721 E.03018
G1 X139.06 Y111.798 E.00218
G1 X139.141 Y111.895 E.00357
G1 X142.827 Y114.067 E.12095
G1 X142.966 Y114.18 E.00506
G1 X143.25 Y114.579 E.01385
G1 X143.37 Y115.081 E.01459
G1 X143.33 Y115.447 E.01041
G1 X143.16 Y115.76 E.01007
G1 X142.889 Y115.977 E.00982
G1 X142.4 Y116.116 E.01437
G1 X142.014 Y116.058 E.01104
G1 X138.047 Y113.877 E.12798
G1 X137.903 Y113.846 E.00416
G1 X137.867 Y113.982 E.00398
G1 X137.875 Y114.237 E.00721
G1 X138.077 Y115.128 E.02583
G1 X138.038 Y115.525 E.01128
G1 X137.933 Y115.789 E.00803
G1 X137.779 Y116.006 E.00752
G1 X137.518 Y116.195 E.00911
G1 X137.061 Y116.291 E.0132
G1 X136.639 Y116.239 E.01202
G1 X136.279 Y116.064 E.01132
G1 X136.068 Y115.775 E.01012
G1 X135.258 Y112.858 E.08559
G1 X134.952 Y112.221 E.01998
G1 X134.827 Y112.115 E.00463
G1 X134.735 Y112.21 E.00374
G1 X134.145 Y113.248 E.03375
G1 X134.094 Y113.414 E.00491
G1 X134.066 Y113.955 E.01532
G1 X134.211 Y114.972 E.02904
G1 X134.202 Y115.127 E.00439
G1 X134.121 Y115.381 E.00754
G1 X133.853 Y115.678 E.01131
G1 X133.413 Y115.929 E.01432
G1 X133.053 Y115.959 E.01021
G1 X132.677 Y115.828 E.01126
G1 X132.472 Y115.687 E.00703
G1 X132.182 Y115.315 E.01333
G1 X131.992 Y114.852 E.01415
G1 X131.539 Y112.993 E.05409
G1 X131.156 Y111.885 E.03314
G1 X130.724 Y110.07 E.05275
G1 X130.528 Y109.587 E.01474
G1 X130.364 Y109.411 E.0068
G1 X126.316 Y107.029 E.13278
;WIDTH:0.384454
G1 X126.165 Y106.991 E.00442
G1 X126.123 Y107.138 E.00434
;WIDTH:0.38292
G1 X126.124 Y111.537 E.12436
G1 X126.136 Y111.714 E.00502
G1 X126.236 Y112.105 E.01141
G1 X126.526 Y112.574 E.01559
G1 X130.202 Y116.226 E.14649
G1 X130.42 Y116.612 E.01253
G1 X130.483 Y117.139 E.015
G1 X130.357 Y117.537 E.0118
G1 X130.086 Y117.842 E.01153
G1 X129.595 Y118.095 E.01562
G1 X129.247 Y118.112 E.00985
G1 X128.974 Y117.997 E.00837
G1 X127.973 Y117.158 E.03693
G1 X127.706 Y117.036 E.0083
G1 X126.368 Y117.033 E.03783
G1 X126.296 Y117.051 E.0021
G1 X126.145 Y117.191 E.00582
G1 X126.222 Y117.384 E.00587
G1 X126.572 Y117.677 E.0129
G1 X128.515 Y119.701 E.07932
G1 X128.717 Y119.984 E.00983
G1 X128.893 Y120.427 E.01348
G1 X128.868 Y120.8 E.01057
G1 X128.616 Y121.228 E.01404
G1 X128.216 Y121.538 E.01431
G1 X127.819 Y121.635 E.01155
G1 X127.41 Y121.504 E.01214
G1 X126.36 Y120.747 E.03659
G1 X126.229 Y120.696 E.00397
G1 X126.163 Y120.833 E.0043
G1 X126.125 Y121.095 E.00748
G1 X126.096 Y125.164 E.11504
G1 X126.035 Y125.498 E.0096
M73 P3 R8
G1 X125.9 Y125.787 E.00902
G1 X125.713 Y125.98 E.0076
G1 X125.484 Y126.11 E.00744
G1 X125.036 Y126.212 E.01299
G1 X124.75 Y126.185 E.00812
G1 X124.291 Y125.945 E.01464
G1 X124.062 Y125.668 E.01016
G1 X123.933 Y125.17 E.01454
G1 X123.891 Y121.11 E.11479
G1 X123.874 Y120.842 E.00759
M73 Q4 S9
G1 X123.812 Y120.687 E.00472
G1 X123.671 Y120.746 E.00432
G1 X123.128 Y121.277 E.02147
G1 X122.87 Y121.44 E.00863
G1 X122.425 Y121.549 E.01295
M73 Q4 S8
G1 X121.952 Y121.527 E.01339
G1 X121.679 Y121.466 E.00791
G1 X121.378 Y121.268 E.01019
G1 X121.174 Y120.805 E.0143
G1 X121.127 Y120.516 E.00828
G1 X121.171 Y120.228 E.00824
G1 X121.34 Y119.935 E.00956
G1 X123.714 Y117.476 E.09663
M73 P4 R8
G1 X123.816 Y117.274 E.0064
G1 X123.79 Y117.117 E.0045
G1 X123.559 Y117.027 E.00701
G1 X122.807 Y117.005 E.02127
G1 X122.321 Y117.078 E.01389
G1 X121.874 Y117.294 E.01404
G1 X121.657 Y117.483 E.00814
G1 X121.419 Y117.784 E.01085
G1 X121.098 Y118.004 E.011
G1 X120.694 Y118.101 E.01175
G1 X120.275 Y118.054 E.01192
G1 X119.886 Y117.87 E.01217
G1 X119.66 Y117.561 E.01082
G1 X119.541 Y117.137 E.01245
G1 X119.574 Y116.676 E.01307
G1 X119.758 Y116.293 E.01201
G1 X123.515 Y112.478 E.15137
G1 X123.828 Y111.981 E.0166
G1 X123.94 Y111.416 E.01628
G1 X123.975 Y108.018 E.09607
G1 X123.884 Y107.166 E.02422
G1 X123.827 Y107.025 E.0043
G1 X123.692 Y107.063 E.00396
G1 X119.847 Y109.276 E.12542
G1 X119.422 Y109.675 E.01648
G1 X119.252 Y110.018 E.01082
G1 X119.093 Y110.746 E.02107
G1 X118.433 Y112.882 E.0632
G1 X117.965 Y115.072 E.06331
G1 X117.676 Y115.572 E.01633
G1 X117.314 Y115.87 E.01326
G1 X117.008 Y115.978 E.00917
G1 X116.684 Y115.954 E.00918
G1 X116.391 Y115.834 E.00895
G1 X116.026 Y115.549 E.01309
G1 X115.833 Y115.185 E.01165
G1 X115.802 Y114.76 E.01205
G1 X115.906 Y114.217 E.01563
G1 X115.969 Y113.598 E.01759
G1 X115.886 Y113.177 E.01213
G1 X115.492 Y112.448 E.02343
G1 X115.173 Y112.152 E.0123
G1 X115.03 Y112.119 E.00415
G1 X114.979 Y112.213 E.00302
G1 X114.647 Y113.344 E.03332
G1 X114.085 Y115.52 E.06354
G1 X114.039 Y115.64 E.00363
G1 X113.876 Y115.892 E.00848
G1 X113.554 Y116.165 E.01193
G1 X113.124 Y116.293 E.01268
G1 X112.791 Y116.295 E.00941
G1 X112.495 Y116.184 E.00894
G1 X112.236 Y115.936 E.01014
G1 X112.066 Y115.587 E.01097
G1 X112.003 Y115.143 E.01268
G1 X112.133 Y114.034 E.03157
;WIDTH:0.400674
G1 X112.104 Y113.872 E.0049
G1 X111.939 Y113.907 E.00502
;WIDTH:0.38292
G1 X108.335 Y115.947 E.11708
G1 X108.091 Y116.06 E.0076
G1 X107.582 Y116.144 E.01458
G1 X107.276 Y116.074 E.00887
G1 X106.941 Y115.875 E.01102
G1 X106.772 Y115.644 E.00809
G1 X106.674 Y115.22 E.0123
G1 X106.685 Y114.717 E.01422
G1 X106.75 Y114.45 E.00777
G1 X107.014 Y114.189 E.0105
G1 X110.666 Y112.04 E.1198
G1 X110.868 Y111.885 E.0072
;WIDTH:0.391772
G1 X110.963 Y111.745 E.00491
G1 X110.83 Y111.661 E.00456
;WIDTH:0.38292
G1 X109.846 Y111.375 E.02897
G1 X109.58 Y111.222 E.00868
G1 X109.322 Y110.941 E.01078
G1 X109.147 Y110.501 E.01339
G1 X109.125 Y110.233 E.0076
G1 X109.231 Y109.837 E.01159
G1 X109.5 Y109.499 E.01221
G1 X109.949 Y109.274 E.0142
G1 X110.461 Y109.239 E.01451
G1 X113.8 Y110.072 E.09729
;WIDTH:0.401118
G1 X113.981 Y110.053 E.00542
G1 X113.948 Y109.897 E.00475
;WIDTH:0.38292
G1 X113.553 Y109.151 E.02386
G1 X113.232 Y108.696 E.01574
G1 X112.989 Y108.479 E.00921
G1 X112.674 Y108.309 E.01012
G1 X112.073 Y108.182 E.01737
G1 X111.802 Y108.051 E.00851
G1 X111.569 Y107.808 E.00952
G1 X111.438 Y107.552 E.00813
G1 X111.371 Y107.277 E.008
G1 X111.377 Y106.859 E.01182
G1 X111.508 Y106.543 E.00967
G1 X111.707 Y106.368 E.00749
G1 X112.116 Y106.147 E.01314
G1 X112.615 Y106.073 E.01426
G1 X112.971 Y106.121 E.01016
G1 X117.589 Y107.383 E.13534
G1 X118.038 Y107.481 E.01299
G1 X118.488 Y107.447 E.01276
G1 X119.152 Y107.156 E.0205
G1 X122.258 Y105.286 E.1025
G1 X122.572 Y104.976 E.01247
G1 X122.265 Y104.655 E.01256
G1 X118.55 Y102.524 E.12108
G1 X118.386 Y102.462 E.00496
G1 X118.181 Y102.466 E.0058
G1 X112.786 Y103.88 E.15767
G1 X112.281 Y103.894 E.01428
G1 X111.821 Y103.706 E.01405
G1 X111.574 Y103.44 E.01026
G1 X111.403 Y103.043 E.01222
G1 X111.35 Y102.639 E.01152
G1 X111.413 Y102.394 E.00715
G1 X111.712 Y102.063 E.01261
G1 X111.988 Y101.862 E.00965
G1 X112.316 Y101.703 E.01031
G1 X112.867 Y101.548 E.01618
G1 X113.216 Y101.326 E.01169
G1 X113.527 Y100.934 E.01415
G1 X113.929 Y100.093 E.02635
G1 X113.956 Y99.959 E.00386
G1 X113.806 Y99.915 E.00442
G1 X113.487 Y99.926 E.00902
G1 X110.489 Y100.733 E.08777
G1 X110.089 Y100.739 E.01131
G1 X109.607 Y100.567 E.01447
M73 Q5 S8
G1 X109.328 Y100.318 E.01057
G1 X109.142 Y99.859 E.014
G1 X109.135 Y99.473 E.01091
G1 X109.184 Y99.283 E.00555
G1 X109.34 Y98.984 E.00953
G1 X109.603 Y98.775 E.0095
G1 X109.867 Y98.649 E.00827
G1 X110.784 Y98.285 E.02789
;WIDTH:0.400066
G1 X110.915 Y98.178 E.00502
G1 X110.803 Y98.055 E.00494
;WIDTH:0.38292
G1 X106.996 Y95.778 E.12541
G1 X106.743 Y95.47 E.01127
M73 P5 R8
G1 X106.62 Y95.034 E.01281
G1 X106.647 Y94.717 E.00899
G1 X106.749 Y94.438 E.0084
G1 X107.041 Y94.075 E.01317
G1 X107.409 Y93.877 E.01181
G1 X107.821 Y93.838 E.0117
G1 X108.31 Y93.984 E.01443
G1 X111.976 Y96.123 E.11999
;WIDTH:0.40224
G1 X112.121 Y96.164 E.0045
G1 X112.173 Y96.024 E.00446
;WIDTH:0.38292
G1 X112.16 Y95.785 E.00677
G1 X111.927 Y94.877 E.0265
G1 X111.937 Y94.519 E.01013
G1 X112.024 Y94.285 E.00706
G1 X112.18 Y94.074 E.00742
G1 X112.503 Y93.793 E.0121
G1 X112.874 Y93.691 E.01088
G1 X113.357 Y93.784 E.01391
G1 X113.786 Y94.01 E.01371
G1 X114.039 Y94.33 E.01153
G1 X114.135 Y94.606 E.00826
G1 X114.879 Y97.45 E.08311
G1 X115.102 Y97.769 E.011
G1 X115.204 Y97.706 E.00339
G1 X115.515 Y97.379 E.01276
G1 X115.795 Y96.912 E.01539
G1 X115.982 Y96.481 E.01328
G1 X115.984 Y96.128 E.00998
G1 X115.838 Y95.67 E.01359
G1 X115.811 Y95.05 E.01754
G1 X115.898 Y94.671 E.01099
G1 X116.195 Y94.268 E.01415
G1 X116.437 Y94.106 E.00823
G1 X116.799 Y94.065 E.0103
G1 X117.063 Y94.107 E.00756
G1 X117.481 Y94.272 E.0127
G1 X117.777 Y94.531 E.01112
G1 X117.95 Y94.844 E.01011
G1 X119.382 Y100.268 E.1586
G1 X119.475 Y100.421 E.00506
G1 X119.736 Y100.646 E.00974
G1 X123.699 Y102.912 E.12906
G1 X123.835 Y102.946 E.00396
G1 X123.884 Y102.822 E.00377
G1 X123.972 Y102.118 E.02006
G1 X123.953 Y98.453 E.10362
G1 X123.872 Y98.014 E.01262
G1 X123.778 Y97.807 E.00643
G1 X123.592 Y97.535 E.00932
G1 X123.219 Y97.26 E.0131
G1 X120.077 Y94.02 E.1276
G1 X119.889 Y93.765 E.00896
G1 X119.618 Y93.339 E.01427
G1 X119.496 Y92.86 E.01397
G1 X119.555 Y92.551 E.00889
G1 X119.862 Y92.132 E.01468
G1 X120.14 Y91.954 E.00933
G1 X120.493 Y91.856 E.01036
G1 X120.726 Y91.868 E.0066
G1 X121.06 Y91.999 E.01014
G1 X122.015 Y92.812 E.03546
G1 X122.148 Y92.881 E.00424
G1 X123.686 Y92.89 E.04348
G1 X123.788 Y92.87 E.00294
G1 X123.84 Y92.78 E.00294
G1 X123.776 Y92.674 E.0035
G1 X121.61 Y90.481 E.08714
G1 X121.306 Y90.052 E.01486
G1 X121.178 Y89.586 E.01366
G1 X121.212 Y89.178 E.01157
G1 X121.412 Y88.704 E.01454
G1 X121.664 Y88.448 E.01016
G1 X121.92 Y88.369 E.00757
G1 X122.343 Y88.457 E.01221
G1 X122.828 Y88.656 E.01482
G1 X123.257 Y88.93 E.01439
G1 X123.68 Y89.301 E.01591
;WIDTH:0.39149
G1 X123.823 Y89.367 E.00456
G1 X123.884 Y89.236 E.00419
;WIDTH:0.38292
G1 X123.908 Y84.807 E.12521
G1 X124.004 Y84.324 E.01392
G1 X124.096 Y84.176 E.00493
G1 X124.422 Y83.96 E.01106
G1 X124.998 Y83.796 E.01693
G1 X125.269 Y83.813 E.00768
G1 X125.611 Y83.95 E.01042
G1 X125.896 Y84.213 E.01096
G1 X126.038 Y84.538 E.01003
G1 X126.161 Y89.216 E.1323
G1 X126.226 Y89.374 E.00483
G1 X126.354 Y89.309 E.00406
G1 X127.106 Y88.635 E.02855
G1 X127.421 Y88.459 E.0102
G1 X127.879 Y88.364 E.01322
G1 X128.245 Y88.44 E.01057
G1 X128.619 Y88.684 E.01262
G1 X128.835 Y89.023 E.01136
G1 X128.904 Y89.42 E.01139
G1 X128.814 Y89.835 E.01201
G1 X128.56 Y90.251 E.01378
G1 X126.751 Y92.078 E.07269
G1 X126.274 Y92.682 E.02176
G1 X126.219 Y92.802 E.00373
G1 X126.384 Y92.903 E.00547
G1 X126.877 Y92.991 E.01416
G1 X127.45 Y92.95 E.01624
G1 X127.971 Y92.765 E.01563
G1 X128.441 Y92.432 E.01628
G1 X128.832 Y92.063 E.0152
G1 X129.177 Y91.919 E.01057
