; generated by PrusaSlicer 2.5.0+win64 on 2022-12-14 at 12:10:32 UTC

; 

; external perimeters extrusion width = 0.45mm
; perimeters extrusion width = 0.45mm
; infill extrusion width = 0.45mm
; solid infill extrusion width = 0.45mm
; top infill extrusion width = 0.40mm
; first layer extrusion width = 0.42mm

M73 P0 R32
M73 Q0 S32
M201 X1000 Y1000 Z200 E5000 ; sets maximum accelerations, mm/sec^2
M203 X200 Y200 Z12 E120 ; sets maximum feedrates, mm / sec
M204 P1250 R1250 T1250 ; sets acceleration (P, T) and retract acceleration (R), mm/sec^2
M205 X8.00 Y8.00 Z0.40 E4.50 ; sets the jerk limits, mm/sec
M205 S0 T0 ; sets the minimum extruding and travel feed rate, mm/sec
M107
;TYPE:Custom
M862.3 P "MK3S" ; printer model check
M862.1 P0.4 ; nozzle diameter check
M115 U3.10.1 ; tell printer latest fw version
G90 ; use absolute coordinates
M83 ; extruder relative mode
M104 S215 ; set extruder temp
M140 S60 ; set bed temp
M190 S60 ; wait for bed temp
M109 S215 ; wait for extruder temp
G28 W ; home all without mesh bed level
G80 ; mesh bed leveling
G1 Z0.2 F720
G1 Y-3 F1000 ; go outside print area
G92 E0
G1 X60 E9 F1000 ; intro line
G1 X100 E12.5 F1000 ; intro line
G92 E0
M221 S95

; Don't change E values below. Excessive value can damage the printer.

M907 E538 ; set extruder motor current
G21 ; set units to millimeters
G90 ; use absolute coordinates
M83 ; use relative distances for extrusion
M900 K0.05 ; Filament gcode LA 1.5
M900 K30 ; Filament gcode LA 1.0
M107
;LAYER_CHANGE
;Z:0.2
;HEIGHT:0.2
;BEFORE_LAYER_CHANGE
G92 E0.0
;0.2


M73 Q0 S31
G1 E-.8 F2100
M73 P0 R31
G1 Z.4 F720
;AFTER_LAYER_CHANGE
;0.2
G1 X107.31 Y87.23 F10800
G1 Z.2 F720
G1 E.8 F2100
M204 S800
;TYPE:Skirt/Brim
;WIDTH:0.42
G1 F1200
G1 X115.47 Y77.192 E.40563
G1 X116.539 Y76.444 E.0409
G1 X119.805 Y75.393 E.10756
G1 X121.846 Y74.922 E.06568
G1 X124.122 Y74.573 E.07219
G1 X126.303 Y74.438 E.06851
G1 X144.045 Y74.091 E.55639
G1 X146.782 Y74.324 E.08614
G1 X151.635 Y75.143 E.1543
G1 X152.856 Y75.752 E.04278
G1 X153.502 Y76.79 E.03836
G1 X154.077 Y78.686 E.06212
G1 X154.316 Y79.747 E.0341
G1 X156.703 Y99.52 E.62448
G1 X157.456 Y110.676 E.35059
G1 X157.411 Y112.052 E.04315
G1 X157.058 Y113.551 E.0483
G1 X156.396 Y115.027 E.05071
G1 X155.503 Y116.371 E.0506
G1 X154.526 Y117.521 E.04731
G1 X138.116 Y133.688 E.72228
G1 X136.923 Y134.627 E.0476
G1 X135.995 Y135.135 E.03318
G1 X135.029 Y135.487 E.03222
G1 X133.434 Y135.768 E.05078
G1 X127.818 Y135.913 E.17616
G1 X101.711 Y135.54 E.81865
G1 X100.52 Y135.384 E.03766
G1 X99.167 Y134.987 E.04422
G1 X97.236 Y133.903 E.06941
G1 X96.682 Y133.443 E.02259
G1 X95.603 Y132.228 E.05095
G1 X95.262 Y131.729 E.01895
G1 X94.331 Y129.789 E.06747
G1 X93.81 Y127.73 E.0666
G1 X92.54 Y107.978 E.62059
G1 X92.598 Y106.087 E.0593
G1 X93.128 Y104.677 E.04726
G1 X107.272 Y87.277 E.70307
M204 S1000
; printing object Sob.stl id:0 copy 0
;WIPE_START
G1 F8640
G1 X109.349 Y84.723 E-.76
;WIPE_END
G1 E-.04 F2100
G1 Z.6 F720
G1 X130.465 Y88.922 F10800
G1 Z.2 F720
G1 E.8 F2100
M204 S800
;TYPE:Perimeter
;WIDTH:0.419999
G1 F1200
G1 X130.522 Y89.003 E.0031
G1 X130.934 Y89.131 E.01352
G1 X132.054 Y89.029 E.03525
G1 X133.854 Y88.926 E.05653
G1 X135.634 Y88.877 E.05584
G1 X138.586 Y88.833 E.09256
G1 X138.879 Y88.677 E.01041
G1 X138.94 Y88.604 E.00297
G1 X139.042 Y88.303 E.00998
G1 X139.124 Y86.194 E.06616
G1 X139.115 Y85.598 E.01868
G1 X139.035 Y85.09 E.01614
G1 X138.892 Y84.887 E.00777
M73 Q1 S31
G1 X138.331 Y84.379 E.02374
G1 X137.932 Y83.874 E.02016
G1 X137.623 Y83.297 E.02051
G1 X137.394 Y82.624 E.0223
G1 X137.254 Y81.875 E.0239
G1 X137.213 Y81.091 E.02461
G1 X137.278 Y80.31 E.02457
G1 X137.45 Y79.571 E.02377
G1 X137.731 Y78.908 E.0226
G1 X138.14 Y78.307 E.02278
G1 X138.611 Y77.757 E.02272
M73 P1 R31
G1 X139.352 Y77.62 E.0236
G1 X141.006 Y77.374 E.05243
G1 X142.51 Y77.261 E.04731
G1 X143.889 Y77.251 E.04324
G1 X145.155 Y77.324 E.03974
G1 X146.316 Y77.453 E.03665
G1 X147.388 Y77.619 E.03401
G1 X150.618 Y78.179 E.10277
G1 X151.011 Y79.47 E.04232
G1 X151.196 Y80.301 E.0267
G1 X151.268 Y81.024 E.0228
G1 X151.254 Y81.894 E.02726
G1 X151.188 Y82.462 E.01793
G1 X150.953 Y83.553 E.035
G1 X150.778 Y84.085 E.01755
G1 X150.529 Y84.543 E.01636
G1 X150.209 Y84.985 E.0171
G1 X149.742 Y85.495 E.02168
G1 X149.635 Y85.665 E.0063
G1 X149.597 Y85.935 E.00854
G1 X149.686 Y86.798 E.0272
G1 X149.956 Y90.487 E.116
G1 X150.042 Y91.177 E.02179
G1 X150.169 Y91.868 E.02203
G1 X150.412 Y92.647 E.02557
G1 X150.765 Y93.433 E.02702
G1 X151.187 Y94.229 E.02825
G1 X152.133 Y95.926 E.06091
G1 X152.589 Y96.822 E.03151
G1 X152.994 Y97.753 E.03186
G1 X153.318 Y98.714 E.03179
G1 X153.562 Y99.912 E.03834
G1 X153.649 Y101.111 E.03768
G1 X153.62 Y102.285 E.03681
G1 X153.513 Y103.397 E.03504
G1 X153.157 Y105.893 E.07904
G1 X153.145 Y106.461 E.01781
G1 X153.189 Y106.822 E.01141
G1 X153.67 Y108.039 E.04105
G1 X153.889 Y108.661 E.02065
G1 X154.084 Y109.358 E.02269
G1 X154.229 Y110.111 E.02405
G1 X154.294 Y110.898 E.02475
G1 X154.267 Y111.528 E.01979
G1 X154.186 Y112.092 E.01785
G1 X154.048 Y112.574 E.01571
G1 X153.852 Y113.053 E.01624
G1 X153.614 Y113.517 E.01635
G1 X153.339 Y113.963 E.01641
G1 X153.042 Y114.38 E.01607
G1 X152.315 Y115.249 E.03553
G1 X151.687 Y115.769 E.02557
G1 X150.926 Y116.162 E.02683
G1 X150.045 Y116.445 E.02902
G1 X149.1 Y116.618 E.03013
G1 X148.151 Y116.684 E.02983
G1 X147.261 Y116.655 E.0279
G1 X146.498 Y116.543 E.02418
G1 X145.914 Y116.371 E.0191
G1 X145.141 Y115.999 E.02689
G1 X144.598 Y115.629 E.02059
G1 X144.195 Y115.255 E.01724
G1 X143.451 Y114.409 E.03534
G1 X143.052 Y114.033 E.01717
G1 X142.653 Y113.73 E.01573
G1 X142.115 Y113.394 E.01988
G1 X141.261 Y113.016 E.02927
G1 X140.171 Y112.68 E.03577
G1 X139.047 Y112.436 E.03607
G1 X137.903 Y112.269 E.03624
G1 X136.737 Y112.161 E.03672
G1 X135.558 Y112.095 E.03704
G1 X134.383 Y112.058 E.03683
G1 X132.015 Y112.011 E.07427
G1 X130.757 Y112.059 E.03949
G1 X129.598 Y112.238 E.03678
G1 X128.508 Y112.524 E.03532
G1 X127.469 Y112.908 E.03471
G1 X126.927 Y113.147 E.01859
G1 X126.341 Y113.452 E.0207
G1 X125.685 Y113.86 E.02424
G1 X125.482 Y114.077 E.00931
G1 X125.42 Y114.282 E.00672
G1 X125.469 Y114.766 E.01524
G1 X125.578 Y114.972 E.00729
G1 X125.816 Y115.14 E.00914
G1 X127.196 Y115.651 E.04614
G1 X127.991 Y115.994 E.02714
G1 X128.451 Y116.223 E.01611
G1 X128.922 Y116.488 E.01695
G1 X129.701 Y116.977 E.02884
G1 X130.42 Y117.477 E.02747
G1 X131.076 Y117.974 E.0258
G1 X131.661 Y118.453 E.02372
G1 X132.613 Y119.31 E.04017
G1 X133.643 Y120.366 E.04624
G1 X134.397 Y121.248 E.03639
G1 X134.749 Y121.706 E.01811
G1 X135.092 Y122.193 E.01867
G1 X135.793 Y123.328 E.04181
G1 X136.427 Y124.47 E.04097
G1 X136.677 Y124.993 E.01818
G1 X136.963 Y125.839 E.02797
G1 X137.135 Y126.673 E.02671
G1 X137.278 Y127.771 E.03473
G1 X137.201 Y128.683 E.0287
G1 X137.082 Y129.266 E.01864
G1 X136.917 Y129.813 E.01791
G1 X136.699 Y130.285 E.01631
G1 X136.414 Y130.755 E.01723
G1 X136.057 Y131.216 E.01829
G1 X135.755 Y131.544 E.01397
G1 X135.179 Y131.978 E.02264
G1 X134.658 Y132.26 E.01856
G1 X134.075 Y132.465 E.01938
G1 X133.543 Y132.573 E.01699
G1 X132.743 Y132.606 E.02512
G1 X131.774 Y132.49 E.03058
G1 X131.169 Y132.325 E.01967
G1 X130.177 Y131.902 E.03383
G1 X129.896 Y131.86 E.0089
G1 X129.62 Y131.966 E.00927
G1 X128.873 Y132.489 E.0286
G1 X128.282 Y132.683 E.01951
G1 X127.756 Y132.746 E.0166
G1 X127.196 Y132.718 E.01758
G1 X126.605 Y132.562 E.01916
G1 X126.041 Y132.273 E.01988
G1 X125.679 Y131.993 E.01434
G1 X125.101 Y131.359 E.0269
G1 X124.765 Y130.906 E.01768
G1 X124.434 Y130.692 E.01234
G1 X124.159 Y130.699 E.00863
G1 X123.439 Y130.899 E.02346
G1 X123.028 Y130.956 E.01299
G1 X122.517 Y130.956 E.01602
G1 X121.891 Y130.859 E.01987
G1 X121.231 Y130.607 E.02217
G1 X120.661 Y130.228 E.02145
G1 X120.137 Y129.73 E.02266
G1 X119.66 Y129.144 E.02371
G1 X119.231 Y128.509 E.02399
G1 X118.153 Y126.705 E.06591
G1 X117.835 Y126.255 E.01728
G1 X117.607 Y126.067 E.00928
G1 X117.404 Y126.017 E.00654
G1 X115.119 Y125.892 E.07175
G1 X114.485 Y125.885 E.01989
G1 X114.18 Y126.046 E.01079
G1 X114.026 Y126.349 E.01067
G1 X113.905 Y127.082 E.02329
G1 X113.754 Y127.593 E.01671
G1 X113.571 Y127.989 E.01368
G1 X113.338 Y128.351 E.0135
G1 X113.009 Y128.738 E.01593
G1 X112.602 Y129.084 E.01675
G1 X112.007 Y129.416 E.02138
G1 X111.392 Y129.602 E.02014
G1 X110.745 Y129.652 E.02035
G1 X110.212 Y129.575 E.01687
G1 X109.998 Y129.585 E.00673
G1 X109.721 Y129.745 E.01001
G1 X109.327 Y130.159 E.01793
G1 X108.712 Y130.709 E.02588
G1 X108.109 Y131.105 E.02262
G1 X107.602 Y131.304 E.01708
G1 X107.07 Y131.416 E.01703
G1 X106.352 Y131.439 E.02254
G1 X105.844 Y131.347 E.01619
G1 X105.261 Y131.098 E.01987
G1 X104.949 Y131.025 E.01004
G1 X104.591 Y131.173 E.01214
G1 X103.924 Y131.747 E.0276
G1 X103.47 Y132.03 E.01677
G1 X102.962 Y132.242 E.01727
G1 X102.424 Y132.356 E.01723
G1 X101.792 Y132.374 E.01984
G1 X101.048 Y132.264 E.02359
G1 X100.208 Y131.996 E.02762
G1 X98.967 Y131.252 E.04537
G1 X98.036 Y130.203 E.044
G1 X97.363 Y128.883 E.04642
G1 X96.955 Y127.373 E.04906
G1 X96.807 Y125.767 E.05057
G1 X96.91 Y124.169 E.05022
G1 X97.241 Y122.686 E.04762
G1 X97.778 Y121.411 E.0434
G1 X98.296 Y120.647 E.02893
G1 X98.651 Y120.218 E.01747
G1 X99.065 Y119.761 E.01932
G1 X100.041 Y118.801 E.04292
G1 X100.57 Y118.328 E.02225
G1 X101.26 Y117.751 E.02821
G1 X101.867 Y117.366 E.02255
G1 X102.55 Y117.043 E.02369
G1 X102.891 Y116.827 E.01266
G1 X103.008 Y116.606 E.00783
G1 X102.928 Y116.14 E.01482
G1 X102.803 Y116.009 E.00569
G1 X102.051 Y115.439 E.02958
G1 X101.637 Y115.09 E.01698
G1 X100.851 Y114.359 E.03366
G1 X99.792 Y113.307 E.0468
G1 X99.374 Y112.916 E.01794
G1 X99.141 Y112.775 E.00855
G1 X98.849 Y112.763 E.00916
G1 X98.607 Y112.826 E.00783
G1 X97.926 Y112.505 E.02362
G1 X97.417 Y112.192 E.01874
G1 X96.845 Y111.703 E.02357
G1 X96.429 Y111.13 E.02222
G1 X96.12 Y110.469 E.02287
G1 X95.908 Y109.763 E.02311
G1 X95.781 Y109.064 E.02227
G1 X95.719 Y108.427 E.02007
G1 X95.703 Y107.907 E.01632
G1 X95.748 Y106.555 E.0424
G1 X97.408 Y105.167 E.06786
G1 X97.824 Y104.862 E.01617
G1 X98.301 Y104.564 E.01763
G1 X98.831 Y104.297 E.0186
G1 X99.412 Y104.082 E.01944
G1 X100.15 Y103.911 E.02375
G1 X100.38 Y103.799 E.00803
G1 X102.468 Y102.098 E.08442
G1 X104.477 Y101.044 E.07115
G1 X106.474 Y100.485 E.065
G1 X108.434 Y100.359 E.06159
G1 X110.33 Y100.612 E.05998
G1 X112.13 Y101.19 E.05925
G1 X113.793 Y102.04 E.05857
G1 X115.428 Y103.214 E.06312
G1 X115.873 Y103.309 E.01425
G1 X116.249 Y103.142 E.0129
G1 X116.487 Y102.919 E.01023
G1 X116.562 Y102.653 E.00865
G1 X116.596 Y101.578 E.03372
G1 X116.72 Y100.378 E.03785
G1 X116.962 Y99.254 E.03602
G1 X117.313 Y98.189 E.03519
G1 X117.767 Y97.173 E.03488
G1 X118.318 Y96.204 E.03495
G1 X118.958 Y95.278 E.03528
G1 X119.68 Y94.393 E.03582
G1 X120.61 Y93.401 E.04264
G1 X120.716 Y93.156 E.00837
G1 X120.714 Y92.954 E.00633
G1 X120.522 Y91.943 E.03226
G1 X120.386 Y91.092 E.02703
G1 X119.992 Y88.126 E.09381
G1 X119.889 Y87.524 E.01916
G1 X119.772 Y87.006 E.01666
G1 X119.675 Y86.78 E.00771
G1 X118.711 Y85.438 E.0518
G1 X118.26 Y84.665 E.02807
G1 X117.86 Y83.751 E.03126
G1 X117.585 Y82.73 E.03317
G1 X117.5 Y81.619 E.03492
G1 X117.681 Y80.381 E.03923
G1 X117.968 Y79.298 E.03513
G1 X119.053 Y78.924 E.03597
G1 X120.551 Y78.469 E.0491
G1 X122.369 Y78.043 E.05855
G1 X124.356 Y77.728 E.06307
G1 X126.348 Y77.604 E.06257
G1 X128.172 Y77.741 E.05734
G1 X129.645 Y78.184 E.04824
G1 X130.644 Y78.934 E.03916
G1 X131.21 Y80.136 E.04168
G1 X131.363 Y80.924 E.02515
G1 X131.426 Y81.641 E.02257
G1 X131.415 Y82.308 E.02092
G1 X131.336 Y82.927 E.01955
G1 X131.198 Y83.502 E.01854
G1 X131.007 Y84.033 E.01771
G1 X130.77 Y84.525 E.0171
G1 X130.468 Y85.018 E.01814
G1 X130.052 Y85.556 E.02131
G1 X129.931 Y85.778 E.00792
G1 X129.913 Y85.996 E.00688
G1 X129.974 Y86.542 E.0172
G1 X130.291 Y88.452 E.06072
G1 X130.353 Y88.765 E.01
G1 X130.43 Y88.873 E.00418
M204 S1000
G1 X130.74 Y88.69 F10800
M204 S800
;TYPE:External perimeter
G1 F1200
G1 X130.9 Y88.755 E.00543
G1 X132.026 Y88.653 E.03545
G1 X133.838 Y88.55 E.0569
G1 X135.627 Y88.5 E.05611
G1 X138.48 Y88.467 E.08946
G1 X138.611 Y88.411 E.00448
G1 X138.666 Y88.286 E.00427
G1 X138.736 Y86.495 E.0562
G1 X138.741 Y85.839 E.02059
G1 X138.699 Y85.283 E.01746
G1 X138.639 Y85.167 E.00412
G1 X138.054 Y84.637 E.02472
G1 X137.616 Y84.082 E.02219
G1 X137.276 Y83.448 E.02253
G1 X137.029 Y82.72 E.02412
G1 X136.879 Y81.919 E.02553
G1 X136.835 Y81.085 E.02619
G1 X136.904 Y80.251 E.02625
G1 X137.09 Y79.454 E.02565
G1 X137.398 Y78.726 E.02478
G1 X137.84 Y78.078 E.02461
G1 X138.412 Y77.411 E.02755
G1 X139.29 Y77.248 E.02798
G1 X140.964 Y76.999 E.05307
G1 X142.495 Y76.884 E.04814
G1 X143.899 Y76.874 E.04402
G1 X145.186 Y76.948 E.04044
G1 X146.366 Y77.08 E.03721
G1 X147.449 Y77.247 E.03437
G1 X150.911 Y77.847 E.11015
G1 X151.37 Y79.35 E.04929
G1 X151.553 Y80.109 E.02448
G1 X151.64 Y80.817 E.02237
G1 X151.657 Y81.47 E.02048
G1 X151.625 Y82.01 E.01695
G1 X151.56 Y82.526 E.01631
G1 X151.304 Y83.714 E.03809
G1 X151.122 Y84.24 E.01747
G1 X150.824 Y84.79 E.01961
G1 X150.5 Y85.225 E.017
G1 X150.02 Y85.749 E.02228
G1 X149.972 Y85.896 E.00484
G1 X150.062 Y86.764 E.02737
G1 X150.331 Y90.441 E.11559
G1 X150.413 Y91.111 E.02116
G1 X150.53 Y91.758 E.02061
G1 X150.756 Y92.493 E.02411
G1 X151.098 Y93.257 E.02624
G1 X151.517 Y94.047 E.02806
G1 X152.466 Y95.749 E.06108
G1 X152.93 Y96.661 E.03209
G1 X153.346 Y97.618 E.03271
G1 X153.683 Y98.616 E.03303
G1 X153.936 Y99.861 E.03984
G1 X154.027 Y101.102 E.03901
G1 X153.996 Y102.307 E.03781
G1 X153.888 Y103.443 E.03577
G1 X153.603 Y105.358 E.06069
G1 X153.513 Y106.102 E.02351
G1 X153.539 Y106.683 E.01824
G1 X154.026 Y107.914 E.04149
G1 X154.251 Y108.558 E.02139
G1 X154.454 Y109.285 E.02367
G1 X154.605 Y110.077 E.02529
G1 X154.67 Y110.914 E.0263
G1 X154.637 Y111.693 E.02445
G1 X154.547 Y112.218 E.01672
G1 X154.393 Y112.735 E.01691
G1 X154.183 Y113.239 E.01712
G1 X153.93 Y113.728 E.01726
G1 X153.641 Y114.191 E.01711
G1 X153.33 Y114.625 E.01675
G1 X152.58 Y115.52 E.03659
G1 X151.896 Y116.086 E.02785
G1 X151.071 Y116.511 E.02909
G1 X150.137 Y116.811 E.03077
G1 X149.147 Y116.993 E.03156
G1 X148.157 Y117.062 E.03109
G1 X147.228 Y117.031 E.02917
G1 X146.417 Y116.913 E.02568
G1 X145.778 Y116.724 E.0209
G1 X144.952 Y116.327 E.02874
G1 X144.363 Y115.925 E.02237
G1 X143.925 Y115.518 E.01872
G1 X143.163 Y114.653 E.03616
G1 X142.795 Y114.309 E.01579
G1 X142.444 Y114.044 E.01379
G1 X141.961 Y113.738 E.01792
G1 X141.149 Y113.376 E.02787
G1 X140.091 Y113.048 E.03475
G1 X138.992 Y112.809 E.03525
G1 X137.865 Y112.644 E.0357
G1 X136.712 Y112.537 E.03632
G1 X135.547 Y112.472 E.03659
G1 X134.377 Y112.435 E.0367
G1 X132.028 Y112.388 E.07366
G1 X130.811 Y112.433 E.03818
G1 X129.689 Y112.604 E.03559
G1 X128.633 Y112.88 E.03423
G1 X127.621 Y113.253 E.0338
G1 X127.1 Y113.483 E.01786
G1 X126.54 Y113.772 E.01977
G1 X125.884 Y114.18 E.02423
G1 X125.808 Y114.269 E.00367
G1 X125.833 Y114.667 E.01249
G1 X125.947 Y114.786 E.00518
G1 X127.336 Y115.301 E.04644
G1 X128.169 Y115.66 E.02845
G1 X129.115 Y116.164 E.03358
G1 X129.909 Y116.662 E.02941
G1 X130.642 Y117.172 E.02799
G1 X131.309 Y117.678 E.02626
G1 X131.907 Y118.167 E.02421
G1 X132.875 Y119.038 E.04083
G1 X133.922 Y120.111 E.04701
G1 X134.69 Y121.011 E.03709
G1 X135.053 Y121.483 E.01866
G1 X135.407 Y121.985 E.01927
G1 X136.118 Y123.137 E.04244
G1 X136.816 Y124.395 E.04511
G1 X137.028 Y124.854 E.01584
G1 X137.327 Y125.74 E.02933
G1 X137.507 Y126.61 E.02787
G1 X137.657 Y127.763 E.03644
G1 X137.574 Y128.737 E.03066
G1 X137.422 Y129.481 E.0238
G1 X137.255 Y129.99 E.01679
G1 X137.031 Y130.464 E.01644
G1 X136.725 Y130.968 E.01851
G1 X136.155 Y131.705 E.02919
M73 Q2 S31
G1 X135.528 Y132.215 E.02535
G1 X134.87 Y132.584 E.02366
G1 X134.225 Y132.818 E.02151
G1 X133.645 Y132.943 E.01859
G1 X132.932 Y132.999 E.02242
G1 X132.155 Y132.937 E.02446
G1 X131.642 Y132.845 E.01635
G1 X130.807 Y132.581 E.02746
G1 X129.957 Y132.234 E.02877
G1 X129.843 Y132.27 E.00374
G1 X129.033 Y132.833 E.03093
G1 X128.367 Y133.052 E.02199
M73 P2 R31
G1 X127.836 Y133.125 E.01679
G1 X127.305 Y133.109 E.01668
G1 X126.764 Y133.014 E.0172
