; generated by PrusaSlicer 2.5.0+win64 on 2022-12-14 at 12:11:32 UTC

; 

; external perimeters extrusion width = 0.45mm
; perimeters extrusion width = 0.45mm
; infill extrusion width = 0.45mm
; solid infill extrusion width = 0.45mm
; top infill extrusion width = 0.40mm
; first layer extrusion width = 0.42mm

M73 P0 R97
M73 Q0 S98
M201 X1000 Y1000 Z200 E5000 ; sets maximum accelerations, mm/sec^2
M203 X200 Y200 Z12 E120 ; sets maximum feedrates, mm / sec
M204 P1250 R1250 T1250 ; sets acceleration (P, T) and retract acceleration (R), mm/sec^2
M205 X8.00 Y8.00 Z0.40 E4.50 ; sets the jerk limits, mm/sec
M205 S0 T0 ; sets the minimum extruding and travel feed rate, mm/sec
M107
;TYPE:Custom
M862.3 P "MK3S" ; printer model check
M862.1 P0.4 ; nozzle diameter check
M115 U3.10.1 ; tell printer latest fw version
G90 ; use absolute coordinates
M83 ; extruder relative mode
M104 S215 ; set extruder temp
M140 S60 ; set bed temp
M190 S60 ; wait for bed temp
M109 S215 ; wait for extruder temp
G28 W ; home all without mesh bed level
G80 ; mesh bed leveling
G1 Z0.2 F720
G1 Y-3 F1000 ; go outside print area
G92 E0
G1 X60 E9 F1000 ; intro line
G1 X100 E12.5 F1000 ; intro line
G92 E0
M221 S95

; Don't change E values below. Excessive value can damage the printer.

M907 E538 ; set extruder motor current
G21 ; set units to millimeters
G90 ; use absolute coordinates
M83 ; use relative distances for extrusion
M900 K0.05 ; Filament gcode LA 1.5
M900 K30 ; Filament gcode LA 1.0
M107
;LAYER_CHANGE
;Z:0.2
;HEIGHT:0.2
;BEFORE_LAYER_CHANGE
G92 E0.0
;0.2


M73 P0 R96
G1 E-.8 F2100
G1 Z.4 F720
;AFTER_LAYER_CHANGE
;0.2
G1 X80.885 Y74.989 F10800
G1 Z.2 F720
G1 E.8 F2100
M204 S800
;TYPE:Skirt/Brim
;WIDTH:0.42
G1 F1200
G1 X81.933 Y73.88 E.04784
G1 X83.109 Y72.908 E.04784
G1 X84.396 Y72.089 E.04784
G1 X85.938 Y71.366 E.05339
G1 X119.814 Y58.722 E1.13373
G1 X121.169 Y58.3 E.04449
G1 X122.698 Y58.001 E.04887
G1 X124.572 Y57.881 E.05886
G1 X126.085 Y57.974 E.04753
G1 X127.349 Y58.187 E.04019
G1 X129.061 Y58.68 E.05585
G1 X161.078 Y71.371 E1.07988
G1 X162.321 Y71.906 E.04243
G1 X163.677 Y72.672 E.04883
G1 X164.935 Y73.59 E.04883
G1 X166.078 Y74.648 E.04883
G1 X167.255 Y76.054 E.05749
G1 X168.095 Y77.366 E.04883
G1 X168.778 Y78.765 E.04883
G1 X169.293 Y80.235 E.04883
G1 X169.638 Y81.797 E.05016
G1 X169.795 Y83.304 E.04749
G1 X169.792 Y84.585 E.04016
G1 X168.813 Y124.886 E1.26398
G1 X168.602 Y126.4 E.04793
G1 X168.108 Y128.153 E.05711
G1 X167.5 Y129.555 E.04793
G1 X166.723 Y130.871 E.04792
G1 X165.789 Y132.082 E.04793
G1 X164.714 Y133.168 E.04793
G1 X163.513 Y134.113 E.04793
G1 X162.463 Y134.764 E.03873
G1 X129.58 Y152.4 E1.16995
G1 X128.169 Y152.964 E.04763
G1 X126.7 Y153.351 E.04763
G1 X125.195 Y153.555 E.04763
G1 X123.676 Y153.573 E.04763
G1 X121.84 Y153.342 E.05803
G1 X120.41 Y152.965 E.04634
G1 X119 Y152.401 E.04763
G1 X87.798 Y134.741 E1.12414
G1 X86.443 Y133.886 E.05024
G1 X85.271 Y132.926 E.04751
G1 X84.226 Y131.829 E.0475
G1 X83.322 Y130.612 E.04751
G1 X82.574 Y129.295 E.04751
G1 X81.993 Y127.896 E.04751
G1 X81.587 Y126.436 E.04751
G1 X81.369 Y125.038 E.04437
G1 X78.016 Y83.179 E1.31665
G1 X78.084 Y81.614 E.04912
M73 Q0 S97
G1 X78.326 Y80.15 E.04655
G1 X78.662 Y78.963 E.03866
G1 X79.237 Y77.55 E.04784
G1 X79.982 Y76.219 E.04784
G1 X80.85 Y75.037 E.04596
M204 S1000
; printing object Cookie_Cutter_Star.stl id:0 copy 0
;WIPE_START
G1 F8640
G1 X81.933 Y73.88 E-.36604
G1 X83.109 Y72.908 E-.35229
G1 X83.262 Y72.811 E-.04167
;WIPE_END
G1 E-.04 F2100
G1 Z.6 F720
G1 X111.217 Y73.664 F10800
G1 Z.2 F720
G1 E.8 F2100
M204 S800
;TYPE:Perimeter
;WIDTH:0.419999
G1 F1200
G1 X111.378 Y73.605 E.00536
G1 X111.554 Y73.415 E.00813
G1 X115.59 Y66.257 E.25765
G1 X116.246 Y65.237 E.03803
G1 X117.002 Y64.318 E.03731
G1 X117.86 Y63.493 E.03731
G1 X118.808 Y62.773 E.03731
G1 X119.833 Y62.169 E.03731
G1 X120.921 Y61.688 E.03731
G1 X122.058 Y61.337 E.03731
G1 X123.228 Y61.121 E.03729
G1 X124.446 Y61.043 E.03828
G1 X125.605 Y61.101 E.03636
G1 X126.778 Y61.299 E.03731
G1 X127.921 Y61.632 E.03731
G1 X129.017 Y62.096 E.03731
G1 X130.051 Y62.684 E.03731
G1 X131.01 Y63.388 E.03731
G1 X131.881 Y64.199 E.03731
G1 X132.652 Y65.106 E.03731
G1 X133.324 Y66.116 E.03803
G1 X137.184 Y72.714 E.23968
G1 X137.479 Y73.131 E.01601
G1 X137.836 Y73.427 E.01454
G1 X138.257 Y73.621 E.01454
G1 X138.773 Y73.702 E.01638
G1 X156.412 Y73.702 E.55307
G1 X157.622 Y73.773 E.03801
G1 X158.793 Y73.98 E.03728
G1 X159.933 Y74.321 E.03728
G1 X161.024 Y74.793 E.03728
G1 X162.054 Y75.388 E.03728
G1 X163.007 Y76.099 E.03728
G1 X163.871 Y76.916 E.03728
G1 X164.634 Y77.828 E.03728
G1 X165.286 Y78.822 E.03729
G1 X165.818 Y79.885 E.03726
G1 X166.23 Y81.033 E.03825
G1 X166.495 Y82.162 E.03634
G1 X166.63 Y83.513 E.04258
G1 X166.628 Y84.532 E.03196
G1 X166.487 Y85.713 E.03728
G1 X166.21 Y86.869 E.03729
G1 X165.801 Y87.986 E.03728
G1 X165.254 Y89.067 E.038
G1 X156.325 Y104.43 E.55714
G1 X156.172 Y104.699 E.00971
G1 X156.123 Y104.97 E.00861
G1 X156.199 Y105.217 E.00812
G1 X164.416 Y119.263 E.51021
G1 X164.94 Y120.3 E.03644
G1 X165.323 Y121.371 E.03565
G1 X165.575 Y122.51 E.03657
G1 X165.682 Y123.614 E.0348
G1 X165.651 Y124.752 E.03568
G1 X165.481 Y125.877 E.03568
G1 X165.172 Y126.972 E.03568
G1 X164.732 Y128.021 E.03568
G1 X164.165 Y129.008 E.03568
G1 X163.481 Y129.917 E.03568
G1 X162.69 Y130.735 E.03568
G1 X161.804 Y131.45 E.03568
G1 X160.837 Y132.049 E.03568
G1 X159.803 Y132.525 E.03568
G1 X158.719 Y132.87 E.03568
G1 X157.6 Y133.078 E.03568
G1 X156.44 Y133.149 E.03644
G1 X140.22 Y133.128 E.50858
G1 X139.913 Y133.131 E.00961
G1 X139.657 Y133.222 E.00853
G1 X139.481 Y133.409 E.00804
G1 X132.266 Y145.824 E.45021
G1 X131.625 Y146.785 E.03622
G1 X130.888 Y147.642 E.03546
G1 X130.05 Y148.402 E.03546
G1 X129.127 Y149.053 E.03543
G1 X128.103 Y149.598 E.03635
G1 X127.074 Y149.995 E.03459
G1 X125.977 Y150.27 E.03546
G1 X124.855 Y150.409 E.03546
G1 X123.724 Y150.409 E.03546
G1 X122.602 Y150.271 E.03546
G1 X121.505 Y149.996 E.03546
G1 X120.45 Y149.588 E.03546
G1 X119.453 Y149.055 E.03546
G1 X118.528 Y148.403 E.03546
G1 X117.691 Y147.643 E.03546
G1 X116.953 Y146.786 E.03546
G1 X116.312 Y145.825 E.03622
G1 X109.194 Y133.584 E.444
G1 X109.037 Y133.321 E.00958
G1 X108.83 Y133.147 E.00851
G1 X108.581 Y133.088 E.00802
G1 X93.701 Y133.07 E.46653
G1 X92.552 Y132.998 E.03612
G1 X91.443 Y132.79 E.03537
G1 X90.368 Y132.449 E.03537
G1 X89.343 Y131.978 E.03537
G1 X88.383 Y131.386 E.03537
G1 X87.502 Y130.681 E.03537
G1 X86.714 Y129.874 E.03537
G1 X86.031 Y128.976 E.03537
G1 X85.463 Y128.002 E.03537
G1 X85.018 Y126.966 E.03537
G1 X84.703 Y125.883 E.03537
G1 X84.523 Y124.769 E.03536
G1 X84.48 Y123.642 E.03537
G1 X84.575 Y122.518 E.03536
G1 X84.807 Y121.414 E.03537
G1 X85.172 Y120.347 E.03537
G1 X85.676 Y119.311 E.03612
G1 X93.008 Y106.306 E.4681
G1 X93.081 Y106.025 E.00912
G1 X93.004 Y105.744 E.00912
G1 X82.435 Y87.568 E.65926
G1 X81.914 Y86.531 E.03638
G1 X81.534 Y85.461 E.03561
G1 X81.288 Y84.352 E.03561
G1 X81.18 Y83.222 E.03559
G1 X81.217 Y82.058 E.03651
G1 X81.385 Y80.963 E.03474
G1 X81.693 Y79.87 E.03561
G1 X82.134 Y78.823 E.03561
G1 X82.701 Y77.839 E.03561
G1 X83.384 Y76.931 E.03561
G1 X84.174 Y76.115 E.03561
G1 X85.058 Y75.402 E.03561
G1 X86.023 Y74.803 E.03561
G1 X87.054 Y74.328 E.03561
G1 X88.137 Y73.983 E.03561
G1 X89.253 Y73.774 E.03561
G1 X90.411 Y73.702 E.03638
G1 X110.809 Y73.702 E.63958
G1 X111.12 Y73.699 E.00973
G1 X111.161 Y73.684 E.00138
M204 S1000
G1 X111.098 Y73.322 F10800
M204 S800
;TYPE:External perimeter
G1 F1200
G1 X111.225 Y73.229 E.00492
G1 X115.267 Y66.062 E.25799
G1 X115.941 Y65.014 E.03907
G1 X116.725 Y64.061 E.03869
G1 X117.614 Y63.206 E.03869
G1 X118.597 Y62.459 E.03869
G1 X119.66 Y61.833 E.03869
G1 X120.789 Y61.334 E.03869
G1 X121.968 Y60.97 E.03869
G1 X123.181 Y60.746 E.03868
G1 X124.444 Y60.665 E.03966
G1 X125.645 Y60.726 E.03773
G1 X126.862 Y60.931 E.03869
G1 X128.047 Y61.276 E.03869
G1 X129.184 Y61.757 E.03869
G1 X130.257 Y62.367 E.03869
G1 X131.251 Y63.097 E.03869
G1 X132.154 Y63.938 E.03869
G1 X132.953 Y64.879 E.03869
G1 X133.644 Y65.916 E.03907
G1 X137.51 Y72.523 E.24003
G1 X137.777 Y72.9 E.01448
G1 X138.065 Y73.127 E.01148
G1 X138.401 Y73.272 E.01148
G1 X138.773 Y73.325 E.01179
G1 X156.423 Y73.325 E.55341
G1 X157.666 Y73.398 E.03904
G1 X158.881 Y73.612 E.03866
G1 X160.062 Y73.966 E.03866
G1 X161.194 Y74.455 E.03866
G1 X162.261 Y75.073 E.03866
G1 X163.25 Y75.81 E.03866
G1 X164.146 Y76.657 E.03866
G1 X164.937 Y77.603 E.03866
G1 X165.614 Y78.634 E.03866
G1 X166.165 Y79.737 E.03865
G1 X166.592 Y80.926 E.03963
G1 X166.867 Y82.097 E.0377
G1 X167.008 Y83.514 E.04465
G1 X167.005 Y84.555 E.03265
G1 X166.859 Y85.779 E.03866
G1 X166.572 Y86.979 E.03866
G1 X166.147 Y88.136 E.03866
G1 X165.585 Y89.247 E.03904
G1 X156.509 Y104.871 E.56653
G1 X156.525 Y105.027 E.00492
G1 X164.747 Y119.082 E.51057
G1 X165.287 Y120.151 E.03754
G1 X165.686 Y121.266 E.03713
G1 X165.948 Y122.451 E.03804
G1 X166.059 Y123.601 E.03625
G1 X166.028 Y124.785 E.03714
G1 X165.85 Y125.957 E.03714
G1 X165.529 Y127.097 E.03714
G1 X165.07 Y128.189 E.03714
G1 X164.48 Y129.216 E.03714
G1 X163.768 Y130.163 E.03714
G1 X162.945 Y131.014 E.03714
G1 X162.023 Y131.758 E.03714
G1 X161.016 Y132.382 E.03714
G1 X159.94 Y132.877 E.03714
G1 X158.811 Y133.236 E.03714
G1 X157.646 Y133.453 E.03714
G1 X156.451 Y133.526 E.03754
G1 X139.934 Y133.508 E.51789
G1 X139.807 Y133.599 E.00487
G1 X132.586 Y146.023 E.45058
G1 X131.926 Y147.013 E.03731
G1 X131.158 Y147.905 E.03691
G1 X130.287 Y148.697 E.03691
G1 X129.325 Y149.375 E.0369
G1 X128.26 Y149.941 E.0378
G1 X127.189 Y150.355 E.03602
G1 X126.047 Y150.642 E.03691
G1 X124.878 Y150.786 E.03691
G1 X123.701 Y150.786 E.03691
G1 X122.533 Y150.642 E.03691
G1 X121.391 Y150.356 E.03691
G1 X120.292 Y149.932 E.03691
G1 X119.254 Y149.376 E.03691
G1 X118.292 Y148.698 E.03691
G1 X117.42 Y147.907 E.03691
G1 X116.652 Y147.015 E.03691
G1 X115.992 Y146.025 E.03731
G1 X108.722 Y133.529 E.45328
G1 X108.58 Y133.465 E.00486
G1 X93.689 Y133.447 E.46689
G1 X92.505 Y133.373 E.03721
G1 X91.351 Y133.157 E.03682
G1 X90.232 Y132.801 E.03682
G1 X89.164 Y132.311 E.03682
G1 X88.165 Y131.695 E.03682
G1 X87.248 Y130.961 E.03682
G1 X86.428 Y130.121 E.03682
G1 X85.717 Y129.186 E.03682
G1 X85.126 Y128.172 E.03682
G1 X84.662 Y127.093 E.03682
G1 X84.334 Y125.966 E.03682
G1 X84.147 Y124.807 E.03681
G1 X84.102 Y123.633 E.03682
G1 X84.201 Y122.463 E.03682
G1 X84.443 Y121.314 E.03682
G1 X84.823 Y120.203 E.03682
G1 X85.341 Y119.136 E.03721
G1 X92.695 Y106.087 E.46961
G1 X92.678 Y105.934 E.00485
G1 X82.103 Y87.747 E.65962
G1 X81.567 Y86.679 E.03747
G1 X81.171 Y85.565 E.03707
G1 X80.915 Y84.411 E.03707
G1 X80.803 Y83.234 E.03706
G1 X80.841 Y82.023 E.03797
G1 X81.015 Y80.883 E.03618
G1 X81.337 Y79.745 E.03707
G1 X81.796 Y78.655 E.03707
G1 X82.385 Y77.63 E.03707
G1 X83.097 Y76.686 E.03707
G1 X83.919 Y75.836 E.03707
G1 X84.839 Y75.094 E.03707
G1 X85.844 Y74.47 E.03707
G1 X86.918 Y73.976 E.03707
G1 X88.044 Y73.617 E.03707
G1 X89.207 Y73.399 E.03707
G1 X90.399 Y73.325 E.03747
G1 X111.038 Y73.322 E.64712
M204 S1000
G1 X111.225 Y73.414 F10800
;WIPE_START
G1 F8640
G1 X111.225 Y73.229 E-.04824
G1 X112.739 Y70.544 E-.71176
;WIPE_END
G1 E-.04 F2100
G1 Z.6 F720
G1 X116.212 Y76.893 F10800
G1 Z.2 F720
G1 E.8 F2100
M204 S800
;TYPE:Perimeter
G1 F1200
G1 X116.705 Y76.141 E.0282
G1 X120.682 Y69.088 E.25386
G1 X121.249 Y68.306 E.0303
G1 X121.839 Y67.765 E.02511
G1 X122.624 Y67.287 E.02881
G1 X123.492 Y66.984 E.02881
G1 X124.377 Y66.871 E.02798
G1 X125.024 Y66.918 E.02035
G1 X125.435 Y66.969 E.01297
G1 X126.198 Y67.211 E.02511
G1 X127.003 Y67.654 E.02881
G1 X127.698 Y68.255 E.02881
G1 X128.246 Y68.978 E.02844
G1 X132.203 Y75.737 E.2456
G1 X132.772 Y76.579 E.03185
G1 X133.429 Y77.32 E.03105
G1 X134.176 Y77.97 E.03105
G1 X135.001 Y78.518 E.03105
G1 X135.89 Y78.953 E.03105
G1 X136.828 Y79.27 E.03105
G1 X137.799 Y79.462 E.03105
G1 X138.813 Y79.528 E.03185
G1 X156.447 Y79.528 E.55289
G1 X157.406 Y79.639 E.03028
G1 X158.167 Y79.886 E.02509
G1 X158.968 Y80.335 E.02879
G1 X159.658 Y80.941 E.02879
G1 X160.191 Y81.655 E.02795
G1 X160.466 Y82.237 E.02018
G1 X160.626 Y82.624 E.01312
G1 X160.791 Y83.407 E.02509
G1 X160.802 Y84.325 E.02879
G1 X160.621 Y85.225 E.02879
G1 X160.261 Y86.057 E.02842
G1 X151.239 Y101.586 E.5631
G1 X150.84 Y102.39 E.02815
M73 P1 R96
G1 X150.559 Y103.215 E.02734
G1 X150.389 Y104.07 E.02734
G1 X150.332 Y104.941 E.02734
G1 X150.391 Y105.81 E.02734
G1 X150.564 Y106.665 E.02734
G1 X150.848 Y107.49 E.02734
G1 X151.249 Y108.293 E.02815
G1 X159.406 Y122.237 E.50651
G1 X159.694 Y122.886 E.02228
M73 Q1 S97
G1 X159.819 Y123.486 E.01922
G1 X159.858 Y123.791 E.00962
G1 X159.823 Y124.447 E.02062
G1 X159.621 Y125.182 E.0239
G1 X159.234 Y125.899 E.02554
G1 X158.705 Y126.484 E.02473
G1 X158.055 Y126.93 E.02473
G1 X157.319 Y127.214 E.02473
G1 X156.551 Y127.319 E.02432
G1 X140.132 Y127.302 E.5148
G1 X139.244 Y127.359 E.02788
G1 X138.397 Y127.526 E.02707
G1 X137.579 Y127.802 E.02707
G1 X136.804 Y128.183 E.02707
G1 X136.085 Y128.661 E.02707
G1 X135.435 Y129.229 E.02707
G1 X134.864 Y129.876 E.02707
G1 X134.367 Y130.614 E.02788
G1 X127.21 Y142.928 E.44657
G1 X126.79 Y143.496 E.02214
G1 X126.351 Y143.883 E.01837
G1 X126.089 Y144.082 E.01029
G1 X125.505 Y144.374 E.02049
G1 X124.771 Y144.563 E.02375
G1 X123.962 Y144.585 E.02538
G1 X123.196 Y144.419 E.02458
G1 X122.488 Y144.082 E.02457
G1 X121.877 Y143.591 E.02457
G1 X121.403 Y142.983 E.02417
G1 X121.303 Y142.819 E.00602
G1 X114.182 Y130.573 E.44417
G1 X113.687 Y129.837 E.02781
M73 P1 R95
G1 X113.118 Y129.191 E.027
G1 X112.47 Y128.624 E.027
G1 X111.753 Y128.147 E.027
G1 X110.98 Y127.766 E.027
G1 X110.165 Y127.49 E.027
G1 X109.32 Y127.321 E.027
G1 X108.435 Y127.262 E.02781
G1 X93.672 Y127.244 E.4629
G1 X92.972 Y127.165 E.02208
G1 X92.418 Y126.98 E.01832
G1 X92.115 Y126.854 E.01027
G1 X91.57 Y126.497 E.02044
G1 X91.039 Y125.96 E.02369
G1 X90.609 Y125.265 E.02562
G1 X90.371 Y124.53 E.02422
G1 X90.305 Y123.751 E.02451
G1 X90.42 Y122.978 E.02451
G1 X90.703 Y122.263 E.02411
G1 X98.008 Y109.3 E.46653
G1 X98.392 Y108.503 E.02774
G1 X98.66 Y107.687 E.02693
G1 X98.821 Y106.844 E.02693
G1 X98.871 Y105.986 E.02693
G1 X98.81 Y105.129 E.02693
G1 X98.638 Y104.288 E.02693
G1 X98.358 Y103.476 E.02693
G1 X97.964 Y102.684 E.02774
G1 X87.452 Y84.607 E.65565
G1 X87.166 Y83.958 E.02224
G1 X87.047 Y83.382 E.01845
G1 X87.004 Y83.055 E.01034
G1 X87.041 Y82.399 E.02058
G1 X87.243 Y81.666 E.02385
G1 X87.63 Y80.951 E.02549
G1 X88.158 Y80.367 E.02468
G1 X88.807 Y79.921 E.02468
G1 X89.541 Y79.637 E.02468
G1 X90.308 Y79.532 E.02427
G1 X110.906 Y79.528 E.64583
G1 X111.803 Y79.469 E.0282
G1 X112.659 Y79.297 E.02738
G1 X113.485 Y79.014 E.02738
G1 X114.267 Y78.624 E.02738
G1 X114.99 Y78.135 E.02738
G1 X115.642 Y77.554 E.02738
G1 X116.173 Y76.939 E.0255
M204 S1000
G1 X116.514 Y77.12 F10800
M204 S800
;TYPE:External perimeter
G1 F1200
G1 X117.027 Y76.337 E.02937
G1 X121.01 Y69.273 E.25425
G1 X121.478 Y68.613 E.02536
G1 X122.126 Y68.019 E.02757
G1 X122.817 Y67.611 E.02515
G1 X123.611 Y67.342 E.0263
G1 X124.419 Y67.246 E.02551
G1 X125.321 Y67.328 E.02838
G1 X126.084 Y67.57 E.02511
G1 X126.817 Y67.981 E.02634
G1 X127.448 Y68.537 E.02634
G1 X127.942 Y69.201 E.02597
G1 X131.884 Y75.938 E.24474
G1 X132.474 Y76.811 E.03301
G1 X133.163 Y77.589 E.03259
G1 X133.947 Y78.271 E.03259
G1 X134.813 Y78.846 E.03259
G1 X135.746 Y79.303 E.03259
G1 X136.731 Y79.635 E.03259
G1 X137.75 Y79.837 E.03259
G1 X138.801 Y79.905 E.03301
G1 X156.447 Y79.905 E.55328
G1 X157.251 Y79.989 E.02535
G1 X158.087 Y80.261 E.02755
G1 X158.78 Y80.662 E.02513
G1 X159.405 Y81.221 E.02628
G1 X159.886 Y81.877 E.02549
G1 X160.123 Y82.392 E.01779
G1 X160.257 Y82.702 E.01058
G1 X160.422 Y83.485 E.02509
G1 X160.425 Y84.324 E.02632
G1 X160.252 Y85.146 E.02632
G1 X159.917 Y85.903 E.02596
G1 X150.907 Y101.407 E.56225
G1 X150.491 Y102.245 E.02933
G1 X150.194 Y103.117 E.0289
G1 X150.014 Y104.021 E.0289
G1 X149.955 Y104.941 E.0289
G1 X150.017 Y105.861 E.0289
G1 X150.199 Y106.764 E.0289
G1 X150.499 Y107.636 E.0289
G1 X150.917 Y108.473 E.02933
G1 X159.081 Y122.427 E.5069
G1 X159.349 Y123.037 E.0209
G1 X159.482 Y123.77 E.02335
