; generated by PrusaSlicer 2.5.0+win64 on 2022-12-14 at 12:09:56 UTC

; 

; external perimeters extrusion width = 0.45mm
; perimeters extrusion width = 0.45mm
; infill extrusion width = 0.45mm
; solid infill extrusion width = 0.45mm
; top infill extrusion width = 0.40mm
; first layer extrusion width = 0.42mm

M73 P0 R53
M73 Q0 S53
M201 X1000 Y1000 Z200 E5000 ; sets maximum accelerations, mm/sec^2
M203 X200 Y200 Z12 E120 ; sets maximum feedrates, mm / sec
M204 P1250 R1250 T1250 ; sets acceleration (P, T) and retract acceleration (R), mm/sec^2
M205 X8.00 Y8.00 Z0.40 E4.50 ; sets the jerk limits, mm/sec
M205 S0 T0 ; sets the minimum extruding and travel feed rate, mm/sec
M107
;TYPE:Custom
M862.3 P "MK3S" ; printer model check
M862.1 P0.4 ; nozzle diameter check
M115 U3.10.1 ; tell printer latest fw version
G90 ; use absolute coordinates
M83 ; extruder relative mode
M104 S215 ; set extruder temp
M140 S60 ; set bed temp
M190 S60 ; wait for bed temp
M109 S215 ; wait for extruder temp
G28 W ; home all without mesh bed level
G80 ; mesh bed leveling
G1 Z0.2 F720
G1 Y-3 F1000 ; go outside print area
G92 E0
G1 X60 E9 F1000 ; intro line
G1 X100 E12.5 F1000 ; intro line
G92 E0
M221 S95

; Don't change E values below. Excessive value can damage the printer.

M907 E538 ; set extruder motor current
G21 ; set units to millimeters
G90 ; use absolute coordinates
M83 ; use relative distances for extrusion
M900 K0.05 ; Filament gcode LA 1.5
M900 K30 ; Filament gcode LA 1.0
M107
;LAYER_CHANGE
;Z:0.2
;HEIGHT:0.2
;BEFORE_LAYER_CHANGE
G92 E0.0
;0.2


G1 E-.8 F2100
G1 Z.4 F720
;AFTER_LAYER_CHANGE
;0.2
G1 X84.407 Y67.512 F10800
G1 Z.2 F720
G1 E.8 F2100
M204 S800
;TYPE:Skirt/Brim
;WIDTH:0.42
G1 F1200
G1 X85.262 Y66.459 E.04254
G1 X86.542 Y65.37 E.0527
G1 X110.915 Y50.818 E.89002
G1 X112.093 Y50.303 E.04031
G1 X113.363 Y49.968 E.04119
G1 X114.857 Y49.829 E.04703
G1 X135.33 Y49.836 E.64191
G1 X136.268 Y49.91 E.02952
G1 X137.552 Y50.188 E.04119
G1 X139.085 Y50.818 E.05196
G1 X163.759 Y65.588 E.90164
G1 X164.738 Y66.459 E.04108
G1 X165.569 Y67.472 E.04108
G1 X166.061 Y68.271 E.02944
G1 X166.593 Y69.468 E.04108
G1 X166.992 Y71.101 E.0527
G1 X167.071 Y72.409 E.04108
G1 X167.001 Y73.345 E.02944
G1 X161.006 Y97.456 E.779
G1 X153.001 Y123.026 E.8401
G1 X152.517 Y124.328 E.04354
G1 X151.978 Y125.316 E.03529
G1 X132.047 Y156.324 E1.15576
G1 X131.325 Y157.278 E.0375
M73 P0 R52
G1 X130.017 Y158.495 E.05602
G1 X129.184 Y159.045 E.0313
G1 X127.924 Y159.638 E.04367
G1 X126.193 Y160.08 E.05602
G1 X124.802 Y160.163 E.04367
G1 X123.807 Y160.08 E.0313
G1 X122.076 Y159.638 E.05602
G1 X120.816 Y159.045 E.04367
G1 X119.983 Y158.495 E.0313
G1 X118.941 Y157.57 E.04367
G1 X118.067 Y156.485 E.04367
G1 X98.022 Y125.316 E1.16196
G1 X97.483 Y124.328 E.03529
G1 X96.999 Y123.026 E.04354
G1 X88.957 Y97.324 E.84441
G1 X83.055 Y73.713 E.76308
G1 X82.929 Y72.409 E.04108
G1 X83.008 Y71.101 E.04108
G1 X83.407 Y69.468 E.0527
G1 X83.769 Y68.602 E.02944
G1 X84.376 Y67.563 E.03773
M204 S1000
; printing object xmas tree id:0 copy 0
;WIPE_START
G1 F8640
G1 X85.262 Y66.459 E-.32695
G1 X86.542 Y65.37 E-.38808
G1 X86.71 Y65.27 E-.04497
;WIPE_END
G1 E-.04 F2100
G1 Z.6 F720
G1 X96.354 Y89.555 F10800
G1 Z.2 F720
G1 E.8 F2100
M204 S800
;TYPE:Perimeter
;WIDTH:0.419999
G1 F1200
G1 X96.476 Y89.406 E.00605
G1 X96.563 Y89.173 E.00779
G1 X96.594 Y88.9 E.00861
G1 X96.564 Y88.673 E.0072
G1 X96.414 Y88.328 E.01179
G1 X87.082 Y75.322 E.50189
G1 X86.644 Y74.598 E.02654
M73 Q0 S52
G1 X86.336 Y73.843 E.02557
G1 X86.15 Y73.049 E.02557
G1 X86.089 Y72.236 E.02557
G1 X86.157 Y71.424 E.02557
G1 X86.35 Y70.631 E.02557
G1 X86.664 Y69.879 E.02557
G1 X87.092 Y69.185 E.02557
G1 X87.623 Y68.566 E.02557
G1 X88.244 Y68.038 E.02557
G1 X88.94 Y67.613 E.02557
G1 X89.694 Y67.301 E.02557
G1 X90.487 Y67.112 E.02557
G1 X91.331 Y67.045 E.02654
G1 X108.371 Y67.045 E.5343
G1 X108.868 Y66.93 E.01598
G1 X109.118 Y66.785 E.00909
G1 X109.383 Y66.52 E.01174
G1 X109.529 Y66.269 E.00909
G1 X109.644 Y65.773 E.01598
G1 X109.644 Y58.237 E.23628
G1 X109.71 Y57.391 E.02661
G1 X109.901 Y56.597 E.02559
G1 X110.23 Y55.815 E.02661
G1 X110.641 Y55.143 E.0247
G1 X111.171 Y54.523 E.02559
G1 X111.82 Y53.975 E.02661
G1 X112.491 Y53.563 E.0247
G1 X113.247 Y53.25 E.02564
G1 X114.042 Y53.06 E.02564
G1 X114.888 Y52.993 E.02661
G1 X135.151 Y52.996 E.63535
G1 X135.958 Y53.06 E.02538
G1 X136.753 Y53.25 E.02564
G1 X137.509 Y53.563 E.02564
G1 X138.206 Y53.991 E.02564
G1 X138.828 Y54.522 E.02564
G1 X139.359 Y55.143 E.02564
G1 X139.786 Y55.84 E.02564
G1 X140.099 Y56.596 E.02564
G1 X140.29 Y57.391 E.02564
G1 X140.356 Y58.237 E.02661
G1 X140.356 Y65.773 E.23628
G1 X140.471 Y66.269 E.01598
G1 X140.617 Y66.52 E.00909
G1 X140.882 Y66.785 E.01174
G1 X141.132 Y66.93 E.00909
G1 X141.629 Y67.045 E.01598
G1 X158.669 Y67.045 E.5343
G1 X159.513 Y67.112 E.02654
G1 X160.306 Y67.301 E.02557
G1 X161.06 Y67.613 E.02557
G1 X161.756 Y68.038 E.02557
G1 X162.377 Y68.566 E.02557
G1 X162.908 Y69.185 E.02557
G1 X163.336 Y69.879 E.02557
G1 X163.628 Y70.579 E.0238
G1 X163.735 Y70.978 E.01295
G1 X163.848 Y71.48 E.01612
G1 X163.906 Y72.292 E.02553
G1 X163.85 Y73.049 E.02381
G1 X163.664 Y73.843 E.02557
G1 X163.356 Y74.598 E.02557
G1 X162.918 Y75.322 E.02654
G1 X153.586 Y88.328 E.50189
G1 X153.44 Y88.655 E.01122
G1 X153.406 Y88.923 E.00847
G1 X153.485 Y89.335 E.01316
G1 X153.747 Y89.698 E.01406
G1 X154.043 Y89.879 E.01086
G1 X155.004 Y90.195 E.03174
G1 X155.76 Y90.587 E.02668
G1 X156.441 Y91.095 E.02665
G1 X157.031 Y91.707 E.02664
G1 X157.513 Y92.406 E.02665
G1 X157.875 Y93.175 E.02665
G1 X158.107 Y93.993 E.02664
G1 X158.203 Y94.837 E.02665
G1 X158.161 Y95.686 E.02664
G1 X157.981 Y96.516 E.02665
G1 X157.669 Y97.307 E.02665
G1 X157.216 Y98.064 E.02766
G1 X145.599 Y114.327 E.62667
G1 X145.517 Y114.719 E.01253
G1 X145.545 Y114.988 E.00849
G1 X145.717 Y115.37 E.01313
G1 X145.937 Y115.58 E.00954
G1 X146.129 Y115.696 E.00705
G1 X147.047 Y116.024 E.03055
G1 X147.765 Y116.413 E.02561
M73 Q1 S52
G1 X148.413 Y116.909 E.02558
G1 X148.975 Y117.5 E.02558
G1 X149.438 Y118.171 E.02558
G1 X149.791 Y118.907 E.02558
G1 X150.025 Y119.688 E.02558
M73 P1 R52
G1 X150.134 Y120.497 E.02558
G1 X150.115 Y121.312 E.02558
G1 X149.969 Y122.115 E.02558
G1 X149.7 Y122.885 E.02558
G1 X149.3 Y123.631 E.02655
G1 X129.403 Y154.585 E1.15376
G1 X128.855 Y155.299 E.02821
G1 X128.221 Y155.89 E.02718
G1 X127.497 Y156.367 E.02718
G1 X126.704 Y156.718 E.02718
G1 X125.864 Y156.932 E.02718
G1 X125 Y157.004 E.02718
G1 X124.138 Y156.932 E.02713
G1 X123.267 Y156.705 E.02821
G1 X122.503 Y156.367 E.02619
G1 X121.779 Y155.89 E.02718
G1 X121.145 Y155.299 E.02718
G1 X120.597 Y154.585 E.02822
G1 X100.7 Y123.631 E1.15376
G1 X100.3 Y122.885 E.02655
G1 X100.031 Y122.115 E.02558
G1 X99.885 Y121.312 E.02558
G1 X99.866 Y120.497 E.02558
G1 X99.975 Y119.688 E.02558
G1 X100.209 Y118.907 E.02558
G1 X100.562 Y118.171 E.02558
G1 X101.025 Y117.5 E.02558
G1 X101.548 Y116.95 E.02381
G1 X101.842 Y116.715 E.01179
G1 X102.285 Y116.387 E.01728
G1 X103.088 Y115.976 E.02829
G1 X103.925 Y115.673 E.02789
G1 X104.283 Y115.37 E.01474
G1 X104.455 Y114.988 E.01313
G1 X104.483 Y114.719 E.00849
G1 X104.452 Y114.493 E.00713
G1 X104.352 Y114.243 E.00845
G1 X92.784 Y98.064 E.6236
G1 X92.331 Y97.307 E.02766
G1 X92.019 Y96.516 E.02665
G1 X91.839 Y95.686 E.02665
G1 X91.797 Y94.837 E.02664
G1 X91.893 Y93.993 E.02665
G1 X92.125 Y93.175 E.02665
G1 X92.487 Y92.406 E.02664
G1 X92.969 Y91.707 E.02665
G1 X93.559 Y91.095 E.02664
G1 X94.24 Y90.587 E.02665
G1 X94.996 Y90.195 E.02668
G1 X95.936 Y89.886 E.03103
G1 X96.251 Y89.681 E.01177
G1 X96.316 Y89.601 E.00324
M204 S1000
G1 X96.078 Y89.331 F10800
M204 S800
;TYPE:External perimeter
G1 F1200
G1 X96.21 Y89.041 E.01001
G1 X96.19 Y88.722 E.01001
G1 X96.107 Y88.548 E.00605
G1 X86.767 Y75.53 E.50235
G1 X86.306 Y74.768 E.02793
G1 X85.976 Y73.958 E.02742
G1 X85.776 Y73.107 E.02742
G1 X85.711 Y72.235 E.02742
G1 X85.783 Y71.363 E.02742
G1 X85.991 Y70.513 E.02742
G1 X86.328 Y69.706 E.02742
G1 X86.787 Y68.962 E.02742
G1 X87.356 Y68.298 E.02742
G1 X88.023 Y67.731 E.02742
G1 X88.769 Y67.275 E.02742
G1 X89.577 Y66.942 E.02742
G1 X90.428 Y66.738 E.02742
G1 X91.316 Y66.668 E.02793
G1 X108.371 Y66.668 E.53476
G1 X108.852 Y66.518 E.01578
G1 X109.165 Y66.17 E.01469
G1 X109.267 Y65.773 E.01285
G1 X109.267 Y58.222 E.23675
G1 X109.337 Y57.332 E.028
G1 X109.541 Y56.479 E.02748
G1 X109.893 Y55.642 E.02847
G1 X110.335 Y54.921 E.02653
G1 X110.905 Y54.255 E.02748
G1 X111.598 Y53.668 E.02847
G1 X112.32 Y53.226 E.02653
G1 X113.13 Y52.891 E.0275
G1 X113.983 Y52.686 E.0275
G1 X114.873 Y52.616 E.028
G1 X135.166 Y52.619 E.63628
G1 X136.017 Y52.686 E.02677
G1 X136.87 Y52.891 E.0275
G1 X137.68 Y53.226 E.0275
G1 X138.428 Y53.685 E.0275
G1 X139.095 Y54.254 E.0275
G1 X139.665 Y54.921 E.0275
G1 X140.123 Y55.669 E.0275
G1 X140.458 Y56.479 E.0275
G1 X140.663 Y57.332 E.0275
G1 X140.733 Y58.222 E.028
G1 X140.733 Y65.773 E.23675
G1 X140.883 Y66.253 E.01578
G1 X141.232 Y66.567 E.01469
G1 X141.629 Y66.668 E.01285
G1 X158.684 Y66.668 E.53476
G1 X159.572 Y66.738 E.02793
G1 X160.423 Y66.942 E.02742
G1 X161.231 Y67.275 E.02742
G1 X161.977 Y67.731 E.02742
G1 X162.644 Y68.298 E.02742
G1 X163.213 Y68.962 E.02742
G1 X163.672 Y69.706 E.02742
G1 X163.976 Y70.434 E.02473
G1 X164.101 Y70.889 E.01479
G1 X164.224 Y71.449 E.01796
G1 X164.283 Y72.32 E.02738
G1 X164.224 Y73.107 E.02474
G1 X164.024 Y73.958 E.02742
G1 X163.694 Y74.768 E.02742
G1 X163.233 Y75.53 E.02793
G1 X153.893 Y88.548 E.50235
G1 X153.792 Y88.791 E.00825
G1 X153.806 Y89.108 E.00996
G1 X153.968 Y89.383 E.01001
G1 X154.161 Y89.521 E.00741
G1 X155.151 Y89.847 E.03268
G1 X155.961 Y90.266 E.02859
G1 X156.691 Y90.811 E.02858
G1 X157.324 Y91.467 E.02858
G1 X157.841 Y92.218 E.02858
G1 X158.229 Y93.043 E.02858
G1 X158.478 Y93.919 E.02858
G1 X158.581 Y94.825 E.02858
G1 X158.536 Y95.735 E.02858
G1 X158.343 Y96.626 E.02858
G1 X158.008 Y97.474 E.02858
G1 X157.531 Y98.271 E.02911
G1 X145.939 Y114.49 E.6251
G1 X145.899 Y114.861 E.01168
G1 X146.008 Y115.13 E.00909
G1 X146.256 Y115.341 E.01023
G1 X147.201 Y115.679 E.03146
G1 X147.971 Y116.096 E.02744
G1 X148.665 Y116.628 E.02743
G1 X149.269 Y117.262 E.02743
G1 X149.765 Y117.982 E.02743
G1 X150.144 Y118.77 E.02743
G1 X150.395 Y119.609 E.02743
G1 X150.511 Y120.476 E.02743
G1 X150.491 Y121.35 E.02743
G1 X150.335 Y122.211 E.02743
G1 X150.047 Y123.037 E.02743
G1 X149.625 Y123.822 E.02794
G1 X129.712 Y154.802 E1.15471
G1 X129.135 Y155.554 E.02969
G1 X128.454 Y156.187 E.02916
G1 X127.678 Y156.699 E.02916
G1 X126.828 Y157.075 E.02916
G1 X125.927 Y157.305 E.02916
G1 X125 Y157.383 E.02916
G1 X124.074 Y157.305 E.02914
G1 X123.142 Y157.062 E.03018
G1 X122.322 Y156.699 E.02813
G1 X121.546 Y156.187 E.02916
G1 X120.865 Y155.554 E.02916
G1 X120.288 Y154.802 E.0297
G1 X100.375 Y123.822 E1.15471
G1 X99.953 Y123.037 E.02794
G1 X99.665 Y122.211 E.02743
G1 X99.509 Y121.35 E.02743
G1 X99.489 Y120.476 E.02743
G1 X99.605 Y119.609 E.02743
G1 X99.856 Y118.77 E.02743
G1 X100.235 Y117.982 E.02743
G1 X100.731 Y117.262 E.02743
G1 X101.275 Y116.69 E.02473
G1 X101.612 Y116.415 E.01364
G1 X102.105 Y116.055 E.01913
G1 X102.961 Y115.621 E.0301
G1 X103.762 Y115.333 E.02667
G1 X104.022 Y115.081 E.01137
G1 X104.11 Y114.771 E.0101
G1 X104.045 Y114.462 E.00989
G1 X92.469 Y98.271 E.62408
G1 X91.992 Y97.474 E.02911
G1 X91.657 Y96.626 E.02858
G1 X91.464 Y95.735 E.02858
G1 X91.419 Y94.825 E.02858
G1 X91.522 Y93.919 E.02858
G1 X91.771 Y93.043 E.02858
G1 X92.159 Y92.218 E.02858
G1 X92.676 Y91.467 E.02858
G1 X93.309 Y90.811 E.02858
G1 X94.039 Y90.266 E.02858
G1 X94.849 Y89.847 E.02859
G1 X95.818 Y89.528 E.03198
G1 X96.03 Y89.367 E.00833
M204 S1000
G1 X96.393 Y89.38 F10800
;WIPE_START
G1 F8640
G1 X96.21 Y89.041 E-.08614
G1 X96.19 Y88.722 E-.07368
G1 X96.107 Y88.548 E-.04459
G1 X94.705 Y86.593 E-.55559
;WIPE_END
G1 E-.04 F2100
G1 Z.6 F720
G1 X100.241 Y91.216 F10800
G1 Z.2 F720
G1 E.8 F2100
M204 S800
;TYPE:Perimeter
G1 F1200
G1 X88.216 Y74.456 E.64676
G1 X87.794 Y73.686 E.02754
G1 X87.59 Y73.011 E.02212
G1 X87.515 Y72.186 E.02595
G1 X87.581 Y71.643 E.01716
G1 X87.653 Y71.244 E.01272
G1 X87.904 Y70.585 E.02212
G1 X88.271 Y70.005 E.02154
G1 X88.429 Y69.791 E.00831
G1 X88.936 Y69.301 E.02212
G1 X89.635 Y68.858 E.02595
G1 X90.149 Y68.669 E.01716
G1 X90.537 Y68.55 E.01272
G1 X91.359 Y68.471 E.02589
G1 X110.805 Y68.471 E.60973
G1 X111.003 Y68.404 E.00654
G1 X111.07 Y68.207 E.00654
G1 X111.07 Y58.194 E.31396
G1 X111.181 Y57.302 E.02817
G1 X111.419 Y56.621 E.02263
G1 X111.827 Y55.945 E.02474
G1 X112.19 Y55.544 E.01697
G1 X112.62 Y55.161 E.01804
G1 X113.158 Y54.823 E.01992
G1 X113.707 Y54.616 E.01842
G1 X114.076 Y54.502 E.01211
G1 X114.916 Y54.419 E.02644
G1 X135.156 Y54.419 E.63461
G1 X136.047 Y54.53 E.02817
G1 X136.728 Y54.768 E.02263
G1 X137.404 Y55.176 E.02474
G1 X137.808 Y55.541 E.01707
G1 X138.173 Y55.945 E.01707
G1 X138.526 Y56.507 E.02079
G1 X138.733 Y57.056 E.01842
G1 X138.847 Y57.425 E.01211
G1 X138.93 Y58.265 E.02645
G1 X138.93 Y68.207 E.31172
G1 X138.997 Y68.404 E.00654
G1 X139.195 Y68.471 E.00654
G1 X158.712 Y68.471 E.61196
G1 X159.584 Y68.577 E.02754
G1 X160.252 Y68.805 E.02212
G1 X160.965 Y69.225 E.02595
G1 X161.368 Y69.595 E.01716
G1 X161.65 Y69.886 E.01272
G1 X162.039 Y70.475 E.02212
G1 X162.297 Y71.112 E.02154
G1 X162.379 Y71.364 E.00831
G1 X162.481 Y72.062 E.02212
G1 X162.433 Y72.888 E.02595
G1 X162.288 Y73.416 E.01716
G1 X162.158 Y73.8 E.01272
G1 X161.818 Y74.404 E.02173
G1 X149.759 Y91.216 E.6487
G1 X153.008 Y91.216 E.10186
G1 X153.736 Y91.293 E.02296
G1 X154.496 Y91.533 E.02498
G1 X155.002 Y91.812 E.01814
G1 X155.358 Y92.045 E.01334
G1 X155.866 Y92.535 E.02211
G1 X156.294 Y93.158 E.02373
G1 X156.527 Y93.685 E.01806
G1 X156.673 Y94.106 E.01397
G1 X156.776 Y94.804 E.02211
G1 X156.736 Y95.539 E.0231
G1 X156.602 Y96.099 E.01805
G1 X156.455 Y96.541 E.0146
G1 X156.039 Y97.258 E.02597
G1 X141.926 Y116.99 E.76065
G1 X144.945 Y116.999 E.09464
M73 P2 R52
M73 Q2 S52
G1 X145.677 Y117.075 E.02308
G1 X146.449 Y117.318 E.02538
G1 X147.007 Y117.634 E.02013
G1 X147.248 Y117.792 E.00903
G1 X147.752 Y118.262 E.0216
G1 X148.224 Y118.919 E.02538
G1 X148.455 Y119.442 E.01791
G1 X148.58 Y119.778 E.01125
G1 X148.702 Y120.456 E.0216
G1 X148.688 Y121.214 E.02378
G1 X148.575 Y121.753 E.01726
G1 X148.456 Y122.166 E.01347
G1 X148.085 Y122.883 E.02533
G1 X128.179 Y153.852 E1.1543
G1 X127.61 Y154.536 E.02788
G1 X127.049 Y154.977 E.0224
G1 X126.297 Y155.35 E.02631
G1 X125.587 Y155.525 E.02293
G1 X125.357 Y155.563 E.0073
G1 X124.643 Y155.563 E.0224
G1 X123.821 Y155.391 E.02631
G1 X123.155 Y155.09 E.02293
G1 X122.951 Y154.977 E.0073
G1 X122.39 Y154.536 E.0224
G1 X121.858 Y153.903 E.02592
G1 X101.877 Y122.824 E1.15848
G1 X101.501 Y122.052 E.0269
G1 X101.331 Y121.385 E.0216
G1 X101.289 Y120.576 E.02538
G1 X101.386 Y119.968 E.01933
G1 X101.454 Y119.662 E.00982
G1 X101.718 Y119.025 E.0216
G1 X102.165 Y118.358 E.02521
G1 X102.559 Y117.972 E.01728
G1 X102.849 Y117.72 E.01205
G1 X103.441 Y117.368 E.0216
G1 X104.205 Y117.1 E.02537
G1 X104.721 Y117.032 E.01633
G1 X105.572 Y116.998 E.02668
G1 X108.074 Y116.99 E.07845
G1 X93.918 Y97.197 E.76299
G1 X93.497 Y96.427 E.02751
G1 X93.294 Y95.752 E.02211
G1 X93.22 Y94.927 E.02597
G1 X93.342 Y94.034 E.02828
G1 X93.61 Y93.328 E.02367
G1 X94.055 Y92.63 E.02597
G1 X94.533 Y92.151 E.02121
G1 X94.74 Y91.97 E.00863
G1 X95.342 Y91.602 E.02211
G1 X96.121 Y91.322 E.02597
G1 X96.803 Y91.233 E.02156
G1 X97.687 Y91.216 E.02774
G1 X100.181 Y91.216 E.07818
M204 S1000
G1 X100.753 Y91.593 F10800
M204 S800
;TYPE:External perimeter
G1 F1200
G1 X100.878 Y91.52 E.00455
G1 X100.833 Y91.394 E.0042
G1 X88.522 Y74.236 E.66212
G1 X88.241 Y73.738 E.01794
G1 X88.073 Y73.307 E.01452
G1 X87.943 Y72.86 E.01458
G1 X87.891 Y72.158 E.02209
G1 X87.995 Y71.418 E.0234
G1 X88.257 Y70.719 E.0234
G1 X88.586 Y70.212 E.01896
G1 X88.894 Y69.866 E.01452
G1 X89.232 Y69.547 E.01458
G1 X89.833 Y69.18 E.02209
G1 X90.538 Y68.934 E.0234
G1 X91.267 Y68.849 E.02302
G1 X110.83 Y68.848 E.61338
G1 X111.15 Y68.766 E.01036
G1 X111.365 Y68.552 E.00952
G1 X111.447 Y68.231 E.01036
G1 X111.447 Y58.194 E.31473
G1 X111.51 Y57.626 E.0179
G1 X111.622 Y57.184 E.01429
