; generated by PrusaSlicer 2.8.0+win64 on 2024-12-04 at 13:06:16 UTC


;
;
; 

; external perimeters extrusion width = 0.60mm
; perimeters extrusion width = 0.50mm
; infill extrusion width = 0.50mm
; solid infill extrusion width = 0.50mm
; top infill extrusion width = 0.45mm
; first layer extrusion width = 0.42mm

; external perimeters extrusion width = 0.60mm
; perimeters extrusion width = 0.50mm
; infill extrusion width = 0.50mm
; solid infill extrusion width = 0.50mm
; top infill extrusion width = 0.45mm
; first layer extrusion width = 0.42mm

; external perimeters extrusion width = 0.60mm
; perimeters extrusion width = 0.50mm
; infill extrusion width = 0.50mm
; solid infill extrusion width = 0.50mm
; top infill extrusion width = 0.45mm
; first layer extrusion width = 0.42mm

; external perimeters extrusion width = 0.60mm
; perimeters extrusion width = 0.50mm
; infill extrusion width = 0.50mm
; solid infill extrusion width = 0.50mm
; top infill extrusion width = 0.45mm
; first layer extrusion width = 0.42mm

; external perimeters extrusion width = 0.60mm
; perimeters extrusion width = 0.50mm
; infill extrusion width = 0.50mm
; solid infill extrusion width = 0.50mm
; top infill extrusion width = 0.45mm
; first layer extrusion width = 0.42mm

; external perimeters extrusion width = 0.60mm
; perimeters extrusion width = 0.50mm
; infill extrusion width = 0.50mm
; solid infill extrusion width = 0.50mm
; top infill extrusion width = 0.45mm
; first layer extrusion width = 0.42mm

M73 P0 R49
M73 Q0 S51
M201 X1000 Y1000 Z200 E5000 ; sets maximum accelerations, mm/sec^2
M203 X200 Y200 Z12 E120 ; sets maximum feedrates, mm / sec
M204 S1250 T1250 ; sets acceleration (S) and retract acceleration (R), mm/sec^2
M205 X8.00 Y8.00 Z0.40 E4.50 ; sets the jerk limits, mm/sec
M205 S0 T0 ; sets the minimum extruding and travel feed rate, mm/sec

; printing object SKADIS_Hook_3H_Vertical_Short.stl id:2 copy 0
; stop printing object SKADIS_Hook_3H_Vertical_Short.stl id:2 copy 0
; printing object SKADIS_Hook_3H_Vertical_Short.stl id:1 copy 0
; stop printing object SKADIS_Hook_3H_Vertical_Short.stl id:1 copy 0
; printing object SKADIS_Hook_3H_Vertical_Short.stl id:4 copy 0
; stop printing object SKADIS_Hook_3H_Vertical_Short.stl id:4 copy 0
; printing object SKADIS_Hook_3H_Vertical_Short.stl id:3 copy 0
; stop printing object SKADIS_Hook_3H_Vertical_Short.stl id:3 copy 0
; printing object SKADIS_Hook_3H_Vertical_Short.stl id:0 copy 0
; stop printing object SKADIS_Hook_3H_Vertical_Short.stl id:0 copy 0
; printing object SKADIS_Hook_3H_Vertical_Short.stl id:5 copy 0
; stop printing object SKADIS_Hook_3H_Vertical_Short.stl id:5 copy 0

;TYPE:Custom
M862.3 P "MK3S" ; printer model check
M862.1 P0.4 ; nozzle diameter check
M115 U3.13.3 ; tell printer latest fw version
G90 ; use absolute coordinates
M83 ; extruder relative mode
M104 S215 ; set extruder temp
M140 S60 ; set bed temp
M190 S60 ; wait for bed temp
M109 S215 ; wait for extruder temp
G28 W ; home all without mesh bed level
G80 X107.634 Y56.687 W73.7093 H92.4617 ; mesh bed levelling

G1 Z0.2 F720
G1 Y-3 F1000 ; go outside print area
G92 E0
G1 X60 E9 F1000 ; intro line
G1 X100 E12.5 F1000 ; intro line

G92 E0
M221 S95

; Don't change E values below. Excessive value can damage the printer.

M907 E538 ; set extruder motor current
G21 ; set units to millimeters
G90 ; use absolute coordinates
M83 ; use relative distances for extrusion

M900 K0.05 ; Filament gcode LA 1.5
M900 K30 ; Filament gcode LA 1.0




M107
;LAYER_CHANGE
;Z:0.2
;HEIGHT:0.2
G1 E-.8 F2100
G1 Z.6 F720
G1 X108.214 Y59.492 F10800
G1 Z.2 F720
G1 E.8 F2100
M204 S800
;TYPE:Skirt/Brim
;WIDTH:0.42
G1 F1200
G1 X109.724 Y58.57 E.05547
G1 X122.362 Y56.894 E.39972
G1 X127.427 Y56.877 E.15881
G1 X179.043 Y58.685 E1.61938
G1 X180.277 Y59.119 E.04101
G1 X181.043 Y60.18 E.04103
G1 X181.155 Y60.872 E.02198
G1 X181.155 Y145.808 E2.66311
G1 X180.764 Y147.057 E.04104
G1 X179.154 Y147.989 E.05833
G1 X167.741 Y148.96 E.35914
G1 X137.999 Y148.873 E.93254
G1 X109.933 Y147.863 E.88056
G1 X108.699 Y147.427 E.04104
G1 X107.935 Y146.366 E.04099
G1 X107.823 Y145.676 E.02192
G1 X107.823 Y60.74 E2.66311
G1 X108.196 Y59.549 E.03913
M204 S1000
;WIPE_START
G1 F8640
G1 X108.214 Y59.492 E-.0138
G1 X109.724 Y58.57 E-.40852
G1 X111.346 Y58.355 E-.37768
;WIPE_END
G1 Z.6 F720
; printing object SKADIS_Hook_3H_Vertical_Short.stl id:4 copy 0
G1 X178.18 Y145.021 F10800
G1 Z.2 F720
G1 E.8 F2100
M204 S800
;TYPE:Perimeter
;WIDTH:0.419999
G1 F1200
G1 X175.054 Y145.021 E.09801
G1 X175.054 Y62.168 E2.59779
G1 X178.18 Y62.168 E.09801
M73 P0 R48
G1 X178.18 Y63.731 E.04901
G1 X178.18 Y144.961 E2.54691
M204 S1000
G1 X178.18 Y144.961 F10800
M73 P1 R48
M73 Q1 S50
G1 X178.557 Y145.398
M204 S800
;TYPE:External perimeter
G1 F1200
G1 X174.677 Y145.398 E.12165
G1 X174.677 Y61.791 E2.62143
G1 X178.557 Y61.791 E.12165
G1 X178.557 Y63.731 E.06083
G1 X178.557 Y145.338 E2.55873
M204 S1000
;WIPE_START
G1 F8640
G1 X178.557 Y145.398 E-.01385
G1 X175.152 Y145.398 E-.78615
;WIPE_END
G1 Z.6 F720
G1 X177.247 Y62.338 F10800
G1 Z.2 F720
G1 E.8 F2100
M204 S800
;TYPE:Solid infill
;WIDTH:0.420229
G1 F1200
G1 X177.84 Y62.931 E.02631
G1 X177.84 Y63.465 E.01675
G1 X176.883 Y62.508 E.04246
G1 X176.35 Y62.508 E.01672
G1 X177.84 Y63.998 E.06611
G1 X177.84 Y64.532 E.01675
G1 X175.816 Y62.508 E.0898
G1 X175.393 Y62.508 E.01327
G1 X175.393 Y62.618 E.00345
G1 X177.84 Y65.065 E.10857
G1 X177.84 Y65.599 E.01675
G1 X175.393 Y63.152 E.10857
G1 X175.393 Y63.686 E.01675
G1 X177.84 Y66.133 E.10857
G1 X177.84 Y66.666 E.01672
G1 X175.393 Y64.219 E.10857
G1 X175.393 Y64.753 E.01675
G1 X177.84 Y67.2 E.10857
G1 X177.84 Y67.733 E.01672
G1 X175.393 Y65.286 E.10857
G1 X175.393 Y65.82 E.01675
G1 X177.84 Y68.267 E.10857
G1 X177.84 Y68.801 E.01675
G1 X175.393 Y66.353 E.10859
G1 X175.393 Y66.887 E.01675
G1 X177.84 Y69.334 E.10857
G1 X177.84 Y69.868 E.01675
G1 X175.393 Y67.421 E.10857
G1 X175.393 Y67.954 E.01672
G1 X177.84 Y70.401 E.10857
G1 X177.84 Y70.935 E.01675
G1 X175.393 Y68.488 E.10857
G1 X175.393 Y69.021 E.01672
G1 X177.84 Y71.469 E.10859
G1 X177.84 Y72.002 E.01672
G1 X175.393 Y69.555 E.10857
G1 X175.393 Y70.089 E.01675
G1 X177.84 Y72.536 E.10857
G1 X177.84 Y73.069 E.01672
G1 X175.393 Y70.622 E.10857
G1 X175.393 Y71.156 E.01675
G1 X177.84 Y73.603 E.10857
G1 X177.84 Y74.137 E.01675
G1 X175.393 Y71.689 E.10859
G1 X175.393 Y72.223 E.01675
G1 X177.84 Y74.67 E.10857
G1 X177.84 Y75.204 E.01675
G1 X175.393 Y72.757 E.10857
G1 X175.393 Y73.29 E.01672
G1 X177.84 Y75.737 E.10857
G1 X177.84 Y76.271 E.01675
G1 X175.393 Y73.824 E.10857
G1 X175.393 Y74.357 E.01672
G1 X177.84 Y76.805 E.10859
G1 X177.84 Y77.338 E.01672
G1 X175.393 Y74.891 E.10857
G1 X175.393 Y75.425 E.01675
G1 X177.84 Y77.872 E.10857
G1 X177.84 Y78.405 E.01672
G1 X175.393 Y75.958 E.10857
G1 X175.393 Y76.492 E.01675
G1 X177.84 Y78.939 E.10857
G1 X177.84 Y79.472 E.01672
G1 X175.393 Y77.025 E.10857
G1 X175.393 Y77.559 E.01675
G1 X177.84 Y80.006 E.10857
G1 X177.84 Y80.54 E.01675
G1 X175.393 Y78.093 E.10857
G1 X175.393 Y78.626 E.01672
G1 X177.84 Y81.073 E.10857
G1 X177.84 Y81.607 E.01675
G1 X175.393 Y79.16 E.10857
G1 X175.393 Y79.693 E.01672
G1 X177.84 Y82.14 E.10857
G1 X177.84 Y82.674 E.01675
G1 X175.393 Y80.227 E.10857
G1 X175.393 Y80.761 E.01675
G1 X177.84 Y83.208 E.10857
G1 X177.84 Y83.741 E.01672
G1 X175.393 Y81.294 E.10857
G1 X175.393 Y81.828 E.01675
G1 X177.84 Y84.275 E.10857
G1 X177.84 Y84.808 E.01672
G1 X175.393 Y82.361 E.10857
G1 X175.393 Y82.895 E.01675
G1 X177.84 Y85.342 E.10857
G1 X177.84 Y85.876 E.01675
G1 X175.393 Y83.429 E.10857
G1 X175.393 Y83.962 E.01672
G1 X177.84 Y86.409 E.10857
G1 X177.84 Y86.943 E.01675
G1 X175.393 Y84.496 E.10857
G1 X175.393 Y85.029 E.01672
G1 X177.84 Y87.476 E.10857
G1 X177.84 Y88.01 E.01675
G1 X175.393 Y85.563 E.10857
G1 X175.393 Y86.097 E.01675
G1 X177.84 Y88.544 E.10857
G1 X177.84 Y89.077 E.01672
G1 X175.393 Y86.63 E.10857
G1 X175.393 Y87.164 E.01675
G1 X177.84 Y89.611 E.10857
G1 X177.84 Y90.144 E.01672
G1 X175.393 Y87.697 E.10857
G1 X175.393 Y88.231 E.01675
G1 X177.84 Y90.678 E.10857
G1 X177.84 Y91.212 E.01675
G1 X175.393 Y88.764 E.10859
G1 X175.393 Y89.298 E.01675
G1 X177.84 Y91.745 E.10857
G1 X177.84 Y92.279 E.01675
G1 X175.393 Y89.832 E.10857
G1 X175.393 Y90.365 E.01672
G1 X177.84 Y92.812 E.10857
G1 X177.84 Y93.346 E.01675
G1 X175.393 Y90.899 E.10857
G1 X175.393 Y91.432 E.01672
G1 X177.84 Y93.88 E.10859
G1 X177.84 Y94.413 E.01672
G1 X175.393 Y91.966 E.10857
G1 X175.393 Y92.5 E.01675
G1 X177.84 Y94.947 E.10857
G1 X177.84 Y95.48 E.01672
G1 X175.393 Y93.033 E.10857
G1 X175.393 Y93.567 E.01675
G1 X177.84 Y96.014 E.10857
G1 X177.84 Y96.548 E.01675
G1 X175.393 Y94.1 E.10859
G1 X175.393 Y94.634 E.01675
G1 X177.84 Y97.081 E.10857
G1 X177.84 Y97.615 E.01675
G1 X175.393 Y95.168 E.10857
G1 X175.393 Y95.701 E.01672
G1 X177.84 Y98.148 E.10857
G1 X177.84 Y98.682 E.01675
G1 X175.393 Y96.235 E.10857
G1 X175.393 Y96.768 E.01672
G1 X177.84 Y99.216 E.10859
G1 X177.84 Y99.749 E.01672
G1 X175.393 Y97.302 E.10857
G1 X175.393 Y97.836 E.01675
G1 X177.84 Y100.283 E.10857
G1 X177.84 Y100.816 E.01672
G1 X175.393 Y98.369 E.10857
G1 X175.393 Y98.903 E.01675
G1 X177.84 Y101.35 E.10857
G1 X177.84 Y101.884 E.01675
G1 X175.393 Y99.436 E.10859
G1 X175.393 Y99.97 E.01675
G1 X177.84 Y102.417 E.10857
G1 X177.84 Y102.951 E.01675
G1 X175.393 Y100.504 E.10857
G1 X175.393 Y101.037 E.01672
G1 X177.84 Y103.484 E.10857
G1 X177.84 Y104.018 E.01675
G1 X175.393 Y101.571 E.10857
G1 X175.393 Y102.104 E.01672
G1 X177.84 Y104.551 E.10857
G1 X177.84 Y105.085 E.01675
G1 X175.393 Y102.638 E.10857
G1 X175.393 Y103.172 E.01675
G1 X177.84 Y105.619 E.10857
G1 X177.84 Y106.152 E.01672
M73 P2 R48
G1 X175.393 Y103.705 E.10857
G1 X175.393 Y104.239 E.01675
G1 X177.84 Y106.686 E.10857
G1 X177.84 Y107.219 E.01672
G1 X175.393 Y104.772 E.10857
G1 X175.393 Y105.306 E.01675
G1 X177.84 Y107.753 E.10857
G1 X177.84 Y108.287 E.01675
G1 X175.393 Y105.84 E.10857
G1 X175.393 Y106.373 E.01672
G1 X177.84 Y108.82 E.10857
G1 X177.84 Y109.354 E.01675
G1 X175.393 Y106.907 E.10857
G1 X175.393 Y107.44 E.01672
G1 X177.84 Y109.887 E.10857
G1 X177.84 Y110.421 E.01675
M73 Q2 S50
G1 X175.393 Y107.974 E.10857
G1 X175.393 Y108.508 E.01675
G1 X177.84 Y110.955 E.10857
G1 X177.84 Y111.488 E.01672
G1 X175.393 Y109.041 E.10857
G1 X175.393 Y109.575 E.01675
G1 X177.84 Y112.022 E.10857
G1 X177.84 Y112.555 E.01672
G1 X175.393 Y110.108 E.10857
G1 X175.393 Y110.642 E.01675
G1 X177.84 Y113.089 E.10857
G1 X177.84 Y113.623 E.01675
G1 X175.393 Y111.176 E.10857
G1 X175.393 Y111.709 E.01672
G1 X177.84 Y114.156 E.10857
G1 X177.84 Y114.69 E.01675
G1 X175.393 Y112.243 E.10857
G1 X175.393 Y112.776 E.01672
G1 X177.84 Y115.223 E.10857
G1 X177.84 Y115.757 E.01675
G1 X175.393 Y113.31 E.10857
G1 X175.393 Y113.843 E.01672
G1 X177.84 Y116.291 E.10859
G1 X177.84 Y116.824 E.01672
G1 X175.393 Y114.377 E.10857
G1 X175.393 Y114.911 E.01675
G1 X177.84 Y117.358 E.10857
G1 X177.84 Y117.891 E.01672
G1 X175.393 Y115.444 E.10857
G1 X175.393 Y115.978 E.01675
G1 X177.84 Y118.425 E.10857
G1 X177.84 Y118.959 E.01675
G1 X175.393 Y116.511 E.10859
G1 X175.393 Y117.045 E.01675
G1 X177.84 Y119.492 E.10857
G1 X177.84 Y120.026 E.01675
G1 X175.393 Y117.579 E.10857
G1 X175.393 Y118.112 E.01672
G1 X177.84 Y120.559 E.10857
G1 X177.84 Y121.093 E.01675
G1 X175.393 Y118.646 E.10857
G1 X175.393 Y119.179 E.01672
G1 X177.84 Y121.627 E.10859
G1 X177.84 Y122.16 E.01672
G1 X175.393 Y119.713 E.10857
G1 X175.393 Y120.247 E.01675
G1 X177.84 Y122.694 E.10857
G1 X177.84 Y123.227 E.01672
G1 X175.393 Y120.78 E.10857
G1 X175.393 Y121.314 E.01675
G1 X177.84 Y123.761 E.10857
G1 X177.84 Y124.295 E.01675
G1 X175.393 Y121.847 E.10859
G1 X175.393 Y122.381 E.01675
G1 X177.84 Y124.828 E.10857
G1 X177.84 Y125.362 E.01675
G1 X175.393 Y122.915 E.10857
G1 X175.393 Y123.448 E.01672
G1 X177.84 Y125.895 E.10857
G1 X177.84 Y126.429 E.01675
G1 X175.393 Y123.982 E.10857
G1 X175.393 Y124.515 E.01672
G1 X177.84 Y126.962 E.10857
G1 X177.84 Y127.496 E.01675
G1 X175.393 Y125.049 E.10857
G1 X175.393 Y125.583 E.01675
G1 X177.84 Y128.03 E.10857
G1 X177.84 Y128.563 E.01672
G1 X175.393 Y126.116 E.10857
G1 X175.393 Y126.65 E.01675
G1 X177.84 Y129.097 E.10857
G1 X177.84 Y129.63 E.01672
G1 X175.393 Y127.183 E.10857
G1 X175.393 Y127.717 E.01675
G1 X177.84 Y130.164 E.10857
G1 X177.84 Y130.698 E.01675
G1 X175.393 Y128.251 E.10857
G1 X175.393 Y128.784 E.01672
G1 X177.84 Y131.231 E.10857
G1 X177.84 Y131.765 E.01675
G1 X175.393 Y129.318 E.10857
G1 X175.393 Y129.851 E.01672
G1 X177.84 Y132.298 E.10857
G1 X177.84 Y132.832 E.01675
G1 X175.393 Y130.385 E.10857
G1 X175.393 Y130.919 E.01675
G1 X177.84 Y133.366 E.10857
G1 X177.84 Y133.899 E.01672
G1 X175.393 Y131.452 E.10857
G1 X175.393 Y131.986 E.01675
G1 X177.84 Y134.433 E.10857
G1 X177.84 Y134.966 E.01672
G1 X175.393 Y132.519 E.10857
G1 X175.393 Y133.053 E.01675
G1 X177.84 Y135.5 E.10857
G1 X177.84 Y136.034 E.01675
G1 X175.393 Y133.587 E.10857
G1 X175.393 Y134.12 E.01672
G1 X177.84 Y136.567 E.10857
G1 X177.84 Y137.101 E.01675
G1 X175.393 Y134.654 E.10857
G1 X175.393 Y135.187 E.01672
G1 X177.84 Y137.634 E.10857
G1 X177.84 Y138.168 E.01675
G1 X175.393 Y135.721 E.10857
G1 X175.393 Y136.254 E.01672
G1 X177.84 Y138.702 E.10859
G1 X177.84 Y139.235 E.01672
G1 X175.393 Y136.788 E.10857
G1 X175.393 Y137.322 E.01675
G1 X177.84 Y139.769 E.10857
G1 X177.84 Y140.302 E.01672
G1 X175.393 Y137.855 E.10857
G1 X175.393 Y138.389 E.01675
G1 X177.84 Y140.836 E.10857
G1 X177.84 Y141.37 E.01675
G1 X175.393 Y138.922 E.10859
G1 X175.393 Y139.456 E.01675
G1 X177.84 Y141.903 E.10857
G1 X177.84 Y142.437 E.01675
G1 X175.393 Y139.99 E.10857
G1 X175.393 Y140.523 E.01672
G1 X177.84 Y142.97 E.10857
G1 X177.84 Y143.504 E.01675
G1 X175.393 Y141.057 E.10857
G1 X175.393 Y141.59 E.01672
G1 X177.84 Y144.038 E.10859
G1 X177.84 Y144.571 E.01672
G1 X175.393 Y142.124 E.10857
G1 X175.393 Y142.658 E.01675
G1 X177.417 Y144.682 E.0898
G1 X176.884 Y144.682 E.01672
G1 X175.393 Y143.191 E.06615
G1 X175.393 Y143.725 E.01675
G1 X176.35 Y144.682 E.04246
G1 X175.817 Y144.682 E.01672
G1 X175.223 Y144.089 E.02633
M204 S1000
;WIPE_START
G1 F8640
G1 X175.817 Y144.682 E-.19381
G1 X176.35 Y144.682 E-.12307
G1 X175.393 Y143.725 E-.3125
G1 X175.393 Y143.191 E-.1233
G1 X175.538 Y143.336 E-.04732
;WIPE_END
G1 Z.6 F720
; stop printing object SKADIS_Hook_3H_Vertical_Short.stl id:4 copy 0
; printing object SKADIS_Hook_3H_Vertical_Short.stl id:5 copy 0
G1 X166.954 Y145.984 F10800
G1 Z.2 F720
G1 E.8 F2100
M204 S800
;TYPE:Perimeter
;WIDTH:0.419999
G1 F1200
G1 X163.828 Y145.984 E.09801
G1 X163.828 Y63.132 E2.59776
G1 X166.954 Y63.132 E.09801
G1 X166.954 Y64.694 E.04898
G1 X166.954 Y145.924 E2.54691
M204 S1000
G1 X166.954 Y145.924 F10800
G1 X167.331 Y146.362
M204 S800
;TYPE:External perimeter
G1 F1200
G1 X163.451 Y146.362 E.12165
G1 X163.451 Y62.754 E2.62147
G1 X167.331 Y62.754 E.12165
M73 P3 R47
G1 X167.331 Y64.694 E.06083
G1 X167.331 Y146.302 E2.55876
M204 S1000
;WIPE_START
G1 F8640
M73 Q3 S49
G1 X167.331 Y146.362 E-.01385
G1 X163.926 Y146.362 E-.78615
;WIPE_END
G1 Z.6 F720
G1 X166.021 Y63.301 F10800
G1 Z.2 F720
G1 E.8 F2100
M204 S800
;TYPE:Solid infill
;WIDTH:0.420229
G1 F1200
G1 X166.614 Y63.894 E.02631
G1 X166.614 Y64.428 E.01675
G1 X165.657 Y63.471 E.04246
G1 X165.124 Y63.471 E.01672
G1 X166.614 Y64.961 E.06611
G1 X166.614 Y65.495 E.01675
G1 X164.59 Y63.471 E.0898
G1 X164.167 Y63.471 E.01327
G1 X164.167 Y63.582 E.00348
G1 X166.614 Y66.029 E.10857
G1 X166.614 Y66.562 E.01672
G1 X164.167 Y64.115 E.10857
G1 X164.167 Y64.649 E.01675
G1 X166.614 Y67.096 E.10857
G1 X166.614 Y67.629 E.01672
G1 X164.167 Y65.182 E.10857
G1 X164.167 Y65.716 E.01675
G1 X166.614 Y68.163 E.10857
G1 X166.614 Y68.697 E.01675
G1 X164.167 Y66.25 E.10857
G1 X164.167 Y66.783 E.01672
G1 X166.614 Y69.23 E.10857
G1 X166.614 Y69.764 E.01675
G1 X164.167 Y67.317 E.10857
G1 X164.167 Y67.85 E.01672
G1 X166.614 Y70.297 E.10857
G1 X166.614 Y70.831 E.01675
G1 X164.167 Y68.384 E.10857
G1 X164.167 Y68.917 E.01672
G1 X166.614 Y71.365 E.10859
G1 X166.614 Y71.898 E.01672
G1 X164.167 Y69.451 E.10857
G1 X164.167 Y69.985 E.01675
G1 X166.614 Y72.432 E.10857
