; generated by PrusaSlicer 2.4.1+win64 on 2023-08-08 at 10:09:27 UTC


;
;
; 

; external perimeters extrusion width = 0.60mm
; perimeters extrusion width = 0.50mm
; infill extrusion width = 0.50mm
; solid infill extrusion width = 0.50mm
; top infill extrusion width = 0.45mm
; first layer extrusion width = 0.42mm

M73 P0 R102
M73 Q0 S102
M201 X1000 Y1000 Z200 E5000 ; sets maximum accelerations, mm/sec^2
M203 X200 Y200 Z12 E120 ; sets maximum feedrates, mm / sec
M204 P1250 R1250 T1250 ; sets acceleration (P, T) and retract acceleration (R), mm/sec^2
M205 X8.00 Y8.00 Z0.40 E4.50 ; sets the jerk limits, mm/sec
M205 S0 T0 ; sets the minimum extruding and travel feed rate, mm/sec
M107
;TYPE:Custom
M862.3 P "MK3S" ; printer model check
M862.1 P0.4 ; nozzle diameter check
M115 U3.11.0 ; tell printer latest fw version
G90 ; use absolute coordinates
M83 ; extruder relative mode
M104 S215 ; set extruder temp
M140 S60 ; set bed temp
M190 S60 ; wait for bed temp
M109 S215 ; wait for extruder temp
G28 W ; home all without mesh bed level
G80 ; mesh bed leveling

G1 Z0.2 F720
G1 Y-3 F1000 ; go outside print area
G92 E0
G1 X60 E9 F1000 ; intro line
G1 X100 E12.5 F1000 ; intro line

G92 E0
M221 S95

; Don't change E values below. Excessive value can damage the printer.

M907 E538 ; set extruder motor current
G21 ; set units to millimeters
G90 ; use absolute coordinates
M83 ; use relative distances for extrusion
M900 K0.05 ; Filament gcode LA 1.5
M900 K30 ; Filament gcode LA 1.0
M107
;LAYER_CHANGE
;Z:0.2
;HEIGHT:0.2
;BEFORE_LAYER_CHANGE
G92 E0.0
;0.2


G1 E-.8 F2100
G1 Z.4 F720
;AFTER_LAYER_CHANGE
;0.2
G1 X95.336 Y82.324 F10800
G1 Z.2 F720
G1 E.8 F2100
M204 S800
;TYPE:Skirt/Brim
;WIDTH:0.42
G1 F1200
G1 X99.684 Y77.555 E.20236
G1 X105.158 Y73.37 E.21603
G1 X111.308 Y70.262 E.21606
G1 X117.924 Y68.338 E.21603
G1 X124.781 Y67.662 E.21603
G1 X131.645 Y68.258 E.21604
G1 X138.283 Y70.104 E.21602
G1 X144.469 Y73.139 E.21606
G1 X150.316 Y77.555 E.22973
G1 X154.929 Y82.674 E.21606
G1 X158.521 Y88.553 E.21603
G1 X160.973 Y94.993 E.21604
G1 X162.199 Y101.774 E.21605
G1 X162.159 Y108.663 E.21602
G1 X160.853 Y115.429 E.21604
G1 X158.326 Y121.839 E.21605
G1 X154.664 Y127.676 E.21603
G1 X150.316 Y132.445 E.20236
G1 X144.842 Y136.63 E.21603
G1 X138.692 Y139.738 E.21606
G1 X132.076 Y141.662 E.21603
G1 X125.219 Y142.338 E.21603
G1 X118.355 Y141.742 E.21604
G1 X111.717 Y139.896 E.21602
G1 X105.531 Y136.861 E.21606
G1 X100.008 Y132.74 E.21606
G1 X95.071 Y127.326 E.22974
G1 X91.479 Y121.447 E.21603
G1 X89.027 Y115.007 E.21604
G1 X87.801 Y108.226 E.21605
G1 X87.841 Y101.337 E.21602
G1 X89.147 Y94.571 E.21604
G1 X91.674 Y88.161 E.21605
G1 X95.304 Y82.375 E.21415
M204 S1000
; printing object Kegel.stl id:0 copy 0
;WIPE_START
G1 F8640
G1 X97.518 Y79.939 E-.76
;WIPE_END
G1 E-.04 F2100
G1 Z.6 F720
G1 X97.723 Y84.402 F10800
G1 Z.2 F720
G1 E.8 F2100
M204 S800
;TYPE:Perimeter
G1 F1200
G1 X101.973 Y79.741 E.19778
G1 X107.007 Y75.939 E.19778
G1 X112.653 Y73.127 E.19778
G1 X118.72 Y71.402 E.19776
G1 X125 Y70.82 E.19776
G1 X131.28 Y71.402 E.19776
G1 X137.347 Y73.127 E.19776
G1 X142.993 Y75.939 E.19778
G1 X148.027 Y79.741 E.19778
G1 X152.277 Y84.402 E.19778
G1 X155.597 Y89.764 E.19775
G1 X157.876 Y95.646 E.19778
G1 X159.035 Y101.847 E.19778
G1 X159.035 Y108.153 E.19774
G1 X157.876 Y114.354 E.19778
G1 X155.597 Y120.236 E.19778
G1 X152.277 Y125.598 E.19775
M73 P0 R101
G1 X148.027 Y130.259 E.19778
G1 X142.993 Y134.061 E.19778
G1 X137.347 Y136.873 E.19778
G1 X131.28 Y138.598 E.19776
G1 X125 Y139.18 E.19776
G1 X118.72 Y138.598 E.19776
G1 X112.653 Y136.873 E.19776
G1 X107.007 Y134.061 E.19778
G1 X101.973 Y130.259 E.19778
G1 X97.723 Y125.598 E.19778
G1 X94.403 Y120.236 E.19775
G1 X92.124 Y114.354 E.19778
G1 X90.965 Y108.153 E.19778
G1 X90.965 Y101.847 E.19774
G1 X92.124 Y95.646 E.19778
G1 X94.403 Y89.764 E.19778
G1 X97.691 Y84.453 E.19587
M204 S1000
G1 X97.421 Y84.174 F10800
M204 S800
;TYPE:External perimeter
G1 F1200
G1 X101.718 Y79.461 E.19997
G1 X106.807 Y75.617 E.19997
G1 X112.516 Y72.774 E.19997
G1 X118.65 Y71.029 E.19995
G1 X125 Y70.441 E.19995
G1 X131.35 Y71.029 E.19995
G1 X137.484 Y72.774 E.19995
G1 X143.193 Y75.617 E.19997
G1 X148.282 Y79.461 E.19997
G1 X152.579 Y84.174 E.19997
G1 X155.936 Y89.596 E.19995
G1 X158.24 Y95.543 E.19997
G1 X159.412 Y101.812 E.19997
G1 X159.412 Y108.188 E.19993
G1 X158.24 Y114.457 E.19997
G1 X155.936 Y120.404 E.19997
G1 X152.579 Y125.826 E.19995
G1 X148.282 Y130.539 E.19997
G1 X143.193 Y134.383 E.19997
G1 X137.484 Y137.226 E.19997
G1 X131.35 Y138.971 E.19995
G1 X125 Y139.559 E.19995
G1 X118.65 Y138.971 E.19995
G1 X112.516 Y137.226 E.19995
G1 X106.807 Y134.383 E.19997
G1 X101.718 Y130.539 E.19997
G1 X97.421 Y125.826 E.19997
G1 X94.064 Y120.404 E.19995
G1 X91.76 Y114.457 E.19997
G1 X90.588 Y108.188 E.19997
M73 Q0 S101
G1 X90.588 Y101.812 E.19993
G1 X91.76 Y95.543 E.19997
G1 X94.064 Y89.596 E.19997
G1 X97.389 Y84.225 E.19807
M204 S1000
G1 X97.818 Y84.223 F10800
;WIPE_START
G1 F8640
G1 X99.603 Y81.789 E-.76
;WIPE_END
G1 E-.04 F2100
G1 Z.6 F720
G1 X150.44 Y82.555 F10800
G1 Z.2 F720
G1 E.8 F2100
M204 S800
;TYPE:Solid infill
;WIDTH:0.42124
G1 F1200
G1 X147.835 Y79.95 E.11588
G1 X145.648 Y78.299 E.08621
G1 X152.257 Y84.908 E.29402
G1 X153.127 Y86.313 E.05198
G1 X143.462 Y76.647 E.43001
G1 X142.844 Y76.18 E.02435
G1 X142.079 Y75.8 E.02687
G1 X153.997 Y87.718 E.53021
G1 X154.867 Y89.123 E.05198
G1 X141.014 Y75.269 E.61632
G1 X139.948 Y74.738 E.03745
G1 X155.496 Y90.287 E.69171
G1 X155.835 Y91.16 E.02946
G1 X138.882 Y74.208 E.75416
G1 X137.817 Y73.677 E.03745
G1 X156.173 Y92.033 E.81662
G1 X156.511 Y92.907 E.02946
G1 X136.898 Y73.294 E.87253
G1 X136.151 Y73.081 E.02445
G1 X156.849 Y93.78 E.92084
G1 X157.188 Y94.653 E.02946
G1 X135.403 Y72.868 E.96915
G1 X134.655 Y72.656 E.02445
G1 X157.526 Y95.526 E1.01747
G1 X157.603 Y95.724 E.00667
G1 X157.698 Y96.233 E.01629
G1 X133.907 Y72.443 E1.05837
G1 X133.16 Y72.23 E.02445
G1 X157.821 Y96.891 E1.09711
G1 X157.944 Y97.549 E.02106
G1 X132.412 Y72.018 E1.13584
G1 X131.664 Y71.805 E.02445
G1 X158.067 Y98.207 E1.17458
G1 X158.19 Y98.865 E.02106
M73 P1 R101
M73 Q1 S101
G1 X130.982 Y71.658 E1.21039
G1 X130.393 Y71.603 E.01863
G1 X158.313 Y99.523 E1.24209
G1 X158.436 Y100.182 E.02106
G1 X129.803 Y71.549 E1.2738
G1 X129.213 Y71.494 E.01863
G1 X158.559 Y100.84 E1.30551
G1 X158.682 Y101.498 E.02106
G1 X128.624 Y71.439 E1.33721
G1 X128.034 Y71.385 E.01863
G1 X158.752 Y102.103 E1.36657
G1 X158.752 Y102.638 E.01683
G1 X127.444 Y71.33 E1.3928
G1 X126.855 Y71.276 E.01863
G1 X158.752 Y103.173 E1.41903
G1 X158.752 Y103.708 E.01683
G1 X126.265 Y71.221 E1.44527
G1 X125.675 Y71.166 E.01863
G1 X158.752 Y104.243 E1.4715
G1 X158.752 Y104.778 E.01683
M73 P1 R100
G1 X125.086 Y71.112 E1.49773
G1 X125 Y71.104 E.00271
G1 X124.582 Y71.142 E.01322
G1 X158.752 Y105.313 E1.52016
G1 X158.752 Y105.848 E.01683
G1 X124.092 Y71.188 E1.54195
G1 X123.602 Y71.233 E.01547
G1 X158.752 Y106.383 E1.56373
G1 X158.752 Y106.918 E.01683
G1 X123.113 Y71.279 E1.58551
G1 X122.623 Y71.324 E.01547
G1 X158.752 Y107.453 E1.6073
G1 X158.752 Y107.988 E.01683
M73 Q1 S100
G1 X122.133 Y71.369 E1.62908
G1 X121.644 Y71.415 E.01547
G1 X158.69 Y108.461 E1.64809
G1 X158.605 Y108.911 E.01443
G1 X121.154 Y71.46 E1.66612
G1 X120.664 Y71.505 E.01547
G1 X158.521 Y109.362 E1.68416
G1 X158.437 Y109.813 E.01443
G1 X120.175 Y71.551 E1.70219
G1 X119.685 Y71.596 E.01547
G1 X158.353 Y110.264 E1.72022
G1 X158.268 Y110.714 E.01443
G1 X119.195 Y71.642 E1.73826
G1 X118.716 Y71.697 E.01519
G1 X158.184 Y111.165 E1.75585
G1 X158.1 Y111.616 E.01443
G1 X118.299 Y71.815 E1.77064
G1 X117.883 Y71.934 E.01362
M73 P2 R100
M73 Q2 S100
G1 X158.016 Y112.067 E1.78542
G1 X157.931 Y112.518 E.01443
G1 X117.466 Y72.052 E1.8002
G1 X117.049 Y72.171 E.01362
G1 X157.847 Y112.968 E1.81498
G1 X157.763 Y113.419 E.01443
G1 X116.633 Y72.289 E1.82976
G1 X116.216 Y72.408 E.01362
G1 X157.678 Y113.87 E1.84454
G1 X157.588 Y114.314 E.01427
G1 X115.8 Y72.526 E1.85904
G1 X115.383 Y72.645 E.01362
G1 X157.438 Y114.7 E1.87093
G1 X157.289 Y115.085 E.01301
M73 P2 R99
G1 X114.967 Y72.763 E1.88281
G1 X114.55 Y72.882 E.01362
G1 X157.14 Y115.471 E1.8947
G1 X156.99 Y115.857 E.01301
G1 X114.134 Y73 E1.90658
G1 X113.717 Y73.119 E.01362
G1 X156.841 Y116.242 E1.91847
G1 X156.691 Y116.628 E.01301
G1 X113.301 Y73.237 E1.93035
G1 X112.884 Y73.356 E.01362
M73 Q2 S99
G1 X156.542 Y117.014 E1.94224
G1 X156.393 Y117.399 E.01301
G1 X112.509 Y73.515 E1.9523
G1 X112.151 Y73.693 E.01255
G1 X156.243 Y117.785 E1.96154
G1 X156.094 Y118.171 E.01301
G1 X111.794 Y73.871 E1.97079
G1 X111.437 Y74.049 E.01255
G1 X155.945 Y118.556 E1.98003
G1 X155.795 Y118.942 E.01301
G1 X111.08 Y74.227 E1.98927
G1 X110.723 Y74.404 E.01255
G1 X155.646 Y119.327 E1.99852
G1 X155.496 Y119.713 E.01301
G1 X110.366 Y74.582 E2.00776
G1 X110.008 Y74.76 E.01255
M73 P3 R99
M73 Q3 S99
G1 X155.347 Y120.099 E2.01701
G1 X155.144 Y120.431 E.01224
G1 X109.651 Y74.938 E2.02386
G1 X109.294 Y75.116 E.01255
G1 X154.939 Y120.761 E2.03065
G1 X154.735 Y121.092 E.01223
G1 X108.937 Y75.294 E2.03744
G1 X108.58 Y75.471 E.01255
G1 X154.53 Y121.422 E2.04422
G1 X154.326 Y121.752 E.01223
G1 X108.222 Y75.649 E2.05101
G1 X107.865 Y75.827 E.01255
M73 P3 R98
G1 X154.121 Y122.083 E2.0578
G1 X153.916 Y122.413 E.01223
G1 X107.508 Y76.005 E2.06459
G1 X107.152 Y76.184 E.01254
G1 X153.712 Y122.744 E2.07134
G1 X153.507 Y123.074 E.01223
G1 X106.847 Y76.414 E2.0758
G1 X106.542 Y76.644 E.01202
G1 X153.303 Y123.405 E2.08026
G1 X153.098 Y123.735 E.01223
M73 Q3 S98
G1 X106.237 Y76.874 E2.08472
G1 X105.932 Y77.104 E.01202
G1 X152.893 Y124.065 E2.08917
G1 X152.689 Y124.396 E.01223
G1 X105.628 Y77.335 E2.09363
G1 X105.323 Y77.565 E.01202
G1 X152.484 Y124.726 E2.09809
G1 X152.28 Y125.057 E.01223
G1 X105.018 Y77.795 E2.10255
G1 X104.713 Y78.025 E.01202
G1 X152.075 Y125.387 E2.107
G1 X151.826 Y125.673 E.01193
G1 X104.408 Y78.256 E2.10948
G1 X104.104 Y78.486 E.01202
G1 X151.571 Y125.953 E2.11169
G1 X151.316 Y126.233 E.01191
M73 P4 R98
M73 Q4 S98
G1 X103.799 Y78.716 E2.1139
G1 X103.494 Y78.946 E.01202
G1 X151.06 Y126.513 E2.11611
G1 X150.805 Y126.792 E.01191
G1 X103.189 Y79.177 E2.11831
G1 X102.884 Y79.407 E.01202
G1 X150.55 Y127.072 E2.12052
G1 X150.295 Y127.352 E.01191
G1 X102.58 Y79.637 E2.12273
G1 X102.275 Y79.867 E.01202
M73 P4 R97
G1 X150.04 Y127.632 E2.12494
G1 X149.785 Y127.912 E.01191
G1 X102.002 Y80.129 E2.12574
G1 X101.747 Y80.409 E.01191
G1 X149.529 Y128.192 E2.12574
G1 X149.274 Y128.472 E.01191
G1 X101.491 Y80.689 E2.12574
G1 X101.236 Y80.969 E.01191
M73 Q4 S97
G1 X149.019 Y128.751 E2.12574
G1 X148.764 Y129.031 E.01191
G1 X100.981 Y81.249 E2.12574
G1 X100.726 Y81.528 E.01191
G1 X148.509 Y129.311 E2.12574
G1 X148.253 Y129.591 E.01191
G1 X100.471 Y81.808 E2.12574
G1 X100.216 Y82.088 E.01191
G1 X147.998 Y129.871 E2.12574
G1 X147.835 Y130.049 E.0076
G1 X147.725 Y130.133 E.00435
G1 X99.96 Y82.368 E2.12494
G1 X99.705 Y82.648 E.01191
G1 X147.42 Y130.363 E2.12273
G1 X147.116 Y130.593 E.01202
G1 X99.45 Y82.928 E2.12052
G1 X99.195 Y83.207 E.01191
G1 X146.811 Y130.823 E2.11832
G1 X146.506 Y131.054 E.01202
M73 P5 R97
M73 Q5 S97
G1 X98.94 Y83.487 E2.11611
G1 X98.685 Y83.767 E.01191
G1 X146.201 Y131.284 E2.1139
G1 X145.896 Y131.514 E.01202
G1 X98.429 Y84.047 E2.11169
G1 X98.174 Y84.327 E.01191
G1 X145.592 Y131.744 E2.10948
G1 X145.287 Y131.975 E.01202
G1 X97.925 Y84.613 E2.10701
G1 X97.72 Y84.943 E.01223
M73 P5 R96
G1 X144.982 Y132.205 E2.10255
G1 X144.677 Y132.435 E.01202
G1 X97.516 Y85.274 E2.09809
G1 X97.311 Y85.604 E.01223
G1 X144.372 Y132.665 E2.09363
G1 X144.068 Y132.895 E.01202
G1 X97.107 Y85.935 E2.08917
G1 X96.902 Y86.265 E.01223
M73 Q5 S96
G1 X143.763 Y133.126 E2.08472
G1 X143.458 Y133.356 E.01202
G1 X96.697 Y86.595 E2.08026
G1 X96.493 Y86.926 E.01223
G1 X143.153 Y133.586 E2.0758
G1 X142.848 Y133.816 E.01202
G1 X96.288 Y87.256 E2.07134
G1 X96.084 Y87.587 E.01223
G1 X142.492 Y133.995 E2.06459
G1 X142.135 Y134.173 E.01255
G1 X95.879 Y87.917 E2.0578
G1 X95.675 Y88.248 E.01223
G1 X141.778 Y134.351 E2.05101
G1 X141.42 Y134.529 E.01255
G1 X95.47 Y88.578 E2.04423
G1 X95.265 Y88.908 E.01223
G1 X141.063 Y134.706 E2.03744
G1 X140.706 Y134.884 E.01255
M73 P6 R96
M73 Q6 S96
G1 X95.061 Y89.239 E2.03065
G1 X94.856 Y89.569 E.01223
G1 X140.349 Y135.062 E2.02386
G1 X139.992 Y135.24 E.01255
G1 X94.653 Y89.901 E2.01701
G1 X94.504 Y90.287 E.01301
G1 X139.635 Y135.418 E2.00777
G1 X139.277 Y135.596 E.01255
G1 X94.354 Y90.672 E1.99852
G1 X94.205 Y91.058 E.01301
M73 P6 R95
G1 X138.92 Y135.773 E1.98928
G1 X138.563 Y135.951 E.01255
G1 X94.055 Y91.444 E1.98003
G1 X93.906 Y91.829 E.01301
G1 X138.206 Y136.129 E1.97079
G1 X137.849 Y136.307 E.01255
G1 X93.757 Y92.215 E1.96154
G1 X93.607 Y92.601 E.01301
G1 X137.491 Y136.485 E1.9523
G1 X137.244 Y136.608 E.00868
M73 Q6 S95
G1 X137.116 Y136.644 E.0042
G1 X93.458 Y92.986 E1.94224
G1 X93.309 Y93.372 E.01301
G1 X136.699 Y136.763 E1.93036
G1 X136.283 Y136.881 E.01362
G1 X93.159 Y93.758 E1.91847
G1 X93.01 Y94.143 E.01301
G1 X135.866 Y137 E1.90658
G1 X135.45 Y137.118 E.01362
G1 X92.86 Y94.529 E1.8947
G1 X92.711 Y94.915 E.01301
G1 X135.033 Y137.237 E1.88281
G1 X134.617 Y137.355 E.01362
G1 X92.562 Y95.3 E1.87093
G1 X92.412 Y95.686 E.01301
G1 X134.2 Y137.474 E1.85904
G1 X133.784 Y137.592 E.01362
G1 X92.322 Y96.13 E1.84455
G1 X92.237 Y96.581 E.01443
G1 X133.367 Y137.711 E1.82977
G1 X132.951 Y137.829 E.01362
M73 P7 R95
M73 Q7 S95
G1 X92.153 Y97.032 E1.81498
G1 X92.069 Y97.482 E.01443
G1 X132.534 Y137.948 E1.8002
G1 X132.118 Y138.066 E.01362
G1 X91.984 Y97.933 E1.78542
G1 X91.9 Y98.384 E.01443
G1 X131.701 Y138.185 E1.77064
G1 X131.284 Y138.303 E.01362
G1 X91.816 Y98.835 E1.75586
G1 X91.732 Y99.285 E.01443
M73 P7 R94
G1 X130.805 Y138.358 E1.73826
G1 X130.315 Y138.404 E.01547
G1 X91.647 Y99.736 E1.72023
G1 X91.563 Y100.187 E.01443
G1 X129.825 Y138.449 E1.70219
G1 X129.336 Y138.495 E.01547
G1 X91.479 Y100.638 E1.68416
G1 X91.395 Y101.088 E.01443
G1 X128.846 Y138.54 E1.66613
G1 X128.356 Y138.585 E.01547
M73 Q7 S94
G1 X91.31 Y101.539 E1.64809
G1 X91.248 Y101.873 E.01068
G1 X91.248 Y102.012 E.00437
G1 X127.867 Y138.631 E1.62908
G1 X127.377 Y138.676 E.01547
G1 X91.248 Y102.547 E1.6073
G1 X91.248 Y103.082 E.01683
G1 X126.887 Y138.721 E1.58552
G1 X126.398 Y138.767 E.01547
G1 X91.248 Y103.617 E1.56373
G1 X91.248 Y104.152 E.01683
G1 X125.908 Y138.812 E1.54195
G1 X125.419 Y138.858 E.01547
G1 X91.248 Y104.687 E1.52017
G1 X91.248 Y105.222 E.01683
G1 X124.914 Y138.888 E1.49774
G1 X124.325 Y138.834 E.01863
G1 X91.248 Y105.757 E1.47151
G1 X91.248 Y106.292 E.01683
G1 X123.735 Y138.779 E1.44527
G1 X123.145 Y138.724 E.01863
G1 X91.248 Y106.827 E1.41904
G1 X91.248 Y107.362 E.01683
G1 X122.556 Y138.67 E1.39281
G1 X121.966 Y138.615 E.01863
G1 X91.248 Y107.897 E1.36657
G1 X91.248 Y108.127 E.00724
M73 P8 R94
G1 X91.318 Y108.502 E.012
G1 X121.376 Y138.561 E1.33722
G1 X120.787 Y138.506 E.01863
M73 Q8 S94
G1 X91.441 Y109.16 E1.30551
G1 X91.564 Y109.818 E.02106
G1 X120.197 Y138.451 E1.27381
G1 X119.607 Y138.397 E.01863
G1 X91.687 Y110.476 E1.2421
G1 X91.81 Y111.134 E.02106
G1 X119.018 Y138.342 E1.21039
G1 X118.772 Y138.319 E.00777
G1 X118.336 Y138.195 E.01426
G1 X91.933 Y111.793 E1.17459
G1 X92.056 Y112.451 E.02106
M73 P8 R93
G1 X117.588 Y137.982 E1.13585
G1 X116.84 Y137.77 E.02445
G1 X92.179 Y113.109 E1.09711
G1 X92.302 Y113.767 E.02106
G1 X116.093 Y137.557 E1.05838
G1 X115.345 Y137.344 E.02445
G1 X92.474 Y114.473 E1.01748
G1 X92.812 Y115.347 E.02946
G1 X114.597 Y137.132 E.96916
G1 X113.85 Y136.919 E.02445
G1 X93.15 Y116.22 E.92085
G1 X93.489 Y117.093 E.02946
G1 X113.102 Y136.706 E.87254
G1 X112.756 Y136.608 E.01132
G1 X112.183 Y136.323 E.02011
G1 X93.827 Y117.967 E.81663
G1 X94.165 Y118.84 E.02946
G1 X111.118 Y135.792 E.75418
G1 X110.052 Y135.262 E.03745
G1 X94.504 Y119.713 E.69172
G1 X94.657 Y120.109 E.01336
M73 Q8 S93
G1 X95.132 Y120.877 E.02842
G1 X108.987 Y134.731 E.61633
G1 X107.921 Y134.201 E.03745
G1 X96.002 Y122.282 E.53022
G1 X96.872 Y123.687 E.05198
G1 X106.539 Y133.354 E.43004
G1 X104.352 Y131.702 E.08621
G1 X97.742 Y125.092 E.29405
G1 X97.95 Y125.427 E.01239
G1 X102.162 Y130.047 E.19669
