; generated by PrusaSlicer 2.4.1+win64 on 2023-08-01 at 10:46:35 UTC


;
;
; 

; external perimeters extrusion width = 0.60mm
; perimeters extrusion width = 0.50mm
; infill extrusion width = 0.50mm
; solid infill extrusion width = 0.50mm
; top infill extrusion width = 0.45mm
; first layer extrusion width = 0.42mm

M73 P0 R45
M73 Q0 S45
M201 X1000 Y1000 Z200 E5000 ; sets maximum accelerations, mm/sec^2
M203 X200 Y200 Z12 E120 ; sets maximum feedrates, mm / sec
M204 P1250 R1250 T1250 ; sets acceleration (P, T) and retract acceleration (R), mm/sec^2
M205 X8.00 Y8.00 Z0.40 E4.50 ; sets the jerk limits, mm/sec
M205 S0 T0 ; sets the minimum extruding and travel feed rate, mm/sec
M107
;TYPE:Custom
M862.3 P "MK3S" ; printer model check
M862.1 P0.4 ; nozzle diameter check
M115 U3.11.0 ; tell printer latest fw version
G90 ; use absolute coordinates
M83 ; extruder relative mode
M104 S215 ; set extruder temp
M140 S60 ; set bed temp
M190 S60 ; wait for bed temp
M109 S215 ; wait for extruder temp
G28 W ; home all without mesh bed level
G80 ; mesh bed leveling

G1 Z0.2 F720
G1 Y-3 F1000 ; go outside print area
G92 E0
G1 X60 E9 F1000 ; intro line
G1 X100 E12.5 F1000 ; intro line

G92 E0
M221 S95

; Don't change E values below. Excessive value can damage the printer.

M907 E538 ; set extruder motor current
G21 ; set units to millimeters
G90 ; use absolute coordinates
M83 ; use relative distances for extrusion
M900 K0.05 ; Filament gcode LA 1.5
M900 K30 ; Filament gcode LA 1.0
M107
;LAYER_CHANGE
;Z:0.2
;HEIGHT:0.2
;BEFORE_LAYER_CHANGE
G92 E0.0
;0.2


G1 E-.8 F2100
G1 Z.4 F720
;AFTER_LAYER_CHANGE
;0.2
G1 X103.015 Y88.693 F10800
G1 Z.2 F720
G1 E.8 F2100
M204 S800
;TYPE:Skirt/Brim
;WIDTH:0.42
G1 F1200
G1 X104.06 Y87.817 E.04278
G1 X105 Y87.623 E.03008
G1 X145 Y87.623 E1.25417
G1 X146.307 Y88.015 E.04278
G1 X147.183 Y89.06 E.04278
G1 X147.377 Y90 E.03008
G1 X147.377 Y120 E.94063
G1 X146.985 Y121.307 E.04278
G1 X145.94 Y122.183 E.04278
G1 X145 Y122.377 E.03008
G1 X105 Y122.377 E1.25417
G1 X103.693 Y121.985 E.04278
G1 X102.817 Y120.94 E.04278
G1 X102.623 Y120 E.03008
G1 X102.623 Y90 E.94063
G1 X102.997 Y88.75 E.0409
M204 S1000
; printing object Nas23.stl id:0 copy 0
;WIPE_START
G1 F8640
G1 X104.06 Y87.817 E-.32671
G1 X105 Y87.623 E-.22155
G1 X105.917 Y87.623 E-.21174
;WIPE_END
G1 E-.04 F2100
G1 Z.6 F720
G1 X133.994 Y109.026 F10800
G1 Z.2 F720
G1 E.8 F2100
M204 S800
;TYPE:Perimeter
G1 F1200
G1 X134.021 Y108.973 E.00188
G1 X134.973 Y108.021 E.0422
G1 X136.172 Y107.411 E.04219
G1 X137.5 Y107.201 E.04215
G1 X138.828 Y107.411 E.04215
G1 X140.027 Y108.021 E.04219
G1 X140.979 Y108.973 E.0422
G1 X141.589 Y110.172 E.04219
G1 X141.799 Y111.5 E.04215
G1 X141.589 Y112.828 E.04215
G1 X140.979 Y114.027 E.04219
G1 X140.027 Y114.979 E.0422
G1 X138.828 Y115.589 E.04218
G1 X137.5 Y115.8 E.04217
G1 X136.172 Y115.589 E.04217
G1 X134.973 Y114.979 E.04218
G1 X134.021 Y114.027 E.0422
G1 X133.411 Y112.828 E.04218
G1 X133.2 Y111.5 E.04217
G1 X133.411 Y110.172 E.04217
G1 X133.967 Y109.08 E.03842
M204 S1000
G1 X134.33 Y109.197 F10800
M204 S800
;TYPE:External perimeter
G1 F1200
G1 X135.197 Y108.33 E.03845
G1 X136.29 Y107.774 E.03844
G1 X137.5 Y107.583 E.03841
G1 X138.71 Y107.774 E.03841
G1 X139.803 Y108.33 E.03844
G1 X140.67 Y109.197 E.03845
G1 X141.226 Y110.29 E.03844
G1 X141.417 Y111.5 E.03841
G1 X141.226 Y112.71 E.03841
G1 X140.67 Y113.803 E.03844
G1 X139.803 Y114.67 E.03845
G1 X138.71 Y115.226 E.03844
G1 X137.5 Y115.418 E.03842
G1 X136.29 Y115.226 E.03842
G1 X135.197 Y114.67 E.03844
G1 X134.33 Y113.803 E.03845
G1 X133.774 Y112.71 E.03844
G1 X133.582 Y111.5 E.03842
G1 X133.774 Y110.29 E.03842
G1 X134.303 Y109.251 E.03656
M204 S1000
G1 X134.167 Y108.832 F10800
;WIPE_START
G1 F8640
G1 X135.197 Y108.33 E-.29633
G1 X136.29 Y107.774 E-.28311
G1 X137.062 Y107.652 E-.18056
;WIPE_END
G1 E-.04 F2100
G1 Z.6 F720
G1 X114.79 Y111.441 F10800
G1 Z.2 F720
G1 E.8 F2100
M204 S800
;TYPE:Perimeter
G1 F1200
G1 X114.799 Y111.5 E.00187
G1 X114.589 Y112.828 E.04215
G1 X113.979 Y114.027 E.04219
G1 X113.027 Y114.979 E.0422
G1 X111.828 Y115.589 E.04218
G1 X110.5 Y115.8 E.04217
G1 X109.172 Y115.589 E.04217
G1 X107.973 Y114.979 E.04218
G1 X107.021 Y114.027 E.0422
G1 X106.411 Y112.828 E.04218
G1 X106.2 Y111.5 E.04217
G1 X106.411 Y110.172 E.04217
G1 X107.021 Y108.973 E.04218
G1 X107.973 Y108.021 E.0422
G1 X109.172 Y107.411 E.04219
G1 X110.5 Y107.201 E.04215
G1 X111.828 Y107.411 E.04215
G1 X113.027 Y108.021 E.04219
G1 X113.979 Y108.973 E.0422
G1 X114.589 Y110.172 E.04219
G1 X114.78 Y111.382 E.0384
M204 S1000
G1 X114.417 Y111.5 F10800
M204 S800
;TYPE:External perimeter
M73 P0 R44
G1 F1200
G1 X114.226 Y112.71 E.03841
G1 X113.67 Y113.803 E.03844
G1 X112.803 Y114.67 E.03845
G1 X111.71 Y115.226 E.03844
G1 X110.5 Y115.418 E.03842
G1 X109.29 Y115.226 E.03842
G1 X108.197 Y114.67 E.03844
G1 X107.33 Y113.803 E.03845
G1 X106.774 Y112.71 E.03844
G1 X106.582 Y111.5 E.03842
G1 X106.774 Y110.29 E.03842
G1 X107.33 Y109.197 E.03844
G1 X108.197 Y108.33 E.03845
G1 X109.29 Y107.774 E.03844
G1 X110.5 Y107.583 E.03841
G1 X111.71 Y107.774 E.03841
G1 X112.803 Y108.33 E.03844
G1 X113.67 Y109.197 E.03845
G1 X114.226 Y110.29 E.03844
G1 X114.408 Y111.441 E.03653
M204 S1000
G1 X114.764 Y111.7 F10800
;WIPE_START
G1 F8640
G1 X114.226 Y112.71 E-.29609
G1 X113.67 Y113.803 E-.28311
G1 X113.116 Y114.357 E-.1808
;WIPE_END
G1 E-.04 F2100
G1 Z.6 F720
G1 X105.787 Y119.213 F10800
G1 Z.2 F720
G1 E.8 F2100
M204 S800
;TYPE:Perimeter
G1 F1200
G1 X105.787 Y90.787 E.89127
G1 X144.213 Y90.787 E1.20482
G1 X144.213 Y119.213 E.89127
G1 X105.847 Y119.213 E1.20293
M204 S1000
M73 Q0 S44
G1 X105.41 Y119.59 F10800
M204 S800
;TYPE:External perimeter
M73 P1 R44
M73 Q1 S44
G1 F1200
G1 X105.41 Y90.41 E.91492
G1 X144.59 Y90.41 E1.22846
G1 X144.59 Y119.59 E.91492
G1 X105.47 Y119.59 E1.22658
M204 S1000
G1 X105.532 Y119.209 F10800
;WIPE_START
G1 F8640
G1 X105.463 Y116.299 E-.76
;WIPE_END
G1 E-.04 F2100
G1 Z.6 F720
G1 X106.11 Y112.993 F10800
G1 Z.2 F720
G1 E.8 F2100
M204 S800
;TYPE:Gap fill
;WIDTH:0.29225
G1 F1200
G1 X106.082 Y112.641 E.00733
M204 S1000
M204 S800
;WIDTH:0.242518
G1 X106.055 Y112.288 E.00587
M204 S1000
M204 S800
;WIDTH:0.192786
G1 X106.027 Y111.936 E.00441
M204 S1000
M204 S800
;WIDTH:0.143053
G1 X105.999 Y111.583 E.00294
M204 S1000
G1 X105.999 Y111.417 F10800
M204 S800
;WIDTH:0.143053
G1 F1200
G1 X106.027 Y111.064 E.00294
M204 S1000
M204 S800
;WIDTH:0.192785
G1 X106.055 Y110.712 E.00441
M204 S1000
M204 S800
;WIDTH:0.242517
G1 X106.082 Y110.359 E.00587
M204 S1000
M204 S800
;WIDTH:0.29225
G1 X106.11 Y110.007 E.00733
M204 S1000
;WIPE_START
G1 F8640
G1 X106.082 Y110.359 E-.08166
;WIPE_END
G1 E-.71834 F2100
G1 Z.6 F720
G1 X143.333 Y90.9 F10800
G1 Z.2 F720
G1 E.8 F2100
M204 S800
;TYPE:Solid infill
;WIDTH:0.421989
G1 F1200
G1 X143.93 Y91.497 E.0266
G1 X143.93 Y92.033 E.0169
G1 X142.967 Y91.07 E.04294
G1 X142.431 Y91.07 E.0169
G1 X143.93 Y92.569 E.06683
G1 X143.93 Y93.105 E.0169
G1 X141.895 Y91.07 E.09073
G1 X141.359 Y91.07 E.0169
G1 X143.93 Y93.641 E.11462
G1 X143.93 Y94.177 E.0169
G1 X140.823 Y91.07 E.13852
G1 X140.286 Y91.07 E.0169
G1 X143.93 Y94.714 E.16242
G1 X143.93 Y95.25 E.0169
G1 X139.75 Y91.07 E.18631
G1 X139.214 Y91.07 E.0169
G1 X143.93 Y95.786 E.21021
G1 X143.93 Y96.322 E.0169
G1 X138.678 Y91.07 E.23411
G1 X138.142 Y91.07 E.0169
G1 X143.93 Y96.858 E.258
G1 X143.93 Y97.394 E.0169
G1 X137.606 Y91.07 E.2819
G1 X137.07 Y91.07 E.0169
G1 X143.93 Y97.93 E.30579
G1 X143.93 Y98.466 E.0169
G1 X136.534 Y91.07 E.32969
G1 X135.998 Y91.07 E.0169
G1 X143.93 Y99.002 E.35359
G1 X143.93 Y99.538 E.0169
G1 X135.462 Y91.07 E.37748
G1 X134.926 Y91.07 E.0169
G1 X143.93 Y100.074 E.40138
G1 X143.93 Y100.61 E.0169
G1 X134.39 Y91.07 E.42528
G1 X133.853 Y91.07 E.0169
G1 X143.93 Y101.147 E.44917
G1 X143.93 Y101.683 E.0169
G1 X133.317 Y91.07 E.47307
G1 X132.781 Y91.07 E.0169
G1 X143.93 Y102.219 E.49696
G1 X143.93 Y102.755 E.0169
G1 X132.245 Y91.07 E.52086
G1 X131.709 Y91.07 E.0169
G1 X143.93 Y103.291 E.54476
G1 X143.93 Y103.827 E.0169
G1 X131.173 Y91.07 E.56865
G1 X130.637 Y91.07 E.0169
G1 X143.93 Y104.363 E.59255
G1 X143.93 Y104.899 E.0169
G1 X130.101 Y91.07 E.61645
G1 X129.565 Y91.07 E.0169
G1 X143.93 Y105.435 E.64034
G1 X143.93 Y105.971 E.0169
G1 X129.029 Y91.07 E.66424
G1 X128.493 Y91.07 E.0169
G1 X143.93 Y106.507 E.68814
G1 X143.93 Y107.043 E.0169
M73 Q2 S44
G1 X127.957 Y91.07 E.71203
G1 X127.42 Y91.07 E.0169
M73 P2 R44
G1 X143.93 Y107.58 E.73593
G1 X143.93 Y108.116 E.0169
G1 X126.884 Y91.07 E.75982
G1 X126.348 Y91.07 E.0169
G1 X143.93 Y108.652 E.78372
G1 X143.93 Y109.188 E.0169
G1 X125.812 Y91.07 E.80762
G1 X125.276 Y91.07 E.0169
G1 X143.93 Y109.724 E.83151
G1 X143.93 Y110.26 E.0169
G1 X124.74 Y91.07 E.85541
G1 X124.204 Y91.07 E.0169
G1 X143.93 Y110.796 E.87931
G1 X143.93 Y111.332 E.0169
G1 X123.668 Y91.07 E.9032
G1 X123.132 Y91.07 E.0169
G1 X139.495 Y107.433 E.7294
G1 X140.195 Y107.789 E.02477
G1 X141.211 Y108.805 E.04525
G1 X141.567 Y109.505 E.02477
G1 X143.93 Y111.868 E.10534
G1 X143.93 Y112.404 E.0169
G1 X141.909 Y110.383 E.09011
G1 X142.009 Y111.019 E.02032
G1 X143.93 Y112.94 E.08563
G1 X143.93 Y113.476 E.0169
G1 X142.067 Y111.614 E.08304
G1 X141.994 Y112.076 E.01477
G1 X143.93 Y114.013 E.0863
G1 X143.93 Y114.549 E.0169
G1 X141.921 Y112.539 E.08956
G1 X141.861 Y112.916 E.01202
G1 X141.828 Y112.982 E.00234
G1 X143.93 Y115.085 E.09372
G1 X143.93 Y115.621 E.0169
G1 X141.647 Y113.338 E.10177
G1 X141.466 Y113.693 E.01257
G1 X143.93 Y116.157 E.10983
G1 X143.93 Y116.693 E.0169
G1 X141.285 Y114.048 E.11789
G1 X141.211 Y114.195 E.0052
G1 X141.054 Y114.352 E.007
G1 X143.93 Y117.229 E.12822
G1 X143.93 Y117.765 E.0169
G1 X140.786 Y114.621 E.14017
G1 X140.517 Y114.889 E.01195
G1 X143.93 Y118.301 E.15212
G1 X143.93 Y118.837 E.0169
G1 X140.249 Y115.157 E.16407
G1 X140.195 Y115.211 E.00241
G1 X139.912 Y115.355 E.01004
G1 X143.487 Y118.93 E.15937
G1 X142.951 Y118.93 E.0169
G1 X139.556 Y115.536 E.15131
G1 X139.201 Y115.716 E.01257
G1 X142.415 Y118.93 E.14325
G1 X141.879 Y118.93 E.0169
G1 X138.824 Y115.876 E.13615
G1 X138.362 Y115.949 E.01476
G1 X141.343 Y118.93 E.13287
G1 X140.806 Y118.93 E.0169
G1 X137.899 Y116.023 E.12959
G1 X137.5 Y116.086 E.01274
G1 X137.413 Y116.072 E.00279
G1 X140.27 Y118.93 E.12738
G1 X139.734 Y118.93 E.0169
G1 X136.775 Y115.971 E.1319
G1 X136.138 Y115.87 E.02034
G1 X139.368 Y119.1 E.14398
M204 S1000
;WIPE_START
G1 F8640
G1 X137.04 Y116.772 E-.76
;WIPE_END
G1 E-.04 F2100
G1 Z.6 F720
G1 X138.821 Y107.295 F10800
G1 Z.2 F720
G1 E.8 F2100
M204 S800
G1 F1200
G1 X122.596 Y91.07 E.72327
G1 X122.06 Y91.07 E.0169
G1 X137.981 Y106.991 E.70968
G1 X137.5 Y106.915 E.01533
G1 X137.386 Y106.933 E.00362
G1 X121.524 Y91.07 E.7071
G1 X120.987 Y91.07 E.0169
G1 X136.924 Y107.006 E.71036
G1 X136.461 Y107.079 E.01477
G1 X120.451 Y91.07 E.71362
G1 X119.915 Y91.07 E.0169
G1 X136.018 Y107.172 E.71777
G1 X135.662 Y107.353 E.01257
M73 P2 R43
G1 X119.379 Y91.07 E.72583
G1 X118.843 Y91.07 E.0169
M73 Q3 S44
G1 X135.307 Y107.534 E.73389
G1 X134.952 Y107.715 E.01257
M73 P3 R43
G1 X118.307 Y91.07 E.74195
G1 X117.771 Y91.07 E.0169
G1 X134.648 Y107.946 E.75228
G1 X134.379 Y108.214 E.01195
G1 X117.235 Y91.07 E.76423
G1 X116.699 Y91.07 E.0169
M73 Q3 S43
G1 X134.111 Y108.483 E.77618
G1 X133.843 Y108.751 E.01195
G1 X116.163 Y91.07 E.78813
G1 X115.627 Y91.07 E.0169
G1 X133.645 Y109.088 E.80318
G1 X133.464 Y109.444 E.01257
G1 X115.091 Y91.07 E.81902
G1 X114.554 Y91.07 E.0169
G1 X133.284 Y109.799 E.83486
G1 X133.139 Y110.083 E.01006
G1 X133.124 Y110.176 E.00295
G1 X114.018 Y91.07 E.85165
G1 X113.482 Y91.07 E.0169
G1 X133.051 Y110.638 E.87227
G1 X132.977 Y111.101 E.01476
G1 X112.946 Y91.07 E.89289
G1 X112.41 Y91.07 E.0169
G1 X132.928 Y111.587 E.91458
G1 X133.029 Y112.225 E.02034
G1 X111.874 Y91.07 E.94299
G1 X111.338 Y91.07 E.0169
G1 X133.479 Y113.211 E.98695
M204 S1000
;WIPE_START
G1 F8640
G1 X131.152 Y110.883 E-.76
;WIPE_END
G1 E-.04 F2100
G1 Z.6 F720
G1 X138.832 Y119.1 F10800
G1 Z.2 F720
G1 E.8 F2100
M204 S800
G1 F1200
G1 X110.802 Y91.07 E1.24945
G1 X110.266 Y91.07 E.0169
G1 X138.126 Y118.93 E1.24189
G1 X137.59 Y118.93 E.0169
G1 X109.73 Y91.07 E1.24189
G1 X109.194 Y91.07 E.0169
G1 X137.054 Y118.93 E1.24189
G1 X136.518 Y118.93 E.0169
M73 P4 R43
M73 Q4 S43
G1 X108.658 Y91.07 E1.24189
G1 X108.121 Y91.07 E.0169
G1 X135.982 Y118.93 E1.24189
G1 X135.446 Y118.93 E.0169
G1 X107.585 Y91.07 E1.24189
G1 X107.049 Y91.07 E.0169
G1 X134.91 Y118.93 E1.24189
G1 X134.373 Y118.93 E.0169
G1 X106.513 Y91.07 E1.24189
G1 X106.07 Y91.07 E.01397
G1 X106.07 Y91.163 E.00292
G1 X133.837 Y118.93 E1.23775
G1 X133.301 Y118.93 E.0169
G1 X106.07 Y91.699 E1.21386
G1 X106.07 Y92.235 E.0169
G1 X132.765 Y118.93 E1.18996
G1 X132.229 Y118.93 E.0169
G1 X106.07 Y92.771 E1.16606
G1 X106.07 Y93.307 E.0169
G1 X131.693 Y118.93 E1.14217
G1 X131.157 Y118.93 E.0169
G1 X106.07 Y93.843 E1.11827
G1 X106.07 Y94.379 E.0169
G1 X130.621 Y118.93 E1.09437
G1 X130.085 Y118.93 E.0169
G1 X106.07 Y94.915 E1.07048
G1 X106.07 Y95.451 E.0169
G1 X129.549 Y118.93 E1.04658
G1 X129.013 Y118.93 E.0169
M73 P5 R43
M73 Q5 S43
G1 X106.07 Y95.987 E1.02268
G1 X106.07 Y96.524 E.0169
G1 X128.476 Y118.93 E.99879
G1 X127.94 Y118.93 E.0169
M73 P5 R42
G1 X106.07 Y97.06 E.97489
G1 X106.07 Y97.596 E.0169
G1 X127.404 Y118.93 E.951
G1 X126.868 Y118.93 E.0169
G1 X106.07 Y98.132 E.9271
G1 X106.07 Y98.668 E.0169
G1 X126.332 Y118.93 E.9032
G1 X125.796 Y118.93 E.0169
M73 Q5 S42
G1 X106.07 Y99.204 E.87931
G1 X106.07 Y99.74 E.0169
G1 X125.26 Y118.93 E.85541
G1 X124.724 Y118.93 E.0169
G1 X106.07 Y100.276 E.83151
G1 X106.07 Y100.812 E.0169
G1 X124.188 Y118.93 E.80762
G1 X123.652 Y118.93 E.0169
G1 X114.872 Y110.15 E.39137
G1 X114.972 Y110.787 E.02032
G1 X123.116 Y118.93 E.36299
G1 X122.58 Y118.93 E.0169
G1 X115.073 Y111.424 E.33461
G1 X115.085 Y111.5 E.00244
G1 X115.021 Y111.907 E.013
G1 X122.043 Y118.93 E.31304
G1 X121.507 Y118.93 E.0169
G1 X114.948 Y112.37 E.29241
G1 X114.874 Y112.833 E.01477
G1 X120.971 Y118.93 E.27177
G1 X120.435 Y118.93 E.0169
G1 X114.713 Y113.208 E.25507
G1 X114.532 Y113.563 E.01257
G1 X119.899 Y118.93 E.23923
G1 X119.363 Y118.93 E.0169
G1 X114.351 Y113.919 E.2234
G1 X114.211 Y114.195 E.00979
G1 X114.151 Y114.255 E.00264
G1 X118.827 Y118.93 E.20841
G1 X118.291 Y118.93 E.0169
G1 X113.883 Y114.523 E.19647
G1 X113.615 Y114.791 E.01195
G1 X117.755 Y118.93 E.18452
G1 X117.219 Y118.93 E.0169
G1 X113.347 Y115.059 E.17257
G1 X113.195 Y115.211 E.00677
G1 X113.041 Y115.289 E.00545
G1 X116.683 Y118.93 E.16231
G1 X116.147 Y118.93 E.0169
G1 X112.686 Y115.47 E.15425
G1 X112.331 Y115.65 E.01257
G1 X115.61 Y118.93 E.14619
G1 X115.074 Y118.93 E.0169
G1 X111.975 Y115.831 E.13814
G1 X111.917 Y115.861 E.00208
G1 X111.531 Y115.922 E.01232
G1 X114.538 Y118.93 E.13407
G1 X114.002 Y118.93 E.0169
G1 X111.068 Y115.996 E.13079
G1 X110.606 Y116.07 E.01476
G1 X113.466 Y118.93 E.12751
G1 X112.93 Y118.93 E.0169
G1 X110.008 Y116.008 E.13025
G1 X109.371 Y115.907 E.02034
G1 X112.394 Y118.93 E.13477
G1 X111.858 Y118.93 E.0169
G1 X108.484 Y115.556 E.15039
G1 X107.805 Y115.211 E.02403
G1 X106.789 Y114.195 E.04525
G1 X106.444 Y113.516 E.02403
G1 X106.198 Y113.27 E.01096
G1 X106.07 Y113.28 E.00405
G1 X106.07 Y113.678 E.01255
G1 X111.322 Y118.93 E.23411
G1 X110.786 Y118.93 E.0169
G1 X106.07 Y114.214 E.21021
G1 X106.07 Y114.75 E.0169
G1 X110.25 Y118.93 E.18631
G1 X109.714 Y118.93 E.0169
G1 X106.07 Y115.286 E.16242
G1 X106.07 Y115.823 E.0169
G1 X109.177 Y118.93 E.13852
G1 X108.641 Y118.93 E.0169
G1 X106.07 Y116.359 E.11463
G1 X106.07 Y116.895 E.0169
G1 X108.105 Y118.93 E.09073
G1 X107.569 Y118.93 E.0169
G1 X106.07 Y117.431 E.06683
G1 X106.07 Y117.967 E.0169
G1 X107.033 Y118.93 E.04294
G1 X106.497 Y118.93 E.0169
G1 X105.9 Y118.333 E.0266
M204 S1000
;WIPE_START
G1 F8640
G1 X106.497 Y118.93 E-.19489
G1 X107.033 Y118.93 E-.12378
M73 Q6 S42
G1 X106.07 Y117.967 E-.31454
G1 X106.07 Y117.431 E-.12378
G1 X106.079 Y117.44 E-.003
;WIPE_END
G1 E-.04 F2100
M73 P6 R42
G1 Z.6 F720
G1 X112.19 Y107.468 F10800
G1 Z.2 F720
G1 E.8 F2100
M204 S800
G1 F1200
G1 X106.07 Y101.348 E.2728
G1 X106.07 Y101.884 E.0169
G1 X111.213 Y107.028 E.22926
G1 X110.576 Y106.927 E.02032
G1 X106.07 Y102.42 E.20088
