; generated by PrusaSlicer 2.8.0+win64 on 2024-08-28 at 08:51:18 UTC


;
;
; 

; external perimeters extrusion width = 0.60mm
; perimeters extrusion width = 0.50mm
; infill extrusion width = 0.50mm
; solid infill extrusion width = 0.50mm
; top infill extrusion width = 0.45mm
; first layer extrusion width = 0.42mm

M73 P0 R78
M73 Q0 S79
M201 X1000 Y1000 Z200 E5000 ; sets maximum accelerations, mm/sec^2
M203 X200 Y200 Z12 E120 ; sets maximum feedrates, mm / sec
M204 S1250 T1250 ; sets acceleration (S) and retract acceleration (R), mm/sec^2
M205 X8.00 Y8.00 Z0.40 E4.50 ; sets the jerk limits, mm/sec
M205 S0 T0 ; sets the minimum extruding and travel feed rate, mm/sec

; printing object Stock2.stl id:0 copy 0
; stop printing object Stock2.stl id:0 copy 0

;TYPE:Custom
M862.3 P "MK3S" ; printer model check
M862.1 P0.4 ; nozzle diameter check
M115 U3.13.3 ; tell printer latest fw version
G90 ; use absolute coordinates
M83 ; extruder relative mode
M104 S215 ; set extruder temp
M140 S60 ; set bed temp
M190 S60 ; wait for bed temp
M109 S215 ; wait for extruder temp
G28 W ; home all without mesh bed level
G80 X47.6229 Y72.6229 W154.754 H64.7542 ; mesh bed levelling

G1 Z0.2 F720
G1 Y-3 F1000 ; go outside print area
G92 E0
G1 X60 E9 F1000 ; intro line
G1 X100 E12.5 F1000 ; intro line

G92 E0
M221 S95

; Don't change E values below. Excessive value can damage the printer.

M907 E538 ; set extruder motor current
G21 ; set units to millimeters
G90 ; use absolute coordinates
M83 ; use relative distances for extrusion

M900 K0.05 ; Filament gcode LA 1.5
M900 K30 ; Filament gcode LA 1.0




M107
;LAYER_CHANGE
;Z:0.2
;HEIGHT:0.2
G1 E-.8 F2100
G1 Z.6 F720
G1 X49.021 Y83.043 F10800
G1 Z.2 F720
G1 E.8 F2100
M204 S800
;TYPE:Skirt/Brim
;WIDTH:0.42
G1 F1200
G1 X69.021 Y73.043 E.7011
G1 X70 Y72.811 E.03155
G1 X180 Y72.811 E3.44897
G1 X180.979 Y73.043 E.03155
G1 X200.979 Y83.043 E.7011
G1 X201.92 Y83.95 E.04098
G1 X202.189 Y85 E.03399
G1 X202.189 Y135 E1.56771
G1 X201.798 Y136.248 E.04101
M73 P0 R77
G1 X200.765 Y137.051 E.04102
G1 X200 Y137.189 E.02437
G1 X50 Y137.189 E4.70314
G1 X48.752 Y136.798 E.04101
G1 X47.949 Y135.765 E.04102
G1 X47.811 Y135 E.02437
G1 X47.811 Y85 E1.56771
G1 X48.202 Y83.752 E.04101
M73 Q0 S78
G1 X48.976 Y83.082 E.0321
M204 S1000
;WIPE_START
G1 F8640
G1 X49.021 Y83.043 E-.01375
G1 X52.067 Y81.52 E-.78625
;WIPE_END
G1 Z.6 F720
; printing object Stock2.stl id:0 copy 0
G1 X193.062 Y117.225 F10800
G1 Z.2 F720
G1 E.8 F2100
M204 S800
;TYPE:Perimeter
;WIDTH:0.419999
G1 F1200
G1 X193.01 Y117.297 E.00278
G1 X192.297 Y118.01 E.03162
G1 X192.154 Y118.114 E.00554
G1 X191.254 Y118.573 E.03168
G1 X190.225 Y118.764 E.03281
G1 X189.912 Y118.786 E.00984
G1 X188.914 Y118.628 E.03168
G1 X188.746 Y118.573 E.00554
G1 X187.846 Y118.114 E.03168
G1 X187.703 Y118.01 E.00554
G1 X186.99 Y117.297 E.03162
G1 X186.886 Y117.154 E.00554
G1 X186.427 Y116.254 E.03168
G1 X186.372 Y116.085 E.00557
G1 X186.215 Y115.088 E.03165
G1 X186.215 Y114.912 E.00552
G1 X186.372 Y113.915 E.03165
G1 X186.427 Y113.746 E.00557
G1 X186.886 Y112.846 E.03168
G1 X186.99 Y112.703 E.00554
G1 X187.703 Y111.99 E.03162
G1 X187.846 Y111.886 E.00554
G1 X188.746 Y111.427 E.03168
G1 X189.153 Y111.335 E.01308
G1 X189.912 Y111.215 E.02409
G1 X190.088 Y111.215 E.00552
G1 X191.085 Y111.372 E.03165
G1 X191.254 Y111.427 E.00557
G1 X192.154 Y111.886 E.03168
G1 X192.297 Y111.99 E.00554
G1 X193.01 Y112.703 E.03162
G1 X193.114 Y112.846 E.00554
G1 X193.573 Y113.746 E.03168
G1 X193.628 Y113.914 E.00554
G1 X193.786 Y114.912 E.03168
G1 X193.786 Y115.088 E.00552
G1 X193.628 Y116.086 E.03168
G1 X193.573 Y116.254 E.00554
G1 X193.114 Y117.154 E.03168
G1 X193.098 Y117.177 E.00088
M204 S1000
G1 X193.098 Y117.177 F10800
G1 X192.757 Y117.004
M204 S800
;TYPE:External perimeter
G1 F1200
G1 X192.744 Y117.03 E.00091
G1 X191.983 Y117.778 E.03346
G1 X191.083 Y118.237 E.03168
G1 X190.166 Y118.392 E.02916
G1 X189.971 Y118.413 E.00615
G1 X188.973 Y118.255 E.03168
G1 X188.017 Y117.778 E.0335
G1 X187.222 Y116.983 E.03525
G1 X186.744 Y116.027 E.03351
G1 X186.588 Y114.971 E.03347
G1 X186.744 Y113.973 E.03167
G1 X187.222 Y113.017 E.03351
G1 X188.017 Y112.222 E.03525
G1 X188.917 Y111.763 E.03168
G1 X189.971 Y111.588 E.0335
G1 X191.027 Y111.744 E.03347
G1 X191.983 Y112.222 E.03351
G1 X192.778 Y113.017 E.03525
G1 X193.237 Y113.917 E.03168
G1 X193.413 Y114.97 E.03347
G1 X193.255 Y116.03 E.0336
G1 X192.784 Y116.951 E.03243
M204 S1000
;WIPE_START
G1 F8640
G1 X192.757 Y117.004 E-.01373
G1 X192.744 Y117.03 E-.00671
G1 X191.983 Y117.778 E-.24639
G1 X191.083 Y118.237 E-.23328
G1 X190.166 Y118.392 E-.21474
G1 X189.971 Y118.413 E-.04529
G1 X189.801 Y118.386 E-.03986
;WIPE_END
G1 Z.6 F720
G1 X58.83 Y118.6 F10800
G1 Z.2 F720
G1 E.8 F2100
M204 S800
;TYPE:Perimeter
G1 F1200
G1 X58.739 Y118.57 E.003
G1 X57.811 Y118.082 E.03287
G1 X56.99 Y117.297 E.03562
G1 X56.886 Y117.154 E.00554
G1 X56.427 Y116.254 E.03168
G1 X56.372 Y116.086 E.00554
G1 X56.214 Y115.088 E.03168
G1 X56.214 Y114.912 E.00552
G1 X56.372 Y113.914 E.03168
G1 X56.427 Y113.746 E.00554
G1 X56.886 Y112.846 E.03168
G1 X56.99 Y112.703 E.00554
G1 X57.703 Y111.99 E.03162
G1 X57.846 Y111.886 E.00554
G1 X58.746 Y111.427 E.03168
G1 X59.872 Y111.221 E.03589
G1 X60.868 Y111.34 E.03145
G1 X61.254 Y111.427 E.01241
G1 X62.154 Y111.886 E.03168
G1 X62.297 Y111.99 E.00554
G1 X63.01 Y112.703 E.03162
G1 X63.114 Y112.846 E.00554
G1 X63.573 Y113.746 E.03168
G1 X63.628 Y113.915 E.00557
G1 X63.785 Y114.912 E.03165
G1 X63.785 Y115.088 E.00552
G1 X63.628 Y116.085 E.03165
G1 X63.375 Y116.643 E.01921
G1 X63.114 Y117.154 E.01799
G1 X63.01 Y117.297 E.00554
G1 X62.297 Y118.01 E.03162
G1 X62.154 Y118.114 E.00554
G1 X61.254 Y118.573 E.03168
G1 X60.225 Y118.764 E.03281
G1 X59.912 Y118.786 E.00984
G1 X58.914 Y118.628 E.03168
G1 X58.887 Y118.619 E.00089
M204 S1000
G1 X58.887 Y118.619 F10800
G1 X58.947 Y118.242
M204 S800
;TYPE:External perimeter
G1 F1200
G1 X57.986 Y117.748 E.03388
G1 X57.222 Y116.983 E.0339
G1 X56.745 Y116.027 E.0335
G1 X56.587 Y114.971 E.03348
G1 X56.745 Y113.973 E.03168
G1 X57.222 Y113.017 E.0335
G1 X57.97 Y112.256 E.03346
G1 X58.917 Y111.763 E.03348
G1 X59.93 Y111.594 E.0322
G1 X60.814 Y111.714 E.02797
G1 X61.083 Y111.763 E.00857
G1 X61.983 Y112.222 E.03168
G1 X62.778 Y113.017 E.03525
G1 X63.256 Y113.973 E.03351
G1 X63.412 Y115.029 E.03347
G1 X63.255 Y116.03 E.03177
G1 X62.778 Y116.983 E.03341
G1 X61.983 Y117.778 E.03525
G1 X61.083 Y118.237 E.03168
G1 X60.166 Y118.392 E.02916
G1 X59.971 Y118.413 E.00615
G1 X59.004 Y118.26 E.0307
M204 S1000
;WIPE_START
G1 F8640
G1 X58.947 Y118.242 E-.0138
G1 X57.986 Y117.748 E-.2495
G1 X57.222 Y116.983 E-.24964
G1 X56.745 Y116.027 E-.2467
G1 X56.719 Y115.854 E-.04036
;WIPE_END
G1 Z.6 F720
G1 X179.394 Y85.614 F10800
G1 Z.2 F720
G1 E.8 F2100
M204 S800
;TYPE:Perimeter
G1 F1200
G1 X179.524 Y85.727 E.0054
G1 X179.779 Y85.787 E.00821
G1 X199.213 Y85.787 E.60934
G1 X199.213 Y96.815 E.34577
G1 X199.213 Y134.213 E1.17259
G1 X180.787 Y134.213 E.57773
G1 X180.787 Y113.045 E.66371
G1 X180.38 Y109.225 E.12045
G1 X179.775 Y106.399 E.09061
G1 X179.577 Y105.493 E.02908
G1 X178.411 Y101.967 E.11644
G1 X176.862 Y98.584 E.11666
G1 X174.969 Y95.456 E.11464
G1 X172.713 Y92.58 E.11461
G1 X170.213 Y90.109 E.11021
G1 X167.469 Y88.031 E.10792
G1 X164.595 Y86.411 E.10344
G1 X161.5 Y85.201 E.10419
G1 X158.299 Y84.463 E.103
G1 X154.957 Y84.211 E.10508
G1 X151.701 Y84.463 E.10239
G1 X148.5 Y85.201 E.103
G1 X145.405 Y86.411 E.10419
G1 X142.531 Y88.031 E.10344
G1 X139.731 Y90.158 E.11025
G1 X137.24 Y92.632 E.11008
G1 X135.031 Y95.456 E.11242
G1 X133.138 Y98.584 E.11464
G1 X131.589 Y101.967 E.11666
G1 X130.407 Y105.552 E.11836
G1 X129.61 Y109.284 E.11965
G1 X129.214 Y113.045 E.11858
G1 X129.211 Y114.213 E.03662
M73 Q1 S78
G1 X120.691 Y114.213 E.26714
G1 X120.688 Y113.045 E.03662
G1 X120.282 Y109.225 E.12045
G1 X119.478 Y105.493 E.1197
G1 X118.289 Y101.909 E.1184
G1 X116.763 Y98.584 E.11471
M73 P1 R77
G1 X114.87 Y95.456 E.11464
G1 X112.662 Y92.633 E.11237
G1 X110.17 Y90.158 E.11012
G1 X107.434 Y88.073 E.10786
G1 X104.497 Y86.411 E.10581
G1 X101.322 Y85.176 E.10682
G1 X98.2 Y84.463 E.10041
G1 X94.944 Y84.211 E.10239
G1 X91.685 Y84.45 E.10246
G1 X88.48 Y85.176 E.10304
G1 X85.306 Y86.411 E.10679
G1 X82.368 Y88.073 E.10584
G1 X79.632 Y90.158 E.10786
G1 X77.141 Y92.632 E.11008
G1 X74.932 Y95.456 E.11242
G1 X73.039 Y98.584 E.11464
G1 X71.491 Y101.967 E.11665
G1 X70.309 Y105.552 E.11836
G1 X69.722 Y108.287 E.08771
G1 X69.511 Y109.284 E.03195
G1 X69.112 Y113.104 E.12042
G1 X69.115 Y116.955 E.12075
G1 X69.213 Y117.884 E.02929
G1 X69.213 Y134.213 E.51198
G1 X50.787 Y134.213 E.57773
G1 X50.787 Y85.787 E1.51836
G1 X69.488 Y85.787 E.58636
G1 X70.306 Y85.781 E.02565
G1 X70.547 Y85.684 E.00815
G1 X70.714 Y85.499 E.00781
G1 X70.787 Y85.221 E.00901
G1 X70.787 Y75.787 E.2958
G1 X179.213 Y75.787 E3.39962
G1 X179.213 Y85.221 E.2958
G1 X179.218 Y85.295 E.00233
G1 X179.317 Y85.548 E.00852
G1 X179.348 Y85.575 E.00129
M204 S1000
G1 X179.348 Y85.575 F10800
G1 X179.632 Y85.322
M204 S800
;TYPE:External perimeter
G1 F1200
G1 X179.646 Y85.355 E.00112
G1 X179.779 Y85.41 E.00451
G1 X199.59 Y85.41 E.62116
G1 X199.59 Y96.815 E.3576
G1 X199.59 Y134.59 E1.18441
G1 X180.41 Y134.59 E.60137
G1 X180.412 Y113.085 E.67427
G1 X180.011 Y109.304 E.11922
G1 X179.406 Y106.478 E.09061
G1 X179.219 Y105.612 E.02778
G1 X178.053 Y102.086 E.11644
G1 X176.519 Y98.741 E.11538
G1 X174.647 Y95.652 E.11325
G1 X172.447 Y92.848 E.11175
G1 X169.985 Y90.409 E.10866
G1 X167.284 Y88.359 E.10632
G1 X164.41 Y86.739 E.10344
G1 X161.364 Y85.552 E.1025
G1 X158.215 Y84.831 E.10129
G1 X154.986 Y84.587 E.10153
G1 X151.785 Y84.831 E.10066
G1 X148.636 Y85.552 E.10129
G1 X145.59 Y86.739 E.1025
G1 X142.716 Y88.359 E.10344
G1 X139.997 Y90.426 E.10709
G1 X137.537 Y92.865 E.10862
G1 X135.353 Y95.652 E.11102
G1 X133.481 Y98.741 E.11325
G1 X131.947 Y102.086 E.11538
G1 X130.776 Y105.631 E.11706
G1 X129.985 Y109.323 E.11839
G1 X129.589 Y113.085 E.11861
G1 X129.588 Y114.59 E.04719
G1 X120.314 Y114.59 E.29078
G1 X120.313 Y113.085 E.04719
G1 X119.913 Y109.304 E.11921
G1 X119.12 Y105.612 E.1184
G1 X117.947 Y102.066 E.11711
G1 X116.42 Y98.741 E.11472
G1 X114.548 Y95.652 E.11325
G1 X112.365 Y92.865 E.111
G1 X109.904 Y90.425 E.10866
G1 X107.206 Y88.373 E.10628
G1 X104.312 Y86.739 E.1042
G1 X101.238 Y85.544 E.10341
G1 X98.116 Y84.831 E.10041
G1 X94.915 Y84.587 E.10066
G1 X91.714 Y84.826 E.10064
G1 X88.564 Y85.544 E.1013
G1 X85.491 Y86.739 E.10338
G1 X82.596 Y88.373 E.10423
G1 X79.898 Y90.426 E.1063
G1 X77.438 Y92.865 E.10862
G1 X75.254 Y95.652 E.11102
G1 X73.382 Y98.741 E.11325
G1 X71.849 Y102.086 E.11537
G1 X70.678 Y105.631 E.11706
G1 X70.091 Y108.366 E.08771
G1 X69.886 Y109.323 E.03069
M73 P1 R76
G1 X69.489 Y113.104 E.1192
G1 X69.49 Y116.915 E.11949
G1 X69.59 Y117.864 E.02992
G1 X69.59 Y134.59 E.52443
G1 X50.41 Y134.59 E.60137
G1 X50.41 Y85.41 E1.542
G1 X70.221 Y85.41 E.62116
G1 X70.339 Y85.369 E.00392
G1 X70.41 Y85.221 E.00515
G1 X70.41 Y75.41 E.30762
G1 X179.59 Y75.41 E3.42326
G1 X179.59 Y85.221 E.30762
M73 Q1 S77
G1 X179.609 Y85.267 E.00156
M204 S1000
;WIPE_START
G1 F8640
G1 X179.632 Y85.322 E-.01377
G1 X179.646 Y85.355 E-.00828
G1 X179.779 Y85.41 E-.03323
G1 X183.004 Y85.41 E-.74472
;WIPE_END
G1 Z.6 F720
G1 X178.682 Y75.957 F10800
G1 Z.2 F720
G1 E.8 F2100
M204 S800
;TYPE:Solid infill
;WIDTH:0.420008
G1 F1200
G1 X178.874 Y76.148 E.00849
G1 X178.874 Y76.682 E.01674
G1 X178.318 Y76.126 E.02465
G1 X177.785 Y76.126 E.01671
G1 X178.874 Y77.215 E.04829
G1 X178.874 Y77.749 E.01674
G1 X177.252 Y76.126 E.07195
G1 X176.718 Y76.126 E.01674
G1 X178.874 Y78.282 E.0956
G1 X178.874 Y78.815 E.01671
G1 X176.185 Y76.126 E.11924
G1 X175.652 Y76.126 E.01671
G1 X178.874 Y79.349 E.14289
G1 X178.874 Y79.882 E.01671
G1 X175.119 Y76.126 E.16653
G1 X174.585 Y76.126 E.01674
G1 X178.874 Y80.416 E.19021
G1 X178.874 Y80.949 E.01671
G1 X174.052 Y76.126 E.21384
G1 X173.519 Y76.126 E.01671
G1 X178.875 Y81.482 E.2375
G1 X178.875 Y82.016 E.01674
G1 X172.985 Y76.126 E.26118
G1 X172.452 Y76.126 E.01671
G1 X178.875 Y82.549 E.28481
G1 X178.875 Y83.082 E.01671
G1 X171.919 Y76.126 E.30845
G1 X171.386 Y76.126 E.01671
M73 Q2 S77
G1 X178.875 Y83.616 E.3321
G1 X178.875 Y84.149 E.01671
M73 P2 R76
G1 X170.852 Y76.126 E.35576
G1 X170.319 Y76.126 E.01671
G1 X179.045 Y84.852 E.38693
M204 S1000
;WIPE_START
G1 F8640
G1 X176.595 Y82.402 E-.8
;WIPE_END
G1 Z.6 F720
G1 X198.281 Y85.957 F10800
G1 Z.2 F720
G1 E.8 F2100
M204 S800
G1 F1200
G1 X198.874 Y86.549 E.02627
G1 X198.874 Y87.083 E.01674
G1 X197.917 Y86.126 E.04244
G1 X197.384 Y86.126 E.01671
G1 X198.874 Y87.616 E.06607
G1 X198.874 Y88.149 E.01671
G1 X196.851 Y86.126 E.08971
G1 X196.318 Y86.126 E.01671
G1 X198.874 Y88.683 E.11336
G1 X198.874 Y89.216 E.01671
G1 X195.784 Y86.126 E.13702
G1 X195.251 Y86.126 E.01671
G1 X198.874 Y89.749 E.16065
G1 X198.874 Y90.282 E.01671
G1 X194.718 Y86.126 E.18429
G1 X194.184 Y86.126 E.01674
G1 X198.874 Y90.816 E.20797
G1 X198.874 Y91.349 E.01671
G1 X193.651 Y86.126 E.2316
G1 X193.118 Y86.126 E.01671
G1 X198.874 Y91.882 E.25524
G1 X198.874 Y92.415 E.01671
G1 X192.585 Y86.126 E.27887
G1 X192.051 Y86.126 E.01674
G1 X198.874 Y92.949 E.30255
G1 X198.874 Y93.482 E.01671
G1 X191.518 Y86.126 E.32618
G1 X190.985 Y86.126 E.01671
G1 X198.874 Y94.015 E.34982
G1 X198.874 Y94.549 E.01674
G1 X190.451 Y86.126 E.3735
G1 X189.918 Y86.126 E.01671
G1 X198.874 Y95.082 E.39713
G1 X198.874 Y95.615 E.01671
G1 X189.385 Y86.126 E.42077
G1 X188.852 Y86.126 E.01671
G1 X198.874 Y96.148 E.4444
G1 X198.874 Y96.682 E.01674
G1 X188.318 Y86.126 E.46808
G1 X187.785 Y86.126 E.01671
G1 X198.874 Y97.215 E.49172
G1 X198.874 Y97.748 E.01671
G1 X187.252 Y86.126 E.51535
G1 X186.718 Y86.126 E.01674
G1 X198.874 Y98.282 E.53903
G1 X198.874 Y98.815 E.01671
G1 X186.185 Y86.126 E.56266
G1 X185.652 Y86.126 E.01671
G1 X198.874 Y99.348 E.5863
G1 X198.874 Y99.881 E.01671
G1 X185.119 Y86.126 E.60993
G1 X184.585 Y86.126 E.01674
G1 X198.874 Y100.415 E.63361
G1 X198.874 Y100.948 E.01671
G1 X184.052 Y86.126 E.65725
G1 X183.519 Y86.126 E.01671
G1 X198.874 Y101.481 E.68088
G1 X198.874 Y102.015 E.01674
G1 X182.985 Y86.126 E.70456
G1 X182.452 Y86.126 E.01671
G1 X198.874 Y102.548 E.7282
G1 X198.874 Y103.081 E.01671
G1 X181.919 Y86.126 E.75183
G1 X181.386 Y86.126 E.01671
G1 X198.874 Y103.614 E.77546
G1 X198.874 Y104.148 E.01674
G1 X180.852 Y86.126 E.79914
G1 X180.319 Y86.126 E.01671
G1 X198.874 Y104.681 E.82278
G1 X198.874 Y105.214 E.01671
G1 X179.786 Y86.126 E.84641
G1 X179.625 Y86.114 E.00506
G1 X179.374 Y86.032 E.00828
G1 X179.202 Y85.92 E.00644
G1 X179.039 Y85.745 E.0075
G1 X178.926 Y85.53 E.00762
G1 X178.875 Y85.216 E.00997
G1 X169.786 Y76.126 E.40305
G1 X169.252 Y76.126 E.01674
G1 X198.874 Y105.748 E1.31352
G1 X198.874 Y106.281 E.01671
G1 X168.719 Y76.126 E1.33715
G1 X168.186 Y76.126 E.01671
G1 X198.874 Y106.814 E1.36079
G1 X198.874 Y107.347 E.01671
G1 X167.653 Y76.126 E1.38442
G1 X167.119 Y76.126 E.01674
G1 X198.874 Y107.881 E1.4081
G1 X198.874 Y108.414 E.01671
G1 X166.586 Y76.126 E1.43174
G1 X166.053 Y76.126 E.01671
G1 X198.874 Y108.947 E1.45537
G1 X198.874 Y109.481 E.01674
M73 P2 R75
G1 X165.519 Y76.126 E1.47905
G1 X164.986 Y76.126 E.01671
M73 P3 R75
M73 Q3 S77
G1 X198.874 Y110.014 E1.50268
G1 X198.874 Y110.547 E.01671
G1 X164.453 Y76.126 E1.52632
G1 X163.92 Y76.126 E.01671
M73 Q3 S76
G1 X198.874 Y111.08 E1.54995
G1 X198.874 Y111.614 E.01674
G1 X163.386 Y76.126 E1.57363
G1 X162.853 Y76.126 E.01671
G1 X198.874 Y112.147 E1.59727
G1 X198.874 Y112.68 E.01671
G1 X162.32 Y76.126 E1.6209
G1 X161.786 Y76.126 E.01674
G1 X198.874 Y113.214 E1.64458
G1 X198.874 Y113.747 E.01671
G1 X161.253 Y76.126 E1.66822
G1 X160.72 Y76.126 E.01671
G1 X198.874 Y114.28 E1.69185
G1 X198.874 Y114.813 E.01671
G1 X160.187 Y76.126 E1.71548
G1 X159.653 Y76.126 E.01674
G1 X198.874 Y115.347 E1.73916
G1 X198.874 Y115.88 E.01671
G1 X159.12 Y76.126 E1.7628
G1 X158.587 Y76.126 E.01671
G1 X198.874 Y116.413 E1.78643
G1 X198.874 Y116.946 E.01671
G1 X158.054 Y76.126 E1.81007
G1 X157.52 Y76.126 E.01674
G1 X198.874 Y117.48 E1.83375
G1 X198.874 Y118.013 E.01671
G1 X156.987 Y76.126 E1.85738
G1 X156.454 Y76.126 E.01671
