; generated by PrusaSlicer 2.8.0+win64 on 2024-08-29 at 06:17:04 UTC


;
;
; 

; external perimeters extrusion width = 0.60mm
; perimeters extrusion width = 0.50mm
; infill extrusion width = 0.50mm
; solid infill extrusion width = 0.50mm
; top infill extrusion width = 0.45mm
; first layer extrusion width = 0.42mm

M73 P0 R78
M73 Q0 S80
M201 X1000 Y1000 Z200 E5000 ; sets maximum accelerations, mm/sec^2
M203 X200 Y200 Z12 E120 ; sets maximum feedrates, mm / sec
M204 S1250 T1250 ; sets acceleration (S) and retract acceleration (R), mm/sec^2
M205 X8.00 Y8.00 Z0.40 E4.50 ; sets the jerk limits, mm/sec
M205 S0 T0 ; sets the minimum extruding and travel feed rate, mm/sec

; printing object Stock3.stl id:0 copy 0
; stop printing object Stock3.stl id:0 copy 0

;TYPE:Custom
M862.3 P "MK3S" ; printer model check
M862.1 P0.4 ; nozzle diameter check
M115 U3.13.3 ; tell printer latest fw version
G90 ; use absolute coordinates
M83 ; extruder relative mode
M104 S215 ; set extruder temp
M140 S60 ; set bed temp
M190 S60 ; wait for bed temp
M109 S215 ; wait for extruder temp
G28 W ; home all without mesh bed level
G80 X47.6229 Y72.6229 W154.754 H64.7542 ; mesh bed levelling

G1 Z0.2 F720
G1 Y-3 F1000 ; go outside print area
G92 E0
G1 X60 E9 F1000 ; intro line
G1 X100 E12.5 F1000 ; intro line

G92 E0
M221 S95

; Don't change E values below. Excessive value can damage the printer.

M907 E538 ; set extruder motor current
G21 ; set units to millimeters
G90 ; use absolute coordinates
M83 ; use relative distances for extrusion

M900 K0.05 ; Filament gcode LA 1.5
M900 K30 ; Filament gcode LA 1.0




M107
;LAYER_CHANGE
;Z:0.2
;HEIGHT:0.2
G1 E-.8 F2100
G1 Z.6 F720
G1 X49.021 Y83.043 F10800
G1 Z.2 F720
M73 Q0 S79
G1 E.8 F2100
M204 S800
;TYPE:Skirt/Brim
;WIDTH:0.42
G1 F1200
G1 X69.021 Y73.043 E.7011
G1 X70 Y72.811 E.03155
G1 X180 Y72.811 E3.44897
G1 X180.979 Y73.043 E.03155
G1 X200.979 Y83.043 E.7011
G1 X201.92 Y83.95 E.04098
G1 X202.189 Y85 E.03399
G1 X202.189 Y115 E.94063
G1 X201.673 Y118.432 E.10882
G1 X201.461 Y119.084 E.0215
G1 X200.04 Y121.872 E.09812
G1 X199.638 Y122.426 E.02146
G1 X197.426 Y124.638 E.09808
G1 X196.872 Y125.04 E.02146
G1 X194.084 Y126.461 E.09812
G1 X193.432 Y126.673 E.0215
G1 X190.182 Y127.181 E.10314
G1 X70.182 Y137.181 E3.77556
G1 X50 Y137.189 E.63279
G1 X48.752 Y136.798 E.04101
G1 X47.949 Y135.765 E.04102
G1 X47.811 Y135 E.02437
G1 X47.811 Y85 E1.56771
G1 X48.202 Y83.752 E.04101
G1 X48.976 Y83.082 E.0321
M204 S1000
;WIPE_START
G1 F8640
G1 X49.021 Y83.043 E-.01375
G1 X52.067 Y81.52 E-.78625
;WIPE_END
G1 Z.6 F720
; printing object Stock3.stl id:0 copy 0
G1 X125.999 Y92.775 F10800
G1 Z.2 F720
G1 E.8 F2100
M204 S800
;TYPE:Perimeter
;WIDTH:0.419999
G1 F1200
G1 X125.283 Y92.686 E.02262
G1 X123.987 Y92.481 E.04114
G1 X123.401 Y92.213 E.0202
G1 X122.083 Y91.541 E.04639
G1 X121.94 Y91.437 E.00554
G1 X120.563 Y90.06 E.06106
G1 X120.459 Y89.917 E.00554
G1 X119.574 Y88.181 E.0611
G1 X119.519 Y88.013 E.00554
G1 X119.214 Y86.089 E.06108
G1 X119.214 Y85.911 E.00558
G1 X119.519 Y83.987 E.06108
G1 X119.574 Y83.819 E.00554
G1 X120.459 Y82.083 E.0611
G1 X120.563 Y81.94 E.00554
G1 X121.94 Y80.563 E.06106
G1 X122.083 Y80.459 E.00554
G1 X123.819 Y79.574 E.0611
G1 X123.987 Y79.519 E.00554
G1 X125.911 Y79.214 E.06108
G1 X126.089 Y79.214 E.00558
G1 X128.013 Y79.519 E.06108
G1 X128.181 Y79.574 E.00554
G1 X129.917 Y80.459 E.0611
G1 X130.06 Y80.563 E.00554
G1 X131.437 Y81.94 E.06106
G1 X131.541 Y82.083 E.00554
G1 X132.426 Y83.819 E.0611
G1 X132.494 Y84.067 E.00806
G1 X132.786 Y85.911 E.05854
G1 X132.711 Y86.56 E.02048
G1 X132.481 Y88.013 E.04612
G1 X132.111 Y88.8 E.02727
G1 X131.541 Y89.917 E.03932
G1 X131.437 Y90.06 E.00554
G1 X130.06 Y91.437 E.06106
G1 X129.917 Y91.541 E.00554
G1 X128.181 Y92.426 E.0611
G1 X128.013 Y92.481 E.00554
G1 X126.089 Y92.786 E.06108
G1 X126.059 Y92.782 E.00095
M204 S1000
G1 X126.059 Y92.782 F10800
G1 X125.999 Y92.409
M204 S800
;TYPE:External perimeter
G1 F1200
G1 X124.046 Y92.108 E.06196
G1 X122.207 Y91.171 E.06471
G1 X120.795 Y89.745 E.06292
G1 X119.892 Y87.954 E.06289
G1 X119.587 Y86.03 E.06108
G1 X119.892 Y84.046 E.06294
G1 X120.829 Y82.207 E.06471
G1 X122.255 Y80.795 E.06292
G1 X123.99 Y79.91 E.06107
G1 X125.97 Y79.587 E.0629
G1 X127.954 Y79.892 E.06294
G1 X129.793 Y80.829 E.06471
G1 X131.205 Y82.255 E.06292
G1 X132.09 Y83.99 E.06107
G1 X132.413 Y85.97 E.0629
G1 X132.108 Y87.954 E.06294
G1 X131.171 Y89.793 E.06471
G1 X129.745 Y91.205 E.06292
G1 X127.954 Y92.108 E.06289
G1 X126.059 Y92.409 E.06016
M204 S1000
;WIPE_START
G1 F8640
G1 X125.999 Y92.409 E-.01385
G1 X124.046 Y92.108 E-.45628
G1 X122.773 Y91.459 E-.32987
;WIPE_END
G1 Z.6 F720
G1 X56.938 Y112.775 F10800
G1 Z.2 F720
G1 E.8 F2100
M204 S800
;TYPE:Perimeter
G1 F1200
G1 X56.99 Y112.703 E.00278
G1 X57.703 Y111.99 E.03162
G1 X57.846 Y111.886 E.00554
G1 X58.746 Y111.427 E.03168
G1 X58.915 Y111.372 E.00557
G1 X59.912 Y111.215 E.03165
G1 X60.769 Y111.322 E.02708
G1 X61.254 Y111.427 E.01556
G1 X62.154 Y111.886 E.03168
G1 X62.297 Y111.99 E.00554
G1 X63.01 Y112.703 E.03162
G1 X63.114 Y112.846 E.00554
G1 X63.573 Y113.746 E.03168
G1 X63.628 Y113.915 E.00557
G1 X63.785 Y114.912 E.03165
G1 X63.785 Y115.088 E.00552
G1 X63.628 Y116.085 E.03165
G1 X63.375 Y116.643 E.01921
G1 X63.114 Y117.154 E.01799
G1 X63.01 Y117.297 E.00554
G1 X62.297 Y118.01 E.03162
G1 X62.154 Y118.114 E.00554
G1 X61.254 Y118.573 E.03168
G1 X60.225 Y118.764 E.03281
G1 X59.912 Y118.786 E.00984
G1 X58.914 Y118.628 E.03168
G1 X58.739 Y118.57 E.00578
G1 X57.811 Y118.082 E.03287
G1 X56.99 Y117.297 E.03562
G1 X56.886 Y117.154 E.00554
G1 X56.427 Y116.254 E.03168
G1 X56.372 Y116.086 E.00554
G1 X56.214 Y115.088 E.03168
G1 X56.214 Y114.912 E.00552
G1 X56.372 Y113.914 E.03168
G1 X56.427 Y113.746 E.00554
G1 X56.886 Y112.846 E.03168
G1 X56.902 Y112.823 E.00088
M204 S1000
G1 X56.902 Y112.823 F10800
G1 X57.242 Y112.997
M204 S800
;TYPE:External perimeter
G1 F1200
G1 X57.97 Y112.256 E.03257
G1 X58.917 Y111.763 E.03348
G1 X59.971 Y111.588 E.0335
G1 X61.083 Y111.763 E.0353
G1 X62.03 Y112.256 E.03348
G1 X62.778 Y113.017 E.03346
G1 X63.237 Y113.917 E.03168
G1 X63.412 Y114.971 E.0335
G1 X63.255 Y116.03 E.03357
G1 X62.744 Y117.03 E.03521
G1 X61.983 Y117.778 E.03346
G1 X61.083 Y118.237 E.03168
G1 X59.971 Y118.413 E.0353
G1 X58.915 Y118.236 E.03357
G1 X57.986 Y117.748 E.0329
G1 X57.256 Y117.03 E.0321
G1 X56.763 Y116.083 E.03348
G1 X56.587 Y115.03 E.03347
G1 X56.763 Y113.917 E.03533
G1 X57.208 Y113.045 E.0307
M204 S1000
;WIPE_START
G1 F8640
G1 X57.242 Y112.997 E-.01358
G1 X57.97 Y112.256 E-.23986
G1 X58.917 Y111.763 E-.24652
G1 X59.971 Y111.588 E-.2467
G1 X60.199 Y111.624 E-.05334
;WIPE_END
G1 Z.6 F720
G1 X186.938 Y112.775 F10800
G1 Z.2 F720
G1 E.8 F2100
M204 S800
;TYPE:Perimeter
G1 F1200
G1 X186.99 Y112.703 E.00278
G1 X187.703 Y111.99 E.03162
G1 X187.846 Y111.886 E.00554
G1 X188.746 Y111.427 E.03168
G1 X189.872 Y111.221 E.03589
G1 X190.041 Y111.22 E.0053
G1 X191.078 Y111.371 E.03286
G1 X191.254 Y111.427 E.00579
G1 X192.154 Y111.886 E.03168
G1 X192.297 Y111.99 E.00554
G1 X193.01 Y112.703 E.03162
G1 X193.114 Y112.846 E.00554
G1 X193.573 Y113.746 E.03168
G1 X193.628 Y113.914 E.00554
G1 X193.786 Y114.912 E.03168
G1 X193.786 Y115.088 E.00552
G1 X193.628 Y116.086 E.03168
G1 X193.573 Y116.254 E.00554
G1 X193.114 Y117.154 E.03168
G1 X193.01 Y117.297 E.00554
G1 X192.297 Y118.01 E.03162
G1 X192.154 Y118.114 E.00554
G1 X191.254 Y118.573 E.03168
G1 X191.086 Y118.628 E.00554
G1 X190.088 Y118.786 E.03168
G1 X189.912 Y118.786 E.00552
G1 X188.914 Y118.628 E.03168
G1 X188.746 Y118.573 E.00554
G1 X187.846 Y118.114 E.03168
G1 X187.703 Y118.01 E.00554
G1 X186.99 Y117.297 E.03162
G1 X186.886 Y117.154 E.00554
G1 X186.427 Y116.254 E.03168
G1 X186.372 Y116.085 E.00557
G1 X186.215 Y115.088 E.03165
G1 X186.215 Y114.912 E.00552
G1 X186.372 Y113.915 E.03165
G1 X186.427 Y113.746 E.00557
G1 X186.886 Y112.846 E.03168
G1 X186.902 Y112.823 E.00088
M204 S1000
G1 X186.902 Y112.823 F10800
G1 X187.242 Y112.997
M204 S800
;TYPE:External perimeter
G1 F1200
G1 X187.97 Y112.256 E.03257
G1 X188.917 Y111.763 E.03348
G1 X189.93 Y111.594 E.0322
G1 X191.024 Y111.744 E.03462
G1 X191.983 Y112.222 E.0336
G1 X192.744 Y112.97 E.03346
G1 X193.255 Y113.973 E.03529
G1 X193.413 Y115.03 E.03351
G1 X193.237 Y116.083 E.03347
G1 X192.778 Y116.983 E.03168
G1 X192.03 Y117.744 E.03346
G1 X191.083 Y118.237 E.03348
G1 X189.971 Y118.413 E.0353
G1 X188.917 Y118.237 E.0335
G1 X188.017 Y117.778 E.03168
G1 X187.256 Y117.03 E.03346
G1 X186.763 Y116.083 E.03348
G1 X186.588 Y114.971 E.0353
G1 X186.763 Y113.917 E.0335
G1 X187.208 Y113.045 E.0307
M204 S1000
;WIPE_START
G1 F8640
G1 X187.242 Y112.997 E-.01358
G1 X187.97 Y112.256 E-.23986
G1 X188.917 Y111.763 E-.24652
G1 X189.93 Y111.594 E-.23714
G1 X190.2 Y111.631 E-.0629
;WIPE_END
G1 Z.6 F720
G1 X179.394 Y85.614 F10800
G1 Z.2 F720
G1 E.8 F2100
M204 S800
;TYPE:Perimeter
G1 F1200
G1 X179.524 Y85.727 E.0054
G1 X179.779 Y85.787 E.00821
G1 X199.213 Y85.787 E.60934
G1 X199.213 Y96.815 E.34577
G1 X199.213 Y114.938 E.56823
G1 X198.753 Y117.844 E.09225
G1 X197.445 Y120.41 E.0903
G1 X195.41 Y122.445 E.09024
G1 X192.844 Y123.753 E.0903
G1 X190 Y124.203 E.09028
G1 X187.156 Y123.753 E.09028
G1 X184.59 Y122.445 E.0903
G1 X182.555 Y120.41 E.09024
G1 X181.247 Y117.844 E.0903
G1 X180.79 Y114.957 E.09165
G1 X180.787 Y113.045 E.05995
G1 X180.38 Y109.225 E.12045
G1 X179.577 Y105.493 E.11969
G1 X178.411 Y101.967 E.11644
G1 X176.862 Y98.584 E.11666
G1 X174.931 Y95.401 E.11673
G1 X172.713 Y92.58 E.11252
G1 X170.213 Y90.109 E.11021
G1 X167.951 Y88.391 E.08906
G1 X167.469 Y88.031 E.01886
G1 X164.595 Y86.411 E.10344
G1 X161.5 Y85.201 E.10419
G1 X158.216 Y84.45 E.10563
G1 X155.043 Y84.211 E.09977
G1 X151.784 Y84.45 E.10246
G1 X148.5 Y85.201 E.10563
G1 X145.405 Y86.411 E.10419
G1 X142.467 Y88.073 E.10584
G1 X139.731 Y90.158 E.10786
G1 X137.24 Y92.632 E.11008
G1 X135.031 Y95.456 E.11242
G1 X133.138 Y98.584 E.11464
M73 Q1 S79
G1 X131.59 Y101.964 E.11656
G1 X130.407 Y105.552 E.11846
M73 P1 R78
G1 X129.61 Y109.284 E.11965
G1 X129.214 Y113.045 E.11858
G1 X129.211 Y114.213 E.03662
G1 X120.691 Y114.213 E.26714
G1 X120.688 Y113.045 E.03662
G1 X120.282 Y109.225 E.12045
G1 X119.478 Y105.493 E.1197
G1 X118.289 Y101.909 E.1184
G1 X116.733 Y98.527 E.11672
G1 X114.832 Y95.401 E.11471
G1 X112.615 Y92.58 E.1125
G1 X110.114 Y90.109 E.11024
G1 X107.37 Y88.031 E.10792
M73 P1 R77
G1 X104.497 Y86.411 E.10341
G1 X101.401 Y85.201 E.10422
G1 X98.2 Y84.463 E.103
G1 X94.858 Y84.211 E.10508
G1 X91.602 Y84.463 E.10239
G1 X88.48 Y85.176 E.10041
G1 X85.306 Y86.411 E.10679
G1 X82.368 Y88.073 E.10584
G1 X79.632 Y90.158 E.10786
G1 X77.141 Y92.632 E.11008
G1 X74.932 Y95.456 E.11242
G1 X73.039 Y98.584 E.11464
G1 X71.491 Y101.967 E.11665
G1 X70.309 Y105.552 E.11836
G1 X69.722 Y108.287 E.08771
G1 X69.511 Y109.284 E.03195
G1 X69.112 Y113.104 E.12042
G1 X69.115 Y116.955 E.12075
G1 X69.213 Y117.884 E.02929
G1 X69.213 Y134.213 E.51198
G1 X50.787 Y134.213 E.57773
G1 X50.787 Y85.787 E1.51836
G1 X69.488 Y85.787 E.58636
G1 X70.306 Y85.781 E.02565
G1 X70.547 Y85.684 E.00815
G1 X70.714 Y85.499 E.00781
G1 X70.787 Y85.221 E.00901
G1 X70.787 Y75.787 E.2958
G1 X179.213 Y75.787 E3.39962
G1 X179.213 Y85.221 E.2958
G1 X179.218 Y85.295 E.00233
G1 X179.317 Y85.548 E.00852
G1 X179.348 Y85.575 E.00129
M204 S1000
G1 X179.348 Y85.575 F10800
G1 X179.632 Y85.322
M204 S800
;TYPE:External perimeter
G1 F1200
G1 X179.646 Y85.355 E.00112
G1 X179.779 Y85.41 E.00451
G1 X199.59 Y85.41 E.62116
G1 X199.59 Y96.815 E.3576
G1 X199.59 Y114.968 E.56917
M73 Q1 S78
G1 X199.116 Y117.962 E.09504
G1 X197.754 Y120.634 E.09403
G1 X195.634 Y122.754 E.094
G1 X192.962 Y124.116 E.09403
G1 X190 Y124.585 E.09403
G1 X187.038 Y124.116 E.09403
G1 X184.366 Y122.754 E.09403
G1 X182.246 Y120.634 E.094
G1 X180.884 Y117.962 E.09403
G1 X180.413 Y114.987 E.09444
G1 X180.412 Y113.085 E.05964
G1 X180.011 Y109.304 E.11922
G1 X179.219 Y105.612 E.11839
G1 X178.053 Y102.086 E.11644
G1 X176.519 Y98.741 E.11538
G1 X174.634 Y95.633 E.11397
G1 X172.447 Y92.848 E.11103
G1 X169.985 Y90.409 E.10866
G1 X167.723 Y88.691 E.08906
G1 X167.284 Y88.359 E.01726
G1 X164.41 Y86.739 E.10344
G1 X161.364 Y85.552 E.1025
G1 X158.187 Y84.826 E.10218
G1 X155.014 Y84.587 E.09977
G1 X151.813 Y84.826 E.10064
G1 X148.636 Y85.552 E.10218
G1 X145.59 Y86.739 E.1025
G1 X142.697 Y88.372 E.10416
G1 X139.997 Y90.426 E.10637
G1 X137.537 Y92.865 E.10862
G1 X135.353 Y95.652 E.11102
G1 X133.481 Y98.741 E.11325
G1 X131.947 Y102.085 E.11535
G1 X130.776 Y105.631 E.11709
G1 X129.985 Y109.323 E.11839
G1 X129.589 Y113.085 E.11861
G1 X129.588 Y114.59 E.04719
G1 X120.314 Y114.59 E.29078
G1 X120.313 Y113.085 E.04719
G1 X119.913 Y109.304 E.11921
G1 X119.12 Y105.612 E.1184
G1 X117.947 Y102.066 E.11711
G1 X116.41 Y98.722 E.11539
G1 X114.548 Y95.652 E.11258
G1 X112.365 Y92.865 E.111
G1 X109.886 Y90.409 E.10941
G1 X107.185 Y88.359 E.10632
G1 X104.312 Y86.739 E.10341
G1 X101.264 Y85.552 E.10256
G1 X98.116 Y84.831 E.10126
G1 X94.887 Y84.587 E.10153
G1 X91.686 Y84.831 E.10066
G1 X88.564 Y85.544 E.10041
G1 X85.491 Y86.739 E.10338
G1 X82.596 Y88.373 E.10423
G1 X79.898 Y90.426 E.1063
G1 X77.438 Y92.865 E.10862
G1 X75.254 Y95.652 E.11102
G1 X73.382 Y98.741 E.11325
G1 X71.849 Y102.086 E.11537
G1 X70.678 Y105.631 E.11706
G1 X70.091 Y108.366 E.08771
G1 X69.886 Y109.323 E.03069
G1 X69.489 Y113.104 E.1192
G1 X69.49 Y116.915 E.11949
G1 X69.59 Y117.864 E.02992
G1 X69.59 Y134.59 E.52443
G1 X50.41 Y134.59 E.60137
G1 X50.41 Y85.41 E1.542
G1 X70.221 Y85.41 E.62116
G1 X70.339 Y85.369 E.00392
G1 X70.41 Y85.221 E.00515
G1 X70.41 Y75.41 E.30762
G1 X179.59 Y75.41 E3.42326
G1 X179.59 Y85.221 E.30762
G1 X179.609 Y85.267 E.00156
M204 S1000
;WIPE_START
G1 F8640
G1 X179.632 Y85.322 E-.01377
G1 X179.646 Y85.355 E-.00828
G1 X179.779 Y85.41 E-.03323
G1 X183.004 Y85.41 E-.74472
;WIPE_END
G1 Z.6 F720
G1 X178.682 Y75.957 F10800
G1 Z.2 F720
G1 E.8 F2100
M204 S800
;TYPE:Solid infill
;WIDTH:0.420008
G1 F1200
G1 X178.874 Y76.148 E.00849
G1 X178.874 Y76.682 E.01674
G1 X178.318 Y76.126 E.02465
G1 X177.785 Y76.126 E.01671
G1 X178.874 Y77.215 E.04829
G1 X178.874 Y77.749 E.01674
G1 X177.252 Y76.126 E.07195
G1 X176.718 Y76.126 E.01674
G1 X178.874 Y78.282 E.0956
G1 X178.874 Y78.815 E.01671
G1 X176.185 Y76.126 E.11924
G1 X175.652 Y76.126 E.01671
G1 X178.874 Y79.349 E.14289
G1 X178.874 Y79.882 E.01671
G1 X175.119 Y76.126 E.16653
G1 X174.585 Y76.126 E.01674
G1 X178.874 Y80.416 E.19021
G1 X178.874 Y80.949 E.01671
G1 X174.052 Y76.126 E.21384
G1 X173.519 Y76.126 E.01671
G1 X178.875 Y81.482 E.2375
G1 X178.875 Y82.016 E.01674
G1 X172.985 Y76.126 E.26118
G1 X172.452 Y76.126 E.01671
G1 X178.875 Y82.549 E.28481
G1 X178.875 Y83.082 E.01671
G1 X171.919 Y76.126 E.30845
G1 X171.386 Y76.126 E.01671
G1 X178.875 Y83.616 E.3321
G1 X178.875 Y84.149 E.01671
M73 P2 R77
G1 X170.852 Y76.126 E.35576
G1 X170.319 Y76.126 E.01671
M73 Q2 S78
G1 X179.045 Y84.852 E.38693
M204 S1000
;WIPE_START
G1 F8640
G1 X176.595 Y82.402 E-.8
;WIPE_END
G1 Z.6 F720
G1 X198.281 Y85.957 F10800
G1 Z.2 F720
G1 E.8 F2100
M204 S800
G1 F1200
G1 X198.874 Y86.549 E.02627
G1 X198.874 Y87.083 E.01674
G1 X197.917 Y86.126 E.04244
G1 X197.384 Y86.126 E.01671
G1 X198.874 Y87.616 E.06607
G1 X198.874 Y88.149 E.01671
G1 X196.851 Y86.126 E.08971
G1 X196.318 Y86.126 E.01671
G1 X198.874 Y88.683 E.11336
G1 X198.874 Y89.216 E.01671
G1 X195.784 Y86.126 E.13702
G1 X195.251 Y86.126 E.01671
G1 X198.874 Y89.749 E.16065
G1 X198.874 Y90.282 E.01671
G1 X194.718 Y86.126 E.18429
G1 X194.184 Y86.126 E.01674
G1 X198.874 Y90.816 E.20797
G1 X198.874 Y91.349 E.01671
G1 X193.651 Y86.126 E.2316
G1 X193.118 Y86.126 E.01671
G1 X198.874 Y91.882 E.25524
G1 X198.874 Y92.415 E.01671
G1 X192.585 Y86.126 E.27887
G1 X192.051 Y86.126 E.01674
G1 X198.874 Y92.949 E.30255
G1 X198.874 Y93.482 E.01671
G1 X191.518 Y86.126 E.32618
G1 X190.985 Y86.126 E.01671
G1 X198.874 Y94.015 E.34982
G1 X198.874 Y94.549 E.01674
G1 X190.451 Y86.126 E.3735
G1 X189.918 Y86.126 E.01671
G1 X198.874 Y95.082 E.39713
G1 X198.874 Y95.615 E.01671
G1 X189.385 Y86.126 E.42077
G1 X188.852 Y86.126 E.01671
G1 X198.874 Y96.148 E.4444
G1 X198.874 Y96.682 E.01674
G1 X188.318 Y86.126 E.46808
