; generated by PrusaSlicer 2.8.0+win64 on 2024-08-30 at 07:43:53 UTC


;
;
; 

; external perimeters extrusion width = 0.60mm
; perimeters extrusion width = 0.50mm
; infill extrusion width = 0.50mm
; solid infill extrusion width = 0.50mm
; top infill extrusion width = 0.45mm
; first layer extrusion width = 0.42mm

M73 P0 R99
M73 Q0 S100
M201 X1000 Y1000 Z200 E5000 ; sets maximum accelerations, mm/sec^2
M203 X200 Y200 Z12 E120 ; sets maximum feedrates, mm / sec
M204 S1250 T1250 ; sets acceleration (S) and retract acceleration (R), mm/sec^2
M205 X8.00 Y8.00 Z0.40 E4.50 ; sets the jerk limits, mm/sec
M205 S0 T0 ; sets the minimum extruding and travel feed rate, mm/sec

; printing object StockHaFu.stl id:0 copy 0
; stop printing object StockHaFu.stl id:0 copy 0

;TYPE:Custom
M862.3 P "MK3S" ; printer model check
M862.1 P0.4 ; nozzle diameter check
M115 U3.13.3 ; tell printer latest fw version
G90 ; use absolute coordinates
M83 ; extruder relative mode
M104 S215 ; set extruder temp
M140 S60 ; set bed temp
M190 S60 ; wait for bed temp
M109 S215 ; wait for extruder temp
G28 W ; home all without mesh bed level
G80 X92.6229 Y17.6229 W64.7542 H174.754 ; mesh bed levelling

G1 Z0.2 F720
G1 Y-3 F1000 ; go outside print area
G92 E0
G1 X60 E9 F1000 ; intro line
G1 X100 E12.5 F1000 ; intro line

G92 E0
M221 S95

; Don't change E values below. Excessive value can damage the printer.

M907 E538 ; set extruder motor current
G21 ; set units to millimeters
G90 ; use absolute coordinates
M83 ; use relative distances for extrusion

M900 K0.05 ; Filament gcode LA 1.5
M900 K30 ; Filament gcode LA 1.0




M107
;LAYER_CHANGE
;Z:0.2
;HEIGHT:0.2
G1 E-.8 F2100
G1 Z.6 F720
G1 X93.362 Y38.672 F10800
G1 Z.2 F720
G1 E.8 F2100
M204 S800
;TYPE:Skirt/Brim
;WIDTH:0.42
G1 F1200
G1 X93.452 Y38.452 E.00745
G1 X113.452 Y18.452 E.88683
G1 X115 Y17.811 E.05253
G1 X145.342 Y17.838 E.95135
G1 X148.432 Y18.327 E.09809
G1 X149.084 Y18.539 E.0215
G1 X151.872 Y19.96 E.09812
G1 X152.426 Y20.362 E.02146
G1 X154.638 Y22.574 E.09808
G1 X155.04 Y23.128 E.02146
G1 X156.461 Y25.916 E.09812
G1 X156.673 Y26.568 E.0215
G1 X157.189 Y30 E.10882
G1 X157.189 Y180 E4.70314
G1 X156.673 Y183.432 E.10882
G1 X156.461 Y184.084 E.0215
G1 X155.04 Y186.872 E.09812
G1 X154.638 Y187.426 E.02146
G1 X152.426 Y189.638 E.09808
G1 X151.872 Y190.04 E.02146
G1 X149.084 Y191.461 E.09812
G1 X148.432 Y191.673 E.0215
G1 X145 Y192.189 E.10882
G1 X115 Y192.189 E.94063
G1 X113.452 Y191.548 E.05253
G1 X93.452 Y171.548 E.88683
G1 X92.811 Y170 E.05253
G1 X92.811 Y40 E4.07606
G1 X93.339 Y38.727 E.04321
M73 P0 R98
M204 S1000
;WIPE_START
G1 F8640
G1 X93.362 Y38.672 E-.01377
G1 X93.452 Y38.452 E-.05488
G1 X95.692 Y36.212 E-.73135
;WIPE_END
G1 Z.6 F720
; printing object StockHaFu.stl id:0 copy 0
G1 X111.095 Y92.554 F10800
G1 Z.2 F720
G1 E.8 F2100
M204 S800
;TYPE:Perimeter
;WIDTH:0.419999
G1 F1200
G1 X111.369 Y92.67 E.00933
G1 X112.917 Y93.459 E.05448
G1 X113.06 Y93.563 E.00554
G1 X114.437 Y94.94 E.06106
G1 X114.541 Y95.083 E.00554
G1 X115.426 Y96.819 E.0611
G1 X115.481 Y96.987 E.00554
G1 X115.785 Y98.912 E.0611
G1 X115.785 Y99.088 E.00552
G1 X115.481 Y101.013 E.0611
G1 X115.364 Y101.304 E.00983
G1 X114.541 Y102.917 E.05678
G1 X114.437 Y103.06 E.00554
G1 X113.06 Y104.437 E.06106
G1 X112.917 Y104.541 E.00554
G1 X111.181 Y105.426 E.0611
G1 X111.013 Y105.481 E.00554
G1 X109.089 Y105.786 E.06108
G1 X107.881 Y105.623 E.03822
G1 X106.987 Y105.481 E.02838
G1 X106.819 Y105.426 E.00554
G1 X105.083 Y104.541 E.0611
G1 X104.94 Y104.437 E.00554
G1 X103.563 Y103.06 E.06106
G1 X103.459 Y102.917 E.00554
G1 X102.574 Y101.181 E.0611
G1 X102.519 Y101.013 E.00554
G1 X102.214 Y99.089 E.06108
G1 X102.214 Y98.911 E.00558
G1 X102.519 Y96.987 E.06108
G1 X102.574 Y96.819 E.00554
G1 X103.459 Y95.083 E.0611
G1 X103.563 Y94.94 E.00554
G1 X104.94 Y93.563 E.06106
G1 X105.083 Y93.459 E.00554
G1 X106.819 Y92.574 E.0611
G1 X107.107 Y92.5 E.00932
G1 X108.871 Y92.221 E.056
G1 X109.451 Y92.282 E.01829
G1 X111.009 Y92.519 E.04941
G1 X111.039 Y92.531 E.00101
M204 S1000
G1 X111.039 Y92.531 F10800
G1 X110.981 Y92.906
M204 S800
;TYPE:External perimeter
G1 F1200
G1 X112.793 Y93.829 E.06376
G1 X114.205 Y95.255 E.06292
G1 X115.091 Y96.992 E.06114
G1 X115.412 Y99.029 E.06466
G1 X115.108 Y100.954 E.0611
G1 X114.171 Y102.793 E.06471
G1 X112.745 Y104.205 E.06292
G1 X111.01 Y105.09 E.06107
G1 X109.03 Y105.413 E.0629
G1 X106.99 Y105.09 E.06476
G1 X105.207 Y104.171 E.06289
G1 X103.829 Y102.793 E.0611
G1 X102.892 Y100.954 E.06471
G1 X102.587 Y98.97 E.06294
G1 X102.91 Y96.99 E.0629
G1 X103.829 Y95.207 E.06289
G1 X105.255 Y93.795 E.06292
G1 X106.99 Y92.91 E.06107
G1 X108.93 Y92.593 E.06163
G1 X110.925 Y92.887 E.06323
M204 S1000
;WIPE_START
G1 F8640
G1 X110.981 Y92.906 E-.01365
G1 X112.793 Y93.829 E-.46955
G1 X113.759 Y94.804 E-.3168
;WIPE_END
G1 Z.6 F720
G1 X125 Y22.214 F10800
G1 Z.2 F720
G1 E.8 F2100
M204 S800
;TYPE:Perimeter
G1 F1200
G1 X125.089 Y22.214 E.00279
G1 X127.013 Y22.519 E.06108
G1 X127.181 Y22.574 E.00554
G1 X128.917 Y23.459 E.0611
G1 X129.06 Y23.563 E.00554
G1 X130.437 Y24.94 E.06106
G1 X130.541 Y25.083 E.00554
G1 X131.426 Y26.819 E.0611
G1 X131.648 Y28.042 E.03897
G1 X131.786 Y28.912 E.02762
G1 X131.481 Y31.013 E.06657
G1 X131.388 Y31.255 E.00813
G1 X130.541 Y32.917 E.05849
G1 X130.437 Y33.06 E.00554
G1 X129.06 Y34.437 E.06106
G1 X128.917 Y34.541 E.00554
G1 X127.181 Y35.426 E.0611
G1 X127.013 Y35.481 E.00554
G1 X125.088 Y35.785 E.0611
G1 X124.879 Y35.78 E.00655
G1 X122.987 Y35.481 E.06006
G1 X122.819 Y35.426 E.00554
G1 X121.083 Y34.541 E.0611
G1 X120.94 Y34.437 E.00554
G1 X119.563 Y33.06 E.06106
G1 X119.459 Y32.917 E.00554
G1 X118.574 Y31.181 E.0611
G1 X118.519 Y31.013 E.00554
G1 X118.214 Y29.089 E.06108
G1 X118.214 Y28.911 E.00558
G1 X118.519 Y26.987 E.06108
G1 X118.574 Y26.819 E.00554
G1 X119.459 Y25.083 E.0611
G1 X119.751 Y24.751 E.01386
G1 X120.94 Y23.563 E.0527
G1 X121.083 Y23.459 E.00554
G1 X122.819 Y22.574 E.0611
G1 X122.987 Y22.519 E.00554
G1 X124.911 Y22.214 E.06108
G1 X124.94 Y22.214 E.00091
M204 S1000
G1 X124.94 Y22.214 F10800
G1 X124.999 Y22.591
M204 S800
;TYPE:External perimeter
G1 F1200
G1 X126.954 Y22.892 E.06202
G1 X128.793 Y23.829 E.06471
G1 X130.205 Y25.255 E.06292
G1 X131.09 Y26.99 E.06107
G1 X131.276 Y28.101 E.03532
G1 X131.413 Y28.971 E.02761
G1 X131.108 Y30.956 E.06297
G1 X130.171 Y32.793 E.06466
G1 X128.793 Y34.171 E.0611
G1 X127.01 Y35.09 E.06289
G1 X125.029 Y35.412 E.06293
G1 X122.99 Y35.09 E.06472
G1 X121.207 Y34.171 E.06289
G1 X119.829 Y32.793 E.0611
G1 X118.91 Y31.01 E.06289
G1 X118.587 Y29.03 E.0629
G1 X118.91 Y26.99 E.06476
G1 X119.795 Y25.255 E.06107
G1 X120.018 Y25.018 E.0102
G1 X121.255 Y23.795 E.05454
G1 X122.99 Y22.91 E.06107
G1 X124.94 Y22.592 E.06195
M204 S1000
;WIPE_START
G1 F8640
G1 X124.999 Y22.591 E-.01363
G1 X126.954 Y22.892 E-.45673
G1 X128.226 Y23.54 E-.32964
;WIPE_END
G1 Z.6 F720
G1 X147.225 Y26.938 F10800
G1 Z.2 F720
G1 E.8 F2100
M204 S800
;TYPE:Perimeter
G1 F1200
G1 X147.297 Y26.99 E.00278
G1 X148.01 Y27.703 E.03162
G1 X148.114 Y27.846 E.00554
M73 Q0 S99
G1 X148.573 Y28.746 E.03168
G1 X148.628 Y28.914 E.00554
G1 X148.786 Y29.912 E.03168
G1 X148.786 Y30.088 E.00552
G1 X148.628 Y31.086 E.03168
G1 X148.573 Y31.254 E.00554
G1 X148.114 Y32.154 E.03168
G1 X148.01 Y32.297 E.00554
G1 X147.297 Y33.01 E.03162
G1 X147.154 Y33.114 E.00554
G1 X146.254 Y33.573 E.03168
G1 X146.085 Y33.628 E.00557
G1 X145.088 Y33.785 E.03165
G1 X143.915 Y33.628 E.03711
G1 X143.746 Y33.573 E.00557
G1 X142.846 Y33.114 E.03168
G1 X142.416 Y32.723 E.01822
G1 X141.99 Y32.297 E.01889
G1 X141.886 Y32.154 E.00554
G1 X141.427 Y31.254 E.03168
G1 X141.208 Y30.009 E.03964
G1 X141.372 Y28.914 E.03472
G1 X141.886 Y27.846 E.03716
G1 X141.99 Y27.703 E.00554
G1 X142.703 Y26.99 E.03162
G1 X142.846 Y26.886 E.00554
G1 X143.746 Y26.427 E.03168
G1 X144.871 Y26.221 E.03586
G1 X145.041 Y26.22 E.00533
G1 X146.079 Y26.371 E.03289
G1 X146.254 Y26.427 E.00576
G1 X147.154 Y26.886 E.03168
G1 X147.177 Y26.902 E.00088
M204 S1000
G1 X147.177 Y26.902 F10800
G1 X147.004 Y27.243
M204 S800
;TYPE:External perimeter
G1 F1200
G1 X147.03 Y27.256 E.00091
G1 X147.778 Y28.017 E.03346
G1 X148.237 Y28.917 E.03168
G1 X148.413 Y29.971 E.0335
G1 X148.255 Y31.027 E.03348
G1 X147.744 Y32.03 E.03529
G1 X146.983 Y32.778 E.03346
G1 X146.083 Y33.237 E.03168
G1 X145.029 Y33.412 E.0335
G1 X143.917 Y33.237 E.0353
G1 X143.017 Y32.778 E.03168
G1 X142.256 Y32.03 E.03346
G1 X141.762 Y31.081 E.03355
G1 X141.585 Y30.003 E.03425
G1 X141.745 Y28.973 E.03268
G1 X142.256 Y27.97 E.03529
G1 X143.017 Y27.222 E.03346
G1 X143.917 Y26.763 E.03168
G1 X144.987 Y26.593 E.03397
G1 X146.027 Y26.744 E.03295
G1 X146.951 Y27.216 E.03253
M204 S1000
;WIPE_START
G1 F8640
G1 X147.004 Y27.243 E-.01373
G1 X147.03 Y27.256 E-.00671
G1 X147.778 Y28.017 E-.24639
G1 X148.237 Y28.917 E-.23328
G1 X148.413 Y29.971 E-.24674
G1 X148.379 Y30.199 E-.05315
;WIPE_END
G1 Z.6 F720
G1 X146.17 Y183.601 F10800
G1 Z.2 F720
G1 E.8 F2100
M204 S800
;TYPE:Perimeter
G1 F1200
G1 X146.086 Y183.628 E.00277
G1 X145.088 Y183.786 E.03168
G1 X144.912 Y183.786 E.00552
G1 X143.914 Y183.628 E.03168
G1 X143.746 Y183.573 E.00554
G1 X142.846 Y183.114 E.03168
G1 X142.703 Y183.01 E.00554
G1 X141.99 Y182.297 E.03162
G1 X141.886 Y182.154 E.00554
G1 X141.427 Y181.254 E.03168
G1 X141.246 Y180.285 E.03091
G1 X141.215 Y179.912 E.01174
G1 X141.372 Y178.915 E.03165
G1 X141.427 Y178.746 E.00557
G1 X141.886 Y177.846 E.03168
G1 X142.482 Y177.211 E.02731
G1 X142.846 Y176.886 E.0153
G1 X143.746 Y176.427 E.03168
G1 X144.688 Y176.25 E.03005
G1 X145.041 Y176.22 E.01111
G1 X146.078 Y176.371 E.03286
G1 X146.254 Y176.427 E.00579
G1 X147.154 Y176.886 E.03168
G1 X147.297 Y176.99 E.00554
G1 X148.01 Y177.703 E.03162
G1 X148.114 Y177.846 E.00554
G1 X148.573 Y178.746 E.03168
G1 X148.628 Y178.914 E.00554
G1 X148.786 Y179.912 E.03168
G1 X148.786 Y180.088 E.00552
G1 X148.628 Y181.086 E.03168
G1 X148.573 Y181.254 E.00554
G1 X148.114 Y182.154 E.03168
G1 X148.01 Y182.297 E.00554
G1 X147.297 Y183.01 E.03162
G1 X147.154 Y183.114 E.00554
G1 X146.254 Y183.573 E.03168
G1 X146.227 Y183.582 E.00089
M204 S1000
G1 X146.227 Y183.582 F10800
G1 X146.054 Y183.242
M204 S800
;TYPE:External perimeter
G1 F1200
G1 X145.029 Y183.413 E.03258
G1 X143.917 Y183.237 E.0353
G1 X143.017 Y182.778 E.03168
G1 X142.256 Y182.03 E.03346
G1 X141.763 Y181.083 E.03348
G1 X141.588 Y179.971 E.0353
G1 X141.763 Y178.917 E.0335
G1 X142.222 Y178.017 E.03168
G1 X142.749 Y177.477 E.02366
G1 X143.017 Y177.222 E.0116
G1 X143.917 Y176.763 E.03168
G1 X144.987 Y176.594 E.03396
G1 X146.083 Y176.763 E.03477
G1 X147.03 Y177.256 E.03348
G1 X147.778 Y178.017 E.03346
G1 X148.237 Y178.917 E.03168
G1 X148.413 Y179.971 E.0335
G1 X148.237 Y181.083 E.0353
G1 X147.778 Y181.983 E.03168
G1 X147.03 Y182.744 E.03346
G1 X146.11 Y183.223 E.03252
M204 S1000
;WIPE_START
G1 F8640
G1 X146.054 Y183.242 E-.01365
G1 X145.029 Y183.413 E-.23995
G1 X143.917 Y183.237 E-.25996
G1 X143.017 Y182.778 E-.23328
G1 X142.853 Y182.617 E-.05316
;WIPE_END
G1 Z.6 F720
G1 X124 Y187.786 F10800
G1 Z.2 F720
G1 E.8 F2100
M204 S800
;TYPE:Perimeter
G1 F1200
G1 X123.911 Y187.786 E.00279
G1 X121.987 Y187.481 E.06108
G1 X121.819 Y187.426 E.00554
G1 X120.083 Y186.541 E.0611
G1 X119.251 Y185.749 E.03602
G1 X118.563 Y185.06 E.03053
G1 X118.459 Y184.917 E.00554
G1 X117.574 Y183.181 E.0611
G1 X117.519 Y183.013 E.00554
G1 X117.214 Y181.089 E.06108
G1 X117.214 Y180.911 E.00558
G1 X117.519 Y178.987 E.06108
G1 X117.574 Y178.819 E.00554
G1 X118.459 Y177.083 E.0611
G1 X118.563 Y176.94 E.00554
G1 X119.94 Y175.563 E.06106
G1 X120.083 Y175.459 E.00554
G1 X121.819 Y174.574 E.0611
G1 X121.987 Y174.519 E.00554
G1 X123.912 Y174.215 E.0611
G1 X124.486 Y174.278 E.01811
G1 X126.013 Y174.519 E.04847
G1 X126.181 Y174.574 E.00554
G1 X127.922 Y175.461 E.06126
G1 X128.06 Y175.563 E.00538
G1 X129.437 Y176.94 E.06106
G1 X129.93 Y177.845 E.03231
G1 X130.443 Y178.855 E.03552
G1 X130.786 Y180.911 E.06536
G1 X130.665 Y181.85 E.02969
G1 X130.481 Y183.013 E.03692
G1 X130.426 Y183.181 E.00554
G1 X129.541 Y184.917 E.0611
G1 X129.437 Y185.06 E.00554
G1 X128.06 Y186.437 E.06106
G1 X127.917 Y186.541 E.00554
G1 X126.181 Y187.426 E.0611
G1 X126.013 Y187.481 E.00554
G1 X124.089 Y187.786 E.06108
G1 X124.06 Y187.786 E.00091
M204 S1000
G1 X124.06 Y187.786 F10800
G1 X124.001 Y187.409
M204 S800
;TYPE:External perimeter
G1 F1200
G1 X121.99 Y187.09 E.06384
G1 X120.255 Y186.205 E.06107
G1 X118.829 Y184.793 E.06292
G1 X117.91 Y183.01 E.06289
G1 X117.587 Y180.97 E.06476
G1 X117.91 Y178.99 E.0629
G1 X118.829 Y177.207 E.06289
G1 X120.207 Y175.829 E.0611
G1 X121.99 Y174.91 E.06289
G1 X123.971 Y174.588 E.06293
G1 X126.01 Y174.91 E.06472
G1 X127.747 Y175.795 E.06112
G1 X129.171 Y177.207 E.06288
G1 X130.096 Y179.002 E.06331
G1 X130.413 Y180.97 E.0625
G1 X130.09 Y183.01 E.06476
G1 X129.171 Y184.793 E.06289
G1 X127.793 Y186.171 E.0611
G1 X126.01 Y187.09 E.06289
G1 X124.06 Y187.408 E.06195
M204 S1000
;WIPE_START
G1 F8640
G1 X124.001 Y187.409 E-.01363
G1 X121.99 Y187.09 E-.47015
G1 X120.77 Y186.468 E-.31622
;WIPE_END
G1 Z.6 F720
G1 X115.607 Y169.39 F10800
G1 Z.2 F720
G1 E.8 F2100
M204 S800
;TYPE:Perimeter
G1 F1200
G1 X115.492 Y169.282 E.00495
G1 X115.221 Y169.213 E.00877
G1 X95.787 Y169.213 E.60934
G1 X95.787 Y40.787 E4.0267
G1 X115.221 Y40.787 E.60934
G1 X115.328 Y40.777 E.00337
G1 X115.566 Y40.67 E.00818
G1 X115.736 Y40.456 E.00857
G1 X115.787 Y40.221 E.00754
G1 X115.787 Y20.787 E.60934
G1 X144.938 Y20.787 E.91401
M73 P1 R98
M73 Q1 S99
G1 X147.844 Y21.247 E.09225
G1 X150.41 Y22.555 E.0903
G1 X152.445 Y24.59 E.09024
G1 X153.753 Y27.156 E.0903
G1 X154.203 Y30 E.09028
G1 X153.753 Y32.844 E.09028
G1 X152.445 Y35.41 E.0903
G1 X150.41 Y37.445 E.09024
G1 X147.844 Y38.753 E.0903
G1 X144.69 Y39.252 E.10012
G1 X144.414 Y39.379 E.00953
G1 X144.271 Y39.562 E.00728
G1 X144.213 Y39.811 E.00802
G1 X144.213 Y44.21 E.13793
G1 X143.741 Y44.212 E.0148
G1 X139.309 Y44.616 E.13954
G1 X135.032 Y45.402 E.13635
G1 X130.819 Y46.596 E.1373
G1 X126.895 Y48.143 E.13225
G1 X123.26 Y50.037 E.12852
G1 X120.679 Y51.772 E.09751
G1 X119.979 Y52.247 E.02652
G1 X117.156 Y54.689 E.11703
G1 X114.728 Y57.421 E.1146
G1 X112.745 Y60.437 E.11317
G1 X111.373 Y63.461 E.10412
G1 X110.509 Y66.676 E.10438
G1 X110.211 Y69.95 E.10308
G1 X110.492 Y73.228 E.10316
G1 X111.373 Y76.539 E.10743
G1 X112.788 Y79.64 E.10687
G1 X114.728 Y82.579 E.11042
G1 X117.156 Y85.311 E.1146
G1 X120.034 Y87.795 E.1192
G1 X123.315 Y89.996 E.12388
G1 X126.946 Y91.88 E.12826
G1 X130.872 Y93.422 E.13225
G1 X135.031 Y94.598 E.13552
G1 X139.36 Y95.391 E.13799
G1 X143.741 Y95.787 E.13792
G1 X144.213 Y95.789 E.0148
G1 X144.213 Y104.211 E.26407
G1 X142.424 Y104.213 E.05609
G1 X137.365 Y104.696 E.15934
G1 X132.479 Y105.639 E.15602
G1 X127.733 Y107.048 E.15523
G1 X123.199 Y108.921 E.15381
G1 X119.113 Y111.152 E.14597
G1 X115.32 Y113.829 E.14556
G1 X112.045 Y116.811 E.13887
G1 X109.334 Y120.022 E.13176
G1 X107.131 Y123.531 E.12991
G1 X105.525 Y127.228 E.12638
G1 X104.546 Y131.056 E.12389
G1 X104.211 Y134.953 E.12264
G1 X104.546 Y138.944 E.12557
G1 X105.525 Y142.772 E.12389
G1 X107.131 Y146.469 E.12638
G1 X109.334 Y149.978 E.12991
G1 X112.097 Y153.243 E.13411
G1 X115.32 Y156.171 E.13653
G1 X119.113 Y158.848 E.14556
G1 X123.254 Y161.105 E.14787
G1 X127.733 Y162.952 E.15191
G1 X132.479 Y164.361 E.15523
G1 X137.419 Y165.312 E.15773
G1 X142.424 Y165.788 E.15764
G1 X144.213 Y165.79 E.05609
G1 X144.213 Y170.189 E.13793
G1 X144.255 Y170.402 E.00681
G1 X144.414 Y170.621 E.00849
G1 X144.69 Y170.748 E.00953
G1 X147.844 Y171.247 E.10012
G1 X150.41 Y172.555 E.0903
G1 X152.445 Y174.59 E.09024
G1 X153.753 Y177.156 E.0903
G1 X154.203 Y180 E.09028
G1 X154.137 Y180.42 E.01333
G1 X153.753 Y182.844 E.07695
G1 X152.445 Y185.41 E.0903
G1 X150.41 Y187.445 E.09024
G1 X147.844 Y188.753 E.0903
G1 X144.938 Y189.213 E.09225
G1 X115.787 Y189.213 E.91401
G1 X115.787 Y169.779 E.60934
G1 X115.703 Y169.481 E.00971
G1 X115.65 Y169.432 E.00226
M204 S1000
G1 X115.65 Y169.432 F10800
G1 X115.323 Y169.635
M204 S800
;TYPE:External perimeter
G1 F1200
G1 X115.221 Y169.59 E.0035
G1 X95.41 Y169.59 E.62116
G1 X95.41 Y40.41 E4.05034
