; generated by PrusaSlicer 2.8.0+win64 on 2024-10-31 at 06:54:19 UTC


;
;
; 

; external perimeters extrusion width = 0.60mm
; perimeters extrusion width = 0.50mm
; infill extrusion width = 0.50mm
; solid infill extrusion width = 0.50mm
; top infill extrusion width = 0.45mm
; first layer extrusion width = 0.42mm

M73 P0 R91
M73 Q0 S93
M201 X1000 Y1000 Z200 E5000 ; sets maximum accelerations, mm/sec^2
M203 X200 Y200 Z12 E120 ; sets maximum feedrates, mm / sec
M204 S1250 T1250 ; sets acceleration (S) and retract acceleration (R), mm/sec^2
M205 X8.00 Y8.00 Z0.40 E4.50 ; sets the jerk limits, mm/sec
M205 S0 T0 ; sets the minimum extruding and travel feed rate, mm/sec

; printing object IKEA_Skadis_AA__AAA_Holder.stl id:0 copy 0
; stop printing object IKEA_Skadis_AA__AAA_Holder.stl id:0 copy 0

;TYPE:Custom
M862.3 P "MK3S" ; printer model check
M862.1 P0.4 ; nozzle diameter check
M115 U3.13.3 ; tell printer latest fw version
G90 ; use absolute coordinates
M83 ; extruder relative mode
M104 S215 ; set extruder temp
M140 S60 ; set bed temp
M190 S60 ; wait for bed temp
M109 S215 ; wait for extruder temp
G28 W ; home all without mesh bed level
G80 X59.8229 Y80.9739 W130.354 H48.0522 ; mesh bed levelling

G1 Z0.2 F720
G1 Y-3 F1000 ; go outside print area
G92 E0
G1 X60 E9 F1000 ; intro line
G1 X100 E12.5 F1000 ; intro line

G92 E0
M221 S95

; Don't change E values below. Excessive value can damage the printer.

M907 E538 ; set extruder motor current
G21 ; set units to millimeters
G90 ; use absolute coordinates
M83 ; use relative distances for extrusion

M900 K0.05 ; Filament gcode LA 1.5
M900 K30 ; Filament gcode LA 1.0




M107
;LAYER_CHANGE
;Z:0.2
;HEIGHT:0.2
G1 E-.8 F2100
G1 Z.6 F720
G1 X62.256 Y82.584 F10800
G1 Z.2 F720
G1 E.8 F2100
M204 S800
;TYPE:Skirt/Brim
;WIDTH:0.42
G1 F1200
G1 X63.548 Y81.778 E.04775
G1 X64.738 Y81.336 E.0398
G1 X66.06 Y81.162 E.04181
G1 X184.171 Y81.175 E3.70329
G1 X185.055 Y81.294 E.02797
M73 Q0 S92
G1 X186.057 Y81.593 E.03279
G1 X186.996 Y82.053 E.03278
G1 X187.89 Y82.712 E.03482
G1 X188.496 Y83.327 E.02707
G1 X189.056 Y84.102 E.02998
G1 X189.588 Y85.176 E.03758
G1 X189.911 Y86.403 E.03978
G1 X189.989 Y87.349 E.02976
G1 X189.989 Y112.549 E.79013
G1 X189.917 Y113.441 E.02806
G1 X189.609 Y114.651 E.03915
G1 X189.047 Y115.811 E.04041
G1 X188.497 Y116.57 E.02939
G1 X187.81 Y117.249 E.03029
G1 X186.895 Y117.896 E.03514
G1 X168.078 Y128.554 E.67806
G1 X167 Y128.838 E.03495
G1 X83 Y128.838 E2.63376
G1 X81.922 Y128.554 E.03495
G1 X63.1 Y117.893 E.67824
G1 X62.11 Y117.186 E.03814
G1 X61.16 Y116.13 E.04454
G1 X60.561 Y115.075 E.03804
G1 X60.229 Y114.168 E.03028
G1 X60.012 Y112.554 E.05106
G1 X60.011 Y87.349 E.79029
G1 X60.083 Y86.457 E.02806
G1 X60.561 Y84.822 E.05341
G1 X61.161 Y83.766 E.03808
G1 X61.705 Y83.104 E.02687
G1 X62.212 Y82.625 E.02187
M204 S1000
;WIPE_START
G1 F8640
G1 X62.256 Y82.584 E-.01389
G1 X63.548 Y81.778 E-.35162
G1 X64.738 Y81.336 E-.29312
G1 X65.345 Y81.256 E-.14137
;WIPE_END
G1 Z.6 F720
; printing object IKEA_Skadis_AA__AAA_Holder.stl id:0 copy 0
G1 X87 Y115.759 F10800
G1 Z.2 F720
G1 E.8 F2100
M204 S800
;TYPE:Perimeter
;WIDTH:0.419999
G1 F1200
G1 X86.779 Y115.759 E.00693
G1 X86.731 Y115.78 E.00164
G1 X84.051 Y115.78 E.08403
G1 X83.221 Y115.759 E.02603
G1 X66.387 Y115.759 E.52782
G1 X65.912 Y115.739 E.01491
G1 X65.39 Y115.641 E.01665
G1 X64.915 Y115.48 E.01573
G1 X64.422 Y115.196 E.01784
G1 X63.955 Y114.83 E.0186
G1 X63.549 Y114.354 E.01962
G1 X63.224 Y113.744 E.02167
G1 X63.041 Y113.104 E.02087
G1 X62.987 Y112.513 E.01861
G1 X62.987 Y87.385 E.78787
G1 X63.04 Y86.799 E.01845
G1 X63.226 Y86.148 E.02123
G1 X63.444 Y85.74 E.0145
G1 X63.717 Y85.327 E.01552
G1 X64.114 Y84.914 E.01796
G1 X65.03 Y84.361 E.03355
G1 X65.41 Y84.238 E.01252
G1 X66.114 Y84.138 E.02229
G1 X183.724 Y84.138 E3.68757
G1 X184.349 Y84.186 E.01965
G1 X184.897 Y84.334 E.0178
G1 X185.404 Y84.569 E.01752
G1 X185.638 Y84.734 E.00898
G1 X186.046 Y85.068 E.01653
G1 X186.452 Y85.544 E.01962
G1 X186.772 Y86.147 E.0214
G1 X186.96 Y86.8 E.02131
G1 X187.013 Y87.539 E.02323
G1 X187.013 Y112.513 E.78304
G1 X186.96 Y113.097 E.01839
G1 X186.772 Y113.749 E.02128
G1 X186.451 Y114.354 E.02147
G1 X186.188 Y114.691 E.0134
G1 X185.822 Y115.033 E.01571
G1 X185.295 Y115.386 E.01989
G1 X184.902 Y115.561 E.01349
G1 X184.35 Y115.712 E.01794
G1 X183.899 Y115.759 E.01422
G1 X166.779 Y115.759 E.53678
G1 X166.731 Y115.78 E.00164
G1 X164.051 Y115.78 E.08403
G1 X163.221 Y115.759 E.02603
G1 X126.779 Y115.759 E1.14261
G1 X126.731 Y115.78 E.00164
G1 X124.051 Y115.78 E.08403
G1 X123.221 Y115.759 E.02603
G1 X87.06 Y115.759 E1.1338
M204 S1000
G1 X87 Y116.136 F10800
M204 S800
;TYPE:External perimeter
G1 F1200
G1 X86.779 Y116.136 E.00693
G1 X86.749 Y116.157 E.00115
G1 X84.051 Y116.157 E.08459
G1 X83.221 Y116.136 E.02603
G1 X66.081 Y116.136 E.53741
G1 X65.581 Y116.084 E.01576
G1 X65.192 Y115.978 E.01264
G1 X64.522 Y115.718 E.02253
G1 X64.115 Y115.443 E.0154
G1 X63.693 Y115.102 E.01701
G1 X63.231 Y114.56 E.02233
G1 X62.872 Y113.886 E.02394
G1 X62.668 Y113.174 E.02322
G1 X62.61 Y112.53 E.02027
G1 X62.61 Y87.368 E.78894
G1 X62.668 Y86.73 E.02009
G1 X62.875 Y86.006 E.02361
G1 X63.111 Y85.563 E.01574
G1 X63.42 Y85.095 E.01758
G1 X63.882 Y84.613 E.02093
G1 X64.872 Y84.016 E.03625
G1 X65.325 Y83.869 E.01493
G1 X66.088 Y83.761 E.02416
G1 X183.918 Y83.761 E3.69447
G1 X184.419 Y83.814 E.0158
M73 P0 R90
G1 X185.026 Y83.979 E.01972
G1 X185.594 Y84.241 E.01961
G1 X185.902 Y84.458 E.01181
G1 X186.308 Y84.797 E.01658
G1 X186.769 Y85.338 E.02229
G1 X187.124 Y86.005 E.02369
G1 X187.332 Y86.73 E.02365
G1 X187.39 Y87.539 E.02543
G1 X187.39 Y112.53 E.78357
G1 X187.332 Y113.167 E.02006
G1 X187.124 Y113.891 E.02362
G1 X186.769 Y114.56 E.02375
G1 X186.467 Y114.946 E.01537
G1 X186.058 Y115.33 E.01759
G1 X185.478 Y115.718 E.02188
G1 X185.029 Y115.918 E.01541
G1 X184.419 Y116.084 E.01982
G1 X183.919 Y116.136 E.01576
G1 X166.779 Y116.136 E.53741
G1 X166.749 Y116.157 E.00115
G1 X164.051 Y116.157 E.08459
G1 X163.221 Y116.136 E.02603
G1 X126.779 Y116.136 E1.14261
G1 X126.749 Y116.157 E.00115
G1 X124.051 Y116.157 E.08459
G1 X123.221 Y116.136 E.02603
G1 X87.06 Y116.136 E1.1338
M204 S1000
;WIPE_START
G1 F8640
M73 P1 R90
G1 X87 Y116.136 E-.01385
G1 X86.779 Y116.136 E-.05103
G1 X86.749 Y116.157 E-.00846
G1 X84.051 Y116.157 E-.62298
G1 X83.602 Y116.146 E-.10368
;WIPE_END
G1 Z.6 F720
G1 X185.131 Y84.63 F10800
G1 Z.2 F720
M73 Q1 S92
G1 E.8 F2100
M204 S800
;TYPE:Solid infill
;WIDTH:0.4213
G1 F1200
G1 X185.934 Y85.433 E.03573
G1 X186.166 Y85.729 E.01183
G1 X186.456 Y86.275 E.01945
G1 X186.542 Y86.576 E.00985
G1 X184.562 Y84.595 E.08812
G1 X184.287 Y84.521 E.00896
G1 X183.912 Y84.481 E.01187
G1 X186.658 Y87.226 E.12216
G1 X186.674 Y87.777 E.01734
G1 X183.374 Y84.477 E.14683
G1 X182.839 Y84.477 E.01683
G1 X186.674 Y88.312 E.17064
G1 X186.674 Y88.848 E.01686
G1 X182.303 Y84.477 E.19449
G1 X181.768 Y84.477 E.01683
G1 X186.674 Y89.383 E.21829
G1 X186.674 Y89.918 E.01683
G1 X181.233 Y84.477 E.2421
G1 X180.698 Y84.477 E.01683
G1 X186.674 Y90.453 E.2659
G1 X186.674 Y90.988 E.01683
G1 X180.163 Y84.477 E.2897
G1 X179.628 Y84.477 E.01683
G1 X186.674 Y91.523 E.31351
G1 X186.674 Y92.058 E.01683
G1 X179.093 Y84.477 E.33731
G1 X178.558 Y84.477 E.01683
G1 X186.674 Y92.593 E.36112
G1 X186.674 Y93.128 E.01683
G1 X178.023 Y84.477 E.38492
G1 X177.487 Y84.477 E.01686
G1 X186.674 Y93.664 E.40877
G1 X186.674 Y94.199 E.01683
G1 X176.952 Y84.477 E.43258
G1 X176.417 Y84.477 E.01683
G1 X186.674 Y94.734 E.45638
G1 X186.674 Y95.269 E.01683
G1 X175.882 Y84.477 E.48019
G1 X175.347 Y84.477 E.01683
G1 X186.674 Y95.804 E.50399
G1 X186.674 Y96.339 E.01683
G1 X174.812 Y84.477 E.52779
G1 X174.277 Y84.477 E.01683
G1 X186.674 Y96.874 E.5516
G1 X186.674 Y97.409 E.01683
G1 X173.742 Y84.477 E.5754
G1 X173.207 Y84.477 E.01683
G1 X186.674 Y97.944 E.59921
G1 X186.674 Y98.48 E.01686
M73 Q1 S91
G1 X172.671 Y84.477 E.62306
G1 X172.136 Y84.477 E.01683
G1 X186.674 Y99.015 E.64686
G1 X186.674 Y99.55 E.01683
G1 X171.601 Y84.477 E.67067
G1 X171.066 Y84.477 E.01683
G1 X186.674 Y100.085 E.69447
G1 X186.674 Y100.62 E.01683
G1 X170.531 Y84.477 E.71828
G1 X169.996 Y84.477 E.01683
G1 X186.674 Y101.155 E.74208
G1 X186.674 Y101.69 E.01683
G1 X169.461 Y84.477 E.76589
G1 X168.926 Y84.477 E.01683
G1 X186.674 Y102.225 E.78969
G1 X186.674 Y102.76 E.01683
G1 X168.391 Y84.477 E.81349
G1 X167.855 Y84.477 E.01686
G1 X186.674 Y103.296 E.83734
G1 X186.674 Y103.831 E.01683
G1 X167.32 Y84.477 E.86115
G1 X166.785 Y84.477 E.01683
G1 X186.674 Y104.366 E.88495
G1 X186.674 Y104.901 E.01683
G1 X166.25 Y84.477 E.90876
G1 X165.715 Y84.477 E.01683
G1 X186.674 Y105.436 E.93256
G1 X186.674 Y105.971 E.01683
G1 X165.18 Y84.477 E.95637
G1 X164.645 Y84.477 E.01683
G1 X186.674 Y106.506 E.98017
G1 X186.674 Y107.041 E.01683
G1 X164.11 Y84.477 E1.00398
G1 X163.575 Y84.477 E.01683
G1 X186.674 Y107.576 E1.02778
G1 X186.674 Y108.112 E.01686
G1 X163.039 Y84.477 E1.05163
G1 X162.504 Y84.477 E.01683
G1 X186.674 Y108.647 E1.07543
G1 X186.674 Y109.182 E.01683
G1 X161.969 Y84.477 E1.09924
G1 X161.434 Y84.477 E.01683
G1 X186.674 Y109.717 E1.12304
G1 X186.674 Y110.252 E.01683
G1 X160.899 Y84.477 E1.14685
G1 X160.364 Y84.477 E.01683
G1 X186.674 Y110.787 E1.17065
G1 X186.674 Y111.322 E.01683
G1 X159.829 Y84.477 E1.19446
G1 X159.294 Y84.477 E.01683
M73 P1 R89
G1 X186.674 Y111.857 E1.21826
G1 X186.674 Y112.392 E.01683
G1 X158.759 Y84.477 E1.24207
G1 X158.223 Y84.477 E.01686
M73 P2 R89
G1 X186.638 Y112.892 E1.26431
G1 X186.625 Y113.035 E.00452
M73 Q2 S91
G1 X186.54 Y113.329 E.00963
G1 X157.688 Y84.477 E1.28376
G1 X157.153 Y84.477 E.01683
G1 X186.401 Y113.725 E1.30138
G1 X186.215 Y114.075 E.01247
G1 X156.618 Y84.477 E1.31693
G1 X156.083 Y84.477 E.01683
G1 X185.994 Y114.388 E1.33088
G1 X185.728 Y114.657 E.0119
G1 X155.548 Y84.477 E1.34285
G1 X155.013 Y84.477 E.01683
G1 X185.426 Y114.89 E1.35321
G1 X185.101 Y115.101 E.01219
G1 X154.478 Y84.477 E1.36258
G1 X153.943 Y84.477 E.01683
G1 X184.723 Y115.258 E1.36957
G1 X184.303 Y115.373 E.0137
M73 Q2 S90
G1 X153.407 Y84.477 E1.3747
G1 X152.872 Y84.477 E.01683
G1 X183.814 Y115.42 E1.37677
G1 X183.279 Y115.42 E.01683
G1 X152.337 Y84.477 E1.37677
G1 X151.802 Y84.477 E.01683
G1 X182.744 Y115.42 E1.37677
G1 X182.209 Y115.42 E.01683
G1 X151.267 Y84.477 E1.37677
G1 X150.732 Y84.477 E.01683
G1 X181.674 Y115.42 E1.37677
G1 X181.139 Y115.42 E.01683
G1 X150.197 Y84.477 E1.37677
G1 X149.662 Y84.477 E.01683
G1 X180.604 Y115.42 E1.37677
G1 X180.069 Y115.42 E.01683
G1 X149.127 Y84.477 E1.37677
G1 X148.591 Y84.477 E.01686
G1 X179.534 Y115.42 E1.3768
G1 X178.999 Y115.42 E.01683
G1 X148.056 Y84.477 E1.3768
G1 X147.521 Y84.477 E.01683
G1 X178.463 Y115.42 E1.37677
G1 X177.928 Y115.42 E.01683
G1 X146.986 Y84.477 E1.37677
G1 X146.451 Y84.477 E.01683
G1 X177.393 Y115.42 E1.37677
G1 X176.858 Y115.42 E.01683
G1 X145.916 Y84.477 E1.37677
G1 X145.381 Y84.477 E.01683
G1 X176.323 Y115.42 E1.37677
G1 X175.788 Y115.42 E.01683
M73 P3 R89
G1 X144.846 Y84.477 E1.37677
G1 X144.311 Y84.477 E.01683
M73 P3 R88
M73 Q3 S90
G1 X175.253 Y115.42 E1.37677
G1 X174.718 Y115.42 E.01683
G1 X143.776 Y84.477 E1.37677
G1 X143.24 Y84.477 E.01686
G1 X174.183 Y115.42 E1.3768
G1 X173.647 Y115.42 E.01686
G1 X142.705 Y84.477 E1.37677
G1 X142.17 Y84.477 E.01683
G1 X173.112 Y115.42 E1.37677
G1 X172.577 Y115.42 E.01683
G1 X141.635 Y84.477 E1.37677
G1 X141.1 Y84.477 E.01683
G1 X172.042 Y115.42 E1.37677
G1 X171.507 Y115.42 E.01683
G1 X140.565 Y84.477 E1.37677
G1 X140.03 Y84.477 E.01683
G1 X170.972 Y115.42 E1.37677
G1 X170.437 Y115.42 E.01683
G1 X139.495 Y84.477 E1.37677
G1 X138.96 Y84.477 E.01683
M73 Q3 S89
G1 X169.902 Y115.42 E1.37677
G1 X169.367 Y115.42 E.01683
G1 X138.424 Y84.477 E1.3768
G1 X137.889 Y84.477 E.01683
G1 X168.831 Y115.42 E1.37677
G1 X168.296 Y115.42 E.01683
G1 X137.354 Y84.477 E1.37677
G1 X136.819 Y84.477 E.01683
G1 X167.761 Y115.42 E1.37677
G1 X167.226 Y115.42 E.01683
G1 X136.284 Y84.477 E1.37677
G1 X135.749 Y84.477 E.01683
G1 X166.707 Y115.436 E1.37749
G1 X166.177 Y115.441 E.01668
G1 X135.214 Y84.477 E1.37771
G1 X134.679 Y84.477 E.01683
G1 X165.642 Y115.441 E1.37771
G1 X165.107 Y115.441 E.01683
G1 X134.144 Y84.477 E1.37771
G1 X133.608 Y84.477 E.01686
G1 X164.572 Y115.441 E1.37773
G1 X164.036 Y115.441 E.01686
G1 X133.073 Y84.477 E1.37771
G1 X132.538 Y84.477 E.01683
G1 X163.501 Y115.441 E1.37771
G1 X163.305 Y115.441 E.00617
G1 X163.248 Y115.42 E.00191
G1 X162.945 Y115.42 E.00953
G1 X132.003 Y84.477 E1.37677
G1 X131.468 Y84.477 E.01683
M73 P4 R88
G1 X162.41 Y115.42 E1.37677
G1 X161.875 Y115.42 E.01683
M73 Q4 S89
G1 X130.933 Y84.477 E1.37677
G1 X130.398 Y84.477 E.01683
M73 P4 R87
G1 X161.34 Y115.42 E1.37677
G1 X160.805 Y115.42 E.01683
G1 X129.863 Y84.477 E1.37677
G1 X129.328 Y84.477 E.01683
G1 X160.27 Y115.42 E1.37677
G1 X159.735 Y115.42 E.01683
G1 X128.792 Y84.477 E1.3768
G1 X128.257 Y84.477 E.01683
G1 X159.199 Y115.42 E1.37677
G1 X158.664 Y115.42 E.01683
G1 X127.722 Y84.477 E1.37677
G1 X127.187 Y84.477 E.01683
G1 X158.129 Y115.42 E1.37677
G1 X157.594 Y115.42 E.01683
G1 X126.652 Y84.477 E1.37677
G1 X126.117 Y84.477 E.01683
G1 X157.059 Y115.42 E1.37677
G1 X156.524 Y115.42 E.01683
G1 X125.582 Y84.477 E1.37677
G1 X125.047 Y84.477 E.01683
G1 X155.989 Y115.42 E1.37677
G1 X155.454 Y115.42 E.01683
M73 Q4 S88
G1 X124.512 Y84.477 E1.37677
G1 X123.976 Y84.477 E.01686
G1 X154.919 Y115.42 E1.3768
G1 X154.383 Y115.42 E.01686
G1 X123.441 Y84.477 E1.37677
G1 X122.906 Y84.477 E.01683
G1 X153.848 Y115.42 E1.37677
G1 X153.313 Y115.42 E.01683
G1 X122.371 Y84.477 E1.37677
G1 X121.836 Y84.477 E.01683
G1 X152.778 Y115.42 E1.37677
G1 X152.243 Y115.42 E.01683
G1 X121.301 Y84.477 E1.37677
G1 X120.766 Y84.477 E.01683
G1 X151.708 Y115.42 E1.37677
G1 X151.173 Y115.42 E.01683
G1 X120.231 Y84.477 E1.37677
G1 X119.696 Y84.477 E.01683
G1 X150.638 Y115.42 E1.37677
G1 X150.103 Y115.42 E.01683
G1 X119.16 Y84.477 E1.3768
G1 X118.625 Y84.477 E.01683
G1 X149.567 Y115.42 E1.37677
G1 X149.032 Y115.42 E.01683
M73 P5 R87
G1 X118.09 Y84.477 E1.37677
G1 X117.555 Y84.477 E.01683
M73 Q5 S88
G1 X148.497 Y115.42 E1.37677
G1 X147.962 Y115.42 E.01683
G1 X117.02 Y84.477 E1.37677
G1 X116.485 Y84.477 E.01683
G1 X147.427 Y115.42 E1.37677
G1 X146.892 Y115.42 E.01683
M73 P5 R86
G1 X115.95 Y84.477 E1.37677
G1 X115.415 Y84.477 E.01683
G1 X146.357 Y115.42 E1.37677
G1 X145.822 Y115.42 E.01683
G1 X114.88 Y84.477 E1.37677
G1 X114.344 Y84.477 E.01686
G1 X145.287 Y115.42 E1.3768
G1 X144.751 Y115.42 E.01686
G1 X113.809 Y84.477 E1.37677
G1 X113.274 Y84.477 E.01683
G1 X144.216 Y115.42 E1.37677
G1 X143.681 Y115.42 E.01683
G1 X112.739 Y84.477 E1.37677
G1 X112.204 Y84.477 E.01683
G1 X143.146 Y115.42 E1.37677
G1 X142.611 Y115.42 E.01683
G1 X111.669 Y84.477 E1.37677
G1 X111.134 Y84.477 E.01683
G1 X142.076 Y115.42 E1.37677
G1 X141.541 Y115.42 E.01683
G1 X110.599 Y84.477 E1.37677
G1 X110.064 Y84.477 E.01683
M73 Q5 S87
G1 X141.006 Y115.42 E1.37677
G1 X140.471 Y115.42 E.01683
G1 X109.528 Y84.477 E1.3768
G1 X108.993 Y84.477 E.01683
G1 X139.935 Y115.42 E1.37677
G1 X139.4 Y115.42 E.01683
G1 X108.458 Y84.477 E1.37677
G1 X107.923 Y84.477 E.01683
G1 X138.865 Y115.42 E1.37677
G1 X138.33 Y115.42 E.01683
G1 X107.388 Y84.477 E1.37677
G1 X106.853 Y84.477 E.01683
G1 X137.795 Y115.42 E1.37677
G1 X137.26 Y115.42 E.01683
G1 X106.318 Y84.477 E1.37677
G1 X105.783 Y84.477 E.01683
G1 X136.725 Y115.42 E1.37677
G1 X136.19 Y115.42 E.01683
G1 X105.248 Y84.477 E1.37677
M73 P6 R86
G1 X104.712 Y84.477 E.01686
G1 X135.655 Y115.42 E1.3768
G1 X135.119 Y115.42 E.01686
M73 Q6 S87
G1 X104.177 Y84.477 E1.37677
G1 X103.642 Y84.477 E.01683
G1 X134.584 Y115.42 E1.37677
G1 X134.049 Y115.42 E.01683
G1 X103.107 Y84.477 E1.37677
G1 X102.572 Y84.477 E.01683
G1 X133.514 Y115.42 E1.37677
G1 X132.979 Y115.42 E.01683
G1 X102.037 Y84.477 E1.37677
G1 X101.502 Y84.477 E.01683
M73 P6 R85
G1 X132.444 Y115.42 E1.37677
G1 X131.909 Y115.42 E.01683
G1 X100.967 Y84.477 E1.37677
G1 X100.432 Y84.477 E.01683
G1 X131.374 Y115.42 E1.37677
G1 X130.839 Y115.42 E.01683
G1 X99.896 Y84.477 E1.3768
G1 X99.361 Y84.477 E.01683
G1 X130.303 Y115.42 E1.37677
G1 X129.768 Y115.42 E.01683
G1 X98.826 Y84.477 E1.37677
