; generated by PrusaSlicer 2.8.0+win64 on 2024-10-31 at 06:51:21 UTC


;
;
; 

; external perimeters extrusion width = 0.60mm
; perimeters extrusion width = 0.50mm
; infill extrusion width = 0.50mm
; solid infill extrusion width = 0.50mm
; top infill extrusion width = 0.45mm
; first layer extrusion width = 0.42mm

M73 P0 R106
M73 Q0 S107
M201 X1000 Y1000 Z200 E5000 ; sets maximum accelerations, mm/sec^2
M203 X200 Y200 Z12 E120 ; sets maximum feedrates, mm / sec
M204 S1250 T1250 ; sets acceleration (S) and retract acceleration (R), mm/sec^2
M205 X8.00 Y8.00 Z0.40 E4.50 ; sets the jerk limits, mm/sec
M205 S0 T0 ; sets the minimum extruding and travel feed rate, mm/sec

; printing object skadis_batteryholder.stl id:0 copy 0
; stop printing object skadis_batteryholder.stl id:0 copy 0

;TYPE:Custom
M862.3 P "MK3S" ; printer model check
M862.1 P0.4 ; nozzle diameter check
M115 U3.13.3 ; tell printer latest fw version
G90 ; use absolute coordinates
M83 ; extruder relative mode
M104 S215 ; set extruder temp
M140 S60 ; set bed temp
M190 S60 ; wait for bed temp
M109 S215 ; wait for extruder temp
G28 W ; home all without mesh bed level
G80 X46.6229 Y86.1229 W156.754 H37.7542 ; mesh bed levelling

G1 Z0.2 F720
G1 Y-3 F1000 ; go outside print area
G92 E0
G1 X60 E9 F1000 ; intro line
G1 X100 E12.5 F1000 ; intro line

G92 E0
M221 S95

; Don't change E values below. Excessive value can damage the printer.

M907 E538 ; set extruder motor current
G21 ; set units to millimeters
G90 ; use absolute coordinates
M83 ; use relative distances for extrusion

M900 K0.05 ; Filament gcode LA 1.5
M900 K30 ; Filament gcode LA 1.0




M107
;LAYER_CHANGE
;Z:0.2
;HEIGHT:0.2
G1 E-.8 F2100
G1 Z.6 F720
G1 X48.235 Y86.449 F10800
G1 Z.2 F720
G1 E.8 F2100
M204 S800
;TYPE:Skirt/Brim
;WIDTH:0.42
G1 F1200
G1 X49 Y86.311 E.02437
G1 X201 Y86.311 E4.76585
G1 X202.248 Y86.702 E.04101
G1 X203.051 Y87.735 E.04102
G1 X203.189 Y88.5 E.02437
G1 X203.189 Y116.5 E.87792
G1 X203.082 Y117.69 E.03746
G1 X202.55 Y119.445 E.0575
G1 X202.087 Y120.31 E.03076
G1 X201.227 Y121.424 E.04413
G1 X199.81 Y122.587 E.05748
G1 X198.549 Y123.214 E.04416
G1 X197.611 Y123.498 E.03073
G1 X196 Y123.689 E.05087
G1 X54 Y123.689 E4.45231
G1 X52.81 Y123.582 E.03746
M73 P0 R105
G1 X51.451 Y123.214 E.04415
G1 X49.834 Y122.349 E.0575
G1 X48.773 Y121.424 E.04413
G1 X47.913 Y120.31 E.04413
G1 X47.286 Y119.049 E.04416
G1 X47.002 Y118.111 E.03073
G1 X46.811 Y116.5 E.05087
G1 X46.811 Y88.5 E.87792
G1 X47.202 Y87.252 E.04101
G1 X48.188 Y86.486 E.03915
M204 S1000
;WIPE_START
G1 F8640
G1 X48.235 Y86.449 E-.01381
G1 X49 Y86.311 E-.17949
G1 X51.628 Y86.311 E-.6067
;WIPE_END
G1 Z.6 F720
; printing object skadis_batteryholder.stl id:0 copy 0
G1 X162.393 Y98.115 F10800
G1 Z.2 F720
G1 E.8 F2100
M204 S800
;TYPE:Perimeter
;WIDTH:0.419999
G1 F1200
G1 X162.521 Y98.225 E.00529
G1 X162.779 Y98.287 E.00832
G1 X167.721 Y98.287 E.15495
G1 X167.799 Y98.282 E.00245
G1 X168.041 Y98.188 E.00814
G1 X168.214 Y97.999 E.00803
G1 X168.287 Y97.721 E.00901
G1 X168.287 Y89.287 E.26444
M73 Q0 S106
G1 X200.213 Y89.287 E1.00102
G1 X200.213 Y105 E.49267
G1 X200.213 Y116.461 E.35935
G1 X200.128 Y117.321 E.0271
G1 X199.889 Y118.111 E.02588
G1 X199.5 Y118.838 E.02585
G1 X198.976 Y119.476 E.02589
G1 X198.338 Y120 E.02589
G1 X197.611 Y120.389 E.02585
G1 X196.821 Y120.628 E.02588
G1 X195.961 Y120.713 E.0271
G1 X54.039 Y120.713 E4.44986
G1 X53.179 Y120.628 E.0271
G1 X52.389 Y120.389 E.02588
G1 X51.662 Y120 E.02585
G1 X51.024 Y119.476 E.02589
G1 X50.5 Y118.838 E.02589
G1 X50.111 Y118.111 E.02585
G1 X49.872 Y117.321 E.02588
G1 X49.787 Y116.461 E.0271
G1 X49.787 Y89.287 E.85202
G1 X82.213 Y89.287 E1.01669
G1 X82.213 Y97.721 E.26444
G1 X82.22 Y97.813 E.00289
G1 X82.318 Y98.05 E.00804
G1 X82.521 Y98.225 E.0084
G1 X82.779 Y98.287 E.00832
G1 X87.721 Y98.287 E.15495
G1 X87.799 Y98.282 E.00245
G1 X88.041 Y98.188 E.00814
G1 X88.214 Y97.999 E.00803
G1 X88.287 Y97.721 E.00901
G1 X88.287 Y89.287 E.26444
G1 X162.213 Y89.287 E2.31789
G1 X162.213 Y97.721 E.26444
G1 X162.22 Y97.813 E.00289
G1 X162.318 Y98.05 E.00804
G1 X162.348 Y98.075 E.00122
M204 S1000
G1 X162.348 Y98.075 F10800
G1 X162.676 Y97.861
M204 S800
;TYPE:External perimeter
G1 F1200
G1 X162.779 Y97.91 E.00358
G1 X167.721 Y97.91 E.15495
G1 X167.846 Y97.863 E.00419
G1 X167.91 Y97.721 E.00488
G1 X167.91 Y88.91 E.27626
G1 X200.59 Y88.91 E1.02466
G1 X200.59 Y105 E.50449
G1 X200.59 Y116.48 E.35995
G1 X200.5 Y117.395 E.02883
G1 X200.239 Y118.256 E.02821
G1 X199.815 Y119.049 E.02819
G1 X199.244 Y119.744 E.0282
G1 X198.549 Y120.315 E.0282
G1 X197.756 Y120.739 E.02819
G1 X196.895 Y121 E.02821
G1 X195.98 Y121.09 E.02883
G1 X54.02 Y121.09 E4.45105
G1 X53.105 Y121 E.02883
G1 X52.244 Y120.739 E.02821
G1 X51.451 Y120.315 E.02819
G1 X50.756 Y119.744 E.0282
G1 X50.185 Y119.049 E.0282
G1 X49.761 Y118.256 E.02819
G1 X49.5 Y117.395 E.02821
G1 X49.41 Y116.48 E.02883
G1 X49.41 Y88.91 E.86444
G1 X82.59 Y88.91 E1.04033
G1 X82.59 Y97.721 E.27626
G1 X82.631 Y97.839 E.00392
G1 X82.779 Y97.91 E.00515
G1 X87.721 Y97.91 E.15495
G1 X87.846 Y97.863 E.00419
G1 X87.91 Y97.721 E.00488
G1 X87.91 Y88.91 E.27626
G1 X162.59 Y88.91 E2.34154
G1 X162.59 Y97.721 E.27626
M73 P1 R105
M73 Q1 S106
G1 X162.628 Y97.829 E.00359
M204 S1000
;WIPE_START
G1 F8640
G1 X162.676 Y97.861 E-.01332
G1 X162.779 Y97.91 E-.02634
G1 X166.072 Y97.91 E-.76034
;WIPE_END
G1 Z.6 F720
G1 X199.28 Y89.457 F10800
G1 Z.2 F720
G1 E.8 F2100
M204 S800
;TYPE:Solid infill
;WIDTH:0.420456
G1 F1200
G1 X199.874 Y90.05 E.02635
G1 X199.874 Y90.584 E.01676
G1 X198.916 Y89.626 E.04253
G1 X198.382 Y89.626 E.01676
G1 X199.874 Y91.118 E.06624
G1 X199.874 Y91.652 E.01676
G1 X197.848 Y89.626 E.08994
G1 X197.314 Y89.626 E.01676
G1 X199.874 Y92.186 E.11365
G1 X199.874 Y92.72 E.01676
G1 X196.78 Y89.626 E.13736
G1 X196.246 Y89.626 E.01676
G1 X199.874 Y93.254 E.16107
G1 X199.874 Y93.788 E.01676
G1 X195.712 Y89.626 E.18477
G1 X195.178 Y89.626 E.01676
G1 X199.874 Y94.322 E.20848
G1 X199.874 Y94.856 E.01676
G1 X194.644 Y89.626 E.23219
G1 X194.111 Y89.626 E.01673
G1 X199.874 Y95.389 E.25585
G1 X199.874 Y95.923 E.01676
G1 X193.577 Y89.626 E.27956
G1 X193.043 Y89.626 E.01676
G1 X199.874 Y96.457 E.30326
G1 X199.874 Y96.991 E.01676
G1 X192.509 Y89.626 E.32697
G1 X191.975 Y89.626 E.01676
G1 X199.874 Y97.525 E.35068
G1 X199.874 Y98.059 E.01676
G1 X191.441 Y89.626 E.37439
G1 X190.907 Y89.626 E.01676
G1 X199.874 Y98.593 E.39809
G1 X199.874 Y99.127 E.01676
G1 X190.373 Y89.626 E.4218
G1 X189.839 Y89.626 E.01676
G1 X199.874 Y99.661 E.44551
G1 X199.874 Y100.195 E.01676
G1 X189.305 Y89.626 E.46921
G1 X188.771 Y89.626 E.01676
G1 X199.874 Y100.729 E.49292
G1 X199.874 Y101.263 E.01676
G1 X188.237 Y89.626 E.51663
G1 X187.704 Y89.626 E.01673
G1 X199.874 Y101.796 E.54029
G1 X199.874 Y102.33 E.01676
G1 X187.17 Y89.626 E.564
G1 X186.636 Y89.626 E.01676
G1 X199.874 Y102.864 E.58771
G1 X199.874 Y103.398 E.01676
G1 X186.102 Y89.626 E.61141
G1 X185.568 Y89.626 E.01676
G1 X199.874 Y103.932 E.63512
G1 X199.874 Y104.466 E.01676
M73 P1 R104
G1 X185.034 Y89.626 E.65883
G1 X184.5 Y89.626 E.01676
G1 X199.874 Y105 E.68253
G1 X199.874 Y105.534 E.01676
G1 X183.966 Y89.626 E.70624
G1 X183.432 Y89.626 E.01676
G1 X199.874 Y106.068 E.72995
G1 X199.874 Y106.602 E.01676
G1 X182.898 Y89.626 E.75366
G1 X182.364 Y89.626 E.01676
M73 Q1 S105
G1 X199.874 Y107.136 E.77736
G1 X199.874 Y107.67 E.01676
G1 X181.83 Y89.626 E.80107
G1 X181.297 Y89.626 E.01673
G1 X199.874 Y108.203 E.82473
G1 X199.874 Y108.737 E.01676
G1 X180.763 Y89.626 E.84844
G1 X180.229 Y89.626 E.01676
G1 X199.874 Y109.271 E.87215
G1 X199.874 Y109.805 E.01676
G1 X179.695 Y89.626 E.89585
G1 X179.161 Y89.626 E.01676
G1 X199.874 Y110.339 E.91956
G1 X199.874 Y110.873 E.01676
G1 X178.627 Y89.626 E.94327
G1 X178.093 Y89.626 E.01676
G1 X199.874 Y111.407 E.96697
G1 X199.874 Y111.941 E.01676
G1 X177.559 Y89.626 E.99068
G1 X177.025 Y89.626 E.01676
G1 X199.874 Y112.475 E1.01439
G1 X199.874 Y113.009 E.01676
G1 X176.491 Y89.626 E1.0381
G1 X175.957 Y89.626 E.01676
G1 X199.874 Y113.543 E1.0618
G1 X199.874 Y114.077 E.01676
G1 X175.423 Y89.626 E1.08551
G1 X174.89 Y89.626 E.01673
G1 X199.874 Y114.61 E1.10917
G1 X199.874 Y115.144 E.01676
G1 X174.356 Y89.626 E1.13288
G1 X173.822 Y89.626 E.01676
G1 X199.874 Y115.678 E1.15659
G1 X199.874 Y116.212 E.01676
G1 X173.288 Y89.626 E1.18029
G1 X172.754 Y89.626 E.01676
G1 X199.847 Y116.719 E1.2028
G1 X199.799 Y117.205 E.01533
G1 X172.22 Y89.626 E1.22438
G1 X171.686 Y89.626 E.01676
G1 X199.682 Y117.623 E1.24291
G1 X199.55 Y118.024 E.01325
G1 X171.152 Y89.626 E1.26074
G1 X170.618 Y89.626 E.01676
G1 X199.364 Y118.372 E1.27619
G1 X199.167 Y118.709 E.01225
G1 X170.084 Y89.626 E1.29115
G1 X169.55 Y89.626 E.01676
M73 P2 R104
M73 Q2 S105
G1 X198.926 Y119.002 E1.30416
G1 X198.675 Y119.285 E.01187
G1 X169.016 Y89.626 E1.31672
G1 X168.626 Y89.626 E.01224
G1 X168.626 Y89.77 E.00452
G1 X198.381 Y119.525 E1.32098
G1 X198.149 Y119.716 E.00943
G1 X198.077 Y119.755 E.00257
G1 X168.626 Y90.304 E1.30749
G1 X168.626 Y90.838 E.01676
G1 X197.729 Y119.941 E1.29204
G1 X197.48 Y120.074 E.00886
G1 X197.363 Y120.109 E.00383
G1 X168.626 Y91.372 E1.27579
G1 X168.626 Y91.906 E.01676
G1 X196.954 Y120.233 E1.25761
G1 X196.755 Y120.294 E.00653
M73 P2 R103
G1 X196.505 Y120.318 E.00788
G1 X168.626 Y92.44 E1.23768
G1 X168.626 Y92.974 E.01676
G1 X196.019 Y120.366 E1.2161
G1 X195.492 Y120.374 E.01655
M73 Q2 S104
G1 X168.626 Y93.508 E1.19273
G1 X168.626 Y94.042 E.01676
G1 X194.958 Y120.374 E1.16902
G1 X194.424 Y120.374 E.01676
G1 X168.626 Y94.576 E1.14531
G1 X168.626 Y95.11 E.01676
G1 X193.89 Y120.374 E1.1216
G1 X193.357 Y120.374 E.01673
G1 X168.626 Y95.643 E1.09794
G1 X168.626 Y96.177 E.01676
G1 X192.823 Y120.374 E1.07423
G1 X192.289 Y120.374 E.01676
G1 X168.626 Y96.711 E1.05053
G1 X168.626 Y97.245 E.01676
G1 X191.755 Y120.374 E1.02682
G1 X191.221 Y120.374 E.01676
G1 X168.62 Y97.773 E1.00338
G1 X168.588 Y97.986 E.00676
G1 X168.497 Y98.184 E.00684
G1 X190.687 Y120.374 E.98513
G1 X190.153 Y120.374 E.01676
G1 X168.238 Y98.459 E.97292
G1 X168.184 Y98.501 E.00215
G1 X167.968 Y98.593 E.00737
G1 X167.858 Y98.612 E.0035
G1 X189.619 Y120.374 E.96611
G1 X189.085 Y120.374 E.01676
G1 X167.336 Y98.625 E.96555
G1 X166.803 Y98.625 E.01673
G1 X188.551 Y120.374 E.96553
G1 X188.017 Y120.374 E.01676
G1 X166.269 Y98.625 E.96553
G1 X165.735 Y98.625 E.01676
G1 X187.483 Y120.374 E.96553
G1 X186.95 Y120.374 E.01673
G1 X165.201 Y98.625 E.96555
G1 X164.668 Y98.626 E.01673
G1 X186.416 Y120.374 E.96551
G1 X185.882 Y120.374 E.01676
G1 X164.134 Y98.626 E.96551
G1 X163.6 Y98.626 E.01676
G1 X185.348 Y120.374 E.96551
G1 X184.814 Y120.374 E.01676
G1 X162.897 Y98.457 E.97301
M204 S1000
;WIPE_START
G1 F8640
G1 X165.347 Y100.907 E-.8
;WIPE_END
G1 Z.6 F720
G1 X162.043 Y90.128 F10800
G1 Z.2 F720
G1 E.8 F2100
M204 S800
G1 F1200
G1 X161.542 Y89.626 E.02226
G1 X161.008 Y89.626 E.01676
G1 X161.874 Y90.493 E.03847
G1 X161.874 Y91.027 E.01676
G1 X160.474 Y89.626 E.06218
G1 X159.94 Y89.626 E.01676
G1 X161.874 Y91.561 E.08588
G1 X161.874 Y92.095 E.01676
G1 X159.406 Y89.626 E.10959
G1 X158.872 Y89.626 E.01676
G1 X161.875 Y92.629 E.13332
G1 X161.875 Y93.163 E.01676
G1 X158.338 Y89.626 E.15703
G1 X157.804 Y89.626 E.01676
G1 X161.875 Y93.697 E.18073
G1 X161.875 Y94.231 E.01676
G1 X157.27 Y89.626 E.20444
G1 X156.736 Y89.626 E.01676
G1 X161.875 Y94.765 E.22815
G1 X161.875 Y95.299 E.01676
G1 X156.202 Y89.626 E.25185
G1 X155.669 Y89.626 E.01673
G1 X161.876 Y95.834 E.27558
G1 X161.876 Y96.368 E.01676
G1 X155.135 Y89.626 E.29929
G1 X154.601 Y89.626 E.01676
G1 X161.876 Y96.902 E.323
G1 X161.876 Y97.436 E.01676
G1 X154.067 Y89.626 E.34671
G1 X153.533 Y89.626 E.01676
G1 X184.28 Y120.374 E1.36505
G1 X183.746 Y120.374 E.01676
G1 X152.999 Y89.626 E1.36505
G1 X152.465 Y89.626 E.01676
M73 P3 R103
M73 Q3 S104
G1 X183.212 Y120.374 E1.36505
G1 X182.678 Y120.374 E.01676
G1 X151.931 Y89.626 E1.36505
G1 X151.397 Y89.626 E.01676
G1 X182.144 Y120.374 E1.36505
G1 X181.61 Y120.374 E.01676
G1 X150.863 Y89.626 E1.36505
G1 X150.329 Y89.626 E.01676
G1 X181.076 Y120.374 E1.36505
G1 X180.543 Y120.374 E.01673
M73 P3 R102
G1 X149.795 Y89.626 E1.36507
G1 X149.262 Y89.626 E.01673
G1 X180.009 Y120.374 E1.36505
G1 X179.475 Y120.374 E.01676
M73 Q3 S103
G1 X148.728 Y89.626 E1.36505
G1 X148.194 Y89.626 E.01676
G1 X178.941 Y120.374 E1.36505
G1 X178.407 Y120.374 E.01676
G1 X147.66 Y89.626 E1.36505
G1 X147.126 Y89.626 E.01676
G1 X177.873 Y120.374 E1.36505
G1 X177.339 Y120.374 E.01676
G1 X146.592 Y89.626 E1.36505
G1 X146.058 Y89.626 E.01676
G1 X176.805 Y120.374 E1.36505
G1 X176.271 Y120.374 E.01676
G1 X145.524 Y89.626 E1.36505
G1 X144.99 Y89.626 E.01676
G1 X175.737 Y120.374 E1.36505
G1 X175.203 Y120.374 E.01676
G1 X144.456 Y89.626 E1.36505
G1 X143.922 Y89.626 E.01676
G1 X174.669 Y120.374 E1.36505
G1 X174.136 Y120.374 E.01673
G1 X143.388 Y89.626 E1.36507
G1 X142.855 Y89.626 E.01673
G1 X173.602 Y120.374 E1.36505
G1 X173.068 Y120.374 E.01676
G1 X142.321 Y89.626 E1.36505
G1 X141.787 Y89.626 E.01676
G1 X172.534 Y120.374 E1.36505
G1 X172 Y120.374 E.01676
G1 X141.253 Y89.626 E1.36505
G1 X140.719 Y89.626 E.01676
G1 X171.466 Y120.374 E1.36505
G1 X170.932 Y120.374 E.01676
G1 X140.185 Y89.626 E1.36505
G1 X139.651 Y89.626 E.01676
G1 X170.398 Y120.374 E1.36505
G1 X169.864 Y120.374 E.01676
G1 X139.117 Y89.626 E1.36505
G1 X138.583 Y89.626 E.01676
G1 X169.33 Y120.374 E1.36505
G1 X168.796 Y120.374 E.01676
G1 X138.049 Y89.626 E1.36505
G1 X137.515 Y89.626 E.01676
G1 X168.262 Y120.374 E1.36505
M73 P4 R102
G1 X167.729 Y120.374 E.01673
M73 Q4 S103
G1 X136.981 Y89.626 E1.36507
G1 X136.448 Y89.626 E.01673
G1 X167.195 Y120.374 E1.36505
G1 X166.661 Y120.374 E.01676
G1 X135.914 Y89.626 E1.36505
G1 X135.38 Y89.626 E.01676
M73 P4 R101
G1 X166.127 Y120.374 E1.36505
G1 X165.593 Y120.374 E.01676
G1 X134.846 Y89.626 E1.36505
G1 X134.312 Y89.626 E.01676
M73 Q4 S102
G1 X165.059 Y120.374 E1.36505
G1 X164.525 Y120.374 E.01676
G1 X133.778 Y89.626 E1.36505
G1 X133.244 Y89.626 E.01676
G1 X163.991 Y120.374 E1.36505
G1 X163.457 Y120.374 E.01676
G1 X132.71 Y89.626 E1.36505
G1 X132.176 Y89.626 E.01676
G1 X162.923 Y120.374 E1.36505
G1 X162.389 Y120.374 E.01676
G1 X131.642 Y89.626 E1.36505
G1 X131.108 Y89.626 E.01676
G1 X161.855 Y120.374 E1.36505
G1 X161.322 Y120.374 E.01673
G1 X130.574 Y89.626 E1.36507
G1 X130.041 Y89.626 E.01673
G1 X160.788 Y120.374 E1.36505
G1 X160.254 Y120.374 E.01676
G1 X129.507 Y89.626 E1.36505
G1 X128.973 Y89.626 E.01676
G1 X159.72 Y120.374 E1.36505
G1 X159.186 Y120.374 E.01676
G1 X128.439 Y89.626 E1.36505
G1 X127.905 Y89.626 E.01676
G1 X158.652 Y120.374 E1.36505
G1 X158.118 Y120.374 E.01676
G1 X127.371 Y89.626 E1.36505
G1 X126.837 Y89.626 E.01676
G1 X157.584 Y120.374 E1.36505
G1 X157.05 Y120.374 E.01676
G1 X126.303 Y89.626 E1.36505
G1 X125.769 Y89.626 E.01676
G1 X156.516 Y120.374 E1.36505
G1 X155.982 Y120.374 E.01676
G1 X125.235 Y89.626 E1.36505
G1 X124.701 Y89.626 E.01676
G1 X155.448 Y120.374 E1.36505
G1 X154.915 Y120.374 E.01673
G1 X124.167 Y89.626 E1.36507
G1 X123.634 Y89.626 E.01673
G1 X154.381 Y120.374 E1.36505
G1 X153.847 Y120.374 E.01676
G1 X123.1 Y89.626 E1.36505
G1 X122.566 Y89.626 E.01676
G1 X153.313 Y120.374 E1.36505
G1 X152.779 Y120.374 E.01676
M73 P5 R101
G1 X122.032 Y89.626 E1.36505
G1 X121.498 Y89.626 E.01676
M73 Q5 S102
G1 X152.245 Y120.374 E1.36505
G1 X151.711 Y120.374 E.01676
M73 P5 R100
G1 X120.964 Y89.626 E1.36505
G1 X120.43 Y89.626 E.01676
G1 X151.177 Y120.374 E1.36505
G1 X150.643 Y120.374 E.01676
M73 Q5 S101
G1 X119.896 Y89.626 E1.36505
G1 X119.362 Y89.626 E.01676
G1 X150.109 Y120.374 E1.36505
G1 X149.575 Y120.374 E.01676
G1 X118.828 Y89.626 E1.36505
G1 X118.294 Y89.626 E.01676
G1 X149.041 Y120.374 E1.36505
G1 X148.508 Y120.374 E.01673
G1 X117.76 Y89.626 E1.36507
G1 X117.227 Y89.626 E.01673
G1 X147.974 Y120.374 E1.36505
G1 X147.44 Y120.374 E.01676
G1 X116.693 Y89.626 E1.36505
G1 X116.159 Y89.626 E.01676
G1 X146.906 Y120.374 E1.36505
G1 X146.372 Y120.374 E.01676
G1 X115.625 Y89.626 E1.36505
G1 X115.091 Y89.626 E.01676
G1 X145.838 Y120.374 E1.36505
G1 X145.304 Y120.374 E.01676
G1 X114.557 Y89.626 E1.36505
G1 X114.023 Y89.626 E.01676
G1 X144.77 Y120.374 E1.36505
