; generated by PrusaSlicer 2.4.1+win64 on 2024-01-18 at 12:56:16 UTC


;
;
; 

; external perimeters extrusion width = 0.60mm
; perimeters extrusion width = 0.50mm
; infill extrusion width = 0.50mm
; solid infill extrusion width = 0.50mm
; top infill extrusion width = 0.45mm
; first layer extrusion width = 0.42mm

M73 P0 R73
M73 Q0 S73
M201 X1000 Y1000 Z200 E5000 ; sets maximum accelerations, mm/sec^2
M203 X200 Y200 Z12 E120 ; sets maximum feedrates, mm / sec
M204 P1250 R1250 T1250 ; sets acceleration (P, T) and retract acceleration (R), mm/sec^2
M205 X8.00 Y8.00 Z0.40 E4.50 ; sets the jerk limits, mm/sec
M205 S0 T0 ; sets the minimum extruding and travel feed rate, mm/sec
M107
;TYPE:Custom
M862.3 P "MK3S" ; printer model check
M862.1 P0.4 ; nozzle diameter check
M115 U3.11.0 ; tell printer latest fw version
G90 ; use absolute coordinates
M83 ; extruder relative mode
M104 S215 ; set extruder temp
M140 S60 ; set bed temp
M190 S60 ; wait for bed temp
M109 S215 ; wait for extruder temp
G28 W ; home all without mesh bed level
G80 ; mesh bed leveling

G1 Z0.2 F720
G1 Y-3 F1000 ; go outside print area
G92 E0
G1 X60 E9 F1000 ; intro line
G1 X100 E12.5 F1000 ; intro line

G92 E0
M221 S95

; Don't change E values below. Excessive value can damage the printer.

M907 E538 ; set extruder motor current
G21 ; set units to millimeters
G90 ; use absolute coordinates
M83 ; use relative distances for extrusion
M900 K0.05 ; Filament gcode LA 1.5
M900 K30 ; Filament gcode LA 1.0
M107
;LAYER_CHANGE
;Z:0.2
;HEIGHT:0.2
;BEFORE_LAYER_CHANGE
G92 E0.0
;0.2


G1 E-.8 F2100
G1 Z.4 F720
;AFTER_LAYER_CHANGE
;0.2
G1 X108.065 Y53.765 F10800
G1 Z.2 F720
G1 E.8 F2100
M204 S800
;TYPE:Skirt/Brim
;WIDTH:0.42
G1 F1200
G1 X109.11 Y52.888 E.04278
G1 X110.05 Y52.695 E.03008
G1 X136.05 Y52.695 E.81521
G1 X137.357 Y53.086 E.04278
G1 X138.344 Y54.447 E.0527
G1 X142.208 Y68.64 E.4612
G1 X142.327 Y69.528 E.02808
G1 X142.327 Y140.471 E2.22439
G1 X142.208 Y141.36 E.02812
M73 P0 R72
G1 X138.344 Y155.553 E.4612
G1 X137.622 Y156.711 E.04278
G1 X136.05 Y157.305 E.0527
G1 X110.05 Y157.305 E.81521
G1 X108.743 Y156.914 E.04278
G1 X107.867 Y155.868 E.04278
G1 X107.673 Y154.928 E.03008
G1 X107.673 Y55.072 E3.13092
G1 X108.047 Y53.822 E.0409
M204 S1000
; printing object 9VHolder.stl id:0 copy 0
;WIPE_START
G1 F8640
G1 X109.11 Y52.888 E-.32671
G1 X110.05 Y52.695 E-.22155
G1 X110.967 Y52.695 E-.21174
;WIPE_END
G1 E-.04 F2100
G1 Z.6 F720
G1 X110.837 Y56.369 F10800
G1 Z.2 F720
G1 E.8 F2100
M204 S800
;TYPE:Perimeter
G1 F1200
G1 X135.263 Y56.369 E.76586
G1 X135.263 Y70.667 E.44829
G1 X136.082 Y71.114 E.02927
G1 X138.791 Y69.378 E.10089
G1 X138.889 Y69.332 E.00339
G1 X138.997 Y69.329 E.00341
G1 X139.093 Y69.381 E.00341
G1 X139.148 Y69.474 E.00341
G1 X139.163 Y69.582 E.00339
G1 X139.163 Y75.418 E.18301
G1 X139.148 Y75.526 E.00339
G1 X139.093 Y75.619 E.00341
G1 X138.997 Y75.671 E.00341
G1 X138.943 Y75.677 E.00172
G1 X138.791 Y75.622 E.00507
G1 X136.082 Y73.886 E.10089
G1 X135.263 Y74.333 E.02927
G1 X135.263 Y135.667 E1.92306
G1 X136.082 Y136.114 E.02927
G1 X138.791 Y134.378 E.10089
G1 X138.943 Y134.323 E.00507
G1 X139.049 Y134.348 E.00341
G1 X139.127 Y134.424 E.00341
G1 X139.163 Y134.582 E.00507
G1 X139.163 Y140.418 E.18301
G1 X139.148 Y140.526 E.00339
G1 X139.093 Y140.619 E.00341
G1 X139.049 Y140.652 E.00172
G1 X138.943 Y140.677 E.00341
G1 X138.791 Y140.622 E.00507
G1 X136.082 Y138.886 E.10089
G1 X135.263 Y139.333 E.02927
G1 X135.263 Y153.631 E.44829
G1 X110.837 Y153.631 E.76586
G1 X110.837 Y141.857 E.36917
G1 X110.851 Y141.75 E.00337
G1 X110.906 Y141.657 E.0034
G1 X111.001 Y141.604 E.0034
G1 X111.109 Y141.607 E.0034
G1 X111.207 Y141.651 E.00337
G1 X114.026 Y143.413 E.10422
G1 X114.837 Y142.964 E.02907
G1 X114.837 Y132.036 E.34262
G1 X114.026 Y131.587 E.02907
G1 X111.207 Y133.349 E.10422
G1 X111.055 Y133.402 E.00505
G1 X110.95 Y133.376 E.0034
G1 X110.873 Y133.3 E.0034
G1 X110.837 Y133.143 E.00505
G1 X110.837 Y76.857 E1.76483
G1 X110.851 Y76.75 E.00337
G1 X110.906 Y76.657 E.0034
G1 X111.001 Y76.604 E.0034
G1 X111.109 Y76.607 E.0034
G1 X111.207 Y76.651 E.00337
G1 X114.026 Y78.413 E.10422
G1 X114.837 Y77.964 E.02907
G1 X114.837 Y67.036 E.34262
G1 X114.026 Y66.587 E.02907
G1 X111.207 Y68.349 E.10422
G1 X111.109 Y68.393 E.00337
G1 X111.001 Y68.396 E.0034
G1 X110.906 Y68.343 E.0034
G1 X110.851 Y68.25 E.0034
G1 X110.837 Y68.143 E.00337
G1 X110.837 Y56.429 E.36729
M204 S1000
G1 X110.46 Y55.992 F10800
M204 S800
;TYPE:External perimeter
G1 F1200
G1 X135.64 Y55.992 E.7895
G1 X135.64 Y70.443 E.4531
G1 X136.067 Y70.676 E.01524
G1 X138.608 Y69.047 E.09467
G1 X138.775 Y68.969 E.00577
G1 X138.93 Y68.943 E.0049
G1 X139.085 Y68.958 E.0049
G1 X139.231 Y69.014 E.0049
G1 X139.357 Y69.107 E.0049
G1 X139.454 Y69.23 E.0049
G1 X139.515 Y69.374 E.0049
G1 X139.54 Y69.556 E.00577
G1 X139.54 Y75.444 E.18459
G1 X139.515 Y75.626 E.00577
G1 X139.454 Y75.77 E.0049
G1 X139.357 Y75.893 E.0049
G1 X139.231 Y75.986 E.0049
G1 X139.085 Y76.042 E.0049
G1 X138.93 Y76.057 E.0049
G1 X138.775 Y76.031 E.0049
G1 X138.608 Y75.953 E.00577
G1 X136.067 Y74.324 E.09467
G1 X135.64 Y74.557 E.01524
G1 X135.64 Y135.443 E1.90904
G1 X136.067 Y135.676 E.01524
G1 X138.608 Y134.047 E.09467
G1 X138.775 Y133.969 E.00577
G1 X138.93 Y133.943 E.0049
G1 X139.085 Y133.958 E.0049
G1 X139.231 Y134.014 E.0049
G1 X139.357 Y134.107 E.0049
G1 X139.454 Y134.23 E.0049
G1 X139.515 Y134.374 E.0049
G1 X139.54 Y134.556 E.00577
G1 X139.54 Y140.444 E.18459
G1 X139.515 Y140.626 E.00577
M73 Q0 S72
G1 X139.454 Y140.77 E.0049
G1 X139.357 Y140.893 E.0049
G1 X139.231 Y140.986 E.0049
G1 X139.085 Y141.042 E.0049
G1 X138.93 Y141.057 E.0049
G1 X138.775 Y141.031 E.0049
G1 X138.608 Y140.953 E.00577
G1 X136.067 Y139.324 E.09467
G1 X135.64 Y139.557 E.01524
G1 X135.64 Y154.008 E.4531
G1 X110.46 Y154.008 E.7895
G1 X110.46 Y141.832 E.38178
M73 P1 R72
G1 X110.484 Y141.65 E.00574
M73 Q1 S72
G1 X110.545 Y141.507 E.00488
G1 X110.641 Y141.384 E.00488
G1 X110.766 Y141.291 E.00488
G1 X110.911 Y141.235 E.00488
G1 X111.065 Y141.218 E.00488
G1 X111.219 Y141.243 E.00488
G1 X111.386 Y141.318 E.00574
G1 X114.038 Y142.976 E.09804
G1 X114.46 Y142.742 E.01515
G1 X114.46 Y132.258 E.32869
G1 X114.038 Y132.024 E.01515
G1 X111.386 Y133.682 E.09804
G1 X111.219 Y133.757 E.00574
G1 X111.065 Y133.782 E.00488
G1 X110.911 Y133.765 E.00488
G1 X110.766 Y133.709 E.00488
G1 X110.641 Y133.616 E.00488
G1 X110.545 Y133.493 E.00488
G1 X110.484 Y133.35 E.00488
G1 X110.46 Y133.168 E.00574
G1 X110.46 Y76.832 E1.7664
G1 X110.484 Y76.65 E.00574
G1 X110.545 Y76.507 E.00488
G1 X110.641 Y76.384 E.00488
G1 X110.766 Y76.291 E.00488
G1 X110.911 Y76.235 E.00488
G1 X111.065 Y76.218 E.00488
G1 X111.219 Y76.243 E.00488
G1 X111.386 Y76.318 E.00574
G1 X114.038 Y77.976 E.09804
G1 X114.46 Y77.742 E.01515
G1 X114.46 Y67.258 E.32869
G1 X114.038 Y67.024 E.01515
G1 X111.386 Y68.682 E.09804
G1 X111.219 Y68.757 E.00574
G1 X111.065 Y68.782 E.00488
G1 X110.911 Y68.765 E.00488
G1 X110.766 Y68.709 E.00488
G1 X110.641 Y68.616 E.00488
G1 X110.545 Y68.493 E.00488
G1 X110.484 Y68.35 E.00488
G1 X110.46 Y68.168 E.00574
G1 X110.46 Y56.052 E.3799
M204 S1000
G1 X110.807 Y56.192 F10800
;WIPE_START
G1 F8640
G1 X113.751 Y56.044 E-.76
;WIPE_END
G1 E-.04 F2100
G1 Z.6 F720
G1 X138.511 Y69.692 F10800
G1 Z.2 F720
G1 E.8 F2100
M204 S800
;TYPE:Solid infill
;WIDTH:0.420803
G1 F1200
G1 X138.88 Y70.061 E.01642
G1 X138.88 Y70.596 E.01679
G1 X138.308 Y70.024 E.02543
G1 X137.982 Y70.232 E.01215
G1 X138.88 Y71.13 E.0399
G1 X138.88 Y71.665 E.01679
G1 X137.656 Y70.441 E.05437
G1 X137.331 Y70.65 E.01215
G1 X138.88 Y72.199 E.06884
G1 X138.88 Y72.733 E.01679
G1 X137.005 Y70.859 E.08332
G1 X136.68 Y71.067 E.01215
G1 X138.88 Y73.268 E.09779
G1 X138.88 Y73.802 E.01679
G1 X136.231 Y71.153 E.11771
M204 S1000
;WIPE_START
G1 F8640
G1 X138.558 Y73.481 E-.76
;WIPE_END
G1 E-.04 F2100
G1 Z.6 F720
G1 X135.15 Y57.246 F10800
G1 Z.2 F720
G1 E.8 F2100
M204 S800
G1 F1200
G1 X134.556 Y56.652 E.02641
G1 X134.021 Y56.652 E.01679
G1 X134.98 Y57.611 E.04261
G1 X134.98 Y58.145 E.01679
G1 X133.487 Y56.652 E.06636
G1 X132.952 Y56.652 E.01679
G1 X134.98 Y58.68 E.09011
G1 X134.98 Y59.214 E.01679
G1 X132.418 Y56.652 E.11386
G1 X131.883 Y56.652 E.01679
G1 X134.98 Y59.749 E.1376
G1 X134.98 Y60.283 E.01679
G1 X131.349 Y56.652 E.16135
G1 X130.815 Y56.652 E.01679
G1 X134.98 Y60.817 E.1851
G1 X134.98 Y61.352 E.01679
G1 X130.28 Y56.652 E.20884
G1 X129.746 Y56.652 E.01679
G1 X134.98 Y61.886 E.23259
G1 X134.98 Y62.421 E.01679
G1 X129.211 Y56.652 E.25634
G1 X128.677 Y56.652 E.01679
G1 X134.98 Y62.955 E.28008
G1 X134.98 Y63.489 E.01679
G1 X128.143 Y56.652 E.30383
G1 X127.608 Y56.652 E.01679
G1 X134.98 Y64.024 E.32758
G1 X134.98 Y64.558 E.01679
G1 X127.074 Y56.652 E.35133
G1 X126.539 Y56.652 E.01679
G1 X134.98 Y65.093 E.37507
G1 X134.98 Y65.627 E.01679
G1 X126.005 Y56.652 E.39882
G1 X125.471 Y56.652 E.01679
G1 X134.98 Y66.161 E.42257
G1 X134.98 Y66.696 E.01679
G1 X124.936 Y56.652 E.44631
G1 X124.402 Y56.652 E.01679
G1 X134.98 Y67.23 E.47006
G1 X134.98 Y67.765 E.01679
G1 X123.867 Y56.652 E.49381
G1 X123.333 Y56.652 E.01679
G1 X134.98 Y68.299 E.51755
G1 X134.98 Y68.833 E.01679
G1 X122.799 Y56.652 E.5413
G1 X122.264 Y56.652 E.01679
G1 X134.98 Y69.368 E.56505
G1 X134.98 Y69.902 E.01679
G1 X121.73 Y56.652 E.5888
G1 X121.195 Y56.652 E.01679
G1 X134.98 Y70.437 E.61254
G1 X134.98 Y70.834 E.0125
G1 X135.858 Y71.314 E.03142
G1 X138.88 Y74.337 E.13431
G1 X138.88 Y74.871 E.01679
G1 X120.661 Y56.652 E.80959
G1 X120.127 Y56.652 E.01679
G1 X138.707 Y75.232 E.82565
G1 X137.218 Y74.278 E.05556
G1 X119.592 Y56.652 E.78324
G1 X119.058 Y56.652 E.01679
G1 X136.009 Y73.603 E.75325
G1 X135.663 Y73.792 E.01237
M73 P1 R71
G1 X118.523 Y56.652 E.76164
G1 X117.989 Y56.652 E.01679
G1 X135.318 Y73.981 E.77004
G1 X134.98 Y74.178 E.01228
G1 X117.454 Y56.652 E.77877
G1 X116.92 Y56.652 E.01679
G1 X134.98 Y74.712 E.80252
G1 X134.98 Y75.246 E.01679
G1 X116.386 Y56.652 E.82627
G1 X115.851 Y56.652 E.01679
G1 X134.98 Y75.781 E.85001
G1 X134.98 Y76.315 E.01679
G1 X115.317 Y56.652 E.87376
G1 X114.782 Y56.652 E.01679
G1 X134.98 Y76.85 E.89751
G1 X134.98 Y77.384 E.01679
G1 X114.248 Y56.652 E.92125
G1 X113.714 Y56.652 E.01679
G1 X134.98 Y77.918 E.945
G1 X134.98 Y78.453 E.01679
G1 X113.179 Y56.652 E.96875
G1 X112.645 Y56.652 E.01679
G1 X134.98 Y78.987 E.99249
G1 X134.98 Y79.522 E.01679
M73 P2 R71
M73 Q2 S72
G1 X112.11 Y56.652 E1.01624
G1 X111.576 Y56.652 E.01679
G1 X134.98 Y80.056 E1.03999
G1 X134.98 Y80.59 E.01679
G1 X111.12 Y56.73 E1.06026
G1 X111.12 Y57.265 E.01679
G1 X134.98 Y81.125 E1.06026
G1 X134.98 Y81.659 E.01679
G1 X111.12 Y57.799 E1.06026
G1 X111.12 Y58.333 E.01679
G1 X134.98 Y82.194 E1.06026
G1 X134.98 Y82.728 E.01679
G1 X111.12 Y58.868 E1.06026
G1 X111.12 Y59.402 E.01679
G1 X134.98 Y83.262 E1.06026
G1 X134.98 Y83.797 E.01679
M73 Q2 S71
G1 X111.12 Y59.937 E1.06026
G1 X111.12 Y60.471 E.01679
G1 X134.98 Y84.331 E1.06026
G1 X134.98 Y84.866 E.01679
G1 X111.12 Y61.005 E1.06026
G1 X111.12 Y61.54 E.01679
G1 X134.98 Y85.4 E1.06026
G1 X134.98 Y85.934 E.01679
G1 X111.12 Y62.074 E1.06026
G1 X111.12 Y62.609 E.01679
G1 X134.98 Y86.469 E1.06026
G1 X134.98 Y87.003 E.01679
G1 X115.12 Y67.143 E.88251
G1 X115.12 Y66.87 E.00859
G1 X114.507 Y66.53 E.02203
G1 X111.12 Y63.143 E.1505
G1 X111.12 Y63.677 E.01679
G1 X113.823 Y66.38 E.12011
G1 X113.494 Y66.586 E.01219
G1 X111.12 Y64.212 E.10549
G1 X111.12 Y64.746 E.01679
G1 X113.165 Y66.791 E.09088
G1 X112.836 Y66.997 E.01219
G1 X111.12 Y65.281 E.07627
G1 X111.12 Y65.815 E.01679
G1 X112.507 Y67.203 E.06165
G1 X112.178 Y67.408 E.01219
G1 X111.12 Y66.35 E.04704
G1 X111.12 Y66.884 E.01679
G1 X111.85 Y67.614 E.03243
G1 X111.521 Y67.819 E.01219
G1 X111.12 Y67.418 E.01781
G1 X111.12 Y67.953 E.01679
G1 X111.315 Y68.148 E.00867
M204 S1000
;WIPE_START
G1 F8640
G1 X111.12 Y67.953 E-.06371
G1 X111.12 Y67.418 E-.1234
G1 X111.521 Y67.819 E-.13089
G1 X111.85 Y67.614 E-.08955
G1 X111.12 Y66.884 E-.23828
G1 X111.12 Y66.389 E-.11417
;WIPE_END
G1 E-.04 F2100
G1 Z.6 F720
G1 X114.95 Y67.508 F10800
G1 Z.2 F720
G1 E.8 F2100
M204 S800
G1 F1200
G1 X134.98 Y87.538 E.89005
G1 X134.98 Y88.072 E.01679
G1 X115.12 Y68.212 E.88251
G1 X115.12 Y68.746 E.01679
G1 X134.98 Y88.607 E.88251
G1 X134.98 Y89.141 E.01679
G1 X115.12 Y69.281 E.88251
G1 X115.12 Y69.815 E.01679
G1 X134.98 Y89.675 E.88251
G1 X134.98 Y90.21 E.01679
G1 X115.12 Y70.35 E.88251
G1 X115.12 Y70.884 E.01679
G1 X134.98 Y90.744 E.88251
G1 X134.98 Y91.279 E.01679
G1 X115.12 Y71.418 E.88251
G1 X115.12 Y71.953 E.01679
G1 X134.98 Y91.813 E.88251
G1 X134.98 Y92.347 E.01679
G1 X115.12 Y72.487 E.88251
G1 X115.12 Y73.022 E.01679
G1 X134.98 Y92.882 E.88251
G1 X134.98 Y93.416 E.01679
M73 P3 R70
G1 X115.12 Y73.556 E.88251
M73 Q3 S71
G1 X115.12 Y74.09 E.01679
G1 X134.98 Y93.951 E.88251
G1 X134.98 Y94.485 E.01679
G1 X115.12 Y74.625 E.88251
G1 X115.12 Y75.159 E.01679
G1 X134.98 Y95.019 E.88251
G1 X134.98 Y95.554 E.01679
G1 X115.12 Y75.694 E.88251
G1 X115.12 Y76.228 E.01679
G1 X134.98 Y96.088 E.88251
G1 X134.98 Y96.623 E.01679
G1 X115.12 Y76.762 E.88251
G1 X115.12 Y77.297 E.01679
G1 X134.98 Y97.157 E.88251
G1 X134.98 Y97.691 E.01679
G1 X115.12 Y77.831 E.88251
G1 X115.12 Y78.13 E.0094
G1 X114.968 Y78.214 E.00544
G1 X134.98 Y98.226 E.88924
G1 X134.98 Y98.76 E.01679
G1 X114.625 Y78.405 E.90452
G1 X114.281 Y78.595 E.01235
G1 X134.98 Y99.295 E.9198
G1 X134.98 Y99.829 E.01679
G1 X113.684 Y78.533 E.94632
G1 X112.259 Y77.642 E.0528
G1 X134.98 Y100.363 E1.00965
G1 X134.98 Y100.898 E.01679
G1 X111.12 Y77.038 E1.06026
G1 X111.12 Y77.572 E.01679
G1 X134.98 Y101.432 E1.06026
G1 X134.98 Y101.967 E.01679
G1 X111.12 Y78.106 E1.06026
G1 X111.12 Y78.641 E.01679
G1 X134.98 Y102.501 E1.06026
G1 X134.98 Y103.036 E.01679
G1 X111.12 Y79.175 E1.06026
G1 X111.12 Y79.71 E.01679
M73 Q3 S70
G1 X134.98 Y103.57 E1.06026
G1 X134.98 Y104.104 E.01679
G1 X111.12 Y80.244 E1.06026
G1 X111.12 Y80.778 E.01679
G1 X134.98 Y104.639 E1.06026
G1 X134.98 Y105.173 E.01679
G1 X111.12 Y81.313 E1.06026
G1 X111.12 Y81.847 E.01679
G1 X134.98 Y105.708 E1.06026
G1 X134.98 Y106.242 E.01679
G1 X111.12 Y82.382 E1.06026
G1 X111.12 Y82.916 E.01679
G1 X134.98 Y106.776 E1.06026
G1 X134.98 Y107.311 E.01679
G1 X111.12 Y83.451 E1.06026
G1 X111.12 Y83.985 E.01679
G1 X134.98 Y107.845 E1.06026
G1 X134.98 Y108.38 E.01679
M73 P4 R70
M73 Q4 S70
G1 X111.12 Y84.519 E1.06026
G1 X111.12 Y85.054 E.01679
G1 X134.98 Y108.914 E1.06026
G1 X134.98 Y109.448 E.01679
G1 X111.12 Y85.588 E1.06026
G1 X111.12 Y86.123 E.01679
G1 X134.98 Y109.983 E1.06026
G1 X134.98 Y110.517 E.01679
G1 X111.12 Y86.657 E1.06026
G1 X111.12 Y87.191 E.01679
G1 X134.98 Y111.052 E1.06026
G1 X134.98 Y111.586 E.01679
G1 X111.12 Y87.726 E1.06026
G1 X111.12 Y88.26 E.01679
G1 X134.98 Y112.12 E1.06026
G1 X134.98 Y112.655 E.01679
G1 X111.12 Y88.795 E1.06026
G1 X111.12 Y89.329 E.01679
M73 P4 R69
G1 X134.98 Y113.189 E1.06026
G1 X134.98 Y113.724 E.01679
G1 X111.12 Y89.863 E1.06026
G1 X111.12 Y90.398 E.01679
G1 X134.98 Y114.258 E1.06026
G1 X134.98 Y114.792 E.01679
G1 X111.12 Y90.932 E1.06026
G1 X111.12 Y91.467 E.01679
G1 X134.98 Y115.327 E1.06026
G1 X134.98 Y115.861 E.01679
G1 X111.12 Y92.001 E1.06026
G1 X111.12 Y92.535 E.01679
G1 X134.98 Y116.396 E1.06026
G1 X134.98 Y116.93 E.01679
G1 X111.12 Y93.07 E1.06026
G1 X111.12 Y93.604 E.01679
G1 X134.98 Y117.465 E1.06026
G1 X134.98 Y117.999 E.01679
G1 X111.12 Y94.139 E1.06026
G1 X111.12 Y94.673 E.01679
G1 X134.98 Y118.533 E1.06026
G1 X134.98 Y119.068 E.01679
G1 X111.12 Y95.207 E1.06026
G1 X111.12 Y95.742 E.01679
G1 X134.98 Y119.602 E1.06026
G1 X134.98 Y120.137 E.01679
G1 X111.12 Y96.276 E1.06026
G1 X111.12 Y96.811 E.01679
G1 X134.98 Y120.671 E1.06026
G1 X134.98 Y121.205 E.01679
G1 X111.12 Y97.345 E1.06026
G1 X111.12 Y97.88 E.01679
M73 P5 R69
G1 X134.98 Y121.74 E1.06026
G1 X134.98 Y122.274 E.01679
M73 Q5 S69
G1 X111.12 Y98.414 E1.06026
G1 X111.12 Y98.948 E.01679
G1 X134.98 Y122.809 E1.06026
G1 X134.98 Y123.343 E.01679
G1 X111.12 Y99.483 E1.06026
G1 X111.12 Y100.017 E.01679
G1 X134.98 Y123.877 E1.06026
G1 X134.98 Y124.412 E.01679
G1 X111.12 Y100.552 E1.06026
G1 X111.12 Y101.086 E.01679
G1 X134.98 Y124.946 E1.06026
G1 X134.98 Y125.481 E.01679
