; generated by PrusaSlicer 2.4.1+win64 on 2024-01-18 at 12:55:56 UTC


;
;
; 

; external perimeters extrusion width = 0.60mm
; perimeters extrusion width = 0.50mm
; infill extrusion width = 0.50mm
; solid infill extrusion width = 0.50mm
; top infill extrusion width = 0.45mm
; first layer extrusion width = 0.42mm

M73 P0 R79
M73 Q0 S80
M201 X1000 Y1000 Z200 E5000 ; sets maximum accelerations, mm/sec^2
M203 X200 Y200 Z12 E120 ; sets maximum feedrates, mm / sec
M204 P1250 R1250 T1250 ; sets acceleration (P, T) and retract acceleration (R), mm/sec^2
M205 X8.00 Y8.00 Z0.40 E4.50 ; sets the jerk limits, mm/sec
M205 S0 T0 ; sets the minimum extruding and travel feed rate, mm/sec
M107
;TYPE:Custom
M862.3 P "MK3S" ; printer model check
M862.1 P0.4 ; nozzle diameter check
M115 U3.11.0 ; tell printer latest fw version
G90 ; use absolute coordinates
M83 ; extruder relative mode
M104 S215 ; set extruder temp
M140 S60 ; set bed temp
M190 S60 ; wait for bed temp
M109 S215 ; wait for extruder temp
G28 W ; home all without mesh bed level
G80 ; mesh bed leveling

G1 Z0.2 F720
G1 Y-3 F1000 ; go outside print area
G92 E0
G1 X60 E9 F1000 ; intro line
G1 X100 E12.5 F1000 ; intro line

G92 E0
M221 S95

; Don't change E values below. Excessive value can damage the printer.

M907 E538 ; set extruder motor current
G21 ; set units to millimeters
G90 ; use absolute coordinates
M83 ; use relative distances for extrusion
M900 K0.05 ; Filament gcode LA 1.5
M900 K30 ; Filament gcode LA 1.0
M107
;LAYER_CHANGE
;Z:0.2
;HEIGHT:0.2
;BEFORE_LAYER_CHANGE
G92 E0.0
;0.2


G1 E-.8 F2100
G1 Z.4 F720
;AFTER_LAYER_CHANGE
;0.2
G1 X112.065 Y53.765 F10800
G1 Z.2 F720
G1 E.8 F2100
M204 S800
;TYPE:Skirt/Brim
;WIDTH:0.42
G1 F1200
G1 X113.11 Y52.888 E.04278
G1 X114.05 Y52.695 E.03008
G1 X132.05 Y52.695 E.56438
G1 X133.357 Y53.086 E.04278
G1 X134.344 Y54.447 E.0527
G1 X138.208 Y68.64 E.4612
G1 X138.327 Y69.528 E.02808
G1 X138.327 Y140.471 E2.22439
G1 X138.27 Y141.053 E.01832
G1 X134.344 Y155.553 E.47101
G1 X133.622 Y156.711 E.04278
G1 X132.05 Y157.305 E.0527
G1 X114.05 Y157.305 E.56438
G1 X112.743 Y156.914 E.04278
G1 X111.867 Y155.868 E.04278
G1 X111.673 Y154.928 E.03008
G1 X111.673 Y55.072 E3.13092
G1 X112.047 Y53.822 E.0409
M204 S1000
; printing object AAAHolder.stl id:0 copy 0
;WIPE_START
G1 F8640
G1 X113.11 Y52.888 E-.32671
G1 X114.05 Y52.695 E-.22155
G1 X114.967 Y52.695 E-.21174
;WIPE_END
G1 E-.04 F2100
G1 Z.6 F720
G1 X114.837 Y56.369 F10800
G1 Z.2 F720
G1 E.8 F2100
M204 S800
;TYPE:Perimeter
G1 F1200
G1 X131.263 Y56.369 E.51502
G1 X131.263 Y70.667 E.44829
G1 X132.082 Y71.114 E.02927
G1 X134.791 Y69.378 E.10089
G1 X134.889 Y69.332 E.00339
G1 X134.997 Y69.329 E.00341
G1 X135.093 Y69.381 E.00341
G1 X135.148 Y69.474 E.00341
G1 X135.163 Y69.582 E.00339
G1 X135.163 Y75.418 E.18301
G1 X135.148 Y75.526 E.00339
G1 X135.093 Y75.619 E.00341
G1 X135.049 Y75.652 E.00172
G1 X134.943 Y75.677 E.00341
G1 X134.791 Y75.622 E.00507
G1 X132.082 Y73.886 E.10089
G1 X131.263 Y74.333 E.02927
G1 X131.263 Y135.667 E1.92306
G1 X132.082 Y136.114 E.02927
G1 X134.791 Y134.378 E.10089
G1 X134.943 Y134.323 E.00507
G1 X135.049 Y134.348 E.00341
G1 X135.127 Y134.424 E.00341
G1 X135.163 Y134.582 E.00507
G1 X135.163 Y140.418 E.18301
G1 X135.148 Y140.526 E.00339
G1 X135.093 Y140.619 E.00341
G1 X135.049 Y140.652 E.00172
G1 X134.943 Y140.677 E.00341
G1 X134.791 Y140.622 E.00507
G1 X132.082 Y138.886 E.10089
G1 X131.263 Y139.333 E.02927
G1 X131.263 Y153.631 E.44829
G1 X114.837 Y153.631 E.51502
G1 X114.837 Y141.857 E.36917
G1 X114.851 Y141.75 E.00337
G1 X114.906 Y141.657 E.0034
G1 X115.001 Y141.604 E.0034
G1 X115.109 Y141.607 E.0034
G1 X115.207 Y141.651 E.00337
G1 X118.026 Y143.413 E.10422
G1 X118.837 Y142.964 E.02907
G1 X118.837 Y132.036 E.34262
G1 X118.026 Y131.587 E.02907
G1 X115.207 Y133.349 E.10422
G1 X115.055 Y133.402 E.00505
G1 X114.95 Y133.376 E.0034
G1 X114.873 Y133.3 E.0034
G1 X114.837 Y133.143 E.00505
G1 X114.837 Y76.857 E1.76483
G1 X114.851 Y76.75 E.00337
M73 Q0 S79
G1 X114.906 Y76.657 E.0034
G1 X115.001 Y76.604 E.0034
G1 X115.109 Y76.607 E.0034
G1 X115.207 Y76.651 E.00337
G1 X118.026 Y78.413 E.10422
G1 X118.837 Y77.964 E.02907
G1 X118.837 Y67.036 E.34262
G1 X118.026 Y66.587 E.02907
G1 X115.207 Y68.349 E.10422
G1 X115.109 Y68.393 E.00337
G1 X115.001 Y68.396 E.0034
G1 X114.906 Y68.343 E.0034
G1 X114.851 Y68.25 E.0034
G1 X114.837 Y68.143 E.00337
G1 X114.837 Y56.429 E.36729
M204 S1000
G1 X114.46 Y55.992 F10800
M204 S800
;TYPE:External perimeter
G1 F1200
G1 X131.64 Y55.992 E.53867
G1 X131.64 Y70.443 E.4531
G1 X132.067 Y70.676 E.01524
G1 X134.608 Y69.047 E.09467
G1 X134.775 Y68.969 E.00577
G1 X134.93 Y68.943 E.0049
G1 X135.085 Y68.958 E.0049
G1 X135.231 Y69.014 E.0049
G1 X135.357 Y69.107 E.0049
G1 X135.454 Y69.23 E.0049
G1 X135.515 Y69.374 E.0049
G1 X135.54 Y69.556 E.00577
G1 X135.54 Y75.444 E.18459
G1 X135.515 Y75.626 E.00577
G1 X135.454 Y75.77 E.0049
G1 X135.357 Y75.893 E.0049
G1 X135.231 Y75.986 E.0049
G1 X135.085 Y76.042 E.0049
G1 X134.93 Y76.057 E.0049
G1 X134.775 Y76.031 E.0049
G1 X134.608 Y75.953 E.00577
G1 X132.067 Y74.324 E.09467
G1 X131.64 Y74.557 E.01524
G1 X131.64 Y135.443 E1.90904
G1 X132.067 Y135.676 E.01524
G1 X134.608 Y134.047 E.09467
G1 X134.775 Y133.969 E.00577
G1 X134.93 Y133.943 E.0049
G1 X135.085 Y133.958 E.0049
G1 X135.231 Y134.014 E.0049
G1 X135.357 Y134.107 E.0049
G1 X135.454 Y134.23 E.0049
G1 X135.515 Y134.374 E.0049
G1 X135.54 Y134.556 E.00577
G1 X135.54 Y140.444 E.18459
G1 X135.515 Y140.626 E.00577
G1 X135.454 Y140.77 E.0049
G1 X135.357 Y140.893 E.0049
G1 X135.231 Y140.986 E.00491
G1 X135.085 Y141.042 E.0049
G1 X134.93 Y141.057 E.0049
G1 X134.775 Y141.031 E.0049
G1 X134.608 Y140.953 E.00577
G1 X132.067 Y139.324 E.09467
G1 X131.64 Y139.557 E.01524
G1 X131.64 Y154.008 E.4531
G1 X114.46 Y154.008 E.53867
G1 X114.46 Y141.832 E.38178
G1 X114.484 Y141.65 E.00574
G1 X114.545 Y141.507 E.00488
G1 X114.641 Y141.384 E.00488
G1 X114.766 Y141.291 E.00488
G1 X114.911 Y141.235 E.00488
G1 X115.065 Y141.218 E.00488
G1 X115.219 Y141.243 E.00488
G1 X115.386 Y141.318 E.00574
G1 X118.038 Y142.976 E.09804
G1 X118.46 Y142.742 E.01515
G1 X118.46 Y132.258 E.32869
G1 X118.038 Y132.024 E.01515
G1 X115.386 Y133.682 E.09804
G1 X115.219 Y133.757 E.00574
G1 X115.065 Y133.782 E.00488
G1 X114.911 Y133.765 E.00488
G1 X114.766 Y133.709 E.00488
G1 X114.641 Y133.616 E.00488
G1 X114.545 Y133.493 E.00488
G1 X114.484 Y133.35 E.00488
G1 X114.46 Y133.168 E.00574
G1 X114.46 Y76.832 E1.7664
G1 X114.484 Y76.65 E.00574
G1 X114.545 Y76.507 E.00488
G1 X114.641 Y76.384 E.00488
G1 X114.766 Y76.291 E.00488
G1 X114.911 Y76.235 E.00488
G1 X115.065 Y76.218 E.00488
G1 X115.219 Y76.243 E.00488
G1 X115.386 Y76.318 E.00574
G1 X118.038 Y77.976 E.09804
G1 X118.46 Y77.742 E.01515
G1 X118.46 Y67.258 E.32869
G1 X118.038 Y67.024 E.01515
G1 X115.386 Y68.682 E.09804
G1 X115.219 Y68.757 E.00574
G1 X115.065 Y68.782 E.00488
G1 X114.911 Y68.765 E.00488
G1 X114.766 Y68.709 E.00488
G1 X114.641 Y68.616 E.00488
G1 X114.545 Y68.493 E.00488
G1 X114.484 Y68.35 E.00488
G1 X114.46 Y68.168 E.00574
G1 X114.46 Y56.052 E.3799
M204 S1000
G1 X114.807 Y56.192 F10800
;WIPE_START
G1 F8640
G1 X117.751 Y56.041 E-.76
;WIPE_END
G1 E-.04 F2100
G1 Z.6 F720
G1 X130.386 Y56.482 F10800
G1 Z.2 F720
M73 P1 R79
G1 E.8 F2100
M204 S800
;TYPE:Solid infill
;WIDTH:0.420857
M73 Q1 S79
G1 F1200
G1 X130.98 Y57.077 E.02642
G1 X130.98 Y57.611 E.0168
G1 X130.021 Y56.652 E.04263
G1 X129.486 Y56.652 E.0168
G1 X130.98 Y58.146 E.06638
G1 X130.98 Y58.68 E.0168
G1 X128.952 Y56.652 E.09014
G1 X128.417 Y56.652 E.0168
G1 X130.98 Y59.215 E.11389
G1 X130.98 Y59.749 E.0168
G1 X127.883 Y56.652 E.13764
G1 X127.349 Y56.652 E.0168
G1 X130.98 Y60.284 E.1614
G1 X130.98 Y60.818 E.0168
G1 X126.814 Y56.652 E.18515
G1 X126.28 Y56.652 E.0168
G1 X130.98 Y61.352 E.20891
G1 X130.98 Y61.887 E.0168
G1 X125.745 Y56.652 E.23266
G1 X125.211 Y56.652 E.0168
G1 X130.98 Y62.421 E.25641
G1 X130.98 Y62.956 E.0168
G1 X124.676 Y56.652 E.28017
G1 X124.142 Y56.652 E.0168
G1 X130.98 Y63.49 E.30392
G1 X130.98 Y64.025 E.0168
G1 X123.607 Y56.652 E.32767
G1 X123.073 Y56.652 E.0168
G1 X130.98 Y64.559 E.35143
G1 X130.98 Y65.094 E.0168
G1 X122.538 Y56.652 E.37518
G1 X122.004 Y56.652 E.0168
M73 P1 R78
G1 X130.98 Y65.628 E.39894
G1 X130.98 Y66.163 E.0168
G1 X121.469 Y56.652 E.42269
G1 X120.935 Y56.652 E.0168
G1 X130.98 Y66.697 E.44644
G1 X130.98 Y67.232 E.0168
G1 X120.4 Y56.652 E.4702
G1 X119.866 Y56.652 E.0168
G1 X130.98 Y67.766 E.49395
G1 X130.98 Y68.301 E.0168
G1 X119.331 Y56.652 E.5177
G1 X118.797 Y56.652 E.0168
G1 X130.98 Y68.835 E.54146
G1 X130.98 Y69.37 E.0168
G1 X118.262 Y56.652 E.56521
G1 X117.728 Y56.652 E.0168
G1 X131.15 Y70.074 E.59651
M204 S1000
;WIPE_START
G1 F8640
G1 X128.822 Y67.747 E-.76
;WIPE_END
G1 E-.04 F2100
G1 Z.6 F720
G1 X134.51 Y69.692 F10800
G1 Z.2 F720
G1 E.8 F2100
M204 S800
G1 F1200
G1 X134.88 Y70.063 E.01646
G1 X134.88 Y70.597 E.0168
G1 X134.307 Y70.024 E.02548
G1 X133.981 Y70.233 E.01216
G1 X134.88 Y71.132 E.03995
G1 X134.88 Y71.666 E.0168
G1 X133.655 Y70.442 E.05443
G1 X133.33 Y70.65 E.01216
G1 X134.88 Y72.201 E.0689
G1 X134.88 Y72.735 E.0168
G1 X133.004 Y70.859 E.08338
G1 X132.678 Y71.068 E.01216
G1 X134.88 Y73.27 E.09785
G1 X134.88 Y73.804 E.0168
G1 X132.23 Y71.154 E.11778
M204 S1000
;WIPE_START
G1 F8640
G1 X134.557 Y73.481 E-.76
;WIPE_END
G1 E-.04 F2100
G1 Z.6 F720
G1 X135.05 Y74.508 F10800
G1 Z.2 F720
G1 E.8 F2100
M204 S800
G1 F1200
G1 X131.853 Y71.312 E.14207
G1 X130.98 Y70.834 E.03127
G1 X130.98 Y70.439 E.01243
G1 X117.193 Y56.652 E.61272
G1 X116.659 Y56.652 E.0168
G1 X134.88 Y74.873 E.8098
G1 X134.88 Y75.343 E.01478
G1 X134.701 Y75.229 E.00669
G1 X116.124 Y56.652 E.82559
G1 X115.59 Y56.652 E.0168
G1 X133.212 Y74.274 E.78317
G1 X132.093 Y73.557 E.04176
G1 X132.007 Y73.604 E.00308
G1 X115.12 Y56.716 E.75052
G1 X115.12 Y57.251 E.0168
G1 X131.662 Y73.793 E.73517
G1 X131.316 Y73.982 E.01238
G1 X115.12 Y57.785 E.71981
G1 X115.12 Y58.32 E.0168
G1 X130.98 Y74.18 E.70487
G1 X130.98 Y74.715 E.0168
G1 X115.12 Y58.854 E.70487
G1 X115.12 Y59.389 E.0168
G1 X130.98 Y75.249 E.70487
G1 X130.98 Y75.784 E.0168
G1 X115.12 Y59.923 E.70487
G1 X115.12 Y60.458 E.0168
G1 X130.98 Y76.318 E.70487
G1 X130.98 Y76.853 E.0168
G1 X115.12 Y60.992 E.70487
G1 X115.12 Y61.527 E.0168
G1 X130.98 Y77.387 E.70487
G1 X130.98 Y77.921 E.0168
G1 X115.12 Y62.061 E.70487
G1 X115.12 Y62.596 E.0168
G1 X130.98 Y78.456 E.70487
G1 X130.98 Y78.99 E.0168
G1 X115.12 Y63.13 E.70487
G1 X115.12 Y63.665 E.0168
G1 X117.831 Y66.375 E.12047
G1 X117.502 Y66.581 E.01219
G1 X115.12 Y64.199 E.10586
G1 X115.12 Y64.734 E.0168
G1 X117.173 Y66.787 E.09124
G1 X116.844 Y66.992 E.01219
G1 X115.12 Y65.268 E.07662
G1 X115.12 Y65.803 E.0168
G1 X116.515 Y67.198 E.062
G1 X116.186 Y67.403 E.01219
G1 X115.12 Y66.337 E.04738
G1 X115.12 Y66.872 E.0168
G1 X115.857 Y67.609 E.03277
G1 X115.528 Y67.814 E.01219
G1 X115.12 Y67.406 E.01815
G1 X115.12 Y67.941 E.0168
G1 X115.322 Y68.143 E.009
M204 S1000
;WIPE_START
G1 F8640
G1 X115.12 Y67.941 E-.06616
G1 X115.12 Y67.406 E-.12341
G1 X115.528 Y67.814 E-.13335
G1 X115.857 Y67.609 E-.08956
G1 X115.12 Y66.872 E-.24076
G1 X115.12 Y66.409 E-.10675
;WIPE_END
G1 E-.04 F2100
G1 Z.6 F720
G1 X118.95 Y67.495 F10800
G1 Z.2 F720
G1 E.8 F2100
M204 S800
G1 F1200
G1 X130.98 Y79.525 E.53464
G1 X130.98 Y80.059 E.0168
G1 X119.12 Y68.199 E.5271
G1 X119.12 Y68.734 E.0168
G1 X130.98 Y80.594 E.5271
G1 X130.98 Y81.128 E.0168
G1 X119.12 Y69.268 E.5271
G1 X119.12 Y69.803 E.0168
G1 X130.98 Y81.663 E.5271
G1 X130.98 Y82.197 E.0168
G1 X119.12 Y70.337 E.5271
G1 X119.12 Y70.872 E.0168
G1 X130.98 Y82.732 E.5271
G1 X130.98 Y83.266 E.0168
M73 Q1 S78
G1 X119.12 Y71.406 E.5271
G1 X119.12 Y71.941 E.0168
G1 X130.98 Y83.801 E.5271
G1 X130.98 Y84.335 E.0168
G1 X119.12 Y72.475 E.5271
G1 X119.12 Y73.01 E.0168
G1 X130.98 Y84.87 E.5271
G1 X130.98 Y85.404 E.0168
G1 X119.12 Y73.544 E.5271
G1 X119.12 Y74.078 E.0168
M73 P2 R78
G1 X130.98 Y85.939 E.5271
G1 X130.98 Y86.473 E.0168
M73 Q2 S78
G1 X119.12 Y74.613 E.5271
G1 X119.12 Y75.147 E.0168
G1 X130.98 Y87.008 E.5271
G1 X130.98 Y87.542 E.0168
G1 X119.12 Y75.682 E.5271
G1 X119.12 Y76.216 E.0168
G1 X130.98 Y88.077 E.5271
G1 X130.98 Y88.611 E.0168
G1 X119.12 Y76.751 E.5271
G1 X119.12 Y77.285 E.0168
G1 X130.98 Y89.146 E.5271
G1 X130.98 Y89.68 E.0168
G1 X119.12 Y77.82 E.5271
G1 X119.12 Y78.13 E.00975
G1 X118.976 Y78.21 E.00518
G1 X130.98 Y90.215 E.53351
G1 X130.98 Y90.749 E.0168
G1 X118.632 Y78.401 E.54879
G1 X118.288 Y78.591 E.01236
G1 X130.98 Y91.284 E.56407
G1 X130.98 Y91.818 E.0168
G1 X117.713 Y78.551 E.58961
G1 X116.288 Y77.66 E.05282
G1 X130.98 Y92.353 E.65296
G1 X130.98 Y92.887 E.0168
G1 X115.12 Y77.027 E.70487
G1 X115.12 Y77.561 E.0168
G1 X130.98 Y93.422 E.70487
G1 X130.98 Y93.956 E.0168
G1 X115.12 Y78.096 E.70487
G1 X115.12 Y78.63 E.0168
G1 X130.98 Y94.49 E.70487
G1 X130.98 Y95.025 E.0168
G1 X115.12 Y79.165 E.70487
G1 X115.12 Y79.699 E.0168
M73 P2 R77
G1 X130.98 Y95.559 E.70487
G1 X130.98 Y96.094 E.0168
G1 X115.12 Y80.234 E.70487
G1 X115.12 Y80.768 E.0168
G1 X130.98 Y96.628 E.70487
G1 X130.98 Y97.163 E.0168
G1 X115.12 Y81.303 E.70487
G1 X115.12 Y81.837 E.0168
G1 X130.98 Y97.697 E.70487
G1 X130.98 Y98.232 E.0168
G1 X115.12 Y82.372 E.70487
G1 X115.12 Y82.906 E.0168
G1 X130.98 Y98.766 E.70487
G1 X130.98 Y99.301 E.0168
G1 X115.12 Y83.441 E.70487
G1 X115.12 Y83.975 E.0168
G1 X130.98 Y99.835 E.70487
G1 X130.98 Y100.37 E.0168
G1 X115.12 Y84.51 E.70487
G1 X115.12 Y85.044 E.0168
G1 X130.98 Y100.904 E.70487
G1 X130.98 Y101.439 E.0168
G1 X115.12 Y85.579 E.70487
G1 X115.12 Y86.113 E.0168
G1 X130.98 Y101.973 E.70487
G1 X130.98 Y102.508 E.0168
G1 X115.12 Y86.647 E.70487
G1 X115.12 Y87.182 E.0168
G1 X130.98 Y103.042 E.70487
G1 X130.98 Y103.577 E.0168
G1 X115.12 Y87.716 E.70487
G1 X115.12 Y88.251 E.0168
G1 X130.98 Y104.111 E.70487
G1 X130.98 Y104.646 E.0168
G1 X115.12 Y88.785 E.70487
G1 X115.12 Y89.32 E.0168
G1 X130.98 Y105.18 E.70487
G1 X130.98 Y105.715 E.0168
G1 X115.12 Y89.854 E.70487
G1 X115.12 Y90.389 E.0168
G1 X130.98 Y106.249 E.70487
G1 X130.98 Y106.784 E.0168
G1 X115.12 Y90.923 E.70487
G1 X115.12 Y91.458 E.0168
G1 X130.98 Y107.318 E.70487
G1 X130.98 Y107.853 E.0168
G1 X115.12 Y91.992 E.70487
G1 X115.12 Y92.527 E.0168
G1 X130.98 Y108.387 E.70487
G1 X130.98 Y108.922 E.0168
G1 X115.12 Y93.061 E.70487
G1 X115.12 Y93.596 E.0168
M73 P3 R77
G1 X130.98 Y109.456 E.70487
G1 X130.98 Y109.99 E.0168
M73 Q3 S78
G1 X115.12 Y94.13 E.70487
G1 X115.12 Y94.665 E.0168
G1 X130.98 Y110.525 E.70487
G1 X130.98 Y111.059 E.0168
G1 X115.12 Y95.199 E.70487
G1 X115.12 Y95.734 E.0168
G1 X130.98 Y111.594 E.70487
G1 X130.98 Y112.128 E.0168
G1 X115.12 Y96.268 E.70487
G1 X115.12 Y96.803 E.0168
G1 X130.98 Y112.663 E.70487
G1 X130.98 Y113.197 E.0168
M73 Q3 S77
G1 X115.12 Y97.337 E.70487
G1 X115.12 Y97.872 E.0168
G1 X130.98 Y113.732 E.70487
G1 X130.98 Y114.266 E.0168
G1 X115.12 Y98.406 E.70487
G1 X115.12 Y98.941 E.0168
G1 X130.98 Y114.801 E.70487
G1 X130.98 Y115.335 E.0168
G1 X115.12 Y99.475 E.70487
G1 X115.12 Y100.01 E.0168
G1 X130.98 Y115.87 E.70487
G1 X130.98 Y116.404 E.0168
G1 X115.12 Y100.544 E.70487
G1 X115.12 Y101.079 E.0168
G1 X130.98 Y116.939 E.70487
G1 X130.98 Y117.473 E.0168
G1 X115.12 Y101.613 E.70487
G1 X115.12 Y102.148 E.0168
G1 X130.98 Y118.008 E.70487
G1 X130.98 Y118.542 E.0168
G1 X115.12 Y102.682 E.70487
G1 X115.12 Y103.216 E.0168
G1 X130.98 Y119.077 E.70487
G1 X130.98 Y119.611 E.0168
G1 X115.12 Y103.751 E.70487
G1 X115.12 Y104.285 E.0168
G1 X130.98 Y120.146 E.70487
G1 X130.98 Y120.68 E.0168
G1 X115.12 Y104.82 E.70487
G1 X115.12 Y105.354 E.0168
G1 X130.98 Y121.215 E.70487
G1 X130.98 Y121.749 E.0168
G1 X115.12 Y105.889 E.70487
G1 X115.12 Y106.423 E.0168
G1 X130.98 Y122.284 E.70487
G1 X130.98 Y122.818 E.0168
G1 X115.12 Y106.958 E.70487
G1 X115.12 Y107.492 E.0168
M73 P3 R76
G1 X130.98 Y123.353 E.70487
G1 X130.98 Y123.887 E.0168
G1 X115.12 Y108.027 E.70487
G1 X115.12 Y108.561 E.0168
G1 X130.98 Y124.422 E.70487
G1 X130.98 Y124.956 E.0168
G1 X115.12 Y109.096 E.70487
G1 X115.12 Y109.63 E.0168
G1 X130.98 Y125.491 E.70487
G1 X130.98 Y126.025 E.0168
G1 X115.12 Y110.165 E.70487
G1 X115.12 Y110.699 E.0168
G1 X130.98 Y126.559 E.70487
