; generated by PrusaSlicer 2.4.1+win64 on 2024-01-18 at 12:55:43 UTC


;
;
; 

; external perimeters extrusion width = 0.60mm
; perimeters extrusion width = 0.50mm
; infill extrusion width = 0.50mm
; solid infill extrusion width = 0.50mm
; top infill extrusion width = 0.45mm
; first layer extrusion width = 0.42mm

M73 P0 R82
M73 Q0 S82
M201 X1000 Y1000 Z200 E5000 ; sets maximum accelerations, mm/sec^2
M203 X200 Y200 Z12 E120 ; sets maximum feedrates, mm / sec
M204 P1250 R1250 T1250 ; sets acceleration (P, T) and retract acceleration (R), mm/sec^2
M205 X8.00 Y8.00 Z0.40 E4.50 ; sets the jerk limits, mm/sec
M205 S0 T0 ; sets the minimum extruding and travel feed rate, mm/sec
M107
;TYPE:Custom
M862.3 P "MK3S" ; printer model check
M862.1 P0.4 ; nozzle diameter check
M115 U3.11.0 ; tell printer latest fw version
G90 ; use absolute coordinates
M83 ; extruder relative mode
M104 S215 ; set extruder temp
M140 S60 ; set bed temp
M190 S60 ; wait for bed temp
M109 S215 ; wait for extruder temp
G28 W ; home all without mesh bed level
G80 ; mesh bed leveling

G1 Z0.2 F720
G1 Y-3 F1000 ; go outside print area
G92 E0
G1 X60 E9 F1000 ; intro line
G1 X100 E12.5 F1000 ; intro line

G92 E0
M221 S95

; Don't change E values below. Excessive value can damage the printer.

M907 E538 ; set extruder motor current
G21 ; set units to millimeters
G90 ; use absolute coordinates
M83 ; use relative distances for extrusion
M900 K0.05 ; Filament gcode LA 1.5
M900 K30 ; Filament gcode LA 1.0
M107
;LAYER_CHANGE
;Z:0.2
;HEIGHT:0.2
;BEFORE_LAYER_CHANGE
G92 E0.0
;0.2


G1 E-.8 F2100
G1 Z.4 F720
;AFTER_LAYER_CHANGE
;0.2
G1 X110.065 Y53.765 F10800
G1 Z.2 F720
G1 E.8 F2100
M204 S800
;TYPE:Skirt/Brim
;WIDTH:0.42
G1 F1200
G1 X111.11 Y52.888 E.04278
G1 X112.05 Y52.695 E.03008
G1 X134.05 Y52.695 E.68979
G1 X135.357 Y53.086 E.04278
M73 P0 R81
G1 X136.344 Y54.447 E.0527
G1 X140.208 Y68.64 E.4612
G1 X140.327 Y69.528 E.02808
G1 X140.327 Y140.471 E2.22439
G1 X140.208 Y141.36 E.02812
G1 X136.344 Y155.553 E.4612
G1 X135.622 Y156.711 E.04278
G1 X134.05 Y157.305 E.0527
G1 X112.05 Y157.305 E.68979
G1 X110.743 Y156.914 E.04278
G1 X109.867 Y155.868 E.04278
G1 X109.673 Y154.928 E.03008
G1 X109.673 Y55.072 E3.13092
G1 X110.047 Y53.822 E.0409
M204 S1000
; printing object AAHolder.stl id:0 copy 0
;WIPE_START
G1 F8640
G1 X111.11 Y52.888 E-.32671
G1 X112.05 Y52.695 E-.22155
G1 X112.967 Y52.695 E-.21174
;WIPE_END
G1 E-.04 F2100
G1 Z.6 F720
G1 X112.837 Y56.369 F10800
G1 Z.2 F720
G1 E.8 F2100
M204 S800
;TYPE:Perimeter
G1 F1200
G1 X133.263 Y56.369 E.64044
G1 X133.263 Y70.667 E.44829
G1 X134.082 Y71.114 E.02927
G1 X136.791 Y69.378 E.10089
G1 X136.889 Y69.332 E.00339
G1 X136.997 Y69.329 E.00341
G1 X137.093 Y69.381 E.00341
G1 X137.148 Y69.474 E.00341
G1 X137.163 Y69.582 E.00339
G1 X137.163 Y75.418 E.18301
G1 X137.148 Y75.526 E.00339
G1 X137.093 Y75.619 E.00341
G1 X137.049 Y75.652 E.00172
G1 X136.943 Y75.677 E.00341
G1 X136.791 Y75.622 E.00507
G1 X134.082 Y73.886 E.10089
G1 X133.263 Y74.333 E.02927
G1 X133.263 Y135.667 E1.92306
G1 X134.082 Y136.114 E.02927
G1 X136.791 Y134.378 E.10089
G1 X136.943 Y134.323 E.00507
G1 X137.049 Y134.348 E.00341
G1 X137.127 Y134.424 E.00341
G1 X137.163 Y134.582 E.00507
G1 X137.163 Y140.418 E.18301
G1 X137.148 Y140.526 E.00339
G1 X137.093 Y140.619 E.00341
G1 X137.049 Y140.652 E.00172
G1 X136.943 Y140.677 E.00341
G1 X136.791 Y140.622 E.00507
G1 X134.082 Y138.886 E.10089
G1 X133.263 Y139.333 E.02927
G1 X133.263 Y153.631 E.44829
G1 X112.837 Y153.631 E.64044
G1 X112.837 Y141.857 E.36917
G1 X112.851 Y141.75 E.00337
G1 X112.906 Y141.657 E.0034
G1 X113.001 Y141.604 E.0034
G1 X113.109 Y141.607 E.0034
G1 X113.207 Y141.651 E.00337
G1 X116.026 Y143.413 E.10422
G1 X116.837 Y142.964 E.02907
G1 X116.837 Y132.036 E.34262
G1 X116.026 Y131.587 E.02907
G1 X113.207 Y133.349 E.10422
G1 X113.055 Y133.402 E.00505
G1 X112.95 Y133.376 E.0034
G1 X112.873 Y133.3 E.0034
G1 X112.837 Y133.143 E.00505
G1 X112.837 Y76.857 E1.76483
G1 X112.851 Y76.75 E.00337
G1 X112.906 Y76.657 E.0034
G1 X113.001 Y76.604 E.0034
G1 X113.109 Y76.607 E.0034
G1 X113.207 Y76.651 E.00337
G1 X116.026 Y78.413 E.10422
G1 X116.837 Y77.964 E.02907
G1 X116.837 Y67.036 E.34262
G1 X116.026 Y66.587 E.02907
G1 X113.207 Y68.349 E.10422
G1 X113.109 Y68.393 E.00337
G1 X113.001 Y68.396 E.0034
G1 X112.906 Y68.343 E.0034
G1 X112.851 Y68.25 E.0034
G1 X112.837 Y68.143 E.00337
G1 X112.837 Y56.429 E.36729
M204 S1000
G1 X112.46 Y55.992 F10800
M204 S800
;TYPE:External perimeter
M73 Q0 S81
G1 F1200
G1 X133.64 Y55.992 E.66408
G1 X133.64 Y70.443 E.4531
G1 X134.067 Y70.676 E.01524
G1 X136.608 Y69.047 E.09467
G1 X136.775 Y68.969 E.00577
G1 X136.93 Y68.943 E.0049
G1 X137.085 Y68.958 E.0049
G1 X137.231 Y69.014 E.0049
G1 X137.357 Y69.107 E.0049
G1 X137.454 Y69.23 E.0049
G1 X137.515 Y69.374 E.0049
G1 X137.54 Y69.556 E.00577
G1 X137.54 Y75.444 E.18459
G1 X137.515 Y75.626 E.00577
G1 X137.454 Y75.77 E.0049
G1 X137.357 Y75.893 E.0049
G1 X137.231 Y75.986 E.0049
G1 X137.085 Y76.042 E.0049
G1 X136.93 Y76.057 E.0049
G1 X136.775 Y76.031 E.0049
G1 X136.608 Y75.953 E.00577
G1 X134.067 Y74.324 E.09467
G1 X133.64 Y74.557 E.01524
G1 X133.64 Y135.443 E1.90904
G1 X134.067 Y135.676 E.01524
G1 X136.608 Y134.047 E.09467
G1 X136.775 Y133.969 E.00577
G1 X136.93 Y133.943 E.0049
G1 X137.085 Y133.958 E.0049
G1 X137.231 Y134.014 E.0049
G1 X137.357 Y134.107 E.0049
G1 X137.454 Y134.23 E.0049
G1 X137.515 Y134.374 E.0049
G1 X137.54 Y134.556 E.00577
G1 X137.54 Y140.444 E.18459
G1 X137.515 Y140.626 E.00577
G1 X137.454 Y140.77 E.0049
G1 X137.357 Y140.893 E.0049
G1 X137.231 Y140.986 E.00491
G1 X137.085 Y141.042 E.0049
G1 X136.93 Y141.057 E.0049
G1 X136.775 Y141.031 E.0049
G1 X136.608 Y140.953 E.00577
G1 X134.067 Y139.324 E.09467
G1 X133.64 Y139.557 E.01524
G1 X133.64 Y154.008 E.4531
G1 X112.46 Y154.008 E.66408
G1 X112.46 Y141.832 E.38178
G1 X112.484 Y141.65 E.00574
G1 X112.545 Y141.507 E.00488
G1 X112.641 Y141.384 E.00488
G1 X112.766 Y141.291 E.00488
G1 X112.911 Y141.235 E.00488
G1 X113.065 Y141.218 E.00488
G1 X113.219 Y141.243 E.00488
G1 X113.386 Y141.318 E.00574
G1 X116.038 Y142.976 E.09804
G1 X116.46 Y142.742 E.01515
G1 X116.46 Y132.258 E.32869
G1 X116.038 Y132.024 E.01515
G1 X113.386 Y133.682 E.09804
G1 X113.219 Y133.757 E.00574
G1 X113.065 Y133.782 E.00488
G1 X112.911 Y133.765 E.00488
G1 X112.766 Y133.709 E.00488
G1 X112.641 Y133.616 E.00488
G1 X112.545 Y133.493 E.00488
G1 X112.484 Y133.35 E.00488
G1 X112.46 Y133.168 E.00574
G1 X112.46 Y76.832 E1.7664
G1 X112.484 Y76.65 E.00574
G1 X112.545 Y76.507 E.00488
G1 X112.641 Y76.384 E.00488
G1 X112.766 Y76.291 E.00488
G1 X112.911 Y76.235 E.00488
G1 X113.065 Y76.218 E.00488
G1 X113.219 Y76.243 E.00488
G1 X113.386 Y76.318 E.00574
G1 X116.038 Y77.976 E.09804
G1 X116.46 Y77.742 E.01515
G1 X116.46 Y67.258 E.32869
G1 X116.038 Y67.024 E.01515
G1 X113.386 Y68.682 E.09804
G1 X113.219 Y68.757 E.00574
G1 X113.065 Y68.782 E.00488
G1 X112.911 Y68.765 E.00488
G1 X112.766 Y68.709 E.00488
G1 X112.641 Y68.616 E.00488
G1 X112.545 Y68.493 E.00488
G1 X112.484 Y68.35 E.00488
G1 X112.46 Y68.168 E.00574
G1 X112.46 Y56.052 E.3799
M204 S1000
G1 X112.807 Y56.192 F10800
;WIPE_START
G1 F8640
G1 X115.751 Y56.043 E-.76
;WIPE_END
G1 E-.04 F2100
G1 Z.6 F720
G1 X136.496 Y69.701 F10800
G1 Z.2 F720
M73 P1 R81
M73 Q1 S81
G1 E.8 F2100
M204 S800
;TYPE:Solid infill
;WIDTH:0.421692
G1 F1200
G1 X136.88 Y70.085 E.01709
G1 X136.88 Y70.62 E.01687
G1 X136.293 Y70.033 E.02616
G1 X135.966 Y70.242 E.01221
G1 X136.88 Y71.156 E.0407
G1 X136.88 Y71.692 E.01687
G1 X135.64 Y70.452 E.05524
G1 X135.314 Y70.661 E.01221
G1 X136.88 Y72.227 E.06977
G1 X136.88 Y72.763 E.01687
G1 X134.987 Y70.87 E.08431
G1 X134.661 Y71.079 E.01221
G1 X136.88 Y73.299 E.09885
G1 X136.88 Y73.834 E.01687
G1 X134.212 Y71.166 E.11886
M204 S1000
;WIPE_START
G1 F8640
G1 X136.539 Y73.493 E-.76
;WIPE_END
G1 E-.04 F2100
G1 Z.6 F720
G1 X133.15 Y57.248 F10800
G1 Z.2 F720
G1 E.8 F2100
M204 S800
G1 F1200
G1 X132.554 Y56.652 E.02655
G1 X132.018 Y56.652 E.01687
G1 X132.98 Y57.614 E.04286
G1 X132.98 Y58.15 E.01687
G1 X131.482 Y56.652 E.06671
G1 X130.947 Y56.652 E.01687
G1 X132.98 Y58.685 E.09057
G1 X132.98 Y59.221 E.01687
G1 X130.411 Y56.652 E.11443
G1 X129.875 Y56.652 E.01687
G1 X132.98 Y59.757 E.13829
G1 X132.98 Y60.292 E.01687
G1 X129.34 Y56.652 E.16215
G1 X128.804 Y56.652 E.01687
G1 X132.98 Y60.828 E.18601
G1 X132.98 Y61.364 E.01687
G1 X128.268 Y56.652 E.20987
G1 X127.733 Y56.652 E.01687
G1 X132.98 Y61.899 E.23373
G1 X132.98 Y62.435 E.01687
G1 X127.197 Y56.652 E.25758
G1 X126.661 Y56.652 E.01687
G1 X132.98 Y62.971 E.28144
G1 X132.98 Y63.506 E.01687
G1 X126.126 Y56.652 E.3053
G1 X125.59 Y56.652 E.01687
G1 X132.98 Y64.042 E.32916
G1 X132.98 Y64.578 E.01687
G1 X125.054 Y56.652 E.35302
G1 X124.519 Y56.652 E.01687
G1 X132.98 Y65.113 E.37688
G1 X132.98 Y65.649 E.01687
G1 X123.983 Y56.652 E.40074
G1 X123.447 Y56.652 E.01687
G1 X132.98 Y66.185 E.4246
G1 X132.98 Y66.72 E.01687
G1 X122.912 Y56.652 E.44846
G1 X122.376 Y56.652 E.01687
G1 X132.98 Y67.256 E.47231
G1 X132.98 Y67.792 E.01687
G1 X121.84 Y56.652 E.49617
G1 X121.305 Y56.652 E.01687
G1 X132.98 Y68.327 E.52003
G1 X132.98 Y68.863 E.01687
G1 X120.769 Y56.652 E.54389
G1 X120.233 Y56.652 E.01687
G1 X132.98 Y69.399 E.56775
G1 X132.98 Y69.934 E.01687
G1 X119.698 Y56.652 E.59161
G1 X119.162 Y56.652 E.01687
G1 X132.98 Y70.47 E.61547
G1 X132.98 Y70.834 E.01148
G1 X133.784 Y71.274 E.02886
G1 X136.88 Y74.37 E.1379
G1 X136.88 Y74.906 E.01687
G1 X118.626 Y56.652 E.81304
G1 X118.091 Y56.652 E.01687
G1 X136.607 Y75.168 E.82474
G1 X135.115 Y74.212 E.05582
M73 P1 R80
G1 X117.555 Y56.652 E.78213
G1 X117.019 Y56.652 E.01687
G1 X133.984 Y73.617 E.75562
G1 X133.638 Y73.806 E.01243
G1 X116.484 Y56.652 E.76406
G1 X115.948 Y56.652 E.01687
G1 X133.292 Y73.995 E.77249
G1 X132.98 Y74.166 E.01118
G1 X132.98 Y74.22 E.0017
G1 X115.412 Y56.652 E.78248
G1 X114.877 Y56.652 E.01687
G1 X132.98 Y74.755 E.80634
G1 X132.98 Y75.291 E.01687
G1 X114.341 Y56.652 E.8302
G1 X113.805 Y56.652 E.01687
G1 X132.98 Y75.827 E.85406
G1 X132.98 Y76.362 E.01687
G1 X113.27 Y56.652 E.87792
G1 X113.12 Y56.652 E.00472
G1 X113.12 Y57.038 E.01215
G1 X132.98 Y76.898 E.88459
G1 X132.98 Y77.434 E.01687
G1 X113.12 Y57.573 E.88459
G1 X113.12 Y58.109 E.01687
G1 X132.98 Y77.969 E.88459
G1 X132.98 Y78.505 E.01687
G1 X113.12 Y58.645 E.88459
G1 X113.12 Y59.18 E.01687
G1 X132.98 Y79.041 E.88459
G1 X132.98 Y79.576 E.01687
G1 X113.12 Y59.716 E.88459
G1 X113.12 Y60.252 E.01687
G1 X132.98 Y80.112 E.88459
G1 X132.98 Y80.648 E.01687
G1 X113.12 Y60.787 E.88459
G1 X113.12 Y61.323 E.01687
G1 X132.98 Y81.183 E.88459
G1 X132.98 Y81.719 E.01687
G1 X113.12 Y61.859 E.88459
G1 X113.12 Y62.394 E.01687
M73 Q1 S80
G1 X132.98 Y82.255 E.88459
G1 X132.98 Y82.79 E.01687
G1 X113.12 Y62.93 E.88459
G1 X113.12 Y63.466 E.01687
G1 X115.953 Y66.299 E.12619
G1 X115.623 Y66.505 E.01224
G1 X113.12 Y64.001 E.11151
G1 X113.12 Y64.537 E.01687
G1 X115.294 Y66.711 E.09683
G1 X114.964 Y66.917 E.01224
G1 X113.12 Y65.073 E.08215
G1 X113.12 Y65.608 E.01687
G1 X114.635 Y67.123 E.06746
G1 X114.305 Y67.329 E.01224
G1 X113.12 Y66.144 E.05278
G1 X113.12 Y66.68 E.01687
G1 X113.975 Y67.535 E.0381
M73 P2 R80
G1 X113.646 Y67.741 E.01224
G1 X113.12 Y67.215 E.02342
G1 X113.12 Y67.751 E.01687
G1 X113.439 Y68.07 E.01422
M204 S1000
;WIPE_START
G1 F8640
G1 X113.12 Y67.751 E-.10425
G1 X113.12 Y67.215 E-.12369
G1 X113.646 Y67.741 E-.17168
G1 X113.975 Y67.535 E-.08976
G1 X113.146 Y66.706 E-.27063
;WIPE_END
M73 Q2 S80
G1 E-.04 F2100
G1 Z.6 F720
G1 X116.95 Y67.296 F10800
G1 Z.2 F720
G1 E.8 F2100
M204 S800
G1 F1200
G1 X132.98 Y83.326 E.71398
G1 X132.98 Y83.862 E.01687
G1 X117.12 Y68.001 E.70643
G1 X117.12 Y68.537 E.01687
G1 X132.98 Y84.397 E.70643
G1 X132.98 Y84.933 E.01687
G1 X117.12 Y69.073 E.70643
G1 X117.12 Y69.608 E.01687
G1 X132.98 Y85.469 E.70643
G1 X132.98 Y86.004 E.01687
G1 X117.12 Y70.144 E.70643
G1 X117.12 Y70.68 E.01687
G1 X132.98 Y86.54 E.70643
G1 X132.98 Y87.076 E.01687
G1 X117.12 Y71.215 E.70643
G1 X117.12 Y71.751 E.01687
G1 X132.98 Y87.611 E.70643
G1 X132.98 Y88.147 E.01687
G1 X117.12 Y72.287 E.70643
G1 X117.12 Y72.822 E.01687
G1 X132.98 Y88.683 E.70643
G1 X132.98 Y89.218 E.01687
G1 X117.12 Y73.358 E.70643
G1 X117.12 Y73.894 E.01687
G1 X132.98 Y89.754 E.70643
G1 X132.98 Y90.29 E.01687
G1 X117.12 Y74.429 E.70643
G1 X117.12 Y74.965 E.01687
G1 X132.98 Y90.825 E.70643
G1 X132.98 Y91.361 E.01687
G1 X117.12 Y75.501 E.70643
G1 X117.12 Y76.036 E.01687
G1 X132.98 Y91.897 E.70643
G1 X132.98 Y92.432 E.01687
G1 X117.12 Y76.572 E.70643
G1 X117.12 Y77.108 E.01687
G1 X132.98 Y92.968 E.70643
G1 X132.98 Y93.504 E.01687
G1 X117.12 Y77.643 E.70643
G1 X117.12 Y78.13 E.01534
G1 X117.089 Y78.148 E.00113
G1 X132.98 Y94.039 E.70782
G1 X132.98 Y94.575 E.01687
G1 X116.744 Y78.339 E.72317
G1 X116.399 Y78.53 E.01241
G1 X132.98 Y95.111 E.73852
G1 X132.98 Y95.646 E.01687
G1 X116.055 Y78.721 E.75388
G1 X116.017 Y78.741 E.00134
G1 X114.743 Y77.945 E.04733
G1 X132.98 Y96.182 E.81229
G1 X132.98 Y96.718 E.01687
M73 P2 R79
G1 X113.315 Y77.052 E.87592
G1 X113.12 Y76.93 E.00723
G1 X113.12 Y77.393 E.01457
G1 X132.98 Y97.253 E.88459
G1 X132.98 Y97.789 E.01687
G1 X113.12 Y77.929 E.88459
G1 X113.12 Y78.464 E.01687
G1 X132.98 Y98.325 E.88459
G1 X132.98 Y98.86 E.01687
G1 X113.12 Y79 E.88459
G1 X113.12 Y79.536 E.01687
G1 X132.98 Y99.396 E.88459
G1 X132.98 Y99.932 E.01687
G1 X113.12 Y80.071 E.88459
G1 X113.12 Y80.607 E.01687
G1 X132.98 Y100.467 E.88459
G1 X132.98 Y101.003 E.01687
G1 X113.12 Y81.143 E.88459
G1 X113.12 Y81.678 E.01687
G1 X132.98 Y101.539 E.88459
G1 X132.98 Y102.074 E.01687
G1 X113.12 Y82.214 E.88459
G1 X113.12 Y82.75 E.01687
G1 X132.98 Y102.61 E.88459
G1 X132.98 Y103.146 E.01687
G1 X113.12 Y83.285 E.88459
G1 X113.12 Y83.821 E.01687
G1 X132.98 Y103.681 E.88459
G1 X132.98 Y104.217 E.01687
M73 P3 R79
M73 Q3 S80
G1 X113.12 Y84.357 E.88459
G1 X113.12 Y84.892 E.01687
G1 X132.98 Y104.753 E.88459
G1 X132.98 Y105.288 E.01687
G1 X113.12 Y85.428 E.88459
G1 X113.12 Y85.964 E.01687
G1 X132.98 Y105.824 E.88459
G1 X132.98 Y106.36 E.01687
M73 Q3 S79
G1 X113.12 Y86.499 E.88459
G1 X113.12 Y87.035 E.01687
G1 X132.98 Y106.895 E.88459
G1 X132.98 Y107.431 E.01687
G1 X113.12 Y87.571 E.88459
G1 X113.12 Y88.106 E.01687
G1 X132.98 Y107.967 E.88459
G1 X132.98 Y108.502 E.01687
G1 X113.12 Y88.642 E.88459
G1 X113.12 Y89.178 E.01687
G1 X132.98 Y109.038 E.88459
G1 X132.98 Y109.574 E.01687
G1 X113.12 Y89.713 E.88459
G1 X113.12 Y90.249 E.01687
G1 X132.98 Y110.109 E.88459
G1 X132.98 Y110.645 E.01687
G1 X113.12 Y90.785 E.88459
G1 X113.12 Y91.32 E.01687
G1 X132.98 Y111.181 E.88459
G1 X132.98 Y111.716 E.01687
G1 X113.12 Y91.856 E.88459
G1 X113.12 Y92.392 E.01687
G1 X132.98 Y112.252 E.88459
G1 X132.98 Y112.787 E.01687
G1 X113.12 Y92.927 E.88459
G1 X113.12 Y93.463 E.01687
G1 X132.98 Y113.323 E.88459
G1 X132.98 Y113.859 E.01687
G1 X113.12 Y93.999 E.88459
G1 X113.12 Y94.534 E.01687
G1 X132.98 Y114.394 E.88459
G1 X132.98 Y114.93 E.01687
G1 X113.12 Y95.07 E.88459
G1 X113.12 Y95.606 E.01687
G1 X132.98 Y115.466 E.88459
G1 X132.98 Y116.001 E.01687
G1 X113.12 Y96.141 E.88459
G1 X113.12 Y96.677 E.01687
G1 X132.98 Y116.537 E.88459
G1 X132.98 Y117.073 E.01687
G1 X113.12 Y97.213 E.88459
G1 X113.12 Y97.748 E.01687
G1 X132.98 Y117.608 E.88459
G1 X132.98 Y118.144 E.01687
G1 X113.12 Y98.284 E.88459
G1 X113.12 Y98.82 E.01687
G1 X132.98 Y118.68 E.88459
G1 X132.98 Y119.215 E.01687
M73 P3 R78
G1 X113.12 Y99.355 E.88459
G1 X113.12 Y99.891 E.01687
G1 X132.98 Y119.751 E.88459
G1 X132.98 Y120.287 E.01687
G1 X113.12 Y100.427 E.88459
G1 X113.12 Y100.962 E.01687
G1 X132.98 Y120.822 E.88459
G1 X132.98 Y121.358 E.01687
G1 X113.12 Y101.498 E.88459
G1 X113.12 Y102.034 E.01687
G1 X132.98 Y121.894 E.88459
G1 X132.98 Y122.429 E.01687
M73 P4 R78
M73 Q4 S79
G1 X113.12 Y102.569 E.88459
G1 X113.12 Y103.105 E.01687
G1 X132.98 Y122.965 E.88459
G1 X132.98 Y123.501 E.01687
G1 X113.12 Y103.641 E.88459
G1 X113.12 Y104.176 E.01687
G1 X132.98 Y124.036 E.88459
G1 X132.98 Y124.572 E.01687
G1 X113.12 Y104.712 E.88459
G1 X113.12 Y105.248 E.01687
G1 X132.98 Y125.108 E.88459
G1 X132.98 Y125.643 E.01687
G1 X113.12 Y105.783 E.88459
G1 X113.12 Y106.319 E.01687
