; generated by PrusaSlicer 2.4.1+win64 on 2023-04-19 at 14:06:36 UTC


;
;
; 

; external perimeters extrusion width = 0.60mm
; perimeters extrusion width = 0.50mm
; infill extrusion width = 0.50mm
; solid infill extrusion width = 0.50mm
; top infill extrusion width = 0.45mm
; first layer extrusion width = 0.42mm

M73 P0 R35
M73 Q0 S35
M201 X1000 Y1000 Z200 E5000 ; sets maximum accelerations, mm/sec^2
M203 X200 Y200 Z12 E120 ; sets maximum feedrates, mm / sec
M204 P1250 R1250 T1250 ; sets acceleration (P, T) and retract acceleration (R), mm/sec^2
M205 X8.00 Y8.00 Z0.40 E4.50 ; sets the jerk limits, mm/sec
M205 S0 T0 ; sets the minimum extruding and travel feed rate, mm/sec
M107
;TYPE:Custom
M862.3 P "MK3S" ; printer model check
M862.1 P0.4 ; nozzle diameter check
M115 U3.11.0 ; tell printer latest fw version
G90 ; use absolute coordinates
M83 ; extruder relative mode
M104 S215 ; set extruder temp
M140 S60 ; set bed temp
M190 S60 ; wait for bed temp
M109 S215 ; wait for extruder temp
G28 W ; home all without mesh bed level
G80 ; mesh bed leveling

G1 Z0.2 F720
G1 Y-3 F1000 ; go outside print area
G92 E0
G1 X60 E9 F1000 ; intro line
G1 X100 E12.5 F1000 ; intro line

G92 E0
M221 S95

; Don't change E values below. Excessive value can damage the printer.

M907 E538 ; set extruder motor current
G21 ; set units to millimeters
G90 ; use absolute coordinates
M83 ; use relative distances for extrusion
M900 K0.05 ; Filament gcode LA 1.5
M900 K30 ; Filament gcode LA 1.0
M107
;LAYER_CHANGE
;Z:0.2
;HEIGHT:0.2
;BEFORE_LAYER_CHANGE
G92 E0.0
;0.2


G1 E-.8 F2100
G1 Z.4 F720
;AFTER_LAYER_CHANGE
;0.2
G1 X95.981 Y89.786 F10800
G1 Z.2 F720
G1 E.8 F2100
M204 S800
;TYPE:Skirt/Brim
;WIDTH:0.42
G1 F1200
G1 X97.255 Y88.91 E.04847
G1 X98.113 Y88.555 E.02912
G1 X98.709 Y88.395 E.01935
G1 X99.934 Y88.253 E.03865
G1 X106.418 Y88.253 E.20331
G1 X152.518 Y88.723 E1.44551
G1 X154.175 Y89.419 E.05634
G1 X154.825 Y90.069 E.02882
G1 X155.521 Y91.75 E.05704
G1 X155.521 Y118.25 E.83089
G1 X154.825 Y119.931 E.05704
G1 X154.175 Y120.581 E.02882
G1 X152.518 Y121.277 E.05634
G1 X106.418 Y121.747 E1.44551
G1 X99.934 Y121.747 E.20331
G1 X98.709 Y121.605 E.03865
G1 X98.113 Y121.445 E.01935
G1 X96.718 Y120.779 E.04848
G1 X95.542 Y119.775 E.04847
G1 X94.667 Y118.501 E.04848
G1 X94.151 Y117.044 E.04847
G1 X94.03 Y116.123 E.02912
G1 X94.009 Y94.188 E.68777
G1 X94.151 Y92.956 E.03885
G1 X94.311 Y92.357 E.01946
G1 X94.97 Y90.974 E.04804
G1 X95.942 Y89.832 E.04702
M204 S1000
; printing object flexbatterAAAx2.stl id:0 copy 0
;WIPE_START
G1 F8640
G1 X97.255 Y88.91 E-.37038
G1 X98.113 Y88.555 E-.21444
G1 X98.709 Y88.395 E-.14251
G1 X98.85 Y88.379 E-.03267
;WIPE_END
G1 E-.04 F2100
G1 Z.6 F720
G1 X113.567 Y113.906 F10800
G1 Z.2 F720
G1 E.8 F2100
M204 S800
;TYPE:External perimeter
G1 F1200
G1 X113.908 Y113.765 E.01157
G1 X114.223 Y113.723 E.00997
G1 X114.636 Y113.763 E.01301
G1 X114.981 Y113.906 E.01168
G1 X115.273 Y114.13 E.01157
G1 X115.498 Y114.423 E.01157
G1 X115.639 Y114.764 E.01157
G1 X115.687 Y115.13 E.01157
G1 X115.639 Y115.496 E.01157
G1 X115.498 Y115.837 E.01157
G1 X115.273 Y116.13 E.01157
G1 X114.981 Y116.354 E.01157
G1 X114.64 Y116.495 E.01157
G1 X114.274 Y116.544 E.01157
G1 X113.908 Y116.495 E.01157
G1 X113.567 Y116.354 E.01157
G1 X113.274 Y116.13 E.01157
G1 X113.05 Y115.837 E.01157
G1 X112.908 Y115.496 E.01157
G1 X112.86 Y115.13 E.01157
G1 X112.908 Y114.764 E.01157
G1 X113.05 Y114.423 E.01157
G1 X113.274 Y114.13 E.01157
G1 X113.519 Y113.942 E.00969
M204 S1000
G1 X113.567 Y113.537 F10800
;WIPE_START
G1 F8640
G1 X113.908 Y113.765 E-.09864
G1 X114.223 Y113.723 E-.07342
G1 X114.636 Y113.763 E-.09584
G1 X114.981 Y113.906 E-.08604
G1 X115.273 Y114.13 E-.0852
G1 X115.498 Y114.423 E-.08521
G1 X115.639 Y114.764 E-.08521
G1 X115.687 Y115.13 E-.0852
G1 X115.65 Y115.41 E-.06524
;WIPE_END
G1 E-.04 F2100
G1 Z.6 F720
G1 X112.061 Y117.565 F10800
G1 Z.2 F720
G1 E.8 F2100
M204 S800
;TYPE:Perimeter
G1 F1200
G1 X112.061 Y114.303 E.1023
G1 X107.081 Y114.303 E.15614
G1 X107.081 Y113.612 E.02165
G1 X113.33 Y113.612 E.19594
G1 X113.005 Y113.862 E.01284
G1 X112.72 Y114.233 E.01468
G1 X112.541 Y114.666 E.01468
G1 X112.48 Y115.13 E.01468
G1 X112.541 Y115.594 E.01468
G1 X112.72 Y116.027 E.01468
G1 X113.005 Y116.398 E.01468
G1 X113.377 Y116.684 E.01468
G1 X113.809 Y116.863 E.01468
G1 X114.274 Y116.924 E.01468
G1 X114.738 Y116.863 E.01468
G1 X115.171 Y116.684 E.01468
G1 X115.542 Y116.398 E.01468
G1 X115.827 Y116.027 E.01468
G1 X116.007 Y115.594 E.01468
G1 X116.068 Y115.13 E.01468
G1 X116.007 Y114.666 E.01468
G1 X115.827 Y114.233 E.01468
G1 X115.542 Y113.862 E.01468
G1 X115.217 Y113.612 E.01284
G1 X126.503 Y113.612 E.35386
G1 X126.503 Y117.563 E.12387
G1 X112.121 Y117.565 E.45095
M204 S1000
;WIPE_START
G1 F8640
G1 X112.061 Y114.303 E-.75347
G1 X112.033 Y114.303 E-.00653
;WIPE_END
G1 E-.04 F2100
G1 Z.6 F720
G1 X106.904 Y117.745 F10800
G1 Z.2 F720
G1 E.8 F2100
M204 S800
G1 F1200
G1 X106.912 Y117.705 E.00125
G1 X107.055 Y117.71 E.00449
G1 X106.963 Y117.731 E.00297
M204 S1000
;WIPE_START
G1 F8640
G1 X106.912 Y117.705 E-.01318
G1 X107.055 Y117.71 E-.03307
G1 X106.963 Y117.731 E-.02185
;WIPE_END
G1 E-.7319 F2100
G1 Z.6 F720
G1 X111.684 Y117.34 F10800
M73 Q1 S35
G1 Z.2 F720
G1 E.8 F2100
M204 S800
;TYPE:External perimeter
G1 F1200
G1 X111.684 Y114.68 E.08342
G1 X106.704 Y114.68 E.15614
M73 P1 R35
G1 X106.704 Y113.235 E.04529
G1 X126.88 Y113.235 E.63262
G1 X126.88 Y117.94 E.14752
G1 X108.38 Y117.943 E.58007
G1 X107.869 Y117.962 E.01603
G1 X107.352 Y118.028 E.01635
G1 X106.867 Y118.14 E.01559
G1 X106.504 Y118.14 E.0114
G1 X106.504 Y117.83 E.00972
G1 X106.602 Y117.318 E.01633
G1 X107.286 Y117.34 E.02147
G1 X111.624 Y117.34 E.13599
M204 S1000
G1 X112.084 Y117.341 F10800
;WIPE_START
G1 F8640
G1 X111.684 Y114.68 E-.61446
G1 X111.053 Y114.68 E-.14554
;WIPE_END
G1 E-.04 F2100
G1 Z.6 F720
G1 X106.184 Y118.46 F10800
G1 Z.2 F720
G1 E.8 F2100
M204 S800
G1 F1200
G1 X106.173 Y119.031 E.0179
G1 X105.908 Y119.007 E.00835
G1 X105.402 Y118.999 E.01588
G1 X99.959 Y119 E.17065
G1 X99.119 Y118.89 E.02655
G1 X98.35 Y118.572 E.02609
G1 X97.691 Y118.066 E.02606
G1 X97.185 Y117.406 E.02609
G1 X96.866 Y116.637 E.02609
G1 X96.758 Y115.813 E.02605
G1 X96.866 Y114.988 E.02609
G1 X97.185 Y114.219 E.02609
G1 X97.691 Y113.56 E.02605
G1 X98.351 Y113.053 E.02609
G1 X99.119 Y112.735 E.02607
G1 X99.967 Y112.625 E.0268
G1 X100.923 Y112.626 E.02997
G1 X101.25 Y112.67 E.01036
G1 X101.536 Y112.788 E.0097
G1 X101.781 Y112.977 E.0097
G1 X101.97 Y113.222 E.0097
G1 X102.088 Y113.508 E.00969
G1 X102.128 Y113.814 E.0097
G1 X102.088 Y114.121 E.00969
G1 X101.97 Y114.406 E.0097
G1 X101.781 Y114.652 E.0097
G1 X101.536 Y114.84 E.0097
G1 X101.25 Y114.959 E.00972
G1 X100.918 Y115.004 E.0105
G1 X100.419 Y115.007 E.01564
G1 X100.234 Y115.031 E.00584
G1 X100.039 Y115.112 E.00662
G1 X99.872 Y115.24 E.00662
G1 X99.743 Y115.408 E.00662
G1 X99.662 Y115.603 E.00662
G1 X99.635 Y115.813 E.00662
G1 X99.662 Y116.022 E.00662
G1 X99.743 Y116.217 E.00662
G1 X99.872 Y116.385 E.00662
G1 X100.039 Y116.513 E.00662
G1 X100.234 Y116.594 E.00662
G1 X100.419 Y116.618 E.00584
G1 X101.968 Y116.618 E.04857
G1 X102.515 Y116.546 E.0173
G1 X103.048 Y116.326 E.01808
G1 X103.505 Y115.973 E.0181
G1 X103.852 Y115.512 E.01812
G1 X104.058 Y114.98 E.01785
G1 X104.143 Y114.442 E.01711
G1 X104.174 Y113.234 E.03787
G1 X104.51 Y113.234 E.01054
G1 X104.53 Y113.625 E.01228
G1 X104.532 Y114.393 E.02406
G1 X104.487 Y114.756 E.01148
G1 X104.437 Y114.761 E.00157
G1 X104.412 Y115.16 E.01253
G1 X104.184 Y115.707 E.01857
G1 X103.773 Y116.243 E.02118
G1 X103.237 Y116.654 E.02117
G1 X102.613 Y116.912 E.02117
G1 X101.928 Y117.002 E.02166
G1 X100.468 Y117 E.04578
G1 X100.137 Y116.957 E.01047
G1 X99.851 Y116.838 E.00972
G1 X99.606 Y116.65 E.00967
G1 X99.418 Y116.405 E.0097
G1 X99.3 Y116.119 E.0097
G1 X99.259 Y115.813 E.00969
G1 X99.3 Y115.506 E.00969
G1 X99.418 Y115.22 E.0097
G1 X99.606 Y114.975 E.00969
G1 X99.852 Y114.787 E.0097
G1 X100.138 Y114.668 E.00971
G1 X100.47 Y114.624 E.01051
G1 X100.968 Y114.62 E.01563
G1 X101.153 Y114.596 E.00584
G1 X101.348 Y114.515 E.00662
G1 X101.516 Y114.386 E.00662
G1 X101.644 Y114.219 E.00662
G1 X101.725 Y114.024 E.00662
G1 X101.753 Y113.814 E.00662
G1 X101.725 Y113.605 E.00662
G1 X101.644 Y113.41 E.00662
G1 X101.516 Y113.242 E.00662
G1 X101.348 Y113.113 E.00663
G1 X101.153 Y113.033 E.00662
G1 X100.968 Y113.008 E.00586
G1 X99.92 Y113.008 E.03286
G1 X99.217 Y113.101 E.02222
G1 X98.54 Y113.381 E.02298
G1 X97.959 Y113.827 E.02298
G1 X97.513 Y114.409 E.02298
G1 X97.232 Y115.086 E.02298
G1 X97.136 Y115.813 E.02298
G1 X97.232 Y116.539 E.02298
G1 X97.513 Y117.216 E.02298
G1 X97.959 Y117.798 E.02298
G1 X98.54 Y118.244 E.02298
G1 X99.217 Y118.524 E.02298
G1 X99.92 Y118.617 E.02222
G1 X104.839 Y118.608 E.15423
G1 X105.348 Y118.558 E.01605
G1 X105.827 Y118.46 E.01531
G1 X106.124 Y118.46 E.00932
M204 S1000
G1 X105.993 Y118.812 F10800
G1 X105.91 Y118.734
M204 S800
;TYPE:Gap fill
;WIDTH:0.212924
G1 F1200
G1 X105.854 Y118.733 E.00079
M204 S1000
M204 S800
;WIDTH:0.21204
G1 X105.629 Y118.754 E.00318
M204 S1000
M204 S800
;WIDTH:0.162662
G1 X105.404 Y118.775 E.00225
M204 S1000
M204 S800
;WIDTH:0.113285
G1 X105.403 Y118.775 E0
M204 S1000
M204 S800
;WIDTH:0.113166
G1 X105.383 Y118.777 E.00012
M204 S1000
M204 S800
;WIDTH:0.109151
G1 X105.38 Y118.778 E.00002
M204 S1000
M204 S800
;WIDTH:0.10863
G1 X105.198 Y118.787 E.00099
M204 S1000
G1 X105.91 Y118.734 F10800
M204 S800
;WIDTH:0.212924
G1 F1200
G1 X105.919 Y118.742 E.00018
M204 S1000
M204 S800
;WIDTH:0.195422
G1 X105.995 Y118.823 E.0014
M204 S1000
;WIPE_START
G1 F8640
G1 X105.919 Y118.742 E-.02557
;WIPE_END
G1 E-.77443 F2100
G1 Z.6 F720
G1 X107.242 Y117.69 F10800
G1 Z.2 F720
G1 E.8 F2100
M204 S800
;WIDTH:0.346281
G1 F1200
G1 X107.54 Y117.671 E.00753
M204 S1000
M204 S800
;WIDTH:0.31803
G1 X107.838 Y117.652 E.00683
M204 S1000
M204 S800
;WIDTH:0.289778
G1 X107.849 Y117.651 E.00023
M204 S1000
M204 S800
;WIDTH:0.288872
G1 X108.372 Y117.642 E.0107
M204 S1000
M204 S800
;WIDTH:0.268963
G1 X108.376 Y117.641 E.00008
M204 S1000
M204 S800
;WIDTH:0.268881
G1 X111.872 Y117.641 E.06568
M204 S1000
;WIPE_START
G1 F8640
G1 X108.581 Y117.641 E-.76
;WIPE_END
G1 E-.04 F2100
G1 Z.6 F720
G1 X113.041 Y116.569 F10800
G1 Z.2 F720
G1 E.8 F2100
M204 S800
;TYPE:Solid infill
;WIDTH:0.495415
G1 F1200
G1 X113.524 Y117.051 E.02566
G1 X113.508 Y117.282 E.00872
G1 X113.115 Y117.282 E.0148
G1 X112.344 Y116.511 E.04105
G1 X112.344 Y117.151 E.02408
G1 X112.645 Y117.452 E.01603
M204 S1000
;WIPE_START
G1 F8640
G1 X112.344 Y117.151 E-.09839
G1 X112.344 Y116.511 E-.14776
G1 X113.115 Y117.282 E-.25192
G1 X113.508 Y117.282 E-.09084
G1 X113.524 Y117.051 E-.05353
G1 X113.164 Y116.691 E-.11756
;WIPE_END
G1 E-.04 F2100
G1 Z.6 F720
G1 X113.796 Y117.215 F10800
G1 Z.2 F720
G1 E.8 F2100
M204 S800
;TYPE:Gap fill
;WIDTH:0.346785
G1 F1200
G1 X114.257 Y117.245 E.01165
M204 S1000
M204 S800
;WIDTH:0.306428
G1 X114.291 Y117.245 E.00075
M204 S1000
M204 S800
;WIDTH:0.346753
G1 X114.752 Y117.214 E.01166
M204 S1000
;WIPE_START
G1 F8640
G1 X114.291 Y117.245 E-.10661
;WIPE_END
G1 E-.69339 F2100
G1 Z.6 F720
G1 X112.391 Y116.095 F10800
G1 Z.2 F720
G1 E.8 F2100
M204 S800
;WIDTH:0.279714
G1 F1200
G1 X112.363 Y115.952 E.00288
M204 S1000
M204 S800
;WIDTH:0.238188
G1 X112.334 Y115.808 E.00237
M204 S1000
M204 S800
;WIDTH:0.196662
G1 X112.305 Y115.665 E.00187
M204 S1000
M204 S800
;WIDTH:0.155134
G1 X112.304 Y115.651 E.00014
M204 S1000
M204 S800
;WIDTH:0.151328
G1 X112.288 Y115.417 E.00211
M204 S1000
M204 S800
;WIDTH:0.122325
G1 X112.273 Y115.183 E.00155
M204 S1000
G1 X112.273 Y115.077 F10800
M204 S800
;WIDTH:0.122324
G1 F1200
G1 X112.288 Y114.843 E.00155
M204 S1000
M204 S800
;WIDTH:0.151328
G1 X112.304 Y114.609 E.00211
M204 S1000
M204 S800
;WIDTH:0.155135
G1 X112.305 Y114.595 E.00014
M204 S1000
M204 S800
;WIDTH:0.202959
G1 X112.329 Y114.475 E.00163
M204 S1000
M204 S800
;WIDTH:0.250783
G1 X112.353 Y114.355 E.00212
M204 S1000
M204 S800
;WIDTH:0.298608
G1 X112.377 Y114.234 E.00261
M204 S1000
M204 S800
;WIDTH:0.346432
G1 X112.401 Y114.114 E.00309
M204 S1000
M204 S800
;WIDTH:0.36589
G1 X112.406 Y114.076 E.00103
M204 S1000
M204 S800
;WIDTH:0.409286
G1 X112.411 Y113.999 E.00234
G1 X112.33 Y113.978 E.00255
M204 S1000
M204 S800
;WIDTH:0.398204
G1 X112.249 Y113.957 E.00247
M204 S1000
M204 S800
;WIDTH:0.356284
G1 X107.269 Y113.957 E.12976
M204 S1000
;WIPE_START
G1 F8640
G1 X110.561 Y113.957 E-.76
;WIPE_END
G1 E-.04 F2100
G1 Z.6 F720
G1 X113.514 Y113.568 F10800
G1 Z.2 F720
G1 E.8 F2100
M204 S800
;WIDTH:0.283612
G1 F1200
G1 X113.671 Y113.537 E.0032
M204 S1000
M204 S800
;WIDTH:0.244993
G1 X113.827 Y113.505 E.00268
M204 S1000
M204 S800
;WIDTH:0.206374
G1 X113.848 Y113.503 E.00029
M204 S1000
M204 S800
;WIDTH:0.20083
G1 X114.213 Y113.479 E.00479
M204 S1000
M204 S800
;WIDTH:0.153031
G1 X114.225 Y113.479 E.00011
M204 S1000
M204 S800
;WIDTH:0.197863
G1 X114.69 Y113.501 E.00599
M204 S1000
M204 S800
;WIDTH:0.203615
G1 X115.041 Y113.545 E.00473
M204 S1000
;WIPE_START
G1 F8640
G1 X114.69 Y113.501 E-.08172
;WIPE_END
G1 E-.71828 F2100
G1 Z.6 F720
G1 X125.608 Y113.725 F10800
G1 Z.2 F720
G1 E.8 F2100
M204 S800
;TYPE:Solid infill
;WIDTH:0.429558
G1 F1200
G1 X126.22 Y114.338 E.02786
G1 X126.22 Y114.885 E.01758
G1 X125.23 Y113.895 E.04501
G1 X124.684 Y113.895 E.01758
G1 X126.22 Y115.432 E.06987
G1 X126.22 Y115.979 E.01758
G1 X124.137 Y113.895 E.09473
G1 X123.59 Y113.895 E.01758
G1 X126.22 Y116.525 E.11959
G1 X126.22 Y117.072 E.01758
G1 X123.043 Y113.895 E.14445
G1 X122.497 Y113.895 E.01758
G1 X125.882 Y117.28 E.15391
G1 X125.335 Y117.28 E.01758
G1 X121.95 Y113.895 E.15392
G1 X121.403 Y113.895 E.01758
G1 X124.788 Y117.281 E.15392
G1 X124.242 Y117.281 E.01758
G1 X120.856 Y113.895 E.15392
G1 X120.309 Y113.895 E.01758
G1 X123.695 Y117.281 E.15393
G1 X123.148 Y117.281 E.01758
G1 X119.763 Y113.895 E.15393
G1 X119.216 Y113.895 E.01758
G1 X122.602 Y117.281 E.15394
G1 X122.055 Y117.281 E.01758
M73 P1 R34
G1 X118.669 Y113.895 E.15394
G1 X118.122 Y113.895 E.01758
G1 X121.508 Y117.281 E.15394
G1 X120.961 Y117.281 E.01758
G1 X117.575 Y113.895 E.15395
G1 X117.029 Y113.895 E.01758
G1 X120.415 Y117.281 E.15395
G1 X119.868 Y117.281 E.01758
G1 X116.482 Y113.895 E.15396
G1 X115.935 Y113.895 E.01758
G1 X119.321 Y117.281 E.15396
G1 X118.775 Y117.281 E.01758
G1 X116.312 Y114.819 E.11197
G1 X116.353 Y115.13 E.0101
G1 X116.321 Y115.374 E.00792
G1 X118.228 Y117.282 E.08672
G1 X117.681 Y117.282 E.01758
G1 X116.219 Y115.82 E.06647
G1 X116.052 Y116.199 E.01333
G1 X117.135 Y117.282 E.04923
G1 X116.588 Y117.282 E.01758
G1 X115.814 Y116.508 E.03517
G1 X115.744 Y116.6 E.00372
G1 X115.526 Y116.767 E.00881
G1 X116.041 Y117.282 E.02341
G1 X115.494 Y117.282 E.01758
G1 X115.063 Y116.851 E.01962
M204 S1000
;WIPE_START
G1 F8640
G1 X115.494 Y117.282 E-.14089
G1 X116.041 Y117.282 E-.12624
G1 X115.526 Y116.767 E-.16811
G1 X115.744 Y116.6 E-.06331
G1 X115.814 Y116.508 E-.02674
G1 X116.533 Y117.227 E-.23472
;WIPE_END
G1 E-.04 F2100
G1 Z.6 F720
G1 X145.96 Y115.13 F10800
G1 Z.2 F720
G1 E.8 F2100
M204 S800
;TYPE:External perimeter
;WIDTH:0.42
G1 F1200
G1 X146.008 Y114.764 E.01157
G1 X146.15 Y114.423 E.01157
G1 X146.374 Y114.13 E.01157
G1 X146.667 Y113.906 E.01157
G1 X147.008 Y113.765 E.01157
G1 X147.323 Y113.723 E.00997
G1 X147.736 Y113.763 E.01301
G1 X148.081 Y113.906 E.01168
G1 X148.373 Y114.13 E.01157
G1 X148.598 Y114.423 E.01157
G1 X148.739 Y114.764 E.01157
G1 X148.787 Y115.13 E.01157
G1 X148.739 Y115.496 E.01157
G1 X148.598 Y115.837 E.01157
G1 X148.373 Y116.13 E.01157
G1 X148.081 Y116.354 E.01157
G1 X147.74 Y116.495 E.01157
G1 X147.374 Y116.544 E.01157
G1 X147.008 Y116.495 E.01157
G1 X146.667 Y116.354 E.01157
G1 X146.374 Y116.13 E.01157
G1 X146.15 Y115.837 E.01157
G1 X146.008 Y115.496 E.01157
G1 X145.968 Y115.189 E.00969
M204 S1000
G1 X145.641 Y114.945 F10800
G1 X145.58 Y115.13
M204 S800
;TYPE:Perimeter
G1 F1200
G1 X145.641 Y115.594 E.01468
G1 X145.82 Y116.027 E.01468
G1 X146.105 Y116.398 E.01468
G1 X146.477 Y116.684 E.01468
G1 X146.909 Y116.863 E.01468
G1 X147.374 Y116.924 E.01468
G1 X147.838 Y116.863 E.01468
G1 X148.271 Y116.684 E.01468
