; generated by PrusaSlicer 2.4.1+win64 on 2023-12-22 at 11:05:55 UTC


;
;
; 

; external perimeters extrusion width = 0.60mm
; perimeters extrusion width = 0.50mm
; infill extrusion width = 0.50mm
; solid infill extrusion width = 0.50mm
; top infill extrusion width = 0.45mm
; first layer extrusion width = 0.42mm

; external perimeters extrusion width = 0.60mm
; perimeters extrusion width = 0.50mm
; infill extrusion width = 0.50mm
; solid infill extrusion width = 0.50mm
; top infill extrusion width = 0.45mm
; first layer extrusion width = 0.42mm

; external perimeters extrusion width = 0.60mm
; perimeters extrusion width = 0.50mm
; infill extrusion width = 0.50mm
; solid infill extrusion width = 0.50mm
; top infill extrusion width = 0.45mm
; first layer extrusion width = 0.42mm

; external perimeters extrusion width = 0.60mm
; perimeters extrusion width = 0.50mm
; infill extrusion width = 0.50mm
; solid infill extrusion width = 0.50mm
; top infill extrusion width = 0.45mm
; first layer extrusion width = 0.42mm

; external perimeters extrusion width = 0.60mm
; perimeters extrusion width = 0.50mm
; infill extrusion width = 0.50mm
; solid infill extrusion width = 0.50mm
; top infill extrusion width = 0.45mm
; first layer extrusion width = 0.42mm

; external perimeters extrusion width = 0.60mm
; perimeters extrusion width = 0.50mm
; infill extrusion width = 0.50mm
; solid infill extrusion width = 0.50mm
; top infill extrusion width = 0.45mm
; first layer extrusion width = 0.42mm

M73 P0 R32
M73 Q0 S32
M201 X1000 Y1000 Z200 E5000 ; sets maximum accelerations, mm/sec^2
M203 X200 Y200 Z12 E120 ; sets maximum feedrates, mm / sec
M204 P1250 R1250 T1250 ; sets acceleration (P, T) and retract acceleration (R), mm/sec^2
M205 X8.00 Y8.00 Z0.40 E4.50 ; sets the jerk limits, mm/sec
M205 S0 T0 ; sets the minimum extruding and travel feed rate, mm/sec
M107
;TYPE:Custom
M862.3 P "MK3S" ; printer model check
M862.1 P0.4 ; nozzle diameter check
M115 U3.11.0 ; tell printer latest fw version
G90 ; use absolute coordinates
M83 ; extruder relative mode
M104 S215 ; set extruder temp
M140 S60 ; set bed temp
M190 S60 ; wait for bed temp
M109 S215 ; wait for extruder temp
G28 W ; home all without mesh bed level
G80 ; mesh bed leveling

G1 Z0.2 F720
G1 Y-3 F1000 ; go outside print area
G92 E0
G1 X60 E9 F1000 ; intro line
G1 X100 E12.5 F1000 ; intro line

G92 E0
M221 S95

; Don't change E values below. Excessive value can damage the printer.

M907 E538 ; set extruder motor current
G21 ; set units to millimeters
G90 ; use absolute coordinates
M83 ; use relative distances for extrusion
M900 K0.05 ; Filament gcode LA 1.5
M900 K30 ; Filament gcode LA 1.0
M107
;LAYER_CHANGE
;Z:0.2
;HEIGHT:0.2
;BEFORE_LAYER_CHANGE
G92 E0.0
;0.2


G1 E-.8 F2100
G1 Z.4 F720
;AFTER_LAYER_CHANGE
;0.2
G1 X69.519 Y63.957 F10800
G1 Z.2 F720
G1 E.8 F2100
M204 S800
;TYPE:Skirt/Brim
;WIDTH:0.42
G1 F1200
G1 X70.565 Y63.081 E.04278
G1 X71.454 Y62.888 E.02852
G1 X131.781 Y61.598 E1.89194
G1 X137.41 Y61.598 E.17651
G1 X138.198 Y61.692 E.02488
G1 X138.98 Y61.947 E.02579
G1 X139.594 Y62.287 E.02201
G1 X140.2 Y62.785 E.02458
G1 X157.642 Y80.921 E.78896
G1 X158.61 Y82.213 E.05062
G1 X159.368 Y83.804 E.05525
G1 X159.666 Y84.852 E.03416
G1 X159.826 Y85.913 E.03363
G1 X163.744 Y129.837 E1.38267
G1 X163.76 Y130.837 E.03137
G1 X163.61 Y131.691 E.02719
G1 X163.262 Y132.599 E.03049
G1 X162.718 Y133.531 E.03383
G1 X162.03 Y134.205 E.03019
G1 X148.03 Y143.204 E.52184
G1 X146.745 Y143.582 E.042
G1 X135.724 Y143.582 E.34553
G1 X72.824 Y143.044 E1.97228
G1 X71.52 Y142.641 E.04278
G1 X70.652 Y141.588 E.04278
G1 X70.468 Y140.742 E.02713
G1 X69.129 Y98.702 E1.31881
G1 X69.128 Y65.264 E1.04843
M73 P1 R32
M73 Q1 S32
G1 X69.502 Y64.015 E.0409
M204 S1000
; printing object IKEA_SKADIS_Hook_10mm.stl id:4 copy 0
;WIPE_START
G1 F8640
G1 X70.565 Y63.081 E-.32671
G1 X71.454 Y62.888 E-.21004
G1 X72.421 Y62.867 E-.22325
;WIPE_END
G1 E-.04 F2100
G1 Z.6 F720
G1 X144.532 Y125.711 F10800
G1 Z.2 F720
G1 E.8 F2100
M204 S800
;TYPE:Perimeter
G1 F1200
G1 X155.449 Y125.716 E.3423
G1 X155.856 Y125.75 E.01282
G1 X156.233 Y125.814 E.01198
G1 X156.856 Y125.989 E.02028
G1 X157.228 Y126.139 E.01257
G1 X157.592 Y126.323 E.0128
G1 X157.94 Y126.537 E.01281
G1 X158.259 Y126.772 E.01241
G1 X158.575 Y127.05 E.0132
G1 X158.846 Y127.332 E.01228
G1 X159.243 Y127.846 E.02033
G1 X159.446 Y128.176 E.01215
G1 X159.629 Y128.541 E.01281
G1 X159.782 Y128.92 E.01284
G1 X159.902 Y129.311 E.01281
G1 X159.988 Y129.71 E.01281
G1 X160.04 Y130.116 E.01281
G1 X160.053 Y130.435 E.01002
G1 X159.425 Y130.435 E.0197
G1 X159.399 Y129.993 E.01388
G1 X159.299 Y129.474 E.01656
G1 X159.193 Y129.129 E.01134
G1 X159.061 Y128.799 E.01115
G1 X158.901 Y128.481 E.01114
G1 X158.714 Y128.179 E.01115
G1 X158.503 Y127.893 E.01114
G1 X158.269 Y127.627 E.0111
G1 X158.017 Y127.385 E.01094
G1 X157.74 Y127.161 E.01117
G1 X157.441 Y126.958 E.01135
G1 X157.13 Y126.784 E.01116
G1 X156.806 Y126.638 E.01114
G1 X156.465 Y126.518 E.01134
G1 X155.953 Y126.396 E.0165
G1 X155.429 Y126.34 E.01653
G1 X150.23 Y126.337 E.16301
G1 X149.88 Y126.352 E.01099
G1 X149.518 Y126.4 E.01145
G1 X149.161 Y126.479 E.01145
G1 X148.806 Y126.59 E.01166
G1 X148.311 Y126.809 E.01698
G1 X147.842 Y127.093 E.01718
G1 X147.415 Y127.436 E.01718
G1 X147.036 Y127.831 E.01718
G1 X146.712 Y128.273 E.01718
G1 X146.449 Y128.754 E.01718
G1 X146.25 Y129.264 E.01718
G1 X146.121 Y129.79 E.01698
G1 X146.073 Y130.159 E.01166
G1 X146.058 Y130.509 E.01098
G1 X146.058 Y139.434 E.27986
G1 X144.532 Y139.434 E.04784
G1 X144.532 Y125.771 E.42841
M204 S1000
;WIPE_START
G1 F8640
G1 X147.823 Y125.754 E-.76
;WIPE_END
G1 E-.04 F2100
G1 Z.6 F720
G1 X136.532 Y109.613 F10800
G1 Z.2 F720
G1 E.8 F2100
M204 S800
G1 F1200
G1 X137.958 Y109.614 E.04471
G1 X137.958 Y139.434 E.935
G1 X136.532 Y139.434 E.04471
M73 P1 R31
G1 X136.532 Y109.673 E.93314
M204 S1000
G1 X136.155 Y109.236 F10800
M204 S800
;TYPE:External perimeter
G1 F1200
G1 X141.26 Y109.239 E.16007
G1 X141.332 Y109.252 E.0023
G1 X141.423 Y109.302 E.00327
G1 X141.502 Y109.401 E.00396
G1 X141.526 Y109.48 E.0026
G1 X141.526 Y109.567 E.00271
G1 X141.502 Y109.646 E.0026
G1 X141.423 Y109.745 E.00396
G1 X141.334 Y109.794 E.00318
G1 X141.221 Y109.812 E.0036
G1 X138.335 Y109.812 E.0905
G1 X138.335 Y139.236 E.92258
G1 X144.155 Y139.236 E.18248
G1 X144.155 Y125.334 E.43589
G1 X155.465 Y125.339 E.35462
G1 X155.904 Y125.376 E.01382
G1 X156.316 Y125.446 E.0131
G1 X156.978 Y125.632 E.02155
G1 X157.383 Y125.795 E.01371
G1 X157.776 Y125.993 E.0138
G1 X158.151 Y126.224 E.01381
G1 X158.495 Y126.478 E.01341
G1 X158.836 Y126.777 E.01421
G1 X159.132 Y127.086 E.01342
G1 X159.553 Y127.631 E.0216
G1 X159.775 Y127.992 E.01328
G1 X159.973 Y128.385 E.01381
G1 X160.138 Y128.795 E.01384
G1 X160.267 Y129.216 E.01381
G1 X160.36 Y129.647 E.01381
G1 X160.416 Y130.084 E.01381
G1 X160.434 Y130.519 E.01366
G1 X160.409 Y130.812 E.00922
G1 X159.08 Y130.812 E.04165
G1 X159.024 Y130.04 E.02427
G1 X158.933 Y129.566 E.01514
G1 X158.837 Y129.254 E.01021
G1 X158.717 Y128.954 E.01014
G1 X158.571 Y128.665 E.01014
G1 X158.402 Y128.39 E.01014
G1 X158.209 Y128.13 E.01014
G1 X157.996 Y127.888 E.0101
G1 X157.767 Y127.668 E.00995
G1 X157.516 Y127.464 E.01017
G1 X157.243 Y127.279 E.01034
G1 X156.96 Y127.121 E.01014
G1 X156.665 Y126.988 E.01014
G1 X156.358 Y126.88 E.01021
G1 X155.889 Y126.768 E.01512
G1 X155.409 Y126.717 E.01516
G1 X150.238 Y126.714 E.16213
G1 X149.913 Y126.728 E.01021
G1 X149.583 Y126.771 E.01042
G1 X149.259 Y126.843 E.01042
G1 X148.939 Y126.944 E.01049
G1 X148.485 Y127.144 E.01556
G1 X148.059 Y127.402 E.01563
G1 X147.67 Y127.714 E.01563
G1 X147.326 Y128.074 E.01563
G1 X147.031 Y128.476 E.01563
G1 X146.791 Y128.913 E.01563
G1 X146.611 Y129.378 E.01563
G1 X146.493 Y129.86 E.01556
G1 X146.449 Y130.192 E.01049
G1 X146.435 Y130.517 E.01021
G1 X146.435 Y139.515 E.28212
G1 X146.413 Y139.812 E.00933
G1 X136.155 Y139.812 E.32163
G1 X136.155 Y109.296 E.9568
M204 S1000
G1 X136.521 Y109.398 F10800
;WIPE_START
G1 F8640
G1 X139.446 Y109.259 E-.76
;WIPE_END
G1 E-.04 F2100
G1 Z.6 F720
G1 X137.069 Y109.727 F10800
G1 Z.2 F720
G1 E.8 F2100
M204 S800
;TYPE:Solid infill
;WIDTH:0.425865
G1 F1200
G1 X137.675 Y110.332 E.02727
G1 X137.675 Y110.874 E.01724
M73 Q2 S32
G1 X136.815 Y110.013 E.03874
G1 X136.815 Y110.555 E.01724
M73 P2 R31
G1 X137.675 Y111.415 E.03874
G1 X137.675 Y111.957 E.01724
G1 X136.815 Y111.097 E.03874
G1 X136.815 Y111.638 E.01724
G1 X137.675 Y112.498 E.03874
G1 X137.675 Y113.04 E.01724
G1 X136.815 Y112.18 E.03874
G1 X136.815 Y112.721 E.01724
G1 X137.675 Y113.582 E.03874
G1 X137.675 Y114.123 E.01724
G1 X136.815 Y113.263 E.03874
G1 X136.815 Y113.804 E.01724
G1 X137.675 Y114.665 E.03874
G1 X137.675 Y115.206 E.01724
G1 X136.815 Y114.346 E.03874
G1 X136.815 Y114.888 E.01724
G1 X137.675 Y115.748 E.03874
G1 X137.675 Y116.289 E.01724
G1 X136.815 Y115.429 E.03874
G1 X136.815 Y115.971 E.01724
G1 X137.675 Y116.831 E.03874
G1 X137.675 Y117.373 E.01724
G1 X136.815 Y116.512 E.03874
G1 X136.815 Y117.054 E.01724
G1 X137.675 Y117.914 E.03874
G1 X137.675 Y118.456 E.01724
G1 X136.815 Y117.595 E.03874
G1 X136.815 Y118.137 E.01724
G1 X137.675 Y118.997 E.03874
G1 X137.675 Y119.539 E.01724
G1 X136.815 Y118.679 E.03874
G1 X136.815 Y119.22 E.01724
G1 X137.675 Y120.08 E.03874
G1 X137.675 Y120.622 E.01724
G1 X136.815 Y119.762 E.03874
G1 X136.815 Y120.303 E.01724
G1 X137.675 Y121.163 E.03874
G1 X137.675 Y121.705 E.01724
G1 X136.815 Y120.845 E.03874
G1 X136.815 Y121.386 E.01724
G1 X137.675 Y122.247 E.03874
G1 X137.675 Y122.788 E.01724
G1 X136.815 Y121.928 E.03874
G1 X136.815 Y122.469 E.01724
G1 X137.675 Y123.33 E.03874
G1 X137.675 Y123.871 E.01724
M73 Q2 S31
G1 X136.815 Y123.011 E.03874
G1 X136.815 Y123.553 E.01724
G1 X137.675 Y124.413 E.03874
G1 X137.675 Y124.954 E.01724
G1 X136.815 Y124.094 E.03874
G1 X136.815 Y124.636 E.01724
G1 X137.675 Y125.496 E.03874
G1 X137.675 Y126.038 E.01724
G1 X136.815 Y125.177 E.03874
G1 X136.815 Y125.719 E.01724
G1 X137.675 Y126.579 E.03874
G1 X137.675 Y127.121 E.01724
G1 X136.815 Y126.26 E.03874
G1 X136.815 Y126.802 E.01724
G1 X137.675 Y127.662 E.03874
G1 X137.675 Y128.204 E.01724
G1 X136.815 Y127.344 E.03874
G1 X136.815 Y127.885 E.01724
G1 X137.675 Y128.745 E.03874
G1 X137.675 Y129.287 E.01724
G1 X136.815 Y128.427 E.03874
G1 X136.815 Y128.968 E.01724
G1 X137.675 Y129.829 E.03874
G1 X137.675 Y130.37 E.01724
G1 X136.815 Y129.51 E.03874
G1 X136.815 Y130.051 E.01724
G1 X137.675 Y130.912 E.03874
G1 X137.675 Y131.453 E.01724
G1 X136.815 Y130.593 E.03874
G1 X136.815 Y131.135 E.01724
G1 X137.675 Y131.995 E.03874
G1 X137.675 Y132.536 E.01724
G1 X136.815 Y131.676 E.03874
G1 X136.815 Y132.218 E.01724
G1 X137.675 Y133.078 E.03874
G1 X137.675 Y133.619 E.01724
G1 X136.815 Y132.759 E.03874
G1 X136.815 Y133.301 E.01724
G1 X137.675 Y134.161 E.03874
G1 X137.675 Y134.703 E.01724
G1 X136.815 Y133.842 E.03874
G1 X136.815 Y134.384 E.01724
G1 X137.675 Y135.244 E.03874
G1 X137.675 Y135.786 E.01724
G1 X136.815 Y134.925 E.03874
G1 X136.815 Y135.467 E.01724
G1 X137.675 Y136.327 E.03874
G1 X137.675 Y136.869 E.01724
G1 X136.815 Y136.009 E.03874
G1 X136.815 Y136.55 E.01724
G1 X137.675 Y137.41 E.03874
G1 X137.675 Y137.952 E.01724
G1 X136.815 Y137.092 E.03874
G1 X136.815 Y137.633 E.01724
G1 X137.675 Y138.494 E.03874
G1 X137.675 Y139.035 E.01724
G1 X136.815 Y138.175 E.03874
G1 X136.815 Y138.716 E.01724
G1 X137.419 Y139.321 E.02724
M204 S1000
G1 X138.146 Y139.524 F10800
M204 S800
;TYPE:Gap fill
;WIDTH:0.24159
G1 F1200
G1 X144.343 Y139.524 E.10237
M204 S1000
;WIPE_START
G1 F8640
G1 X141.052 Y139.524 E-.76
;WIPE_END
G1 E-.04 F2100
G1 Z.6 F720
G1 X148.465 Y125.826 F10800
G1 Z.2 F720
G1 E.8 F2100
M204 S800
;TYPE:Solid infill
;WIDTH:0.420477
G1 F1200
G1 X148.903 Y126.264 E.01944
G1 X148.515 Y126.41 E.01301
G1 X148.1 Y125.995 E.0184
G1 X147.566 Y125.995 E.01677
G1 X148.148 Y126.577 E.02582
G1 X147.815 Y126.778 E.0122
G1 X147.032 Y125.995 E.03478
G1 X146.498 Y125.995 E.01677
G1 X147.505 Y127.001 E.04469
G1 X147.21 Y127.241 E.01192
G1 X145.964 Y125.994 E.05534
G1 X145.43 Y125.994 E.01677
G1 X146.949 Y127.514 E.06746
G1 X146.706 Y127.804 E.0119
G1 X144.895 Y125.994 E.08037
G1 X144.815 Y125.994 E.00254
G1 X144.815 Y126.447 E.01423
G1 X146.48 Y128.112 E.07393
G1 X146.289 Y128.456 E.01233
G1 X144.815 Y126.981 E.06548
G1 X144.815 Y127.515 E.01676
G1 X146.12 Y128.82 E.05794
G1 X145.973 Y129.207 E.013
G1 X144.815 Y128.049 E.05143
G1 X144.815 Y128.583 E.01676
G1 X145.868 Y129.636 E.04677
G1 X145.796 Y130.098 E.01467
G1 X144.815 Y129.117 E.04356
G1 X144.815 Y129.651 E.01676
G1 X145.775 Y130.611 E.04263
G1 X145.775 Y131.145 E.01676
G1 X144.815 Y130.185 E.04263
G1 X144.815 Y130.719 E.01676
G1 X145.775 Y131.679 E.04263
G1 X145.775 Y132.213 E.01676
G1 X144.815 Y131.253 E.04263
G1 X144.815 Y131.787 E.01676
G1 X145.775 Y132.747 E.04263
G1 X145.775 Y133.281 E.01676
G1 X144.815 Y132.32 E.04263
G1 X144.815 Y132.854 E.01676
G1 X145.775 Y133.815 E.04263
G1 X145.775 Y134.349 E.01676
G1 X144.815 Y133.388 E.04263
G1 X144.815 Y133.922 E.01676
G1 X145.775 Y134.883 E.04263
G1 X145.775 Y135.417 E.01676
G1 X144.815 Y134.456 E.04263
G1 X144.815 Y134.99 E.01676
G1 X145.775 Y135.95 E.04263
G1 X145.775 Y136.484 E.01676
G1 X144.815 Y135.524 E.04263
G1 X144.815 Y136.058 E.01676
G1 X145.775 Y137.018 E.04263
G1 X145.775 Y137.552 E.01676
G1 X144.815 Y136.592 E.04263
G1 X144.815 Y137.126 E.01676
G1 X145.775 Y138.086 E.04263
G1 X145.775 Y138.62 E.01676
G1 X144.815 Y137.66 E.04263
G1 X144.815 Y138.194 E.01676
G1 X145.772 Y139.152 E.04252
G1 X145.238 Y139.152 E.01676
G1 X144.645 Y138.558 E.02635
M204 S1000
;WIPE_START
G1 F8640
G1 X145.238 Y139.152 E-.19381
G1 X145.772 Y139.152 E-.12329
G1 X144.815 Y138.194 E-.31275
G1 X144.815 Y137.66 E-.12329
G1 X144.836 Y137.681 E-.00686
;WIPE_END
G1 E-.04 F2100
G1 Z.6 F720
G1 X149.359 Y126.065 F10800
G1 Z.2 F720
G1 E.8 F2100
M204 S800
;TYPE:Gap fill
;WIDTH:0.350102
G1 F1200
G1 X149.846 Y126.033 E.01248
M204 S1000
M204 S800
;WIDTH:0.306172
G1 X149.857 Y126.033 E.00025
M204 S1000
M204 S800
;WIDTH:0.305166
G1 X150.22 Y126.025 E.00792
M204 S1000
M204 S800
;WIDTH:0.289121
G1 X150.226 Y126.025 E.00011
M204 S1000
M204 S800
;WIDTH:0.290012
G1 X155.436 Y126.028 E.10704
M204 S1000
M204 S800
;WIDTH:0.290011
G1 X155.439 Y126.028 E.00007
M204 S1000
M204 S800
;WIDTH:0.289714
G1 X155.452 Y126.029 E.00027
M204 S1000
M204 S800
;WIDTH:0.2971
G1 X155.816 Y126.064 E.00774
M204 S1000
M204 S800
;WIDTH:0.2971
G1 X155.998 Y126.089 E.00388
M204 S1000
M204 S800
;WIDTH:0.285664
G1 X156.013 Y126.091 E.00031
M204 S1000
M204 S800
;WIDTH:0.295638
G1 X156.164 Y126.122 E.00323
M204 S1000
M204 S800
;WIDTH:0.295637
G1 X156.546 Y126.221 E.00829
M204 S1000
M204 S800
;WIDTH:0.279996
G1 X156.558 Y126.225 E.00025
M204 S1000
M204 S800
;WIDTH:0.293604
G1 X156.755 Y126.287 E.0043
M204 S1000
M204 S800
;WIDTH:0.293603
G1 X156.917 Y126.348 E.00362
M204 S1000
M204 S800
;WIDTH:0.286191
G1 X156.927 Y126.352 E.00021
M204 S1000
M204 S800
;WIDTH:0.29406
G1 X157.098 Y126.425 E.0039
M204 S1000
M204 S800
;WIDTH:0.294062
G1 X157.265 Y126.505 E.00386
M204 S1000
M204 S800
;WIDTH:0.28618
G1 X157.274 Y126.51 E.00021
M204 S1000
M204 S800
;WIDTH:0.294061
G1 X157.439 Y126.597 E.00389
M204 S1000
M204 S800
;WIDTH:0.294062
G1 X157.599 Y126.691 E.00388
M204 S1000
M204 S800
;WIDTH:0.286165
G1 X157.608 Y126.697 E.00021
M204 S1000
M204 S800
;WIDTH:0.294244
G1 X157.764 Y126.798 E.00389
M204 S1000
M204 S800
;WIDTH:0.294244
G1 X157.921 Y126.909 E.00402
M204 S1000
M204 S800
;WIDTH:0.286462
G1 X157.93 Y126.915 E.00021
M204 S1000
M204 S800
;WIDTH:0.293984
G1 X158.061 Y127.017 E.00348
M204 S1000
M204 S800
;WIDTH:0.293982
G1 X158.219 Y127.149 E.00429
M204 S1000
M204 S800
;WIDTH:0.285965
G1 X158.226 Y127.156 E.00021
M204 S1000
M204 S800
;WIDTH:0.293973
G1 X158.358 Y127.277 E.00373
M204 S1000
M204 S800
;WIDTH:0.293972
G1 X158.49 Y127.409 E.00389
M204 S1000
M204 S800
;WIDTH:0.286384
G1 X158.497 Y127.416 E.00021
M204 S1000
M204 S800
;WIDTH:0.29351
G1 X158.608 Y127.538 E.00344
M204 S1000
M204 S800
;WIDTH:0.293513
G1 X158.739 Y127.696 E.00428
M204 S1000
M204 S800
;WIDTH:0.280349
G1 X158.745 Y127.704 E.0002
M204 S1000
M204 S800
