; generated by PrusaSlicer 2.4.1+win64 on 2023-12-22 at 08:58:20 UTC


;
;
; 

; external perimeters extrusion width = 0.60mm
; perimeters extrusion width = 0.50mm
; infill extrusion width = 0.50mm
; solid infill extrusion width = 0.50mm
; top infill extrusion width = 0.45mm
; first layer extrusion width = 0.42mm

M73 P0 R295
M73 Q0 S296
M201 X1000 Y1000 Z200 E5000 ; sets maximum accelerations, mm/sec^2
M203 X200 Y200 Z12 E120 ; sets maximum feedrates, mm / sec
M204 P1250 R1250 T1250 ; sets acceleration (P, T) and retract acceleration (R), mm/sec^2
M205 X8.00 Y8.00 Z0.40 E4.50 ; sets the jerk limits, mm/sec
M205 S0 T0 ; sets the minimum extruding and travel feed rate, mm/sec
M107
;TYPE:Custom
M862.3 P "MK3S" ; printer model check
M862.1 P0.4 ; nozzle diameter check
M115 U3.11.0 ; tell printer latest fw version
G90 ; use absolute coordinates
M83 ; extruder relative mode
M104 S215 ; set extruder temp
M140 S60 ; set bed temp
M190 S60 ; wait for bed temp
M109 S215 ; wait for extruder temp
G28 W ; home all without mesh bed level
G80 ; mesh bed leveling

G1 Z0.2 F720
G1 Y-3 F1000 ; go outside print area
G92 E0
G1 X60 E9 F1000 ; intro line
G1 X100 E12.5 F1000 ; intro line

G92 E0
M221 S95

; Don't change E values below. Excessive value can damage the printer.

M907 E538 ; set extruder motor current
G21 ; set units to millimeters
G90 ; use absolute coordinates
M83 ; use relative distances for extrusion
M900 K0.05 ; Filament gcode LA 1.5
M900 K30 ; Filament gcode LA 1.0
M107
;LAYER_CHANGE
;Z:0.2
;HEIGHT:0.2
;BEFORE_LAYER_CHANGE
G92 E0.0
;0.2


M73 Q0 S295
G1 E-.8 F2100
G1 Z.4 F720
;AFTER_LAYER_CHANGE
;0.2
G1 X23.605 Y9.504 F10800
G1 Z.2 F720
G1 E.8 F2100
M204 S800
;TYPE:Skirt/Brim
;WIDTH:0.42
G1 F1200
G1 X23.978 Y8.63 E.02981
G1 X24.546 Y7.612 E.03655
G1 X25.229 Y6.667 E.03655
G1 X25.808 Y6.018 E.02728
G1 X26.667 Y5.229 E.03655
G1 X27.466 Y4.642 E.03109
G1 X28.965 Y3.828 E.05349
G1 X30.828 Y3.213 E.0615
G1 X31.979 Y3.028 E.03655
G1 X33 Y2.973 E.03206
G1 X217.133 Y2.977 E5.77337
G1 X218.276 Y3.057 E.03591
G1 X219.172 Y3.213 E.02852
G1 X220.496 Y3.605 E.04329
G1 X221.37 Y3.978 E.02981
G1 X222.388 Y4.546 E.03655
G1 X223.333 Y5.229 E.03655
G1 X223.982 Y5.808 E.02728
G1 X224.771 Y6.667 E.03655
G1 X225.358 Y7.466 E.03109
G1 X226.172 Y8.965 E.05349
G1 X226.787 Y10.828 E.0615
G1 X226.943 Y11.724 E.02852
G1 X227.023 Y12.867 E.03591
G1 X227.027 Y197 E5.77337
G1 X226.84 Y198.881 E.05927
M73 P0 R294
G1 X226.395 Y200.496 E.05252
G1 X226.022 Y201.37 E.02981
G1 X225.454 Y202.388 E.03655
G1 X224.771 Y203.333 E.03655
G1 X224.192 Y203.982 E.02728
G1 X223.333 Y204.771 E.03655
G1 X222.534 Y205.358 E.03109
G1 X221.035 Y206.172 E.05349
G1 X219.172 Y206.787 E.0615
G1 X218.021 Y206.972 E.03655
G1 X217 Y207.027 E.03206
G1 X33 Y207.027 E5.76919
G1 X31.119 Y206.84 E.05927
G1 X29.504 Y206.395 E.05252
G1 X28.63 Y206.022 E.02981
G1 X27.612 Y205.454 E.03655
G1 X26.667 Y204.771 E.03655
G1 X26.018 Y204.192 E.02728
G1 X25.229 Y203.333 E.03655
G1 X24.642 Y202.534 E.03109
G1 X23.828 Y201.035 E.05349
G1 X23.213 Y199.172 E.0615
G1 X23.028 Y198.021 E.03655
G1 X22.973 Y197 E.03206
G1 X22.973 Y13 E5.76919
G1 X23.16 Y11.119 E.05927
G1 X23.589 Y9.562 E.05064
M204 S1000
; printing object Pegboard 200x200x3.stl id:0 copy 0
;WIPE_START
G1 F8640
G1 X23.978 Y8.63 E-.23326
G1 X24.546 Y7.612 E-.26917
G1 X25.2 Y6.708 E-.25756
;WIPE_END
G1 E-.04 F2100
G1 Z.6 F720
G1 X122.283 Y116.814 F10800
G1 Z.2 F720
G1 E.8 F2100
M204 S800
;TYPE:Perimeter
G1 F1200
G1 X122.905 Y116.371 E.02392
G1 X123.567 Y116.063 E.0229
G1 X124.272 Y115.874 E.0229
G1 X124.935 Y115.816 E.02084
G1 X125.723 Y115.872 E.02479
G1 X126.433 Y116.063 E.02304
G1 X127.095 Y116.371 E.0229
G1 X127.693 Y116.79 E.0229
G1 X128.21 Y117.307 E.0229
G1 X128.629 Y117.905 E.0229
G1 X128.937 Y118.567 E.0229
G1 X129.126 Y119.272 E.0229
G1 X129.187 Y119.966 E.02182
G1 X129.187 Y130.034 E.3157
G1 X129.126 Y130.728 E.02182
G1 X128.937 Y131.433 E.0229
G1 X128.629 Y132.095 E.0229
G1 X128.21 Y132.693 E.0229
G1 X127.693 Y133.21 E.0229
G1 X127.095 Y133.629 E.0229
G1 X126.433 Y133.937 E.0229
G1 X125.728 Y134.126 E.0229
G1 X125 Y134.19 E.0229
G1 X124.272 Y134.126 E.0229
G1 X123.567 Y133.937 E.0229
G1 X122.905 Y133.629 E.0229
G1 X122.307 Y133.21 E.0229
G1 X121.79 Y132.693 E.0229
G1 X121.371 Y132.095 E.0229
G1 X121.063 Y131.433 E.0229
G1 X120.874 Y130.728 E.0229
G1 X120.813 Y130.034 E.02182
G1 X120.813 Y119.966 E.3157
G1 X120.874 Y119.272 E.02182
G1 X121.063 Y118.567 E.0229
G1 X121.371 Y117.905 E.0229
G1 X121.79 Y117.307 E.0229
G1 X122.241 Y116.856 E.01998
M204 S1000
G1 X122.55 Y117.08 F10800
M204 S800
;TYPE:External perimeter
G1 F1200
G1 X123.094 Y116.699 E.02083
G1 X123.696 Y116.418 E.02083
G1 X124.338 Y116.246 E.02083
G1 X124.938 Y116.194 E.01887
G1 X125.66 Y116.246 E.02272
G1 X126.304 Y116.418 E.02088
G1 X126.906 Y116.699 E.02083
G1 X127.45 Y117.08 E.02083
G1 X127.92 Y117.55 E.02083
G1 X128.301 Y118.094 E.02083
G1 X128.582 Y118.696 E.02083
G1 X128.754 Y119.338 E.02083
G1 X128.81 Y119.982 E.02027
G1 X128.81 Y130.018 E.31467
G1 X128.754 Y130.662 E.02027
G1 X128.582 Y131.304 E.02083
G1 X128.301 Y131.906 E.02083
G1 X127.92 Y132.45 E.02083
G1 X127.45 Y132.92 E.02083
G1 X126.906 Y133.301 E.02083
G1 X126.304 Y133.582 E.02083
G1 X125.662 Y133.754 E.02083
G1 X125 Y133.812 E.02083
G1 X124.338 Y133.754 E.02083
G1 X123.696 Y133.582 E.02083
G1 X123.094 Y133.301 E.02083
G1 X122.55 Y132.92 E.02083
G1 X122.08 Y132.45 E.02083
G1 X121.699 Y131.906 E.02083
G1 X121.418 Y131.304 E.02083
G1 X121.246 Y130.662 E.02083
G1 X121.19 Y130.018 E.02027
G1 X121.19 Y119.982 E.31467
G1 X121.246 Y119.338 E.02027
G1 X121.418 Y118.696 E.02083
G1 X121.699 Y118.094 E.02083
G1 X122.08 Y117.55 E.02083
G1 X122.508 Y117.123 E.01895
M204 S1000
G1 X122.481 Y116.686 F10800
;WIPE_START
G1 F8640
G1 X123.094 Y116.699 E-.16707
G1 X123.696 Y116.418 E-.15341
G1 X124.338 Y116.246 E-.15341
G1 X124.938 Y116.194 E-.13894
G1 X125.573 Y116.24 E-.14717
;WIPE_END
G1 E-.04 F2100
G1 Z.6 F720
G1 X108.946 Y111.401 F10800
G1 Z.2 F720
G1 E.8 F2100
M204 S800
;TYPE:Perimeter
G1 F1200
G1 X108.629 Y112.095 E.02392
G1 X108.21 Y112.693 E.0229
G1 X107.693 Y113.21 E.0229
G1 X107.095 Y113.629 E.0229
G1 X106.433 Y113.937 E.0229
G1 X105.728 Y114.126 E.0229
G1 X105 Y114.19 E.0229
G1 X104.272 Y114.126 E.0229
G1 X103.567 Y113.937 E.0229
G1 X102.905 Y113.629 E.0229
G1 X102.307 Y113.21 E.0229
G1 X101.79 Y112.693 E.0229
G1 X101.371 Y112.095 E.0229
G1 X101.063 Y111.433 E.0229
G1 X100.874 Y110.728 E.0229
G1 X100.813 Y110.034 E.02182
G1 X100.813 Y99.966 E.3157
G1 X100.874 Y99.272 E.02182
G1 X101.063 Y98.567 E.0229
G1 X101.371 Y97.905 E.0229
G1 X101.79 Y97.307 E.0229
G1 X102.307 Y96.79 E.0229
G1 X102.905 Y96.371 E.0229
G1 X103.567 Y96.063 E.0229
G1 X104.272 Y95.874 E.0229
G1 X104.935 Y95.816 E.02084
G1 X105.723 Y95.872 E.02479
G1 X106.433 Y96.063 E.02304
G1 X107.095 Y96.371 E.0229
G1 X107.693 Y96.79 E.0229
G1 X108.21 Y97.307 E.0229
G1 X108.629 Y97.905 E.0229
G1 X108.937 Y98.567 E.0229
G1 X109.126 Y99.272 E.0229
G1 X109.187 Y99.966 E.02182
G1 X109.187 Y110.034 E.3157
G1 X109.126 Y110.728 E.02182
G1 X108.961 Y111.343 E.01998
M204 S1000
G1 X108.582 Y111.304 F10800
M204 S800
;TYPE:External perimeter
G1 F1200
G1 X108.301 Y111.906 E.02083
G1 X107.92 Y112.45 E.02083
G1 X107.45 Y112.92 E.02083
G1 X106.906 Y113.301 E.02083
G1 X106.304 Y113.582 E.02083
G1 X105.662 Y113.754 E.02083
G1 X105 Y113.812 E.02083
G1 X104.338 Y113.754 E.02083
G1 X103.696 Y113.582 E.02083
G1 X103.094 Y113.301 E.02083
G1 X102.55 Y112.92 E.02083
G1 X102.08 Y112.45 E.02083
G1 X101.699 Y111.906 E.02083
G1 X101.418 Y111.304 E.02083
G1 X101.246 Y110.662 E.02083
G1 X101.19 Y110.018 E.02027
G1 X101.19 Y99.982 E.31467
G1 X101.246 Y99.338 E.02027
G1 X101.418 Y98.696 E.02083
G1 X101.699 Y98.094 E.02083
G1 X102.08 Y97.55 E.02083
G1 X102.55 Y97.08 E.02083
G1 X103.094 Y96.699 E.02083
G1 X103.696 Y96.418 E.02083
G1 X104.338 Y96.246 E.02083
G1 X104.938 Y96.194 E.01887
G1 X105.66 Y96.246 E.02272
G1 X106.304 Y96.418 E.02088
G1 X106.906 Y96.699 E.02083
G1 X107.45 Y97.08 E.02083
G1 X107.92 Y97.55 E.02083
G1 X108.301 Y98.094 E.02083
G1 X108.582 Y98.696 E.02083
G1 X108.754 Y99.338 E.02083
G1 X108.81 Y99.982 E.02027
G1 X108.81 Y110.018 E.31467
G1 X108.754 Y110.662 E.02027
G1 X108.597 Y111.246 E.01895
M204 S1000
G1 X108.839 Y111.61 F10800
;WIPE_START
G1 F8640
G1 X108.301 Y111.906 E-.16707
G1 X107.92 Y112.45 E-.15341
G1 X107.45 Y112.92 E-.15341
G1 X106.906 Y113.301 E-.15341
G1 X106.385 Y113.544 E-.13269
;WIPE_END
G1 E-.04 F2100
G1 Z.6 F720
G1 X105.033 Y74.187 F10800
G1 Z.2 F720
G1 E.8 F2100
M204 S800
;TYPE:Perimeter
G1 F1200
G1 X104.272 Y74.126 E.02392
G1 X103.567 Y73.937 E.0229
G1 X102.905 Y73.629 E.0229
G1 X102.307 Y73.21 E.0229
G1 X101.79 Y72.693 E.0229
G1 X101.371 Y72.095 E.0229
G1 X101.063 Y71.433 E.0229
G1 X100.874 Y70.728 E.0229
G1 X100.813 Y70.034 E.02182
G1 X100.813 Y59.966 E.3157
G1 X100.874 Y59.272 E.02182
G1 X101.063 Y58.567 E.0229
G1 X101.371 Y57.905 E.0229
G1 X101.79 Y57.307 E.0229
G1 X102.307 Y56.79 E.0229
G1 X102.905 Y56.371 E.0229
G1 X103.567 Y56.063 E.0229
M73 Q0 S294
G1 X104.272 Y55.874 E.0229
G1 X104.935 Y55.816 E.02084
G1 X105.723 Y55.872 E.02479
G1 X106.433 Y56.063 E.02304
G1 X107.095 Y56.371 E.0229
G1 X107.693 Y56.79 E.0229
G1 X108.21 Y57.307 E.0229
G1 X108.629 Y57.905 E.0229
G1 X108.937 Y58.567 E.0229
G1 X109.126 Y59.272 E.0229
G1 X109.187 Y59.966 E.02182
G1 X109.187 Y70.034 E.3157
G1 X109.126 Y70.728 E.02182
G1 X108.937 Y71.433 E.0229
G1 X108.629 Y72.095 E.0229
G1 X108.21 Y72.693 E.0229
G1 X107.693 Y73.21 E.0229
G1 X107.095 Y73.629 E.0229
G1 X106.433 Y73.937 E.0229
G1 X105.728 Y74.126 E.0229
G1 X105.093 Y74.182 E.01998
M204 S1000
G1 X105 Y73.812 F10800
M204 S800
;TYPE:External perimeter
G1 F1200
G1 X104.338 Y73.754 E.02083
G1 X103.696 Y73.582 E.02083
G1 X103.094 Y73.301 E.02083
G1 X102.55 Y72.92 E.02083
G1 X102.08 Y72.45 E.02083
G1 X101.699 Y71.906 E.02083
G1 X101.418 Y71.304 E.02083
G1 X101.246 Y70.662 E.02083
G1 X101.19 Y70.018 E.02027
G1 X101.19 Y59.982 E.31467
G1 X101.246 Y59.338 E.02027
G1 X101.418 Y58.696 E.02083
G1 X101.699 Y58.094 E.02083
G1 X102.08 Y57.55 E.02083
G1 X102.55 Y57.08 E.02083
G1 X103.094 Y56.699 E.02083
G1 X103.696 Y56.418 E.02083
G1 X104.338 Y56.246 E.02083
G1 X104.938 Y56.194 E.01887
G1 X105.66 Y56.246 E.02272
G1 X106.304 Y56.418 E.02088
G1 X106.906 Y56.699 E.02083
G1 X107.45 Y57.08 E.02083
G1 X107.92 Y57.55 E.02083
G1 X108.301 Y58.094 E.02083
G1 X108.582 Y58.696 E.02083
G1 X108.754 Y59.338 E.02083
G1 X108.81 Y59.982 E.02027
G1 X108.81 Y70.018 E.31467
G1 X108.754 Y70.662 E.02027
G1 X108.582 Y71.304 E.02083
G1 X108.301 Y71.906 E.02083
G1 X107.92 Y72.45 E.02083
G1 X107.45 Y72.92 E.02083
G1 X106.906 Y73.301 E.02083
G1 X106.304 Y73.582 E.02083
G1 X105.662 Y73.754 E.02083
G1 X105.06 Y73.806 E.01895
M204 S1000
G1 X104.8 Y74.158 F10800
;WIPE_START
G1 F8640
G1 X104.338 Y73.754 E-.16708
G1 X103.696 Y73.582 E-.15341
G1 X103.094 Y73.301 E-.15341
G1 X102.55 Y72.92 E-.15341
G1 X102.144 Y72.513 E-.13269
;WIPE_END
G1 E-.04 F2100
G1 Z.6 F720
G1 X121.054 Y78.599 F10800
G1 Z.2 F720
G1 E.8 F2100
M204 S800
;TYPE:Perimeter
G1 F1200
G1 X121.371 Y77.905 E.02392
G1 X121.79 Y77.307 E.0229
G1 X122.307 Y76.79 E.0229
G1 X122.905 Y76.371 E.0229
G1 X123.567 Y76.063 E.0229
G1 X124.272 Y75.874 E.0229
G1 X124.935 Y75.816 E.02084
G1 X125.723 Y75.872 E.02479
G1 X126.433 Y76.063 E.02304
G1 X127.095 Y76.371 E.0229
G1 X127.693 Y76.79 E.0229
G1 X128.21 Y77.307 E.0229
G1 X128.629 Y77.905 E.0229
G1 X128.937 Y78.567 E.0229
G1 X129.126 Y79.272 E.0229
G1 X129.187 Y79.966 E.02182
G1 X129.187 Y90.034 E.3157
G1 X129.126 Y90.728 E.02182
G1 X128.937 Y91.433 E.0229
G1 X128.629 Y92.095 E.0229
G1 X128.21 Y92.693 E.0229
G1 X127.693 Y93.21 E.0229
G1 X127.095 Y93.629 E.0229
G1 X126.433 Y93.937 E.0229
G1 X125.728 Y94.126 E.0229
G1 X125 Y94.19 E.0229
G1 X124.272 Y94.126 E.0229
G1 X123.567 Y93.937 E.0229
G1 X122.905 Y93.629 E.0229
G1 X122.307 Y93.21 E.0229
G1 X121.79 Y92.693 E.0229
G1 X121.371 Y92.095 E.0229
G1 X121.063 Y91.433 E.0229
G1 X120.874 Y90.728 E.0229
G1 X120.813 Y90.034 E.02182
G1 X120.813 Y79.966 E.3157
G1 X120.874 Y79.272 E.02182
G1 X121.039 Y78.657 E.01998
M204 S1000
G1 X121.418 Y78.696 F10800
M204 S800
;TYPE:External perimeter
G1 F1200
G1 X121.699 Y78.094 E.02083
G1 X122.08 Y77.55 E.02083
G1 X122.55 Y77.08 E.02083
G1 X123.094 Y76.699 E.02083
G1 X123.696 Y76.418 E.02083
G1 X124.338 Y76.246 E.02083
G1 X124.938 Y76.194 E.01887
G1 X125.66 Y76.246 E.02272
G1 X126.304 Y76.418 E.02088
G1 X126.906 Y76.699 E.02083
G1 X127.45 Y77.08 E.02083
G1 X127.92 Y77.55 E.02083
G1 X128.301 Y78.094 E.02083
G1 X128.582 Y78.696 E.02083
G1 X128.754 Y79.338 E.02083
G1 X128.81 Y79.982 E.02027
G1 X128.81 Y90.018 E.31467
G1 X128.754 Y90.662 E.02027
G1 X128.582 Y91.304 E.02083
G1 X128.301 Y91.906 E.02083
G1 X127.92 Y92.45 E.02083
G1 X127.45 Y92.92 E.02083
G1 X126.906 Y93.301 E.02083
G1 X126.304 Y93.582 E.02083
G1 X125.662 Y93.754 E.02083
G1 X125 Y93.812 E.02083
G1 X124.338 Y93.754 E.02083
G1 X123.696 Y93.582 E.02083
G1 X123.094 Y93.301 E.02083
G1 X122.55 Y92.92 E.02083
G1 X122.08 Y92.45 E.02083
G1 X121.699 Y91.906 E.02083
G1 X121.418 Y91.304 E.02083
G1 X121.246 Y90.662 E.02083
G1 X121.19 Y90.018 E.02027
G1 X121.19 Y79.982 E.31467
G1 X121.246 Y79.338 E.02027
G1 X121.403 Y78.754 E.01895
M204 S1000
G1 X121.161 Y78.39 F10800
;WIPE_START
G1 F8640
G1 X121.699 Y78.094 E-.16707
G1 X122.08 Y77.55 E-.15341
G1 X122.55 Y77.08 E-.15341
G1 X123.094 Y76.699 E-.15341
G1 X123.615 Y76.456 E-.13269
;WIPE_END
G1 E-.04 F2100
G1 Z.6 F720
G1 X141.054 Y71.401 F10800
G1 Z.2 F720
G1 E.8 F2100
M204 S800
;TYPE:Perimeter
G1 F1200
G1 X140.874 Y70.728 E.02187
G1 X140.813 Y70.034 E.02182
G1 X140.813 Y59.966 E.3157
G1 X140.874 Y59.272 E.02182
G1 X141.063 Y58.567 E.0229
G1 X141.371 Y57.905 E.0229
G1 X141.79 Y57.307 E.0229
G1 X142.307 Y56.79 E.0229
G1 X142.905 Y56.371 E.0229
G1 X143.567 Y56.063 E.0229
G1 X144.272 Y55.874 E.0229
G1 X144.935 Y55.816 E.02084
G1 X145.723 Y55.872 E.02479
G1 X146.433 Y56.063 E.02304
G1 X147.095 Y56.371 E.0229
G1 X147.693 Y56.79 E.0229
G1 X148.21 Y57.307 E.0229
G1 X148.629 Y57.905 E.0229
G1 X148.937 Y58.567 E.0229
G1 X149.126 Y59.272 E.0229
G1 X149.187 Y59.966 E.02182
G1 X149.187 Y70.034 E.3157
G1 X149.126 Y70.728 E.02182
G1 X148.937 Y71.433 E.0229
G1 X148.629 Y72.095 E.0229
G1 X148.21 Y72.693 E.0229
G1 X147.693 Y73.21 E.0229
G1 X147.095 Y73.629 E.0229
G1 X146.433 Y73.937 E.0229
G1 X145.728 Y74.126 E.0229
G1 X145 Y74.19 E.0229
G1 X144.272 Y74.126 E.0229
G1 X143.567 Y73.937 E.0229
G1 X142.905 Y73.629 E.0229
G1 X142.307 Y73.21 E.0229
G1 X141.79 Y72.693 E.0229
G1 X141.371 Y72.095 E.0229
G1 X141.074 Y71.458 E.02205
M204 S1000
G1 X141.418 Y71.304 F10800
M204 S800
;TYPE:External perimeter
G1 F1200
G1 X141.246 Y70.662 E.02083
G1 X141.19 Y70.018 E.02027
G1 X141.19 Y59.982 E.31467
G1 X141.246 Y59.338 E.02027
G1 X141.418 Y58.696 E.02083
G1 X141.699 Y58.094 E.02083
G1 X142.08 Y57.55 E.02083
G1 X142.55 Y57.08 E.02083
G1 X143.094 Y56.699 E.02083
G1 X143.696 Y56.418 E.02083
G1 X144.338 Y56.246 E.02083
G1 X144.938 Y56.194 E.01887
G1 X145.66 Y56.246 E.02272
G1 X146.304 Y56.418 E.02088
G1 X146.906 Y56.699 E.02083
G1 X147.45 Y57.08 E.02083
G1 X147.92 Y57.55 E.02083
G1 X148.301 Y58.094 E.02083
G1 X148.582 Y58.696 E.02083
G1 X148.754 Y59.338 E.02083
G1 X148.81 Y59.982 E.02027
G1 X148.81 Y70.018 E.31467
G1 X148.754 Y70.662 E.02027
G1 X148.582 Y71.304 E.02083
G1 X148.301 Y71.906 E.02083
G1 X147.92 Y72.45 E.02083
G1 X147.45 Y72.92 E.02083
G1 X146.906 Y73.301 E.02083
G1 X146.304 Y73.582 E.02083
G1 X145.662 Y73.754 E.02083
G1 X145 Y73.812 E.02083
G1 X144.338 Y73.754 E.02083
G1 X143.696 Y73.582 E.02083
G1 X143.094 Y73.301 E.02083
G1 X142.55 Y72.92 E.02083
G1 X142.08 Y72.45 E.02083
G1 X141.699 Y71.906 E.02083
G1 X141.444 Y71.358 E.01895
M204 S1000
G1 X141.024 Y71.234 F10800
;WIPE_START
G1 F8640
G1 X141.246 Y70.662 E-.16707
G1 X141.19 Y70.018 E-.14926
G1 X141.19 Y68.096 E-.44366
;WIPE_END
G1 E-.04 F2100
G1 Z.6 F720
G1 X161.054 Y78.599 F10800
G1 Z.2 F720
G1 E.8 F2100
M204 S800
;TYPE:Perimeter
G1 F1200
G1 X161.371 Y77.905 E.02392
G1 X161.79 Y77.307 E.0229
G1 X162.307 Y76.79 E.0229
G1 X162.905 Y76.371 E.0229
