; generated by PrusaSlicer 2.4.1+win64 on 2023-12-22 at 11:03:22 UTC


;
;
; 

; external perimeters extrusion width = 0.60mm
; perimeters extrusion width = 0.50mm
; infill extrusion width = 0.50mm
; solid infill extrusion width = 0.50mm
; top infill extrusion width = 0.45mm
; first layer extrusion width = 0.42mm

M73 P0 R198
M73 Q0 S200
M201 X1000 Y1000 Z200 E5000 ; sets maximum accelerations, mm/sec^2
M203 X200 Y200 Z12 E120 ; sets maximum feedrates, mm / sec
M204 P1250 R1250 T1250 ; sets acceleration (P, T) and retract acceleration (R), mm/sec^2
M205 X8.00 Y8.00 Z0.40 E4.50 ; sets the jerk limits, mm/sec
M205 S0 T0 ; sets the minimum extruding and travel feed rate, mm/sec
M107
;TYPE:Custom
M862.3 P "MK3S" ; printer model check
M862.1 P0.4 ; nozzle diameter check
M115 U3.11.0 ; tell printer latest fw version
G90 ; use absolute coordinates
M83 ; extruder relative mode
M104 S215 ; set extruder temp
M140 S60 ; set bed temp
M190 S60 ; wait for bed temp
M109 S215 ; wait for extruder temp
G28 W ; home all without mesh bed level
G80 ; mesh bed leveling

G1 Z0.2 F720
G1 Y-3 F1000 ; go outside print area
G92 E0
G1 X60 E9 F1000 ; intro line
G1 X100 E12.5 F1000 ; intro line

G92 E0
M221 S95

; Don't change E values below. Excessive value can damage the printer.

M907 E538 ; set extruder motor current
G21 ; set units to millimeters
G90 ; use absolute coordinates
M83 ; use relative distances for extrusion
M900 K0.05 ; Filament gcode LA 1.5
M900 K30 ; Filament gcode LA 1.0
M107
;LAYER_CHANGE
;Z:0.2
;HEIGHT:0.2
;BEFORE_LAYER_CHANGE
G92 E0.0
;0.2


G1 E-.8 F2100
G1 Z.4 F720
;AFTER_LAYER_CHANGE
;0.2
G1 X28.284 Y53.828 F10800
G1 Z.2 F720
G1 E.8 F2100
M204 S800
;TYPE:Skirt/Brim
;WIDTH:0.42
G1 F1200
G1 X29.521 Y53.291 E.0423
G1 X30.717 Y52.943 E.03905
G1 X31.705 Y52.768 E.03146
G1 X33 Y52.686 E.04068
G1 X217 Y52.686 E5.76919
G1 X218.842 Y52.853 E.05799
M73 P0 R197
G1 X220.052 Y53.149 E.03905
G1 X220.899 Y53.452 E.02821
G1 X222.585 Y54.33 E.0596
G1 X224.006 Y55.431 E.05637
G1 X224.683 Y56.122 E.03033
G1 X225.418 Y57.042 E.03693
G1 X226.369 Y58.689 E.0596
G1 X226.991 Y60.447 E.05848
G1 X227.218 Y61.602 E.03693
G1 X227.301 Y62.498 E.02821
G1 X227.301 Y147.502 E2.66522
G1 X227.147 Y148.842 E.0423
M73 Q0 S199
G1 X226.82 Y150.151 E.0423
G1 X226.325 Y151.405 E.0423
G1 X225.67 Y152.585 E.0423
G1 X224.867 Y153.669 E.0423
G1 X223.929 Y154.639 E.0423
G1 X222.873 Y155.478 E.0423
G1 X221.716 Y156.172 E.0423
G1 X220.576 Y156.673 E.03905
G1 X219.283 Y157.057 E.0423
G1 X218.295 Y157.232 E.03146
G1 X217 Y157.314 E.04068
G1 X32.601 Y157.306 E5.78172
G1 X31.158 Y157.147 E.0455
G1 X29.849 Y156.82 E.0423
G1 X28.595 Y156.325 E.0423
G1 X27.415 Y155.67 E.0423
G1 X26.331 Y154.867 E.0423
G1 X25.361 Y153.929 E.0423
G1 X24.522 Y152.873 E.0423
G1 X23.828 Y151.716 E.0423
G1 X23.327 Y150.576 E.03905
G1 X23.009 Y149.553 E.03358
G1 X22.768 Y148.295 E.04017
G1 X22.687 Y147.052 E.03905
G1 X22.699 Y62.498 E2.65112
G1 X22.853 Y61.158 E.0423
G1 X23.18 Y59.849 E.0423
G1 X23.675 Y58.595 E.0423
G1 X24.33 Y57.415 E.0423
G1 X25.133 Y56.331 E.0423
G1 X26.071 Y55.361 E.0423
G1 X27.127 Y54.522 E.0423
G1 X28.233 Y53.859 E.04042
M204 S1000
; printing object Skadis_raster_100x200.stl id:0 copy 0
;WIPE_START
G1 F8640
G1 X29.521 Y53.291 E-.32523
G1 X30.717 Y52.943 E-.28759
G1 X31.345 Y52.832 E-.14717
;WIPE_END
G1 E-.04 F2100
G1 Z.6 F720
G1 X121.753 Y107.929 F10800
G1 Z.2 F720
G1 E.8 F2100
M204 S800
;TYPE:Perimeter
G1 F1200
G1 X122.131 Y107.427 E.01969
G1 X122.564 Y107.015 E.01874
G1 X123.028 Y106.689 E.01779
G1 X123.621 Y106.401 E.02067
G1 X124.258 Y106.218 E.02078
G1 X124.911 Y106.148 E.02058
G1 X125.407 Y106.169 E.01559
G1 X125.754 Y106.222 E.01099
G1 X126.366 Y106.398 E.01998
G1 X126.688 Y106.537 E.01099
G1 X127.12 Y106.782 E.01559
G1 X127.636 Y107.188 E.02058
G1 X128.074 Y107.677 E.02058
G1 X128.347 Y108.092 E.01559
G1 X128.501 Y108.393 E.01059
G1 X128.629 Y108.706 E.01059
G1 X128.764 Y109.177 E.01539
G1 X128.838 Y109.663 E.01539
G1 X128.851 Y109.986 E.01014
G1 X128.851 Y120.021 E.31466
G1 X128.82 Y120.503 E.01513
G1 X128.72 Y121.004 E.01601
G1 X128.493 Y121.629 E.02086
G1 X128.16 Y122.205 E.02086
G1 X127.837 Y122.608 E.01621
G1 X127.346 Y123.058 E.02086
G1 X126.78 Y123.418 E.02106
G1 X126.165 Y123.673 E.02086
G1 X125.663 Y123.796 E.01621
G1 X125 Y123.854 E.02086
G1 X124.344 Y123.797 E.02066
G1 X123.997 Y123.72 E.01114
G1 X123.527 Y123.56 E.01554
G1 X123.133 Y123.369 E.01373
G1 X122.782 Y123.151 E.01297
G1 X122.275 Y122.725 E.02076
G1 X121.851 Y122.22 E.02066
G1 X121.66 Y121.921 E.01114
G1 X121.437 Y121.469 E.0158
G1 X121.239 Y120.84 E.02066
G1 X121.163 Y120.342 E.01581
G1 X121.149 Y120.014 E.01028
G1 X121.149 Y109.985 E.31445
G1 X121.162 Y109.663 E.01013
G1 X121.237 Y109.171 E.01559
G1 X121.432 Y108.544 E.02058
G1 X121.721 Y107.979 E.01991
M204 S1000
G1 X122.054 Y108.155 F10800
M204 S800
;TYPE:External perimeter
G1 F1200
G1 X122.413 Y107.679 E.01871
G1 X122.804 Y107.308 E.01689
G1 X123.22 Y107.015 E.01596
G1 X123.757 Y106.755 E.0187
G1 X124.331 Y106.59 E.01874
G1 X124.923 Y106.526 E.01866
G1 X125.371 Y106.545 E.01406
G1 X125.673 Y106.591 E.00959
G1 X126.239 Y106.753 E.01845
G1 X126.519 Y106.875 E.00959
G1 X126.909 Y107.096 E.01406
G1 X127.377 Y107.464 E.01866
G1 X127.775 Y107.907 E.01866
G1 X128.021 Y108.282 E.01406
G1 X128.158 Y108.55 E.00944
G1 X128.272 Y108.829 E.00945
G1 X128.395 Y109.258 E.01399
G1 X128.462 Y109.699 E.01399
G1 X128.474 Y109.994 E.00925
G1 X128.474 Y120.009 E.31402
G1 X128.445 Y120.454 E.01397
G1 X128.356 Y120.902 E.01433
G1 X128.15 Y121.469 E.01892
G1 X127.848 Y121.991 E.01892
G1 X127.561 Y122.35 E.0144
G1 X127.116 Y122.757 E.01892
G1 X126.605 Y123.083 E.01899
G1 X126.047 Y123.314 E.01892
G1 X125.601 Y123.423 E.0144
G1 X125 Y123.475 E.01892
G1 X124.401 Y123.423 E.01885
G1 X124.098 Y123.356 E.00972
G1 X123.671 Y123.211 E.01416
G1 X123.316 Y123.039 E.01238
G1 X123.004 Y122.845 E.01151
G1 X122.542 Y122.458 E.01889
G1 X122.156 Y121.997 E.01885
G1 X121.989 Y121.736 E.00972
G1 X121.788 Y121.328 E.01425
G1 X121.608 Y120.754 E.01885
G1 X121.538 Y120.305 E.01425
G1 X121.526 Y120.006 E.00938
G1 X121.526 Y109.993 E.31395
G1 X121.538 Y109.699 E.00924
G1 X121.605 Y109.256 E.01406
G1 X121.782 Y108.687 E.01866
G1 X122.027 Y108.209 E.01685
M204 S1000
G1 X121.867 Y107.802 F10800
;WIPE_START
G1 F8640
G1 X122.413 Y107.679 E-.15146
G1 X122.804 Y107.308 E-.12438
G1 X123.22 Y107.015 E-.11756
G1 X123.757 Y106.755 E-.13768
G1 X124.331 Y106.59 E-.13797
G1 X124.723 Y106.547 E-.09094
;WIPE_END
G1 E-.04 F2100
G1 Z.6 F720
G1 X107.239 Y126.867 F10800
G1 Z.2 F720
G1 E.8 F2100
M204 S800
;TYPE:Perimeter
G1 F1200
G1 X107.715 Y127.267 E.01948
G1 X107.953 Y127.526 E.01103
G1 X108.188 Y127.839 E.01228
G1 X108.415 Y128.217 E.01382
G1 X108.564 Y128.537 E.01109
G1 X108.759 Y129.154 E.02026
G1 X108.82 Y129.503 E.01114
G1 X108.852 Y129.979 E.01493
G1 X108.852 Y140.021 E.31489
G1 X108.82 Y140.503 E.01513
G1 X108.722 Y140.997 E.0158
G1 X108.558 Y141.481 E.016
G1 X108.25 Y142.071 E.02086
G1 X107.841 Y142.604 E.02106
G1 X107.346 Y143.058 E.02106
G1 X106.78 Y143.419 E.02106
G1 X106.165 Y143.673 E.02086
G1 X105.663 Y143.796 E.01621
G1 X105 Y143.854 E.02086
G1 X104.344 Y143.797 E.02066
G1 X103.997 Y143.72 E.01114
G1 X103.526 Y143.56 E.0156
G1 X103.079 Y143.34 E.0156
G1 X102.78 Y143.149 E.01114
G1 X102.285 Y142.733 E.02026
G1 X102.047 Y142.474 E.01103
G1 X101.812 Y142.161 E.01228
G1 X101.585 Y141.783 E.01382
G1 X101.436 Y141.463 E.01109
G1 X101.239 Y140.84 E.02046
G1 X101.163 Y140.342 E.01581
G1 X101.149 Y140.015 E.01027
G1 X101.149 Y129.986 E.31446
G1 X101.163 Y129.658 E.01028
G1 X101.239 Y129.16 E.01581
G1 X101.439 Y128.525 E.02086
G1 X101.747 Y127.935 E.02086
G1 X102.052 Y127.518 E.01621
G1 X102.523 Y127.048 E.02086
G1 X103.073 Y126.662 E.02106
G1 X103.682 Y126.378 E.02106
G1 X104.327 Y126.206 E.02094
G1 X104.884 Y126.15 E.01755
G1 X105.331 Y126.162 E.01403
G1 X105.675 Y126.207 E.01089
G1 X106.152 Y126.324 E.0154
G1 X106.48 Y126.443 E.01094
G1 X106.921 Y126.66 E.0154
G1 X107.191 Y126.832 E.01003
M204 S1000
G1 X106.997 Y127.156 F10800
M204 S800
;TYPE:External perimeter
G1 F1200
G1 X107.454 Y127.54 E.01871
G1 X107.663 Y127.767 E.00968
G1 X107.875 Y128.05 E.01109
G1 X108.081 Y128.394 E.01258
G1 X108.212 Y128.674 E.0097
G1 X108.392 Y129.243 E.01871
G1 X108.446 Y129.549 E.00972
G1 X108.475 Y129.991 E.0139
G1 X108.475 Y140.009 E.31411
G1 X108.445 Y140.454 E.01397
G1 X108.357 Y140.899 E.01425
G1 X108.21 Y141.332 E.01433
G1 X107.931 Y141.867 E.01892
G1 X107.562 Y142.348 E.01899
G1 X107.116 Y142.757 E.01899
G1 X106.605 Y143.083 E.01899
G1 X106.047 Y143.314 E.01892
G1 X105.601 Y143.423 E.0144
G1 X105 Y143.475 E.01892
G1 X104.401 Y143.423 E.01885
G1 X104.098 Y143.356 E.00972
G1 X103.67 Y143.211 E.01418
G1 X103.265 Y143.011 E.01418
G1 X103.003 Y142.844 E.00972
G1 X102.546 Y142.46 E.01871
G1 X102.337 Y142.233 E.00968
G1 X102.125 Y141.95 E.01109
G1 X101.919 Y141.606 E.01258
G1 X101.788 Y141.326 E.0097
G1 X101.608 Y140.754 E.01878
G1 X101.538 Y140.305 E.01426
G1 X101.526 Y140.007 E.00936
G1 X101.526 Y129.994 E.31395
G1 X101.538 Y129.695 E.00938
G1 X101.608 Y129.246 E.01425
G1 X101.789 Y128.67 E.01892
G1 X102.068 Y128.135 E.01892
G1 X102.339 Y127.764 E.0144
G1 X102.766 Y127.338 E.01892
G1 X103.262 Y126.99 E.019
G1 X103.811 Y126.734 E.01899
G1 X104.395 Y126.578 E.01895
G1 X104.898 Y126.527 E.01583
G1 X105.301 Y126.538 E.01266
G1 X105.606 Y126.578 E.00963
G1 X106.043 Y126.685 E.01411
G1 X106.332 Y126.79 E.00965
G1 X106.735 Y126.989 E.01411
G1 X106.946 Y127.124 E.00784
M204 S1000
G1 X107.363 Y126.995 F10800
;WIPE_START
G1 F8640
G1 X107.454 Y127.54 E-.1515
G1 X107.663 Y127.767 E-.07129
G1 X107.875 Y128.05 E-.08165
G1 X108.081 Y128.394 E-.09267
G1 X108.212 Y128.674 E-.07145
G1 X108.392 Y129.243 E-.13776
G1 X108.446 Y129.549 E-.07158
G1 X108.469 Y129.903 E-.0821
;WIPE_END
G1 E-.04 F2100
G1 Z.6 F720
G1 X88.726 Y120.975 F10800
G1 Z.2 F720
G1 E.8 F2100
M204 S800
;TYPE:Perimeter
G1 F1200
G1 X88.493 Y121.629 E.02176
G1 X88.16 Y122.205 E.02086
G1 X87.837 Y122.608 E.01621
G1 X87.346 Y123.058 E.02086
G1 X86.78 Y123.419 E.02106
G1 X86.162 Y123.674 E.02094
G1 X85.611 Y123.804 E.01775
G1 X85.011 Y123.853 E.01888
G1 X84.658 Y123.837 E.01109
G1 X84.16 Y123.761 E.0158
G1 X83.525 Y123.561 E.02086
G1 X82.941 Y123.256 E.02066
G1 X82.65 Y123.053 E.01114
G1 X82.28 Y122.729 E.0154
G1 X82.045 Y122.471 E.01094
G1 X81.747 Y122.065 E.0158
G1 X81.439 Y121.475 E.02086
G1 X81.241 Y120.846 E.02066
G1 X81.18 Y120.497 E.01114
G1 X81.148 Y120.021 E.01493
G1 X81.148 Y109.979 E.31488
G1 X81.179 Y109.51 E.01473
G1 X81.239 Y109.165 E.01099
G1 X81.432 Y108.544 E.02038
G1 X81.734 Y107.955 E.02078
G1 X82.132 Y107.425 E.02077
G1 X82.616 Y106.972 E.02078
G1 X83.17 Y106.609 E.02078
G1 X83.774 Y106.347 E.02066
G1 X84.315 Y106.209 E.01751
G1 X84.909 Y106.148 E.01871
G1 X85.306 Y106.16 E.01246
G1 X85.749 Y106.22 E.01403
G1 X86.379 Y106.401 E.02053
G1 X86.963 Y106.685 E.02038
G1 X87.256 Y106.877 E.01099
G1 X87.63 Y107.185 E.01519
G1 X87.871 Y107.431 E.01079
G1 X88.178 Y107.822 E.01559
G1 X88.496 Y108.381 E.02018
G1 X88.629 Y108.706 E.01099
G1 X88.762 Y109.171 E.01519
G1 X88.821 Y109.51 E.01079
G1 X88.852 Y109.979 E.01473
G1 X88.852 Y120.021 E.31488
G1 X88.82 Y120.503 E.01513
G1 X88.738 Y120.916 E.01322
M204 S1000
G1 X88.356 Y120.902 F10800
M204 S800
;TYPE:External perimeter
G1 F1200
G1 X88.15 Y121.469 E.01892
G1 X87.848 Y121.991 E.01892
G1 X87.561 Y122.35 E.0144
G1 X87.116 Y122.757 E.01892
G1 X86.605 Y123.083 E.01899
G1 X86.046 Y123.314 E.01895
G1 X85.553 Y123.43 E.01591
G1 X85.004 Y123.475 E.01726
G1 X84.695 Y123.462 E.0097
G1 X84.246 Y123.392 E.01425
G1 X83.67 Y123.211 E.01892
G1 X83.137 Y122.933 E.01885
G1 X82.883 Y122.755 E.00972
G1 X82.544 Y122.459 E.01411
G1 X82.337 Y122.232 E.00965
G1 X82.068 Y121.865 E.01425
G1 X81.789 Y121.33 E.01892
G1 X81.608 Y120.757 E.01885
G1 X81.554 Y120.451 E.00972
G1 X81.525 Y120.009 E.0139
G1 X81.525 Y109.991 E.31411
G1 X81.554 Y109.555 E.01371
G1 X81.606 Y109.254 E.00959
G1 X81.782 Y108.687 E.01859
G1 X82.054 Y108.155 E.01873
G1 X82.414 Y107.678 E.01873
G1 X82.85 Y107.27 E.01874
G1 X83.349 Y106.942 E.01873
G1 X83.896 Y106.705 E.01869
G1 X84.381 Y106.581 E.01569
G1 X84.922 Y106.526 E.01705
G1 X85.275 Y106.537 E.01106
G1 X85.672 Y106.59 E.01255
G1 X86.243 Y106.755 E.01865
G1 X86.777 Y107.013 E.01859
G1 X87.032 Y107.181 E.00959
G1 X87.375 Y107.463 E.01391
G1 X87.587 Y107.68 E.00952
G1 X87.865 Y108.032 E.01406
G1 X88.156 Y108.546 E.01852
G1 X88.272 Y108.829 E.00959
G1 X88.394 Y109.256 E.01392
G1 X88.446 Y109.555 E.00952
G1 X88.475 Y109.991 E.01371
G1 X88.475 Y120.009 E.31411
G1 X88.445 Y120.454 E.01397
G1 X88.368 Y120.843 E.01244
M204 S1000
G1 X88.635 Y121.189 F10800
;WIPE_START
G1 F8640
G1 X88.15 Y121.469 E-.15306
G1 X87.848 Y121.991 E-.13935
G1 X87.561 Y122.35 E-.10603
G1 X87.116 Y122.757 E-.13935
G1 X86.605 Y123.083 E-.13988
G1 X86.275 Y123.219 E-.08234
;WIPE_END
G1 E-.04 F2100
G1 Z.6 F720
G1 X68.554 Y128.515 F10800
G1 Z.2 F720
G1 E.8 F2100
M204 S800
;TYPE:Perimeter
G1 F1200
G1 X68.759 Y129.154 E.02102
G1 X68.82 Y129.503 E.01114
G1 X68.852 Y129.979 E.01493
G1 X68.851 Y140.021 E.31487
G1 X68.82 Y140.503 E.01514
G1 X68.72 Y141.004 E.01601
G1 X68.495 Y141.623 E.02066
G1 X68.246 Y142.076 E.01621
G1 X67.841 Y142.604 E.02086
G1 X67.346 Y143.058 E.02106
G1 X66.78 Y143.419 E.02106
G1 X66.165 Y143.673 E.02086
G1 X65.663 Y143.796 E.01621
G1 X65 Y143.854 E.02086
G1 X64.344 Y143.797 E.02066
G1 X63.997 Y143.72 E.01114
G1 X63.529 Y143.561 E.01549
G1 X63.17 Y143.389 E.01248
G1 X62.783 Y143.152 E.01422
G1 X62.275 Y142.725 E.02081
G1 X61.847 Y142.215 E.02086
G1 X61.586 Y141.785 E.0158
G1 X61.436 Y141.463 E.01114
G1 X61.241 Y140.846 E.02026
G1 X61.18 Y140.497 E.01114
G1 X61.148 Y140.021 E.01493
G1 X61.149 Y129.985 E.31468
G1 X61.163 Y129.658 E.01027
G1 X61.239 Y129.16 E.01581
G1 X61.439 Y128.525 E.02086
G1 X61.75 Y127.929 E.02106
G1 X62.155 Y127.401 E.02086
G1 X62.528 Y127.044 E.01621
G1 X63.073 Y126.662 E.02086
G1 X63.682 Y126.378 E.02106
G1 X64.329 Y126.205 E.021
G1 X64.925 Y126.149 E.01879
G1 X65.333 Y126.162 E.01277
G1 X65.669 Y126.206 E.01064
G1 X66.003 Y126.28 E.01074
G1 X66.473 Y126.44 E.01554
G1 X66.867 Y126.631 E.01373
G1 X67.218 Y126.849 E.01297
G1 X67.715 Y127.267 E.02036
G1 X67.954 Y127.527 E.01108
G1 X68.212 Y127.873 E.01353
G1 X68.416 Y128.218 E.01257
G1 X68.529 Y128.461 E.00838
M204 S1000
G1 X68.212 Y128.674 F10800
M204 S800
;TYPE:External perimeter
G1 F1200
G1 X68.392 Y129.243 E.01871
G1 X68.446 Y129.549 E.00972
G1 X68.475 Y129.991 E.0139
G1 X68.474 Y140.009 E.3141
G1 X68.445 Y140.454 E.01398
G1 X68.356 Y140.902 E.01433
G1 X68.151 Y141.467 E.01885
G1 X67.93 Y141.869 E.0144
G1 X67.562 Y142.348 E.01892
G1 X67.116 Y142.757 E.01899
G1 X66.605 Y143.083 E.019
G1 X66.047 Y143.314 E.01892
G1 X65.601 Y143.423 E.0144
G1 X65 Y143.475 E.01892
G1 X64.401 Y143.423 E.01885
G1 X64.098 Y143.356 E.00972
G1 X63.671 Y143.211 E.01414
G1 X63.35 Y143.058 E.01116
G1 X63.004 Y142.845 E.01273
G1 X62.542 Y142.458 E.0189
G1 X62.155 Y141.995 E.01892
G1 X61.919 Y141.607 E.01425
G1 X61.788 Y141.326 E.00972
G1 X61.608 Y140.757 E.01871
G1 X61.554 Y140.451 E.00972
G1 X61.525 Y140.009 E.0139
G1 X61.526 Y129.993 E.31404
G1 X61.538 Y129.695 E.00936
G1 X61.608 Y129.246 E.01425
G1 X61.789 Y128.67 E.01892
G1 X62.069 Y128.133 E.01899
G1 X62.436 Y127.654 E.01892
G1 X62.768 Y127.336 E.0144
G1 X63.262 Y126.99 E.01892
G1 X63.811 Y126.734 E.01899
G1 X64.396 Y126.578 E.01897
G1 X64.937 Y126.526 E.01705
G1 X65.302 Y126.538 E.01144
G1 X65.603 Y126.578 E.00954
G1 X65.902 Y126.644 E.00958
G1 X66.329 Y126.789 E.01416
G1 X66.684 Y126.961 E.01238
G1 X66.996 Y127.155 E.01151
G1 X67.454 Y127.54 E.01874
G1 X67.663 Y127.768 E.0097
G1 X67.897 Y128.083 E.01231
G1 X68.082 Y128.394 E.01136
G1 X68.187 Y128.62 E.0078
M204 S1000
G1 X68.607 Y128.737 F10800
;WIPE_START
G1 F8640
G1 X68.392 Y129.243 E-.1515
G1 X68.446 Y129.549 E-.07158
G1 X68.475 Y129.991 E-.10233
G1 X68.475 Y131.873 E-.43458
;WIPE_END
G1 E-.04 F2100
G1 Z.6 F720
G1 X48.544 Y121.506 F10800
G1 Z.2 F720
G1 E.8 F2100
M204 S800
;TYPE:Perimeter
G1 F1200
G1 X48.25 Y122.071 E.01996
G1 X47.841 Y122.604 E.02106
