; generated by PrusaSlicer 2.4.1+win64 on 2023-12-22 at 10:38:25 UTC


;
;
; 

; external perimeters extrusion width = 0.60mm
; perimeters extrusion width = 0.50mm
; infill extrusion width = 0.50mm
; solid infill extrusion width = 0.50mm
; top infill extrusion width = 0.45mm
; first layer extrusion width = 0.42mm

M73 P0 R109
M73 Q0 S110
M201 X1000 Y1000 Z200 E5000 ; sets maximum accelerations, mm/sec^2
M203 X200 Y200 Z12 E120 ; sets maximum feedrates, mm / sec
M204 P1250 R1250 T1250 ; sets acceleration (P, T) and retract acceleration (R), mm/sec^2
M205 X8.00 Y8.00 Z0.40 E4.50 ; sets the jerk limits, mm/sec
M205 S0 T0 ; sets the minimum extruding and travel feed rate, mm/sec
M107
;TYPE:Custom
M862.3 P "MK3S" ; printer model check
M862.1 P0.4 ; nozzle diameter check
M115 U3.11.0 ; tell printer latest fw version
G90 ; use absolute coordinates
M83 ; extruder relative mode
M104 S215 ; set extruder temp
M140 S60 ; set bed temp
M190 S60 ; wait for bed temp
M109 S215 ; wait for extruder temp
G28 W ; home all without mesh bed level
G80 ; mesh bed leveling

G1 Z0.2 F720
G1 Y-3 F1000 ; go outside print area
G92 E0
G1 X60 E9 F1000 ; intro line
G1 X100 E12.5 F1000 ; intro line

G92 E0
M221 S95

; Don't change E values below. Excessive value can damage the printer.

M907 E538 ; set extruder motor current
G21 ; set units to millimeters
G90 ; use absolute coordinates
M83 ; use relative distances for extrusion
M900 K0.05 ; Filament gcode LA 1.5
M900 K30 ; Filament gcode LA 1.0
M107
;LAYER_CHANGE
;Z:0.2
;HEIGHT:0.2
;BEFORE_LAYER_CHANGE
G92 E0.0
;0.2


G1 E-.8 F2100
G1 Z.4 F720
;AFTER_LAYER_CHANGE
;0.2
G1 X74.805 Y56.804 F10800
G1 Z.2 F720
G1 E.8 F2100
M204 S800
;TYPE:Skirt/Brim
;WIDTH:0.42
G1 F1200
G1 X75.361 Y56.071 E.02887
G1 X76.818 Y54.746 E.06172
G1 X77.799 Y54.095 E.03693
G1 X78.689 Y53.631 E.03146
G1 X79.849 Y53.18 E.03905
G1 X80.717 Y52.943 E.02821
G1 X82.602 Y52.694 E.0596
G1 X167.052 Y52.687 E2.64787
G1 X168.295 Y52.768 E.03905
G1 X169.182 Y52.92 E.02821
G1 X170.899 Y53.452 E.05637
G1 X172.585 Y54.33 E.0596
G1 X174.006 Y55.431 E.05637
G1 X175.254 Y56.818 E.05848
G1 X175.905 Y57.799 E.03693
G1 X176.325 Y58.595 E.02821
G1 X176.975 Y60.381 E.0596
G1 X177.278 Y62.153 E.05637
G1 X177.306 Y147.389 E2.67251
G1 X177.071 Y149.222 E.05796
M73 P0 R108
G1 X176.551 Y150.892 E.05484
G1 X175.755 Y152.45 E.05485
G1 X174.708 Y153.852 E.05485
G1 X173.851 Y154.708 E.038
G1 X173.092 Y155.322 E.03061
G1 X172.074 Y155.979 E.038
G1 X171.202 Y156.418 E.03061
G1 X170.068 Y156.846 E.038
G1 X169.123 Y157.092 E.03061
G1 X167.925 Y157.272 E.038
G1 X167 Y157.314 E.02903
G1 X82.601 Y157.306 E2.64628
G1 X80.818 Y157.08 E.05632
G1 X79.101 Y156.548 E.05637
G1 X77.502 Y155.726 E.05637
G1 X76.071 Y154.639 E.05637
G1 X75.361 Y153.929 E.03146
M73 Q0 S109
G1 X74.582 Y152.958 E.03905
G1 X73.631 Y151.311 E.05961
G1 X73.18 Y150.151 E.03905
G1 X72.92 Y149.182 E.03146
G1 X72.731 Y147.95 E.03905
G1 X72.686 Y147 E.02983
G1 X72.694 Y62.602 E2.64624
G1 X72.92 Y60.818 E.05637
G1 X73.452 Y59.101 E.05637
G1 X74.274 Y57.502 E.05637
G1 X74.768 Y56.852 E.02562
M204 S1000
; printing object Skadis_raster_100x100.stl id:0 copy 0
;WIPE_START
G1 F8640
G1 X75.361 Y56.071 E-.22644
G1 X76.818 Y54.746 E-.45453
G1 X77.103 Y54.557 E-.07903
;WIPE_END
G1 E-.04 F2100
G1 Z.6 F720
G1 X132.152 Y107.408 F10800
G1 Z.2 F720
G1 E.8 F2100
M204 S800
;TYPE:Perimeter
G1 F1200
G1 X132.532 Y107.041 E.01657
G1 X133.027 Y106.69 E.01902
G1 X133.621 Y106.401 E.02072
G1 X134.258 Y106.218 E.02078
G1 X134.907 Y106.148 E.02046
G1 X135.306 Y106.16 E.01251
G1 X135.749 Y106.22 E.01403
G1 X136.379 Y106.401 E.02053
G1 X136.969 Y106.688 E.02058
G1 X137.378 Y106.969 E.01559
G1 X137.635 Y107.19 E.01059
G1 X137.871 Y107.431 E.01059
G1 X138.178 Y107.822 E.01559
G1 X138.496 Y108.381 E.02018
G1 X138.629 Y108.706 E.01099
G1 X138.762 Y109.171 E.01519
G1 X138.821 Y109.51 E.01079
G1 X138.852 Y109.979 E.01473
G1 X138.852 Y120.021 E.31487
G1 X138.821 Y120.49 E.01473
G1 X138.762 Y120.829 E.01079
G1 X138.625 Y121.307 E.01559
G1 X138.351 Y121.903 E.02058
G1 X137.976 Y122.449 E.02078
G1 X137.512 Y122.922 E.02077
G1 X136.975 Y123.31 E.02078
G1 X136.379 Y123.599 E.02078
G1 X135.742 Y123.782 E.02077
G1 X135.083 Y123.853 E.02078
G1 X134.432 Y123.811 E.02046
G1 X134.041 Y123.73 E.01251
G1 X133.614 Y123.595 E.01403
G1 X133.037 Y123.315 E.02013
G1 X132.744 Y123.123 E.01099
G1 X132.36 Y122.807 E.01559
G1 X131.928 Y122.326 E.02026
G1 X131.705 Y121.995 E.01251
G1 X131.498 Y121.606 E.01383
G1 X131.323 Y121.149 E.01534
G1 X131.237 Y120.823 E.01059
G1 X131.179 Y120.49 E.01059
G1 X131.148 Y120.021 E.01473
G1 X131.148 Y109.979 E.31487
G1 X131.179 Y109.51 E.01473
G1 X131.239 Y109.165 E.01099
G1 X131.432 Y108.544 E.02038
G1 X131.734 Y107.955 E.02078
G1 X132.112 Y107.452 E.01972
M204 S1000
G1 X132.413 Y107.679 F10800
M204 S800
;TYPE:External perimeter
G1 F1200
G1 X132.774 Y107.332 E.01569
G1 X133.22 Y107.015 E.01716
G1 X133.757 Y106.755 E.01872
G1 X134.331 Y106.59 E.01873
G1 X134.922 Y106.526 E.01862
G1 X135.275 Y106.537 E.01108
G1 X135.672 Y106.59 E.01255
G1 X136.243 Y106.755 E.01865
G1 X136.779 Y107.014 E.01866
G1 X137.148 Y107.269 E.01406
G1 X137.376 Y107.465 E.00945
G1 X137.587 Y107.68 E.00945
G1 X137.865 Y108.032 E.01406
G1 X138.156 Y108.546 E.01852
G1 X138.272 Y108.829 E.00959
G1 X138.394 Y109.256 E.01392
G1 X138.446 Y109.555 E.00951
G1 X138.475 Y109.991 E.01371
G1 X138.475 Y120.009 E.3141
G1 X138.446 Y120.445 E.01371
G1 X138.394 Y120.744 E.00952
G1 X138.271 Y121.175 E.01406
G1 X138.022 Y121.716 E.01866
G1 X137.684 Y122.208 E.01874
G1 X137.266 Y122.635 E.01873
G1 X136.781 Y122.985 E.01873
G1 X136.243 Y123.245 E.01874
G1 X135.669 Y123.41 E.01873
G1 X135.075 Y123.475 E.01874
G1 X134.482 Y123.436 E.01862
G1 X134.136 Y123.365 E.01108
G1 X133.754 Y123.244 E.01255
G1 X133.223 Y122.987 E.0185
G1 X132.968 Y122.819 E.00959
G1 X132.622 Y122.534 E.01406
G1 X132.226 Y122.094 E.01855
G1 X132.029 Y121.801 E.01108
G1 X131.842 Y121.449 E.01248
G1 X131.682 Y121.033 E.01397
G1 X131.605 Y120.742 E.00945
G1 X131.554 Y120.445 E.00944
G1 X131.525 Y120.009 E.01371
G1 X131.525 Y109.991 E.3141
G1 X131.554 Y109.555 E.01371
G1 X131.606 Y109.254 E.00959
G1 X131.782 Y108.687 E.01859
G1 X132.054 Y108.156 E.01874
G1 X132.377 Y107.727 E.01681
M204 S1000
G1 X132.286 Y107.3 F10800
;WIPE_START
G1 F8640
G1 X132.774 Y107.332 E-.12924
G1 X133.22 Y107.015 E-.1264
G1 X133.757 Y106.755 E-.13782
G1 X134.331 Y106.59 E-.13797
G1 X134.922 Y106.526 E-.13715
G1 X135.275 Y106.537 E-.08158
G1 X135.317 Y106.542 E-.00984
;WIPE_END
G1 E-.04 F2100
G1 Z.6 F720
G1 X117.195 Y126.835 F10800
G1 Z.2 F720
G1 E.8 F2100
M204 S800
;TYPE:Perimeter
G1 F1200
G1 X117.715 Y127.267 E.02119
G1 X117.954 Y127.527 E.01108
G1 X118.212 Y127.873 E.01353
G1 X118.416 Y128.218 E.01257
G1 X118.564 Y128.537 E.01104
G1 X118.759 Y129.154 E.02026
G1 X118.82 Y129.503 E.01114
G1 X118.852 Y129.979 E.01493
G1 X118.851 Y140.021 E.31487
G1 X118.82 Y140.503 E.01514
G1 X118.72 Y141.004 E.01601
G1 X118.495 Y141.623 E.02066
G1 X118.246 Y142.076 E.01621
G1 X117.841 Y142.604 E.02086
G1 X117.346 Y143.058 E.02106
G1 X116.78 Y143.419 E.02106
G1 X116.165 Y143.673 E.02086
G1 X115.663 Y143.796 E.01621
G1 X115 Y143.854 E.02086
G1 X114.344 Y143.797 E.02066
G1 X113.997 Y143.72 E.01114
G1 X113.519 Y143.558 E.0158
G1 X112.935 Y143.253 E.02066
G1 X112.529 Y142.955 E.0158
G1 X112.267 Y142.715 E.01114
G1 X111.851 Y142.22 E.02026
G1 X111.66 Y141.921 E.01114
G1 X111.437 Y141.469 E.0158
G1 X111.239 Y140.84 E.02066
G1 X111.163 Y140.342 E.01581
G1 X111.149 Y140.015 E.01027
G1 X111.148 Y129.979 E.31468
G1 X111.18 Y129.503 E.01493
G1 X111.241 Y129.154 E.01114
G1 X111.439 Y128.525 E.02066
G1 X111.747 Y127.935 E.02086
G1 X112.052 Y127.518 E.01621
G1 X112.523 Y127.048 E.02086
G1 X113.073 Y126.662 E.02106
G1 X113.682 Y126.378 E.02106
G1 X114.329 Y126.205 E.021
G1 X114.925 Y126.149 E.01879
G1 X115.333 Y126.162 E.01277
G1 X115.669 Y126.206 E.01064
G1 X116.003 Y126.28 E.01074
G1 X116.473 Y126.44 E.01554
G1 X116.867 Y126.631 E.01373
G1 X117.144 Y126.803 E.01025
M204 S1000
G1 X116.996 Y127.155 F10800
M204 S800
;TYPE:External perimeter
G1 F1200
G1 X117.454 Y127.54 E.01874
G1 X117.663 Y127.768 E.0097
G1 X117.897 Y128.083 E.01231
G1 X118.082 Y128.394 E.01137
G1 X118.212 Y128.674 E.00968
G1 X118.392 Y129.243 E.01871
G1 X118.446 Y129.549 E.00972
G1 X118.475 Y129.991 E.0139
G1 X118.474 Y140.009 E.3141
G1 X118.445 Y140.454 E.01398
G1 X118.356 Y140.902 E.01433
G1 X118.151 Y141.467 E.01885
G1 X117.93 Y141.869 E.0144
G1 X117.562 Y142.348 E.01892
G1 X117.116 Y142.757 E.019
G1 X116.605 Y143.083 E.01899
G1 X116.047 Y143.314 E.01892
G1 X115.601 Y143.423 E.0144
G1 X115 Y143.475 E.01892
G1 X114.401 Y143.423 E.01885
G1 X114.098 Y143.356 E.00972
G1 X113.668 Y143.21 E.01425
G1 X113.135 Y142.932 E.01885
G1 X112.768 Y142.663 E.01425
G1 X112.54 Y142.454 E.00972
G1 X112.156 Y141.997 E.01871
G1 X111.989 Y141.735 E.00972
G1 X111.788 Y141.328 E.01425
G1 X111.608 Y140.754 E.01885
G1 X111.538 Y140.305 E.01425
G1 X111.526 Y140.007 E.00936
G1 X111.525 Y129.991 E.31404
G1 X111.554 Y129.549 E.0139
G1 X111.608 Y129.243 E.00972
G1 X111.789 Y128.67 E.01885
G1 X112.068 Y128.135 E.01892
G1 X112.339 Y127.764 E.0144
G1 X112.766 Y127.338 E.01892
G1 X113.262 Y126.99 E.01899
G1 X113.811 Y126.734 E.01899
G1 X114.396 Y126.578 E.01897
G1 X114.937 Y126.526 E.01705
G1 X115.302 Y126.538 E.01144
G1 X115.603 Y126.578 E.00954
G1 X115.902 Y126.644 E.00958
G1 X116.329 Y126.789 E.01416
G1 X116.684 Y126.961 E.01238
G1 X116.945 Y127.124 E.00963
M204 S1000
G1 X117.362 Y126.994 F10800
;WIPE_START
G1 F8640
G1 X117.454 Y127.54 E-.15175
G1 X117.663 Y127.768 E-.07142
G1 X117.897 Y128.083 E-.09062
G1 X118.082 Y128.394 E-.0837
G1 X118.212 Y128.674 E-.07132
G1 X118.392 Y129.243 E-.13776
G1 X118.446 Y129.549 E-.07158
G1 X118.469 Y129.902 E-.08185
;WIPE_END
G1 E-.04 F2100
G1 Z.6 F720
G1 X98.554 Y121.485 F10800
G1 Z.2 F720
G1 E.8 F2100
M204 S800
;TYPE:Perimeter
G1 F1200
G1 X98.266 Y122.045 E.01975
G1 X97.872 Y122.57 E.02058
G1 X97.507 Y122.926 E.01598
G1 X96.975 Y123.31 E.02058
G1 X96.379 Y123.599 E.02078
G1 X95.742 Y123.782 E.02078
G1 X95.083 Y123.853 E.02078
G1 X94.434 Y123.811 E.02038
G1 X94.09 Y123.744 E.01099
G1 X93.616 Y123.596 E.01559
G1 X93.031 Y123.312 E.02038
G1 X92.622 Y123.031 E.01559
G1 X92.361 Y122.806 E.01079
G1 X92.029 Y122.453 E.01519
G1 X91.818 Y122.173 E.01099
G1 X91.501 Y121.613 E.02018
G1 X91.323 Y121.149 E.01559
G1 X91.237 Y120.823 E.01059
G1 X91.179 Y120.49 E.01059
G1 X91.148 Y120.021 E.01473
G1 X91.148 Y109.979 E.31487
G1 X91.179 Y109.51 E.01473
G1 X91.239 Y109.165 E.01099
G1 X91.432 Y108.544 E.02038
G1 X91.734 Y107.955 E.02078
G1 X92.132 Y107.425 E.02078
G1 X92.616 Y106.972 E.02077
G1 X93.17 Y106.609 E.02078
G1 X93.774 Y106.347 E.02066
G1 X94.315 Y106.209 E.01751
G1 X94.909 Y106.148 E.01871
G1 X95.306 Y106.16 E.01246
G1 X95.749 Y106.22 E.01403
G1 X96.366 Y106.398 E.02013
G1 X96.685 Y106.535 E.01088
G1 X97.023 Y106.722 E.01211
G1 X97.38 Y106.97 E.01363
G1 X97.644 Y107.198 E.01094
G1 X98.07 Y107.672 E.01998
G1 X98.269 Y107.961 E.01099
G1 X98.499 Y108.387 E.01519
G1 X98.629 Y108.706 E.01079
G1 X98.762 Y109.171 E.01519
G1 X98.821 Y109.51 E.01079
G1 X98.852 Y109.979 E.01472
G1 X98.852 Y120.021 E.31487
G1 X98.821 Y120.49 E.01473
G1 X98.761 Y120.835 E.01099
G1 X98.577 Y121.429 E.01952
M204 S1000
G1 X98.218 Y121.313 F10800
M204 S800
;TYPE:External perimeter
G1 F1200
G1 X97.946 Y121.845 E.01873
G1 X97.587 Y122.32 E.01866
G1 X97.264 Y122.637 E.0142
G1 X96.781 Y122.985 E.01866
G1 X96.243 Y123.245 E.01873
G1 X95.669 Y123.41 E.01873
G1 X95.075 Y123.475 E.01874
G1 X94.483 Y123.436 E.01859
G1 X94.183 Y123.378 E.00959
G1 X93.755 Y123.244 E.01406
G1 X93.221 Y122.986 E.01859
G1 X92.852 Y122.731 E.01406
G1 X92.622 Y122.534 E.00952
G1 X92.318 Y122.21 E.01392
G1 X92.134 Y121.966 E.00959
G1 X91.843 Y121.452 E.01852
G1 X91.682 Y121.033 E.01406
G1 X91.605 Y120.742 E.00945
G1 X91.554 Y120.445 E.00945
G1 X91.525 Y120.009 E.01371
G1 X91.525 Y109.991 E.3141
G1 X91.554 Y109.555 E.01371
G1 X91.606 Y109.254 E.00959
G1 X91.782 Y108.687 E.01859
G1 X92.054 Y108.155 E.01873
G1 X92.414 Y107.678 E.01874
G1 X92.85 Y107.27 E.01873
G1 X93.349 Y106.942 E.01874
G1 X93.896 Y106.705 E.01869
G1 X94.381 Y106.581 E.01569
G1 X94.922 Y106.526 E.01705
G1 X95.275 Y106.537 E.01106
G1 X95.672 Y106.59 E.01255
G1 X96.239 Y106.753 E.0185
G1 X96.518 Y106.874 E.00955
G1 X96.824 Y107.043 E.01094
G1 X97.148 Y107.269 E.01241
G1 X97.38 Y107.468 E.00957
G1 X97.773 Y107.906 E.01845
G1 X97.946 Y108.158 E.00959
G1 X98.157 Y108.548 E.01391
G1 X98.272 Y108.829 E.00952
G1 X98.394 Y109.256 E.01392
G1 X98.446 Y109.555 E.00952
G1 X98.475 Y109.991 E.01371
G1 X98.475 Y120.009 E.3141
G1 X98.446 Y120.445 E.01371
G1 X98.394 Y120.746 E.00959
G1 X98.236 Y121.255 E.01671
M204 S1000
G1 X98.459 Y121.632 F10800
;WIPE_START
G1 F8640
G1 X97.946 Y121.845 E-.15164
G1 X97.587 Y122.32 E-.13745
G1 X97.264 Y122.637 E-.10457
G1 X96.781 Y122.985 E-.13744
G1 X96.243 Y123.245 E-.13797
G1 X95.865 Y123.354 E-.09093
;WIPE_END
G1 E-.04 F2100
G1 Z.6 F720
G1 X113.496 Y103.545 F10800
G1 Z.2 F720
G1 E.8 F2100
M204 S800
;TYPE:Perimeter
G1 F1200
G1 X112.935 Y103.253 E.01983
G1 X112.529 Y102.955 E.0158
G1 X112.267 Y102.715 E.01114
G1 X111.851 Y102.22 E.02026
G1 X111.66 Y101.921 E.01114
G1 X111.437 Y101.469 E.0158
G1 X111.241 Y100.846 E.02046
G1 X111.18 Y100.497 E.01114
G1 X111.148 Y100.021 E.01493
G1 X111.148 Y89.979 E.31488
G1 X111.179 Y89.51 E.01472
G1 X111.239 Y89.165 E.01099
G1 X111.432 Y88.544 E.02038
G1 X111.731 Y87.96 E.02058
G1 X112.029 Y87.547 E.01598
G1 X112.488 Y87.078 E.02058
G1 X113.025 Y86.69 E.02078
G1 X113.621 Y86.401 E.02077
G1 X114.258 Y86.218 E.02078
G1 X114.917 Y86.147 E.02078
G1 X115.572 Y86.189 E.02058
G1 X116.058 Y86.295 E.01559
G1 X116.384 Y86.405 E.01079
G1 X116.824 Y86.607 E.01519
G1 X117.125 Y86.786 E.01099
G1 X117.636 Y87.188 E.02038
G1 X118.074 Y87.677 E.02058
G1 X118.347 Y88.092 E.01559
G1 X118.501 Y88.393 E.01059
G1 X118.629 Y88.706 E.01059
G1 X118.764 Y89.177 E.01539
G1 X118.838 Y89.663 E.01539
G1 X118.851 Y89.985 E.01013
G1 X118.851 Y100.021 E.31465
G1 X118.82 Y100.503 E.01514
G1 X118.72 Y101.004 E.01601
G1 X118.495 Y101.623 E.02066
G1 X118.246 Y102.076 E.01621
G1 X117.841 Y102.604 E.02086
G1 X117.346 Y103.058 E.02106
G1 X116.78 Y103.419 E.02106
G1 X116.159 Y103.676 E.02106
G1 X115.509 Y103.82 E.02086
G1 X115.006 Y103.853 E.0158
G1 X114.658 Y103.837 E.01094
G1 X114.16 Y103.761 E.0158
G1 X113.551 Y103.569 E.02001
M204 S1000
G1 X113.67 Y103.211 F10800
M204 S800
;TYPE:External perimeter
G1 F1200
G1 X113.135 Y102.932 E.01892
G1 X112.768 Y102.663 E.01425
G1 X112.54 Y102.454 E.00972
G1 X112.156 Y101.997 E.01871
G1 X111.989 Y101.735 E.00972
G1 X111.788 Y101.328 E.01425
G1 X111.608 Y100.757 E.01878
G1 X111.554 Y100.451 E.00972
G1 X111.525 Y100.009 E.0139
G1 X111.525 Y89.991 E.31411
G1 X111.554 Y89.555 E.01371
G1 X111.606 Y89.254 E.00959
G1 X111.782 Y88.687 E.01859
G1 X112.053 Y88.157 E.01866
G1 X112.318 Y87.79 E.0142
G1 X112.734 Y87.365 E.01866
G1 X113.219 Y87.015 E.01874
G1 X113.757 Y86.755 E.01873
G1 X114.331 Y86.59 E.01874
G1 X114.925 Y86.525 E.01874
G1 X115.519 Y86.564 E.01866
G1 X115.957 Y86.66 E.01406
G1 X116.245 Y86.756 E.00952
G1 X116.648 Y86.941 E.01392
G1 X116.911 Y87.098 E.00959
G1 X117.377 Y87.464 E.01859
G1 X117.775 Y87.907 E.01866
G1 X118.021 Y88.282 E.01406
G1 X118.158 Y88.55 E.00945
G1 X118.272 Y88.829 E.00945
G1 X118.395 Y89.258 E.01399
G1 X118.462 Y89.699 E.01399
G1 X118.474 Y89.993 E.00924
G1 X118.474 Y100.009 E.31402
G1 X118.445 Y100.454 E.01398
G1 X118.356 Y100.902 E.01433
G1 X118.151 Y101.467 E.01885
G1 X117.93 Y101.869 E.0144
G1 X117.562 Y102.348 E.01892
G1 X117.116 Y102.757 E.019
G1 X116.605 Y103.083 E.01899
G1 X116.045 Y103.315 E.01899
G1 X115.456 Y103.445 E.01892
G1 X115.002 Y103.475 E.01425
G1 X114.695 Y103.462 E.00965
G1 X114.246 Y103.392 E.01425
G1 X113.727 Y103.229 E.01704
M204 S1000
G1 X113.351 Y103.452 F10800
;WIPE_START
G1 F8640
G1 X113.135 Y102.932 E-.15301
G1 X112.768 Y102.663 E-.10496
G1 X112.54 Y102.454 E-.07158
G1 X112.156 Y101.997 E-.13775
G1 X111.989 Y101.735 E-.07159
G1 X111.788 Y101.328 E-.10496
