; generated by PrusaSlicer 2.8.0+win64 on 2024-10-28 at 09:01:11 UTC


;
;
; 

; external perimeters extrusion width = 0.60mm
; perimeters extrusion width = 0.50mm
; infill extrusion width = 0.50mm
; solid infill extrusion width = 0.50mm
; top infill extrusion width = 0.45mm
; first layer extrusion width = 0.42mm

M73 P0 R29
M73 Q0 S29
M201 X1000 Y1000 Z200 E5000 ; sets maximum accelerations, mm/sec^2
M203 X200 Y200 Z12 E120 ; sets maximum feedrates, mm / sec
M204 S1250 T1250 ; sets acceleration (S) and retract acceleration (R), mm/sec^2
M205 X8.00 Y8.00 Z0.40 E4.50 ; sets the jerk limits, mm/sec
M205 S0 T0 ; sets the minimum extruding and travel feed rate, mm/sec

; printing object Ikea_Skadis_wrench_hook%20v6_1.stl id:0 copy 0
; stop printing object Ikea_Skadis_wrench_hook%20v6_1.stl id:0 copy 0

;TYPE:Custom
M862.3 P "MK3S" ; printer model check
M862.1 P0.4 ; nozzle diameter check
M115 U3.13.3 ; tell printer latest fw version
G90 ; use absolute coordinates
M83 ; extruder relative mode
M104 S215 ; set extruder temp
M140 S60 ; set bed temp
M190 S60 ; wait for bed temp
M109 S215 ; wait for extruder temp
G28 W ; home all without mesh bed level
G80 X101.404 Y55.1909 W47.1926 H99.6216 ; mesh bed levelling

G1 Z0.2 F720
G1 Y-3 F1000 ; go outside print area
G92 E0
G1 X60 E9 F1000 ; intro line
G1 X100 E12.5 F1000 ; intro line

G92 E0
M221 S95

; Don't change E values below. Excessive value can damage the printer.

M907 E538 ; set extruder motor current
G21 ; set units to millimeters
G90 ; use absolute coordinates
M83 ; use relative distances for extrusion

M900 K0.05 ; Filament gcode LA 1.5
M900 K30 ; Filament gcode LA 1.0




M107
;LAYER_CHANGE
;Z:0.2
;HEIGHT:0.2
G1 E-.8 F2100
G1 Z.6 F720
G1 X102.338 Y60.113 F10800
G1 Z.2 F720
G1 E.8 F2100
M204 S800
;TYPE:Skirt/Brim
;WIDTH:0.42
G1 F1200
G1 X102.661 Y59.702 E.01639
G1 X103.727 Y58.852 E.04275
G1 X104.629 Y58.479 E.0306
G1 X113.999 Y55.449 E.30877
G1 X114.809 Y55.379 E.02549
G1 X119.835 Y55.663 E.15784
G1 X128.77 Y56.168 E.2806
G1 X129.395 Y56.297 E.02001
G1 X145.36 Y62.107 E.53269
G1 X146.079 Y62.449 E.02496
G1 X146.918 Y63.064 E.03262
G1 X147.26 Y63.415 E.01537
G1 X147.854 Y64.269 E.03262
G1 X148.243 Y65.233 E.03259
G1 X148.359 Y65.772 E.01729
G1 X148.366 Y67.175 E.04399
G1 X138.588 Y120.621 E1.70358
G1 X134.121 Y141.454 E.66805
G1 X131.248 Y150.353 E.2932
G1 X131.011 Y150.915 E.01912
G1 X130.76 Y151.363 E.0161
G1 X130.25 Y151.96 E.02462
G1 X129.816 Y152.292 E.01713
G1 X129.105 Y152.626 E.02463
G1 X118.386 Y154.585 E.34165
G1 X105.743 Y154.624 E.39641
G1 X105.061 Y154.561 E.02147
G1 X104.169 Y154.307 E.02908
G1 X103.727 Y154.094 E.01538
G1 X102.661 Y153.244 E.04275
G1 X102.14 Y152.517 E.02804
G1 X101.909 Y152.047 E.01642
G1 X101.655 Y151.155 E.02908
G1 X101.592 Y150.473 E.02147
G1 X101.592 Y62.473 E2.75918
G1 X101.655 Y61.791 E.02147
M73 P1 R28
M73 Q1 S29
G1 X101.909 Y60.899 E.02908
G1 X102.309 Y60.166 E.02618
M204 S1000
;WIPE_START
G1 F8640
G1 X102.338 Y60.113 E-.01395
G1 X102.661 Y59.702 E-.1207
G1 X103.727 Y58.852 E-.31481
G1 X104.629 Y58.479 E-.22538
G1 X105.145 Y58.312 E-.12516
;WIPE_END
G1 Z.6 F720
; printing object Ikea_Skadis_wrench_hook%20v6_1.stl id:0 copy 0
G1 X121.413 Y116.826 F10800
G1 Z.2 F720
G1 E.8 F2100
M204 S800
;TYPE:Perimeter
;WIDTH:0.419999
G1 F1200
G1 X121.254 Y116.97 E.00673
G1 X121.162 Y117.224 E.00847
G1 X120.36 Y124.846 E.2403
G1 X120.383 Y125.076 E.00725
M73 Q1 S28
G1 X120.535 Y125.317 E.00893
G1 X120.729 Y125.437 E.00715
G1 X131.98 Y129.535 E.37544
G1 X132.229 Y129.654 E.00865
G1 X132.449 Y129.811 E.00847
G1 X132.675 Y130.074 E.01087
G1 X132.803 Y130.384 E.01052
G1 X132.844 Y130.777 E.01239
G1 X132.697 Y131.314 E.01746
G1 X120.839 Y127.001 E.39563
G1 X120.567 Y126.972 E.00858
G1 X120.352 Y127.049 E.00716
G1 X120.184 Y127.205 E.00719
G1 X120.083 Y127.473 E.00898
G1 X119.335 Y134.583 E.22416
G1 X119.338 Y134.722 E.00436
G1 X119.446 Y134.984 E.00889
G1 X119.704 Y135.174 E.01005
G1 X130.015 Y138.93 E.34408
G1 X130.264 Y139.048 E.00864
G1 X130.485 Y139.206 E.00852
G1 X130.71 Y139.468 E.01083
G1 X130.839 Y139.779 E.01056
G1 X130.879 Y140.204 E.01338
G1 X130.742 Y140.712 E.0165
G1 X119.814 Y136.737 E.3646
G1 X119.542 Y136.709 E.00857
G1 X119.361 Y136.766 E.00595
G1 X119.152 Y136.953 E.00879
G1 X119.058 Y137.21 E.00858
G1 X118.364 Y143.807 E.20799
G1 X118.369 Y143.964 E.00493
G1 X118.512 Y144.251 E.01005
G1 X118.733 Y144.398 E.00832
G1 X127.296 Y147.517 E.28574
G1 X127.695 Y147.751 E.0145
G1 X127.945 Y148.041 E.01201
G1 X128.104 Y148.435 E.01332
G1 X128.107 Y148.869 E.01361
G1 X127.965 Y149.269 E.01331
G1 X118.844 Y145.952 E.30431
G1 X118.572 Y145.923 E.00858
G1 X118.326 Y146.021 E.0083
G1 X118.216 Y146.122 E.00468
G1 X118.089 Y146.424 E.01027
G1 X117.585 Y151.186 E.15014
G1 X106.684 Y151.186 E.34179
G1 X105.585 Y151.164 E.03447
G1 X105.301 Y151.027 E.00989
G1 X105.105 Y150.78 E.00989
G1 X105.03 Y150.429 E.01125
G1 X105.03 Y142.517 E.24807
G1 X105.105 Y142.166 E.01125
G1 X105.301 Y141.919 E.00989
G1 X105.563 Y141.79 E.00916
G1 X106.119 Y141.773 E.01744
G1 X106.701 Y141.783 E.01825
G1 X106.985 Y141.919 E.00987
G1 X107.181 Y142.166 E.00989
G1 X107.245 Y142.466 E.00962
G1 X107.319 Y143.106 E.0202
G1 X107.515 Y143.655 E.01828
G1 X107.812 Y144.11 E.01704
G1 X107.757 Y144.24 E.00443
G1 X107.389 Y144.601 E.01616
G1 X107.259 Y144.961 E.012
G1 X107.256 Y146.884 E.06029
G1 X107.299 Y147.298 E.01305
G1 X107.447 Y147.764 E.01533
G1 X107.696 Y148.186 E.01536
G1 X108.031 Y148.542 E.01533
G1 X108.438 Y148.814 E.01535
G1 X108.895 Y148.989 E.01534
G1 X109.431 Y149.06 E.01695
G1 X112.856 Y149.06 E.10739
G1 X113.267 Y149.017 E.01296
G1 X113.734 Y148.869 E.01536
G1 X114.156 Y148.621 E.01535
G1 X114.512 Y148.285 E.01535
G1 X114.784 Y147.878 E.01535
G1 X114.969 Y147.39 E.01636
G1 X115.03 Y146.886 E.01592
G1 X115.03 Y113.632 E1.04265
G1 X114.987 Y112.949 E.02146
G1 X114.839 Y112.482 E.01536
G1 X114.591 Y112.061 E.01532
G1 X114.255 Y111.705 E.01535
G1 X113.848 Y111.432 E.01537
G1 X113.391 Y111.257 E.01534
G1 X112.856 Y111.186 E.01692
G1 X106.684 Y111.186 E.19352
G1 X105.585 Y111.164 E.03447
G1 X105.301 Y111.027 E.00989
G1 X105.105 Y110.78 E.00989
G1 X105.03 Y110.429 E.01125
G1 X105.03 Y102.517 E.24807
G1 X105.105 Y102.166 E.01125
G1 X105.301 Y101.919 E.00989
G1 X105.563 Y101.79 E.00916
G1 X106.119 Y101.773 E.01744
G1 X106.701 Y101.783 E.01825
G1 X106.985 Y101.919 E.00987
G1 X107.181 Y102.166 E.00989
G1 X107.245 Y102.466 E.00962
G1 X107.319 Y103.106 E.0202
G1 X107.515 Y103.655 E.01828
G1 X107.815 Y104.115 E.01722
G1 X107.757 Y104.24 E.00432
G1 X107.389 Y104.601 E.01616
G1 X107.259 Y104.961 E.012
G1 X107.256 Y106.884 E.06029
G1 X107.299 Y107.298 E.01305
G1 X107.447 Y107.764 E.01533
G1 X107.696 Y108.186 E.01536
G1 X108.031 Y108.542 E.01533
G1 X108.438 Y108.814 E.01535
G1 X108.895 Y108.989 E.01534
G1 X109.431 Y109.06 E.01695
G1 X112.856 Y109.06 E.10739
G1 X113.267 Y109.017 E.01296
G1 X113.734 Y108.869 E.01536
G1 X114.156 Y108.621 E.01535
G1 X114.512 Y108.285 E.01535
G1 X114.784 Y107.878 E.01535
G1 X114.969 Y107.39 E.01636
G1 X115.03 Y106.886 E.01592
G1 X115.03 Y73.553 E1.04513
G1 X114.987 Y72.949 E.01899
G1 X114.839 Y72.482 E.01536
G1 X114.591 Y72.061 E.01532
G1 X114.255 Y71.705 E.01535
G1 X113.848 Y71.432 E.01537
G1 X113.391 Y71.257 E.01534
G1 X112.856 Y71.186 E.01692
G1 X106.404 Y71.186 E.2023
G1 X105.585 Y71.164 E.02569
G1 X105.301 Y71.027 E.00989
G1 X105.105 Y70.78 E.00989
G1 X105.03 Y70.429 E.01125
G1 X105.03 Y62.517 E.24807
G1 X105.105 Y62.166 E.01125
G1 X105.301 Y61.919 E.00989
G1 X105.563 Y61.79 E.00916
G1 X106.508 Y61.761 E.02964
G1 X106.85 Y61.835 E.01097
G1 X107.097 Y62.032 E.00991
G1 X107.226 Y62.294 E.00916
G1 X107.259 Y63.277 E.03084
G1 X107.327 Y63.528 E.00815
G1 X107.615 Y63.858 E.01373
G1 X107.813 Y64.155 E.01119
G1 X107.731 Y64.272 E.00448
G1 X107.36 Y64.64 E.01638
G1 X107.259 Y64.962 E.01058
G1 X107.268 Y68.589 E.11372
G1 X107.41 Y68.877 E.01007
G1 X107.589 Y69.006 E.00692
G1 X107.824 Y69.057 E.00754
G1 X112.855 Y69.06 E.15774
G1 X113.267 Y69.017 E.01299
M73 Q2 S28
G1 X113.734 Y68.869 E.01536
G1 X114.156 Y68.621 E.01535
G1 X114.512 Y68.285 E.01535
G1 X114.784 Y67.878 E.01535
G1 X114.969 Y67.39 E.01636
G1 X115.03 Y66.886 E.01592
M73 P2 R28
G1 X115.03 Y58.835 E.25243
G1 X128.392 Y59.59 E.41962
G1 X143.719 Y65.168 E.5114
G1 X144.425 Y65.463 E.02399
G1 X144.717 Y65.741 E.01264
G1 X144.915 Y66.093 E.01266
G1 X144.97 Y66.493 E.01266
G1 X144.894 Y66.934 E.01403
G1 X144.156 Y68.961 E.06764
G1 X127.582 Y62.944 E.55285
G1 X127.42 Y62.911 E.00518
G1 X127.162 Y62.957 E.00822
G1 X127.009 Y63.056 E.00571
G1 X126.907 Y63.179 E.00501
G1 X126.826 Y63.416 E.00785
G1 X125.79 Y73.258 E.31029
G1 X125.709 Y74.289 E.03243
G1 X125.831 Y74.537 E.00867
G1 X126.069 Y74.704 E.00912
G1 X141.287 Y80.246 E.5078
G1 X141.633 Y80.409 E.01199
G1 X141.925 Y80.687 E.01264
G1 X142.123 Y81.039 E.01266
G1 X142.178 Y81.439 E.01266
G1 X142.102 Y81.881 E.01406
G1 X141.706 Y82.968 E.03627
G1 X126.071 Y77.293 E.52152
G1 X125.8 Y77.264 E.00855
G1 X125.532 Y77.377 E.00912
G1 X125.4 Y77.522 E.00615
G1 X125.316 Y77.765 E.00806
G1 X124.244 Y87.95 E.32111
G1 X124.249 Y88.107 E.00493
G1 X124.357 Y88.352 E.0084
G1 X124.613 Y88.54 E.00996
G1 X138.891 Y93.74 E.47644
G1 X139.237 Y93.903 E.01199
G1 X139.529 Y94.182 E.01266
G1 X139.726 Y94.534 E.01265
G1 X139.782 Y94.933 E.01263
G1 X139.706 Y95.375 E.01406
G1 X139.31 Y96.463 E.0363
G1 X124.615 Y91.129 E.49016
G1 X124.343 Y91.1 E.00858
G1 X124.163 Y91.157 E.00592
G1 X123.954 Y91.343 E.00877
G1 X123.859 Y91.601 E.00862
G1 X122.841 Y101.273 E.30493
G1 X122.865 Y101.504 E.00728
G1 X122.978 Y101.705 E.00723
G1 X123.21 Y101.864 E.00882
G1 X136.549 Y106.722 E.44511
G1 X136.894 Y106.885 E.01196
G1 X137.187 Y107.163 E.01266
G1 X137.384 Y107.515 E.01265
G1 X137.439 Y107.915 E.01266
G1 X137.364 Y108.357 E.01406
G1 X136.968 Y109.444 E.03627
G1 X123.212 Y104.453 E.45882
G1 X122.941 Y104.424 E.00855
G1 X122.68 Y104.532 E.00886
G1 X122.546 Y104.674 E.00612
G1 X122.457 Y104.925 E.00835
G1 X121.615 Y112.924 E.25219
G1 X121.55 Y113.719 E.02501
G1 X121.656 Y113.97 E.00854
G1 X121.916 Y114.163 E.01015
G1 X134.314 Y118.679 E.41372
G1 X134.66 Y118.842 E.01199
G1 X134.953 Y119.12 E.01266
G1 X135.15 Y119.472 E.01265
G1 X135.205 Y119.872 E.01266
G1 X135.13 Y120.314 E.01406
G1 X134.734 Y121.401 E.03627
G1 X121.917 Y116.752 E.42749
G1 X121.646 Y116.723 E.00855
G1 X121.462 Y116.782 E.00606
G1 X121.458 Y116.786 E.00018
M204 S1000
G1 X121.458 Y116.786 F10800
G1 X121.644 Y117.122
M204 S800
;TYPE:External perimeter
G1 F1200
G1 X121.6 Y117.141 E.0015
G1 X121.537 Y117.264 E.00433
G1 X120.735 Y124.886 E.2403
G1 X120.743 Y124.962 E.0024
G1 X120.858 Y125.083 E.00523
G1 X132.109 Y129.181 E.37544
G1 X132.397 Y129.316 E.00997
G1 X132.688 Y129.52 E.01114
G1 X132.928 Y129.785 E.01121
G1 X133.103 Y130.099 E.01127
G1 X133.203 Y130.448 E.01138
G1 X133.22 Y130.896 E.01406
G1 X132.994 Y131.633 E.02417
G1 X132.913 Y131.751 E.00449
G1 X132.804 Y131.754 E.00342
G1 X120.71 Y127.355 E.4035
G1 X120.619 Y127.346 E.00287
G1 X120.51 Y127.401 E.00383
G1 X120.458 Y127.513 E.00387
G1 X119.71 Y134.623 E.22416
G1 X119.723 Y134.713 E.00285
G1 X119.833 Y134.82 E.00481
G1 X130.144 Y138.575 E.34406
G1 X130.432 Y138.711 E.00999
G1 X130.724 Y138.914 E.01115
G1 X130.963 Y139.179 E.01119
G1 X131.138 Y139.494 E.0113
G1 X131.238 Y139.842 E.01135
G1 X131.256 Y140.209 E.01152
G1 X131.175 Y140.627 E.01335
G1 X130.991 Y141.115 E.01635
G1 X130.85 Y141.153 E.00458
G1 X119.685 Y137.092 E.37251
G1 X119.595 Y137.082 E.00284
G1 X119.497 Y137.126 E.00337
G1 X119.433 Y137.249 E.00435
G1 X118.739 Y143.847 E.20802
G1 X118.76 Y143.954 E.00342
G1 X118.862 Y144.044 E.00427
G1 X127.391 Y147.151 E.28461
G1 X127.655 Y147.272 E.00911
G1 X127.925 Y147.453 E.01019
G1 X128.223 Y147.766 E.01355
G1 X128.41 Y148.148 E.01334
G1 X128.499 Y148.6 E.01444
G1 X128.471 Y149.003 E.01267
G1 X128.245 Y149.592 E.01978
G1 X128.16 Y149.702 E.00436
G1 X128.055 Y149.703 E.00329
G1 X118.715 Y146.306 E.31162
G1 X118.543 Y146.329 E.00544
G1 X118.464 Y146.464 E.0049
G1 X117.93 Y151.51 E.1591
G1 X117.9 Y151.563 E.00191
M73 Q3 S28
G1 X106.684 Y151.563 E.35167
G1 X105.501 Y151.534 E.0371
M73 P3 R28
G1 X105.168 Y151.388 E.0114
G1 X104.893 Y151.151 E.01138
G1 X104.723 Y150.83 E.01139
G1 X104.653 Y150.45 E.01212
G1 X104.653 Y142.496 E.24939
G1 X104.722 Y142.118 E.01205
G1 X104.893 Y141.795 E.01146
G1 X105.16 Y141.563 E.01109
G1 X105.494 Y141.415 E.01145
G1 X106.108 Y141.396 E.01926
G1 X106.785 Y141.413 E.02123
G1 X107.117 Y141.557 E.01135
G1 X107.393 Y141.795 E.01143
G1 X107.561 Y142.109 E.01117
G1 X107.621 Y142.433 E.01033
G1 X107.667 Y142.951 E.01631
G1 X107.834 Y143.432 E.01596
G1 X108.068 Y143.816 E.0141
G1 X108.234 Y144.172 E.01232
G1 X108.072 Y144.447 E.01001
G1 X107.695 Y144.825 E.01674
G1 X107.636 Y144.962 E.00468
G1 X107.633 Y146.884 E.06026
G1 X107.674 Y147.255 E.0117
G1 X107.803 Y147.639 E.0127
G1 X108.015 Y147.985 E.01272
G1 X108.298 Y148.275 E.0127
G1 X108.639 Y148.495 E.01272
G1 X109.02 Y148.633 E.01271
G1 X109.431 Y148.683 E.01298
G1 X112.856 Y148.683 E.10739
G1 X113.225 Y148.642 E.01164
G1 X113.609 Y148.513 E.0127
G1 X113.955 Y148.301 E.01272
G1 X114.245 Y148.018 E.0127
G1 X114.465 Y147.677 E.01272
G1 X114.603 Y147.296 E.01271
G1 X114.653 Y146.886 E.01295
G1 X114.653 Y113.632 E1.04265
G1 X114.612 Y112.991 E.02014
G1 X114.483 Y112.607 E.0127
G1 X114.271 Y112.261 E.01272
G1 X113.988 Y111.971 E.0127
G1 X113.647 Y111.752 E.01271
G1 X113.266 Y111.613 E.01272
G1 X112.856 Y111.563 E.01295
G1 X106.684 Y111.563 E.19352
G1 X105.501 Y111.534 E.0371
G1 X105.168 Y111.388 E.0114
G1 X104.893 Y111.151 E.01138
G1 X104.723 Y110.83 E.01139
G1 X104.653 Y110.45 E.01212
G1 X104.653 Y102.496 E.24939
G1 X104.722 Y102.118 E.01205
G1 X104.893 Y101.795 E.01146
G1 X105.16 Y101.563 E.01109
G1 X105.494 Y101.415 E.01145
G1 X106.108 Y101.396 E.01926
G1 X106.785 Y101.413 E.02123
G1 X107.117 Y101.557 E.01135
G1 X107.393 Y101.795 E.01143
G1 X107.561 Y102.109 E.01117
G1 X107.621 Y102.433 E.01033
G1 X107.675 Y102.981 E.01727
G1 X107.852 Y103.484 E.01672
G1 X108.128 Y103.904 E.01576
G1 X108.229 Y104.178 E.00916
G1 X108.072 Y104.447 E.00977
G1 X107.695 Y104.825 E.01674
G1 X107.636 Y104.962 E.00468
G1 X107.633 Y106.884 E.06026
G1 X107.674 Y107.255 E.0117
G1 X107.803 Y107.639 E.0127
G1 X108.015 Y107.985 E.01272
G1 X108.298 Y108.275 E.0127
G1 X108.639 Y108.495 E.01272
G1 X109.02 Y108.633 E.01271
G1 X109.431 Y108.683 E.01298
G1 X112.856 Y108.683 E.10739
G1 X113.225 Y108.642 E.01164
G1 X113.609 Y108.513 E.0127
G1 X113.955 Y108.301 E.01272
G1 X114.245 Y108.018 E.0127
G1 X114.465 Y107.677 E.01272
G1 X114.603 Y107.296 E.01271
G1 X114.653 Y106.886 E.01295
G1 X114.653 Y73.553 E1.04513
G1 X114.612 Y72.991 E.01767
G1 X114.483 Y72.607 E.0127
G1 X114.271 Y72.261 E.01272
G1 X113.988 Y71.971 E.0127
G1 X113.647 Y71.752 E.01271
G1 X113.266 Y71.613 E.01272
G1 X112.856 Y71.563 E.01295
G1 X106.404 Y71.563 E.2023
G1 X105.501 Y71.534 E.02833
G1 X105.168 Y71.388 E.0114
G1 X104.893 Y71.151 E.01138
G1 X104.723 Y70.83 E.01139
G1 X104.653 Y70.45 E.01212
G1 X104.653 Y62.496 E.24939
G1 X104.722 Y62.118 E.01205
G1 X104.893 Y61.795 E.01146
G1 X105.16 Y61.563 E.01109
G1 X105.494 Y61.415 E.01145
G1 X106.523 Y61.383 E.03228
G1 X106.898 Y61.452 E.01196
G1 X107.221 Y61.623 E.01146
G1 X107.454 Y61.891 E.01113
G1 X107.601 Y62.224 E.01141
G1 X107.658 Y63.348 E.03529
G1 X107.888 Y63.597 E.01063
G1 X108.18 Y64.03 E.01637
G1 X108.219 Y64.224 E.0062
G1 X108.07 Y64.45 E.00849
G1 X107.695 Y64.825 E.01663
G1 X107.636 Y64.962 E.00468
G1 X107.636 Y68.492 E.11068
G1 X107.687 Y68.62 E.00432
G1 X107.825 Y68.68 E.00472
G1 X112.855 Y68.683 E.15771
G1 X113.225 Y68.642 E.01167
G1 X113.609 Y68.513 E.0127
G1 X113.955 Y68.301 E.01272
G1 X114.245 Y68.018 E.0127
G1 X114.465 Y67.677 E.01272
G1 X114.603 Y67.296 E.01271
G1 X114.653 Y66.886 E.01295
G1 X114.653 Y58.509 E.26265
G1 X114.705 Y58.439 E.00273
G1 X128.469 Y59.216 E.43225
G1 X144.378 Y65.018 E.53095
G1 X144.768 Y65.256 E.01433
G1 X145.015 Y65.509 E.01109
G1 X145.199 Y65.811 E.01109
G1 X145.312 Y66.146 E.01109
G1 X145.347 Y66.497 E.01106
G1 X145.345 Y66.675 E.00558
