; generated by PrusaSlicer 2.6.0+win64 on 2024-01-04 at 10:42:06 UTC


;
;
; 

; external perimeters extrusion width = 0.60mm
; perimeters extrusion width = 0.50mm
; infill extrusion width = 0.50mm
; solid infill extrusion width = 0.50mm
; top infill extrusion width = 0.45mm
; first layer extrusion width = 0.42mm

M73 P0 R4
M73 Q0 S4
M201 X1000 Y1000 Z200 E5000 ; sets maximum accelerations, mm/sec^2
M203 X200 Y200 Z12 E120 ; sets maximum feedrates, mm / sec
M204 S1250 T1250 ; sets acceleration (S) and retract acceleration (R), mm/sec^2
M205 X8.00 Y8.00 Z0.40 E4.50 ; sets the jerk limits, mm/sec
M205 S0 T0 ; sets the minimum extruding and travel feed rate, mm/sec
;TYPE:Custom
M862.3 P "MK3S" ; printer model check
M862.1 P0.4 ; nozzle diameter check
M115 U3.12.2 ; tell printer latest fw version
G90 ; use absolute coordinates
M83 ; extruder relative mode
M104 S215 ; set extruder temp
M140 S60 ; set bed temp
M190 S60 ; wait for bed temp
M109 S215 ; wait for extruder temp
G28 W ; home all without mesh bed level
G80 ; mesh bed leveling

G1 Z0.2 F720
G1 Y-3 F1000 ; go outside print area
G92 E0
G1 X60 E9 F1000 ; intro line
G1 X100 E12.5 F1000 ; intro line

G92 E0
M221 S95

; Don't change E values below. Excessive value can damage the printer.

M907 E538 ; set extruder motor current
G21 ; set units to millimeters
G90 ; use absolute coordinates
M83 ; use relative distances for extrusion
M900 K0.05 ; Filament gcode LA 1.5
M900 K30 ; Filament gcode LA 1.0
M107
;LAYER_CHANGE
;Z:0.2
;HEIGHT:0.2
;BEFORE_LAYER_CHANGE
G92 E0.0
;0.2


M73 P1 R4
M73 Q1 S4
G1 E-.8 F2100
M73 P2 R4
M73 Q2 S4
G1 Z.4 F720
;AFTER_LAYER_CHANGE
;0.2
G1 X111.139 Y87.583 F10800
G1 Z.2 F720
G1 E.8 F2100
M204 S800
;TYPE:Skirt/Brim
;WIDTH:0.42
G1 F1200
G1 X112.205 Y86.569 E.04613
G1 X113.5 Y86.246 E.04185
G1 X128.5 Y86.246 E.47031
G1 X129.917 Y86.639 E.04611
G1 X131.113 Y88.129 E.05991
M73 Q3 S4
G1 X139.113 Y112.129 E.79321
G1 X139.254 Y113 E.02767
M73 P3 R4
G1 X139.254 Y121 E.25083
G1 X138.861 Y122.417 E.04611
G1 X137.795 Y123.431 E.04613
G1 X136.5 Y123.754 E.04185
G1 X125 Y123.754 E.36057
G1 X123.583 Y123.361 E.04611
G1 X122.644 Y122.426 E.04155
G1 X111.144 Y103.426 E.69635
G1 X110.746 Y102 E.04642
M73 P4 R4
M73 Q4 S4
G1 X110.746 Y89 E.40761
G1 X111.123 Y87.64 E.04425
M204 S1000
G1 X111.497 Y87.752 F10800
M204 S800
G1 F1200
G1 X111.515 Y87.693 E.00193
G1 X112.56 Y86.817 E.04275
G1 X113.5 Y86.623 E.03009
G1 X128.5 Y86.623 E.47031
G1 X129.807 Y87.015 E.04278
G1 X130.755 Y88.248 E.04877
M73 Q5 S4
G1 X138.755 Y112.248 E.79321
G1 X138.877 Y113 E.02389
M73 P5 R4
G1 X138.877 Y121 E.25083
G1 X138.485 Y122.307 E.04278
G1 X137.44 Y123.183 E.04275
G1 X136.5 Y123.377 E.03009
G1 X125 Y123.377 E.36057
G1 X123.693 Y122.985 E.04278
G1 X122.966 Y122.231 E.03284
G1 X111.466 Y103.231 E.69635
G1 X111.123 Y102 E.04007
M73 P6 R4
M73 Q6 S4
G1 X111.123 Y89 E.40761
G1 X111.479 Y87.81 E.03895
M204 S1000
; printing object Hacken Trennwand skadis Breite.stl id:0 copy 0
;WIPE_START
G1 F8640
G1 X111.515 Y87.693 E-.02827
G1 X112.56 Y86.817 E-.31486
G1 X113.5 Y86.623 E-.22162
G1 X114.519 Y86.623 E-.23525
;WIPE_END
G1 Z.6 F720
G1 X127.418 Y118.638 F10800
G1 Z.2 F720
G1 E.8 F2100
M204 S800
;TYPE:Perimeter
;WIDTH:0.419999
G1 F1200
G1 X127.779 Y118.787 E.01225
G1 X132.721 Y118.787 E.15495
G1 X133.061 Y118.674 E.01123
M73 Q7 S4
G1 X133.244 Y118.438 E.00936
G1 X133.287 Y118.221 E.00694
G1 X133.287 Y113.787 E.13902
G1 X135.713 Y113.787 E.07607
G1 X135.713 Y120.213 E.20148
M73 P7 R4
G1 X125.787 Y120.213 E.31122
G1 X125.787 Y91.779 E.89153
G1 X125.751 Y91.58 E.00634
G1 X125.674 Y91.439 E.00504
G1 X125.488 Y91.279 E.00769
G1 X125.221 Y91.213 E.00862
G1 X116.279 Y91.213 E.28037
G1 X116.181 Y91.221 E.00308
M73 P8 R4
M73 Q8 S4
G1 X115.879 Y91.379 E.01069
G1 X115.713 Y91.779 E.01358
G1 X115.713 Y101.213 E.2958
G1 X114.287 Y101.213 E.04471
G1 X114.287 Y89.787 E.35825
G1 X127.713 Y89.787 E.42096
G1 X127.713 Y91.238 E.0455
G1 X127.407 Y91.352 E.01024
G1 X127.249 Y91.58 E.0087
G1 X127.213 Y91.779 E.00634
G1 X127.213 Y118.221 E.82907
G1 X127.221 Y118.319 E.00308
M73 P9 R4
M73 Q9 S4
G1 X127.371 Y118.606 E.01015
M204 S1000
G1 X127.645 Y118.355 F10800
M204 S800
;TYPE:External perimeter
G1 F1200
G1 X127.779 Y118.41 E.00454
G1 X132.721 Y118.41 E.15495
G1 X132.835 Y118.372 E.00377
G1 X132.91 Y118.221 E.00529
G1 X132.91 Y113.41 E.15085
G1 X136.09 Y113.41 E.09971
G1 X136.09 Y120.59 E.22512
G1 X125.41 Y120.59 E.33486
G1 X125.41 Y91.779 E.90335
G1 X125.372 Y91.665 E.00377
M73 P10 R4
M73 Q10 S4
G1 X125.221 Y91.59 E.00529
G1 X116.279 Y91.59 E.28037
G1 X116.145 Y91.645 E.00454
G1 X116.09 Y91.779 E.00454
G1 X116.09 Y101.59 E.30762
G1 X113.91 Y101.59 E.06835
G1 X113.91 Y89.41 E.38189
G1 X128.09 Y89.41 E.4446
M73 Q11 S4
G1 X128.09 Y91.59 E.06835
M73 P11 R4
G1 X127.779 Y91.59 E.00975
G1 X127.655 Y91.636 E.00415
G1 X127.59 Y91.779 E.00493
G1 X127.59 Y118.221 E.82907
G1 X127.622 Y118.299 E.00264
M204 S1000
G1 X127.608 Y118.494 F10800
;WIPE_START
G1 F8640
G1 X127.779 Y118.41 E-.0444
G1 X131.051 Y118.41 E-.7556
;WIPE_END
G1 Z.6 F720
G1 X127.543 Y90.726 F10800
G1 Z.2 F720
M73 Q12 S4
G1 E.8 F2100
M204 S800
;TYPE:Solid infill
;WIDTH:0.423419
G1 F1200
G1 X126.943 Y90.126 E.02685
G1 X126.405 Y90.126 E.01702
G1 X127.316 Y91.037 E.04076
M73 P12 R4
G1 X127.197 Y91.081 E.00401
G1 X127.026 Y91.285 E.00842
G1 X125.867 Y90.126 E.05186
G1 X125.329 Y90.126 E.01702
G1 X126.888 Y91.685 E.06976
G1 X126.874 Y92.209 E.01658
G1 X124.791 Y90.126 E.0932
G1 X124.253 Y90.126 E.01702
G1 X125 Y90.874 E.03345
G1 X124.462 Y90.874 E.01702
G1 X123.715 Y90.126 E.03345
G1 X123.177 Y90.126 E.01702
G1 X123.924 Y90.874 E.03345
G1 X123.386 Y90.874 E.01702
G1 X122.639 Y90.126 E.03345
G1 X122.1 Y90.126 E.01705
G1 X122.848 Y90.874 E.03347
G1 X122.309 Y90.874 E.01705
G1 X121.562 Y90.126 E.03345
G1 X121.024 Y90.126 E.01702
G1 X121.771 Y90.874 E.03345
G1 X121.233 Y90.874 E.01702
G1 X120.486 Y90.126 E.03345
G1 X119.948 Y90.126 E.01702
G1 X120.695 Y90.874 E.03345
G1 X120.157 Y90.874 E.01702
G1 X119.41 Y90.126 E.03345
G1 X118.872 Y90.126 E.01702
G1 X119.619 Y90.874 E.03345
G1 X119.081 Y90.874 E.01702
G1 X118.334 Y90.126 E.03345
G1 X117.796 Y90.126 E.01702
G1 X118.543 Y90.874 E.03345
G1 X118.005 Y90.874 E.01702
G1 X117.257 Y90.126 E.03347
G1 X116.719 Y90.126 E.01702
G1 X117.466 Y90.874 E.03345
G1 X116.928 Y90.874 E.01702
G1 X116.181 Y90.126 E.03345
G1 X115.643 Y90.126 E.01702
G1 X116.39 Y90.874 E.03345
G1 X116.105 Y90.888 E.00903
G1 X115.948 Y90.97 E.0056
G1 X115.105 Y90.126 E.03774
G1 X114.626 Y90.126 E.01515
G1 X114.626 Y90.186 E.0019
G1 X115.612 Y91.172 E.04412
G1 X115.455 Y91.552 E.01301
G1 X114.626 Y90.724 E.03707
G1 X114.626 Y91.262 E.01702
G1 X115.374 Y92.009 E.03345
G1 X115.374 Y92.547 E.01702
M73 Q13 S4
G1 X114.626 Y91.8 E.03345
G1 X114.626 Y92.338 E.01702
G1 X115.374 Y93.085 E.03345
G1 X115.374 Y93.624 E.01705
G1 X114.626 Y92.876 E.03347
G1 X114.626 Y93.415 E.01705
M73 P13 R4
G1 X115.374 Y94.162 E.03345
G1 X115.374 Y94.7 E.01702
G1 X114.626 Y93.953 E.03345
G1 X114.626 Y94.491 E.01702
G1 X115.374 Y95.238 E.03345
G1 X115.374 Y95.776 E.01702
G1 X114.626 Y95.029 E.03345
G1 X114.626 Y95.567 E.01702
G1 X115.374 Y96.314 E.03345
G1 X115.374 Y96.852 E.01702
G1 X114.626 Y96.105 E.03345
G1 X114.626 Y96.643 E.01702
G1 X115.374 Y97.39 E.03345
G1 X115.374 Y97.928 E.01702
G1 X114.626 Y97.181 E.03345
G1 X114.626 Y97.719 E.01702
G1 X115.374 Y98.467 E.03347
G1 X115.374 Y99.005 E.01702
G1 X114.626 Y98.258 E.03345
G1 X114.626 Y98.796 E.01702
G1 X115.374 Y99.543 E.03345
G1 X115.374 Y100.081 E.01702
G1 X114.626 Y99.334 E.03345
G1 X114.626 Y99.872 E.01702
G1 X115.374 Y100.619 E.03345
G1 X115.374 Y100.874 E.00807
G1 X115.09 Y100.874 E.00899
G1 X114.457 Y100.24 E.02835
M204 S1000
;WIPE_START
G1 F8640
G1 X115.09 Y100.874 E-.20687
G1 X115.374 Y100.874 E-.06558
G1 X115.374 Y100.619 E-.05888
G1 X114.626 Y99.872 E-.24409
G1 X114.626 Y99.334 E-.12423
G1 X114.934 Y99.641 E-.10035
;WIPE_END
G1 Z.6 F720
G1 X125.957 Y91.83 F10800
G1 Z.2 F720
G1 E.8 F2100
M204 S800
G1 F1200
G1 X126.874 Y92.748 E.04105
G1 X126.874 Y93.286 E.01702
G1 X126.126 Y92.538 E.03347
G1 X126.126 Y93.076 E.01702
G1 X126.874 Y93.824 E.03347
G1 X126.875 Y94.363 E.01705
G1 X126.126 Y93.614 E.03351
G1 X126.126 Y94.152 E.01702
M73 P13 R3
G1 X126.875 Y94.901 E.03351
G1 X126.875 Y95.439 E.01702
G1 X126.126 Y94.691 E.03349
G1 X126.126 Y95.229 E.01702
G1 X126.875 Y95.978 E.03351
G1 X126.876 Y96.516 E.01702
M73 Q14 S4
G1 X126.126 Y95.767 E.03354
G1 X126.126 Y96.305 E.01702
G1 X126.876 Y97.054 E.03354
G1 X126.876 Y97.593 E.01705
G1 X126.126 Y96.843 E.03356
M73 P14 R3
G1 X126.126 Y97.381 E.01702
G1 X126.876 Y98.131 E.03356
G1 X126.876 Y98.669 E.01702
G1 X126.126 Y97.919 E.03356
G1 X126.126 Y98.457 E.01702
G1 X126.877 Y99.208 E.0336
G1 X126.877 Y99.746 E.01702
M73 Q14 S3
G1 X126.126 Y98.995 E.0336
G1 X126.126 Y99.534 E.01705
G1 X126.877 Y100.284 E.03358
G1 X126.877 Y100.823 E.01705
G1 X126.126 Y100.072 E.0336
G1 X126.126 Y100.61 E.01702
G1 X126.878 Y101.361 E.03362
G1 X126.878 Y101.899 E.01702
G1 X126.126 Y101.148 E.03362
G1 X126.126 Y101.686 E.01702
G1 X126.878 Y102.438 E.03365
G1 X126.878 Y102.976 E.01702
G1 X126.126 Y102.224 E.03365
G1 X126.126 Y102.762 E.01702
G1 X126.879 Y103.514 E.03367
G1 X126.879 Y104.053 E.01705
G1 X126.126 Y103.3 E.03369
G1 X126.126 Y103.838 E.01702
G1 X126.879 Y104.591 E.03369
G1 X126.879 Y105.129 E.01702
G1 X126.126 Y104.376 E.03369
G1 X126.126 Y104.915 E.01705
G1 X126.879 Y105.668 E.03369
G1 X126.88 Y106.206 E.01702
G1 X126.126 Y105.453 E.03371
G1 X126.126 Y105.991 E.01702
G1 X126.88 Y106.744 E.03371
G1 X126.88 Y107.283 E.01705
G1 X126.126 Y106.529 E.03374
G1 X126.126 Y107.067 E.01702
G1 X126.88 Y107.821 E.03374
G1 X126.881 Y108.359 E.01702
G1 X126.126 Y107.605 E.03376
G1 X126.126 Y108.143 E.01702
G1 X126.881 Y108.898 E.03378
G1 X126.881 Y109.436 E.01702
G1 X126.126 Y108.681 E.03378
G1 X126.126 Y109.219 E.01702
G1 X126.881 Y109.974 E.03378
G1 X126.882 Y110.513 E.01705
G1 X126.126 Y109.758 E.0338
G1 X126.126 Y110.296 E.01702
G1 X126.882 Y111.051 E.0338
G1 X126.882 Y111.589 E.01702
G1 X126.126 Y110.834 E.0338
G1 X126.126 Y111.372 E.01702
G1 X126.882 Y112.128 E.03383
M73 Q15 S3
G1 X126.882 Y112.666 E.01702
G1 X126.126 Y111.91 E.03383
G1 X126.126 Y112.448 E.01702
G1 X126.883 Y113.204 E.03385
G1 X126.883 Y113.743 E.01705
M73 P15 R3
G1 X126.126 Y112.986 E.03387
G1 X126.126 Y113.524 E.01702
G1 X126.883 Y114.281 E.03387
G1 X126.883 Y114.819 E.01702
G1 X126.126 Y114.062 E.03387
G1 X126.126 Y114.601 E.01705
G1 X126.884 Y115.358 E.03389
G1 X126.884 Y115.896 E.01702
G1 X126.126 Y115.139 E.03389
G1 X126.126 Y115.677 E.01702
G1 X126.884 Y116.434 E.03389
G1 X126.884 Y116.973 E.01705
G1 X126.126 Y116.215 E.03392
G1 X126.126 Y116.753 E.01702
G1 X126.885 Y117.511 E.03394
G1 X126.885 Y118.049 E.01702
G1 X125.957 Y117.121 E.04152
M204 S1000
;WIPE_START
G1 F8640
G1 X126.885 Y118.049 E-.30303
G1 X126.885 Y117.511 E-.12423
G1 X126.126 Y116.753 E-.24769
G1 X126.126 Y116.215 E-.12423
G1 X126.129 Y116.218 E-.00082
;WIPE_END
G1 Z.6 F720
G1 X135.169 Y113.957 F10800
G1 Z.2 F720
G1 E.8 F2100
M204 S800
G1 F1200
G1 X135.374 Y114.162 E.00917
G1 X135.374 Y114.7 E.01702
G1 X134.8 Y114.126 E.02568
G1 X134.262 Y114.126 E.01702
G1 X135.374 Y115.238 E.04976
G1 X135.374 Y115.776 E.01702
G1 X133.724 Y114.126 E.07383
G1 X133.626 Y114.126 E.0031
G1 X133.626 Y114.567 E.01395
G1 X135.374 Y116.314 E.07819
G1 X135.374 Y116.852 E.01702
G1 X133.626 Y115.105 E.07819
G1 X133.626 Y115.643 E.01702
G1 X135.374 Y117.39 E.07819
G1 X135.374 Y117.928 E.01702
G1 X133.626 Y116.181 E.07819
G1 X133.626 Y116.719 E.01702
G1 X135.374 Y118.467 E.07821
G1 X135.374 Y119.005 E.01702
M73 Q16 S3
G1 X133.626 Y117.258 E.07819
G1 X133.626 Y117.796 E.01702
M73 P16 R3
G1 X135.374 Y119.543 E.07819
G1 X135.374 Y119.874 E.01047
G1 X135.166 Y119.874 E.00658
G1 X133.618 Y118.325 E.06929
G1 X133.555 Y118.58 E.00831
G1 X133.459 Y118.704 E.00496
G1 X134.628 Y119.874 E.05233
G1 X134.09 Y119.874 E.01702
G1 X133.196 Y118.979 E.04002
G1 X132.889 Y119.112 E.01059
G1 X132.799 Y119.12 E.00286
G1 X133.552 Y119.874 E.03371
G1 X133.014 Y119.874 E.01702
G1 X132.267 Y119.126 E.03345
G1 X131.729 Y119.126 E.01702
G1 X132.476 Y119.874 E.03345
G1 X131.938 Y119.874 E.01702
G1 X131.19 Y119.126 E.03347
G1 X130.652 Y119.126 E.01702
G1 X131.399 Y119.874 E.03345
G1 X130.861 Y119.874 E.01702
G1 X130.114 Y119.126 E.03345
G1 X129.576 Y119.126 E.01702
G1 X130.323 Y119.874 E.03345
G1 X129.785 Y119.874 E.01702
G1 X129.038 Y119.126 E.03345
G1 X128.5 Y119.126 E.01702
G1 X129.247 Y119.874 E.03345
G1 X128.709 Y119.874 E.01702
G1 X127.792 Y118.957 E.04103
M204 S1000
;WIPE_START
G1 F8640
G1 X128.709 Y119.874 E-.29944
G1 X129.247 Y119.874 E-.12423
G1 X128.5 Y119.126 E-.24409
G1 X129.038 Y119.126 E-.12423
G1 X129.063 Y119.151 E-.00801
;WIPE_END
G1 Z.6 F720
G1 X128.341 Y120.043 F10800
G1 Z.2 F720
G1 E.8 F2100
M204 S800
G1 F1200
G1 X126.126 Y117.829 E.09909
G1 X126.126 Y118.367 E.01702
G1 X127.633 Y119.874 E.06743
G1 X127.095 Y119.874 E.01702
G1 X126.126 Y118.905 E.04336
G1 X126.126 Y119.443 E.01702
G1 X126.726 Y120.043 E.02685
M204 S1000
; stop printing object Hacken Trennwand skadis Breite.stl id:0 copy 0
M106 S84.15
;LAYER_CHANGE
;Z:0.5
;HEIGHT:0.3
;BEFORE_LAYER_CHANGE
G92 E0.0
;0.5


;WIPE_START
G1 F8640
G1 X126.126 Y119.443 E-.19593
G1 X126.126 Y118.905 E-.12423
G1 X127.095 Y119.874 E-.31642
G1 X127.633 Y119.874 E-.12423
G1 X127.513 Y119.754 E-.03919
;WIPE_END
M73 Q17 S3
G1 Z.6 F720
;AFTER_LAYER_CHANGE
;0.5
G1 X127.513 Y123.754 F10800
G1 Z.5 F720
M73 P17 R3
G1 E.8 F2100
;TYPE:Skirt/Brim
;WIDTH:0.42
G1 F2700
G1 X125 Y123.754 E.11146
G1 X123.583 Y123.361 E.06522
G1 X122.644 Y122.426 E.05878
G1 X111.144 Y103.426 E.98509
G1 X110.746 Y102 E.06567
G1 X110.746 Y89 E.57661
G1 X111.139 Y87.583 E.06522
G1 X112.205 Y86.569 E.06526
G1 X113.5 Y86.246 E.0592
G1 X128.5 Y86.246 E.66532
G1 X129.917 Y86.639 E.06522
G1 X131.113 Y88.129 E.08475
G1 X139.113 Y112.129 E1.1221
G1 X139.254 Y113 E.03914
G1 X139.254 Y121 E.35484
G1 X138.861 Y122.417 E.06522
G1 X137.795 Y123.431 E.06526
G1 X136.5 Y123.754 E.0592
G1 X127.573 Y123.754 E.39596
G1 X127.573 Y123.377 F10800
M73 Q18 S3
G1 F2700
M73 P18 R3
G1 X125 Y123.377 E.11412
G1 X123.693 Y122.985 E.06052
G1 X122.966 Y122.231 E.04646
G1 X111.466 Y103.231 E.98509
G1 X111.123 Y102 E.05668
G1 X111.123 Y89 E.57661
G1 X111.515 Y87.693 E.06052
G1 X112.56 Y86.817 E.06048
G1 X113.5 Y86.623 E.04257
G1 X128.5 Y86.623 E.66532
G1 X129.807 Y87.015 E.06052
G1 X130.755 Y88.248 E.06899
G1 X138.755 Y112.248 E1.1221
G1 X138.877 Y113 E.03379
G1 X138.877 Y121 E.35484
G1 X138.485 Y122.307 E.06052
G1 X137.44 Y123.183 E.06048
G1 X136.5 Y123.377 E.04257
G1 X127.633 Y123.377 E.39329
; printing object Hacken Trennwand skadis Breite.stl id:0 copy 0
;WIPE_START
G1 F8640
M73 Q19 S3
G1 X125 Y123.377 E-.60797
G1 X124.203 Y123.138 E-.19203
;WIPE_END
G1 Z.9 F720
G1 X127.454 Y118.578 F10800
M73 P19 R3
G1 Z.5 F720
G1 E.8 F2100
M204 S800
;TYPE:Perimeter
;WIDTH:0.5
G1 F3000
G1 X127.669 Y118.724 E.01412
G1 X127.968 Y118.786 E.01659
G1 X132.532 Y118.786 E.24797
G1 X132.662 Y118.774 E.00709
G1 X132.968 Y118.647 E.018
G1 X133.215 Y118.35 E.02099
G1 X133.286 Y118.032 E.0177
G1 X133.286 Y113.786 E.2307
G1 X135.714 Y113.786 E.13192
G1 X135.714 Y120.214 E.34925
G1 X125.786 Y120.214 E.53942
G1 X125.786 Y91.968 E1.53468
G1 X125.738 Y91.703 E.01463
G1 X125.635 Y91.516 E.0116
G1 X125.387 Y91.303 E.01776
G1 X125.032 Y91.214 E.01989
G1 X116.468 Y91.214 E.46531
G1 X116.169 Y91.276 E.01659
G1 X115.935 Y91.435 E.01537
G1 X115.776 Y91.669 E.01537
G1 X115.714 Y91.968 E.01659
G1 X115.714 Y101.214 E.50236
G1 X114.286 Y101.214 E.07759
G1 X114.286 Y89.786 E.62092
G1 X127.714 Y89.786 E.72958
G1 X127.714 Y91.32 E.08335
M73 P20 R3
M73 Q20 S3
G1 X127.433 Y91.437 E.01654
G1 X127.262 Y91.703 E.01718
G1 X127.214 Y91.968 E.01463
G1 X127.214 Y118.032 E1.41613
G1 X127.276 Y118.331 E.01659
G1 X127.414 Y118.535 E.01338
M204 S1000
G1 X127.778 Y118.222 F10800
M204 S800
;TYPE:External perimeter
;WIDTH:0.6
G1 F2100
G1 X127.968 Y118.3 E.01372
G1 X132.532 Y118.3 E.3049
G1 X132.687 Y118.251 E.01086
G1 X132.775 Y118.145 E.0092
G1 X132.8 Y118.032 E.00773
