; generated by PrusaSlicer 2.4.1+win64 on 2024-01-11 at 16:11:55 UTC


;
;
; 

; external perimeters extrusion width = 0.60mm
; perimeters extrusion width = 0.50mm
; infill extrusion width = 0.50mm
; solid infill extrusion width = 0.50mm
; top infill extrusion width = 0.45mm
; first layer extrusion width = 0.42mm

M73 P0 R194
M73 Q0 S196
M201 X1000 Y1000 Z200 E5000 ; sets maximum accelerations, mm/sec^2
M203 X200 Y200 Z12 E120 ; sets maximum feedrates, mm / sec
M204 P1250 R1250 T1250 ; sets acceleration (P, T) and retract acceleration (R), mm/sec^2
M205 X8.00 Y8.00 Z0.40 E4.50 ; sets the jerk limits, mm/sec
M205 S0 T0 ; sets the minimum extruding and travel feed rate, mm/sec
M107
;TYPE:Custom
M862.3 P "MK3S" ; printer model check
M862.1 P0.4 ; nozzle diameter check
M115 U3.11.0 ; tell printer latest fw version
G90 ; use absolute coordinates
M83 ; extruder relative mode
M104 S215 ; set extruder temp
M140 S60 ; set bed temp
M190 S60 ; wait for bed temp
M109 S215 ; wait for extruder temp
G28 W ; home all without mesh bed level
G80 ; mesh bed leveling

G1 Z0.2 F720
G1 Y-3 F1000 ; go outside print area
G92 E0
G1 X60 E9 F1000 ; intro line
G1 X100 E12.5 F1000 ; intro line

G92 E0
M221 S95

; Don't change E values below. Excessive value can damage the printer.

M907 E538 ; set extruder motor current
G21 ; set units to millimeters
G90 ; use absolute coordinates
M83 ; use relative distances for extrusion
M900 K0.05 ; Filament gcode LA 1.5
M900 K30 ; Filament gcode LA 1.0
M107
;LAYER_CHANGE
;Z:0.2
;HEIGHT:0.2
;BEFORE_LAYER_CHANGE
G92 E0.0
;0.2


G1 E-.8 F2100
G1 Z.4 F720
;AFTER_LAYER_CHANGE
;0.2
G1 X30.395 Y81.367 F10800
G1 Z.2 F720
G1 E.8 F2100
M204 S800
;TYPE:Skirt/Brim
;WIDTH:0.42
G1 F1200
G1 X31.5 Y81.212 E.03498
G1 X218.812 Y81.233 E5.87303
G1 X219.605 Y81.367 E.02522
G1 X220.308 Y81.664 E.02392
G1 X220.883 Y82.02 E.02122
G1 X221.494 Y82.564 E.02563
G1 X222.092 Y83.408 E.03244
G1 X222.363 Y84.096 E.02318
G1 X222.538 Y85.25 E.03661
G1 X222.538 Y127.25 E1.31688
G1 X222.146 Y128.557 E.04278
M73 Q0 S195
G1 X221.1 Y129.433 E.04278
G1 X220.161 Y129.627 E.03008
G1 X29.839 Y129.627 E5.96739
G1 X28.532 Y129.235 E.04278
M73 P0 R193
G1 X27.656 Y128.19 E.04278
G1 X27.462 Y127.25 E.03008
G1 X27.462 Y85.25 E1.31688
G1 X27.637 Y84.096 E.03661
G1 X27.908 Y83.408 E.02318
G1 X28.215 Y82.932 E.01776
G1 X28.506 Y82.564 E.01472
G1 X29.117 Y82.02 E.02563
G1 X29.692 Y81.664 E.02122
G1 X30.34 Y81.391 E.02204
M204 S1000
; printing object Schraubenzieher_skadis.stl id:0 copy 0
;WIPE_START
G1 F8640
G1 X31.5 Y81.212 E-.27102
G1 X33.618 Y81.213 E-.48898
;WIPE_END
G1 E-.04 F2100
G1 Z.6 F720
G1 X123.267 Y102.286 F10800
G1 Z.2 F720
G1 E.8 F2100
M204 S800
;TYPE:Perimeter
G1 F1200
G1 X123.446 Y101.853 E.01468
G1 X123.732 Y101.482 E.01468
G1 X124.103 Y101.196 E.01468
G1 X124.536 Y101.017 E.01468
G1 X125 Y100.956 E.01468
G1 X125.464 Y101.017 E.01468
G1 X125.897 Y101.196 E.01468
G1 X126.268 Y101.482 E.01468
G1 X126.554 Y101.853 E.01468
G1 X126.733 Y102.286 E.01468
G1 X126.794 Y102.75 E.01468
G1 X126.733 Y103.214 E.01468
G1 X126.554 Y103.647 E.01468
G1 X126.268 Y104.018 E.01468
G1 X125.897 Y104.304 E.01468
G1 X125.464 Y104.483 E.01468
G1 X125 Y104.544 E.01468
G1 X124.536 Y104.483 E.01468
G1 X124.103 Y104.304 E.01468
G1 X123.732 Y104.018 E.01468
G1 X123.446 Y103.647 E.01468
G1 X123.267 Y103.214 E.01468
G1 X123.206 Y102.75 E.01468
G1 X123.259 Y102.345 E.0128
M204 S1000
G1 X123.635 Y102.384 F10800
M204 S800
;TYPE:External perimeter
G1 F1200
G1 X123.776 Y102.043 E.01157
G1 X124 Y101.75 E.01157
G1 X124.293 Y101.526 E.01157
G1 X124.634 Y101.385 E.01157
G1 X125 Y101.336 E.01157
G1 X125.366 Y101.385 E.01157
G1 X125.707 Y101.526 E.01157
G1 X126 Y101.75 E.01157
G1 X126.224 Y102.043 E.01157
G1 X126.365 Y102.384 E.01157
G1 X126.414 Y102.75 E.01157
G1 X126.365 Y103.116 E.01157
G1 X126.224 Y103.457 E.01157
G1 X126 Y103.75 E.01157
G1 X125.707 Y103.974 E.01157
G1 X125.366 Y104.115 E.01157
G1 X125 Y104.164 E.01157
G1 X124.634 Y104.115 E.01157
G1 X124.293 Y103.974 E.01157
G1 X124 Y103.75 E.01157
G1 X123.776 Y103.457 E.01157
G1 X123.635 Y103.116 E.01157
G1 X123.586 Y102.75 E.01157
G1 X123.627 Y102.444 E.00969
M204 S1000
G1 X123.374 Y102.123 F10800
;WIPE_START
G1 F8640
G1 X123.776 Y102.043 E-.09865
G1 X124 Y101.75 E-.08521
G1 X124.293 Y101.526 E-.08521
G1 X124.634 Y101.385 E-.0852
G1 X125 Y101.336 E-.08521
G1 X125.366 Y101.385 E-.08521
G1 X125.707 Y101.526 E-.0852
G1 X126 Y101.75 E-.0852
G1 X126.171 Y101.974 E-.06491
;WIPE_END
G1 E-.04 F2100
G1 Z.6 F720
G1 X146.213 Y102.799 F10800
G1 Z.2 F720
G1 E.8 F2100
M204 S800
;TYPE:Perimeter
G1 F1200
G1 X146.301 Y102.027 E.02438
G1 X146.58 Y101.353 E.02287
G1 X147.024 Y100.774 E.02287
G1 X147.603 Y100.33 E.02287
G1 X148.277 Y100.051 E.02287
G1 X148.959 Y99.962 E.02157
G1 X149.719 Y100.05 E.02398
G1 X150.397 Y100.33 E.02301
G1 X150.976 Y100.774 E.02287
G1 X151.42 Y101.353 E.02287
G1 X151.699 Y102.027 E.02287
G1 X151.794 Y102.75 E.02287
G1 X151.699 Y103.473 E.02287
G1 X151.42 Y104.147 E.02287
G1 X150.976 Y104.726 E.02287
G1 X150.397 Y105.17 E.02287
G1 X149.723 Y105.449 E.02287
G1 X149 Y105.544 E.02287
G1 X148.277 Y105.449 E.02287
G1 X147.603 Y105.17 E.02287
G1 X147.024 Y104.726 E.02287
G1 X146.58 Y104.147 E.02287
G1 X146.301 Y103.473 E.02287
G1 X146.22 Y102.859 E.01943
M204 S1000
G1 X146.586 Y102.75 F10800
M204 S800
;TYPE:External perimeter
G1 F1200
G1 X146.669 Y102.125 E.01976
G1 X146.91 Y101.543 E.01975
G1 X147.293 Y101.043 E.01976
G1 X147.793 Y100.66 E.01976
G1 X148.375 Y100.419 E.01975
G1 X148.962 Y100.341 E.01855
G1 X149.623 Y100.418 E.02087
G1 X150.207 Y100.66 E.01981
G1 X150.707 Y101.043 E.01976
G1 X151.09 Y101.543 E.01976
G1 X151.331 Y102.125 E.01976
G1 X151.414 Y102.75 E.01976
G1 X151.331 Y103.375 E.01976
G1 X151.09 Y103.957 E.01976
G1 X150.707 Y104.457 E.01976
G1 X150.207 Y104.84 E.01976
G1 X149.625 Y105.081 E.01975
G1 X149 Y105.164 E.01976
G1 X148.375 Y105.081 E.01976
G1 X147.793 Y104.84 E.01975
G1 X147.293 Y104.457 E.01976
G1 X146.91 Y103.957 E.01975
G1 X146.669 Y103.375 E.01976
G1 X146.594 Y102.809 E.01787
M204 S1000
G1 X146.24 Y102.55 F10800
;WIPE_START
G1 F8640
G1 X146.669 Y102.125 E-.15891
G1 X146.91 Y101.543 E-.14548
G1 X147.293 Y101.043 E-.14548
G1 X147.793 Y100.66 E-.14548
G1 X148.375 Y100.419 E-.14548
G1 X148.458 Y100.408 E-.01917
;WIPE_END
G1 E-.04 F2100
G1 Z.6 F720
G1 X171.456 Y102.75 F10800
G1 Z.2 F720
G1 E.8 F2100
M204 S800
;TYPE:Perimeter
G1 F1200
G1 X171.509 Y102.35 E.01264
G1 X171.663 Y101.978 E.01264
G1 X171.908 Y101.658 E.01264
G1 X172.228 Y101.413 E.01264
G1 X172.6 Y101.259 E.01264
G1 X173 Y101.206 E.01264
G1 X173.4 Y101.259 E.01264
G1 X173.772 Y101.413 E.01264
G1 X174.092 Y101.658 E.01264
G1 X174.337 Y101.978 E.01264
G1 X174.491 Y102.35 E.01264
G1 X174.544 Y102.75 E.01264
G1 X174.491 Y103.15 E.01264
G1 X174.337 Y103.522 E.01264
G1 X174.092 Y103.842 E.01264
G1 X173.772 Y104.087 E.01264
G1 X173.4 Y104.241 E.01264
G1 X173 Y104.294 E.01264
G1 X172.6 Y104.241 E.01264
G1 X172.228 Y104.087 E.01264
G1 X171.908 Y103.842 E.01264
G1 X171.663 Y103.522 E.01264
G1 X171.509 Y103.15 E.01264
G1 X171.464 Y102.809 E.01076
M204 S1000
G1 X171.836 Y102.75 F10800
M204 S800
;TYPE:External perimeter
G1 F1200
G1 X171.876 Y102.449 E.00952
G1 X171.992 Y102.168 E.00952
G1 X172.177 Y101.927 E.00952
G1 X172.418 Y101.742 E.00952
G1 X172.699 Y101.626 E.00952
G1 X173 Y101.586 E.00952
G1 X173.301 Y101.626 E.00952
G1 X173.582 Y101.742 E.00952
G1 X173.823 Y101.927 E.00952
G1 X174.008 Y102.168 E.00952
G1 X174.124 Y102.449 E.00952
G1 X174.164 Y102.75 E.00952
G1 X174.124 Y103.051 E.00952
G1 X174.008 Y103.332 E.00952
G1 X173.823 Y103.573 E.00952
G1 X173.582 Y103.758 E.00952
G1 X173.301 Y103.874 E.00952
G1 X173 Y103.914 E.00952
G1 X172.699 Y103.874 E.00952
G1 X172.418 Y103.758 E.00952
G1 X172.177 Y103.573 E.00952
G1 X171.992 Y103.332 E.00952
G1 X171.876 Y103.051 E.00952
G1 X171.844 Y102.809 E.00764
M204 S1000
G1 X171.573 Y102.598 F10800
;WIPE_START
G1 F8640
G1 X171.876 Y102.449 E-.08359
G1 X171.992 Y102.168 E-.07013
G1 X172.177 Y101.927 E-.07014
G1 X172.418 Y101.742 E-.07014
G1 X172.699 Y101.626 E-.07013
G1 X173 Y101.586 E-.07014
G1 X173.301 Y101.626 E-.07014
G1 X173.582 Y101.742 E-.07013
G1 X173.823 Y101.927 E-.07014
G1 X174.008 Y102.168 E-.07014
G1 X174.083 Y102.349 E-.04518
;WIPE_END
G1 E-.04 F2100
G1 Z.6 F720
G1 X194.213 Y102.799 F10800
G1 Z.2 F720
G1 E.8 F2100
M204 S800
;TYPE:Perimeter
G1 F1200
G1 X194.301 Y102.027 E.02437
G1 X194.58 Y101.353 E.02287
G1 X195.024 Y100.774 E.02287
G1 X195.603 Y100.33 E.02287
G1 X196.277 Y100.051 E.02287
G1 X196.959 Y99.962 E.02157
G1 X197.719 Y100.05 E.02398
G1 X198.397 Y100.33 E.02301
G1 X198.976 Y100.774 E.02287
G1 X199.42 Y101.353 E.02287
G1 X199.699 Y102.027 E.02287
G1 X199.794 Y102.75 E.02287
G1 X199.699 Y103.473 E.02287
G1 X199.42 Y104.147 E.02287
G1 X198.976 Y104.726 E.02287
G1 X198.397 Y105.17 E.02287
G1 X197.723 Y105.449 E.02287
G1 X197 Y105.544 E.02287
G1 X196.277 Y105.449 E.02287
G1 X195.603 Y105.17 E.02287
G1 X195.024 Y104.726 E.02287
G1 X194.58 Y104.147 E.02287
G1 X194.301 Y103.473 E.02287
G1 X194.22 Y102.859 E.01943
M204 S1000
G1 X194.586 Y102.75 F10800
M204 S800
;TYPE:External perimeter
G1 F1200
G1 X194.669 Y102.125 E.01976
G1 X194.789 Y101.834 E.00988
G1 X194.91 Y101.543 E.00988
G1 X195.293 Y101.043 E.01976
G1 X195.793 Y100.66 E.01976
G1 X196.375 Y100.419 E.01975
G1 X196.962 Y100.341 E.01855
G1 X197.623 Y100.418 E.02087
G1 X198.207 Y100.66 E.01981
G1 X198.707 Y101.043 E.01976
G1 X199.09 Y101.543 E.01975
G1 X199.331 Y102.125 E.01976
G1 X199.414 Y102.75 E.01976
G1 X199.331 Y103.375 E.01976
G1 X199.09 Y103.957 E.01976
G1 X198.707 Y104.457 E.01976
G1 X198.207 Y104.84 E.01976
G1 X197.625 Y105.081 E.01975
G1 X197 Y105.164 E.01976
G1 X196.375 Y105.081 E.01976
G1 X195.793 Y104.84 E.01975
G1 X195.293 Y104.457 E.01976
G1 X194.91 Y103.957 E.01976
G1 X194.669 Y103.375 E.01976
G1 X194.594 Y102.809 E.01787
M204 S1000
G1 X194.24 Y102.55 F10800
;WIPE_START
G1 F8640
G1 X194.669 Y102.125 E-.1589
G1 X194.789 Y101.834 E-.07274
G1 X194.91 Y101.543 E-.07274
G1 X195.293 Y101.043 E-.14548
G1 X195.793 Y100.66 E-.14548
G1 X196.375 Y100.419 E-.14548
G1 X196.458 Y100.408 E-.01916
;WIPE_END
G1 E-.04 F2100
G1 Z.6 F720
G1 X103.787 Y102.799 F10800
G1 Z.2 F720
G1 E.8 F2100
M204 S800
;TYPE:Perimeter
G1 F1200
G1 X103.699 Y103.473 E.02131
G1 X103.42 Y104.147 E.02287
G1 X102.976 Y104.726 E.02287
G1 X102.397 Y105.17 E.02287
G1 X101.723 Y105.449 E.02287
G1 X101 Y105.544 E.02287
G1 X100.277 Y105.449 E.02287
G1 X99.603 Y105.17 E.02287
G1 X99.024 Y104.726 E.02287
G1 X98.58 Y104.147 E.02287
G1 X98.317 Y103.511 E.02157
G1 X98.206 Y102.755 E.02398
G1 X98.301 Y102.027 E.02301
G1 X98.58 Y101.353 E.02287
G1 X99.024 Y100.774 E.02287
G1 X99.603 Y100.33 E.02287
G1 X100.277 Y100.051 E.02287
G1 X100.959 Y99.962 E.02157
G1 X101.719 Y100.05 E.02398
G1 X102.397 Y100.33 E.02301
G1 X102.976 Y100.774 E.02287
G1 X103.42 Y101.353 E.02287
G1 X103.699 Y102.027 E.02287
G1 X103.793 Y102.74 E.02254
M204 S1000
G1 X103.414 Y102.75 F10800
M204 S800
;TYPE:External perimeter
G1 F1200
G1 X103.331 Y103.375 E.01975
G1 X103.09 Y103.957 E.01976
G1 X102.707 Y104.457 E.01976
G1 X102.207 Y104.84 E.01976
G1 X101.625 Y105.081 E.01975
G1 X101 Y105.164 E.01976
G1 X100.375 Y105.081 E.01976
G1 X99.793 Y104.84 E.01975
G1 X99.293 Y104.457 E.01976
G1 X98.91 Y103.957 E.01975
G1 X98.683 Y103.41 E.01855
G1 X98.586 Y102.752 E.02087
G1 X98.669 Y102.125 E.01981
G1 X98.91 Y101.543 E.01975
G1 X99.293 Y101.043 E.01975
G1 X99.793 Y100.66 E.01976
G1 X100.375 Y100.419 E.01975
G1 X100.962 Y100.341 E.01855
G1 X101.623 Y100.418 E.02087
G1 X102.207 Y100.66 E.01981
G1 X102.707 Y101.043 E.01976
G1 X103.09 Y101.543 E.01976
G1 X103.331 Y102.125 E.01976
G1 X103.406 Y102.691 E.01787
M204 S1000
G1 X103.76 Y102.95 F10800
;WIPE_START
G1 F8640
G1 X103.331 Y103.375 E-.1589
G1 X103.09 Y103.957 E-.14548
G1 X102.707 Y104.457 E-.14548
G1 X102.207 Y104.84 E-.14548
G1 X101.625 Y105.081 E-.14548
G1 X101.542 Y105.092 E-.01917
;WIPE_END
G1 E-.04 F2100
G1 Z.6 F720
G1 X79.787 Y102.799 F10800
G1 Z.2 F720
G1 E.8 F2100
M204 S800
;TYPE:Perimeter
G1 F1200
G1 X79.699 Y103.473 E.02131
G1 X79.42 Y104.147 E.02287
G1 X78.976 Y104.726 E.02287
G1 X78.397 Y105.17 E.02287
G1 X77.723 Y105.449 E.02287
G1 X77 Y105.544 E.02287
G1 X76.277 Y105.449 E.02287
G1 X75.94 Y105.309 E.01143
G1 X75.603 Y105.17 E.01143
G1 X75.024 Y104.726 E.02287
G1 X74.58 Y104.147 E.02287
G1 X74.301 Y103.473 E.02287
G1 X74.206 Y102.75 E.02287
G1 X74.301 Y102.027 E.02287
G1 X74.58 Y101.353 E.02287
G1 X75.024 Y100.774 E.02287
G1 X75.603 Y100.33 E.02287
G1 X76.277 Y100.051 E.02287
G1 X76.962 Y99.961 E.02165
G1 X77.719 Y100.05 E.02391
G1 X78.397 Y100.33 E.023
G1 X78.976 Y100.774 E.02287
G1 X79.42 Y101.353 E.02287
G1 X79.699 Y102.027 E.02287
G1 X79.793 Y102.74 E.02254
M204 S1000
G1 X79.414 Y102.75 F10800
M204 S800
;TYPE:External perimeter
G1 F1200
G1 X79.331 Y103.375 E.01975
G1 X79.09 Y103.957 E.01976
G1 X78.707 Y104.457 E.01976
G1 X78.207 Y104.84 E.01976
G1 X77.625 Y105.081 E.01975
G1 X77 Y105.164 E.01976
G1 X76.375 Y105.081 E.01976
G1 X76.084 Y104.961 E.00988
G1 X75.793 Y104.84 E.00988
G1 X75.293 Y104.457 E.01976
G1 X74.91 Y103.957 E.01976
G1 X74.669 Y103.375 E.01975
G1 X74.586 Y102.75 E.01976
G1 X74.669 Y102.125 E.01975
G1 X74.91 Y101.543 E.01976
G1 X75.293 Y101.043 E.01976
G1 X75.793 Y100.66 E.01976
G1 X76.375 Y100.419 E.01975
G1 X76.964 Y100.341 E.01863
G1 X77.623 Y100.418 E.0208
G1 X78.207 Y100.66 E.0198
G1 X78.707 Y101.043 E.01976
G1 X79.09 Y101.543 E.01975
G1 X79.331 Y102.125 E.01976
G1 X79.406 Y102.691 E.01787
M204 S1000
G1 X79.76 Y102.95 F10800
;WIPE_START
G1 F8640
G1 X79.331 Y103.375 E-.1589
G1 X79.09 Y103.957 E-.14548
G1 X78.707 Y104.457 E-.14548
G1 X78.207 Y104.84 E-.14548
G1 X77.625 Y105.081 E-.14548
G1 X77.542 Y105.092 E-.01917
;WIPE_END
G1 E-.04 F2100
G1 Z.6 F720
G1 X55.787 Y102.799 F10800
G1 Z.2 F720
G1 E.8 F2100
M204 S800
;TYPE:Perimeter
G1 F1200
G1 X55.699 Y103.473 E.02131
G1 X55.42 Y104.147 E.02287
G1 X54.976 Y104.726 E.02287
G1 X54.397 Y105.17 E.02287
G1 X53.723 Y105.449 E.02287
G1 X53 Y105.544 E.02287
G1 X52.277 Y105.449 E.02287
G1 X51.603 Y105.17 E.02287
G1 X51.024 Y104.726 E.02287
G1 X50.58 Y104.147 E.02287
G1 X50.317 Y103.511 E.02157
G1 X50.206 Y102.755 E.02398
G1 X50.301 Y102.027 E.02301
G1 X50.58 Y101.353 E.02287
G1 X51.024 Y100.774 E.02287
G1 X51.603 Y100.33 E.02287
G1 X52.277 Y100.051 E.02287
G1 X52.959 Y99.962 E.02157
G1 X53.719 Y100.05 E.02398
G1 X54.397 Y100.33 E.02301
G1 X54.976 Y100.774 E.02287
G1 X55.42 Y101.353 E.02287
G1 X55.699 Y102.027 E.02287
G1 X55.793 Y102.74 E.02254
M204 S1000
G1 X55.414 Y102.75 F10800
M204 S800
;TYPE:External perimeter
G1 F1200
G1 X55.331 Y103.375 E.01975
G1 X55.09 Y103.957 E.01976
G1 X54.707 Y104.457 E.01976
G1 X54.207 Y104.84 E.01976
G1 X53.625 Y105.081 E.01975
G1 X53 Y105.164 E.01976
G1 X52.375 Y105.081 E.01976
G1 X51.793 Y104.84 E.01975
G1 X51.293 Y104.457 E.01976
G1 X50.91 Y103.957 E.01975
G1 X50.683 Y103.41 E.01855
G1 X50.586 Y102.752 E.02087
G1 X50.669 Y102.125 E.01981
G1 X50.91 Y101.543 E.01975
G1 X51.293 Y101.043 E.01975
G1 X51.793 Y100.66 E.01976
G1 X52.375 Y100.419 E.01975
G1 X52.962 Y100.341 E.01855
G1 X53.623 Y100.418 E.02087
G1 X54.207 Y100.66 E.01981
G1 X54.707 Y101.043 E.01976
G1 X55.09 Y101.543 E.01975
G1 X55.331 Y102.125 E.01976
G1 X55.406 Y102.691 E.01787
M204 S1000
G1 X55.76 Y102.95 F10800
;WIPE_START
G1 F8640
G1 X55.331 Y103.375 E-.1589
G1 X55.09 Y103.957 E-.14548
G1 X54.707 Y104.457 E-.14548
G1 X54.207 Y104.84 E-.14548
G1 X53.625 Y105.081 E-.14548
G1 X53.542 Y105.092 E-.01917
;WIPE_END
G1 E-.04 F2100
G1 Z.6 F720
G1 X207.927 Y121.963 F10800
G1 Z.2 F720
G1 E.8 F2100
M204 S800
;TYPE:Perimeter
G1 F1200
G1 X202.073 Y121.963 E.18355
G1 X202.073 Y126.463 E.14109
G1 X127.927 Y126.463 E2.32479
G1 X127.927 Y121.963 E.14109
G1 X122.073 Y121.963 E.18355
G1 X122.073 Y126.463 E.14109
G1 X47.927 Y126.463 E2.32479
G1 X47.927 Y121.963 E.14109
G1 X42.073 Y121.963 E.18355
G1 X42.073 Y126.463 E.14109
G1 X31.604 Y126.463 E.32824
G1 X31.604 Y85.378 E1.2882
G1 X31.645 Y85.354 E.00146
G1 X218.355 Y85.354 E5.85419
G1 X218.396 Y85.378 E.00146
G1 X218.396 Y126.463 E1.2882
