; generated by PrusaSlicer 2.8.0+win64 on 2024-10-28 at 09:20:46 UTC


;
;
; 

; external perimeters extrusion width = 0.60mm
; perimeters extrusion width = 0.50mm
; infill extrusion width = 0.50mm
; solid infill extrusion width = 0.50mm
; top infill extrusion width = 0.45mm
; first layer extrusion width = 0.42mm

; external perimeters extrusion width = 0.60mm
; perimeters extrusion width = 0.50mm
; infill extrusion width = 0.50mm
; solid infill extrusion width = 0.50mm
; top infill extrusion width = 0.45mm
; first layer extrusion width = 0.42mm

; external perimeters extrusion width = 0.60mm
; perimeters extrusion width = 0.50mm
; infill extrusion width = 0.50mm
; solid infill extrusion width = 0.50mm
; top infill extrusion width = 0.45mm
; first layer extrusion width = 0.42mm

; external perimeters extrusion width = 0.60mm
; perimeters extrusion width = 0.50mm
; infill extrusion width = 0.50mm
; solid infill extrusion width = 0.50mm
; top infill extrusion width = 0.45mm
; first layer extrusion width = 0.42mm

; external perimeters extrusion width = 0.60mm
; perimeters extrusion width = 0.50mm
; infill extrusion width = 0.50mm
; solid infill extrusion width = 0.50mm
; top infill extrusion width = 0.45mm
; first layer extrusion width = 0.42mm

; external perimeters extrusion width = 0.60mm
; perimeters extrusion width = 0.50mm
; infill extrusion width = 0.50mm
; solid infill extrusion width = 0.50mm
; top infill extrusion width = 0.45mm
; first layer extrusion width = 0.42mm

; external perimeters extrusion width = 0.60mm
; perimeters extrusion width = 0.50mm
; infill extrusion width = 0.50mm
; solid infill extrusion width = 0.50mm
; top infill extrusion width = 0.45mm
; first layer extrusion width = 0.42mm

; external perimeters extrusion width = 0.60mm
; perimeters extrusion width = 0.50mm
; infill extrusion width = 0.50mm
; solid infill extrusion width = 0.50mm
; top infill extrusion width = 0.45mm
; first layer extrusion width = 0.42mm

; external perimeters extrusion width = 0.60mm
; perimeters extrusion width = 0.50mm
; infill extrusion width = 0.50mm
; solid infill extrusion width = 0.50mm
; top infill extrusion width = 0.45mm
; first layer extrusion width = 0.42mm

M73 P0 R42
M73 Q0 S43
M201 X1000 Y1000 Z200 E5000 ; sets maximum accelerations, mm/sec^2
M203 X200 Y200 Z12 E120 ; sets maximum feedrates, mm / sec
M204 S1250 T1250 ; sets acceleration (S) and retract acceleration (R), mm/sec^2
M205 X8.00 Y8.00 Z0.40 E4.50 ; sets the jerk limits, mm/sec
M205 S0 T0 ; sets the minimum extruding and travel feed rate, mm/sec

; printing object Clip.stl id:4 copy 0
; stop printing object Clip.stl id:4 copy 0
; printing object Clip.stl id:7 copy 0
; stop printing object Clip.stl id:7 copy 0
; printing object Clip.stl id:8 copy 0
; stop printing object Clip.stl id:8 copy 0
; printing object Clip.stl id:6 copy 0
; stop printing object Clip.stl id:6 copy 0
; printing object Clip.stl id:5 copy 0
; stop printing object Clip.stl id:5 copy 0
; printing object Clip.stl id:1 copy 0
; stop printing object Clip.stl id:1 copy 0
; printing object Clip.stl id:3 copy 0
; stop printing object Clip.stl id:3 copy 0
; printing object Clip.stl id:2 copy 0
; stop printing object Clip.stl id:2 copy 0
; printing object Clip.stl id:0 copy 0
; stop printing object Clip.stl id:0 copy 0

;TYPE:Custom
M862.3 P "MK3S" ; printer model check
M862.1 P0.4 ; nozzle diameter check
M115 U3.13.3 ; tell printer latest fw version
G90 ; use absolute coordinates
M83 ; extruder relative mode
M104 S215 ; set extruder temp
M140 S60 ; set bed temp
M190 S60 ; wait for bed temp
M109 S215 ; wait for extruder temp
G28 W ; home all without mesh bed level
G80 X87.305 Y67.6628 W76.4514 H72.4288 ; mesh bed levelling

G1 Z0.2 F720
G1 Y-3 F1000 ; go outside print area
G92 E0
G1 X60 E9 F1000 ; intro line
G1 X100 E12.5 F1000 ; intro line

G92 E0
M221 S95

; Don't change E values below. Excessive value can damage the printer.

M907 E538 ; set extruder motor current
G21 ; set units to millimeters
G90 ; use absolute coordinates
M83 ; use relative distances for extrusion

M900 K0.05 ; Filament gcode LA 1.5
M900 K30 ; Filament gcode LA 1.0




M107
;LAYER_CHANGE
;Z:0.2
;HEIGHT:0.2
G1 E-.8 F2100
M73 Q0 S42
G1 Z.6 F720
G1 X89.089 Y69.773 F10800
G1 Z.2 F720
G1 E.8 F2100
M204 S800
;TYPE:Skirt/Brim
;WIDTH:0.42
G1 F1200
G1 X90.11 Y68.935 E.04141
G1 X91.297 Y68.356 E.04141
G1 X91.932 Y68.173 E.02072
G1 X92.788 Y68.048 E.02712
G1 X118.63 Y67.851 E.81028
G1 X131.71 Y67.852 E.41011
G1 X158.417 Y70.369 E.84109
G1 X159.678 Y70.762 E.04141
G1 X160.866 Y71.476 E.04346
G1 X161.891 Y72.511 E.04567
G1 X162.564 Y73.648 E.04143
G1 X162.916 Y74.709 E.03505
G1 X163.054 Y75.895 E.03744
G1 X163.567 Y99.51 E.74061
G1 X163.567 Y110.072 E.33116
G1 X162.248 Y133.77 E.74418
G1 X162.04 Y134.946 E.03744
G1 X161.531 Y136.164 E.04139
G1 X160.667 Y137.325 E.04538
G1 X159.646 Y138.163 E.04141
G1 X158.885 Y138.573 E.0271
G1 X158.266 Y138.806 E.02074
G1 X156.841 Y139.057 E.04537
G1 X107.413 Y139.903 E1.55001
G1 X94.146 Y139.896 E.41598
G1 X92.843 Y139.681 E.04141
G1 X91.625 Y139.172 E.04139
G1 X90.464 Y138.308 E.04538
G1 X89.889 Y137.662 E.02712
G1 X89.52 Y137.114 E.02071
G1 X88.947 Y135.785 E.04538
G1 X88.732 Y134.482 E.04141
G1 X87.494 Y84.172 E1.57791
G1 X87.5 Y73.455 E.33602
G1 X87.715 Y72.152 E.04141
G1 X88.225 Y70.934 E.0414
G1 X89.053 Y69.821 E.0435
M204 S1000
;WIPE_START
G1 F8640
G1 X89.089 Y69.773 E-.01385
G1 X90.11 Y68.935 E-.30499
G1 X91.297 Y68.356 E-.30495
G1 X91.932 Y68.173 E-.15259
G1 X92.033 Y68.158 E-.02362
;WIPE_END
G1 Z.6 F720
; printing object Clip.stl id:8 copy 0
G1 X141.593 Y135.212 F10800
G1 Z.2 F720
G1 E.8 F2100
M204 S800
;TYPE:Perimeter
;WIDTH:0.419999
G1 F1200
G1 X141.405 Y135 E.00888
G1 X141.086 Y134.449 E.01996
G1 X140.903 Y133.839 E.01997
G1 X140.861 Y133.347 E.01548
G1 X140.866 Y122.977 E.32514
G1 X140.936 Y122.301 E.02131
G1 X141.085 Y121.852 E.01483
G1 X141.309 Y121.436 E.01481
G1 X141.602 Y121.066 E.0148
G1 X141.949 Y120.757 E.01457
G1 X142.507 Y120.434 E.02022
G1 X142.948 Y120.288 E.01457
G1 X143.424 Y120.219 E.01508
G1 X156.426 Y120.213 E.40767
G1 X157.044 Y120.256 E.01942
G1 X157.501 Y120.379 E.01484
G1 X157.929 Y120.578 E.0148
G1 X158.316 Y120.849 E.01481
G1 X158.65 Y121.183 E.01481
G1 X158.921 Y121.57 E.01481
G1 X159.121 Y121.999 E.01484
G1 X159.243 Y122.455 E.0148
G1 X159.286 Y123.079 E.01961
G1 X159.281 Y133.325 E.32126
G1 X159.211 Y134.001 E.02131
G1 X159.062 Y134.449 E.0148
G1 X158.838 Y134.865 E.01481
G1 X158.545 Y135.236 E.01482
G1 X158.198 Y135.545 E.01457
G1 X157.646 Y135.863 E.01997
G1 X157.036 Y136.046 E.01997
G1 X156.545 Y136.089 E.01545
G1 X143.625 Y136.083 E.4051
G1 X142.948 Y136.013 E.02134
G1 X142.5 Y135.865 E.01479
G1 X142.084 Y135.64 E.01483
G1 X141.713 Y135.347 E.01482
G1 X141.633 Y135.257 E.00378
M204 S1000
G1 X141.633 Y135.257 F10800
G1 X141.326 Y135.479
M204 S800
;TYPE:External perimeter
G1 F1200
G1 X141.097 Y135.222 E.01079
G1 X140.737 Y134.599 E.02256
G1 X140.531 Y133.91 E.02255
G1 X140.483 Y133.364 E.01719
G1 X140.489 Y122.749 E.33283
G1 X140.568 Y122.213 E.01699
M73 P1 R42
M73 Q1 S42
G1 X140.737 Y121.702 E.01688
G1 X140.993 Y121.228 E.01689
G1 X141.327 Y120.806 E.01687
G1 X141.727 Y120.45 E.01679
G1 X142.352 Y120.089 E.02263
G1 X142.861 Y119.92 E.01682
G1 X143.397 Y119.841 E.01699
G1 X156.569 Y119.836 E.413
G1 X157.11 Y119.884 E.01703
G1 X157.63 Y120.023 E.01688
G1 X158.118 Y120.251 E.01689
G1 X158.559 Y120.559 E.01687
G1 X158.94 Y120.94 E.01689
G1 X159.249 Y121.381 E.01688
G1 X159.476 Y121.869 E.01688
G1 X159.616 Y122.389 E.01688
G1 X159.663 Y123.08 E.02172
G1 X159.658 Y133.552 E.32834
G1 X159.579 Y134.088 E.01699
G1 X159.41 Y134.599 E.01688
G1 X159.154 Y135.073 E.01689
G1 X158.82 Y135.496 E.0169
G1 X158.42 Y135.852 E.01679
G1 X157.797 Y136.212 E.02256
G1 X157.107 Y136.418 E.02258
G1 X156.561 Y136.466 E.01719
G1 X143.397 Y136.46 E.41275
G1 X142.861 Y136.382 E.01698
G1 X142.35 Y136.212 E.01689
G1 X141.876 Y135.957 E.01688
G1 X141.454 Y135.623 E.01687
G1 X141.366 Y135.524 E.00415
M204 S1000
;WIPE_START
G1 F8640
G1 X141.326 Y135.479 E-.0139
G1 X141.097 Y135.222 E-.07948
G1 X140.737 Y134.599 E-.16614
G1 X140.531 Y133.91 E-.16605
G1 X140.483 Y133.364 E-.12656
G1 X140.484 Y132.291 E-.24787
;WIPE_END
G1 Z.6 F720
G1 X158.89 Y121.906 F10800
G1 Z.2 F720
G1 E.8 F2100
M204 S800
;TYPE:Solid infill
;WIDTH:0.423432
G1 F1200
G1 X158.088 Y121.104 E.03589
G1 X157.758 Y120.873 E.01274
G1 X157.384 Y120.699 E.01305
G1 X157.057 Y120.611 E.01071
G1 X158.888 Y122.442 E.08193
G1 X158.947 Y123.039 E.01898
G1 X156.47 Y120.563 E.11081
G1 X155.932 Y120.562 E.01702
G1 X158.947 Y123.577 E.13491
G1 X158.946 Y124.115 E.01702
G1 X155.394 Y120.562 E.15896
G1 X154.855 Y120.562 E.01705
G1 X158.946 Y124.653 E.18305
G1 X158.946 Y125.191 E.01702
G1 X154.317 Y120.562 E.20713
G1 X153.779 Y120.562 E.01702
G1 X158.945 Y125.728 E.23115
G1 X158.945 Y126.266 E.01702
G1 X153.24 Y120.561 E.25527
G1 X152.702 Y120.561 E.01702
G1 X158.945 Y126.804 E.27934
G1 X158.945 Y127.342 E.01702
G1 X152.164 Y120.561 E.30342
G1 X151.626 Y120.561 E.01702
G1 X158.944 Y127.88 E.32747
G1 X158.944 Y128.418 E.01702
G1 X151.087 Y120.561 E.35156
G1 X150.549 Y120.561 E.01702
G1 X158.944 Y128.955 E.37561
G1 X158.943 Y129.493 E.01702
G1 X150.011 Y120.56 E.39969
G1 X149.472 Y120.56 E.01705
G1 X158.943 Y130.031 E.42378
G1 X158.943 Y130.569 E.01702
G1 X148.934 Y120.56 E.44786
G1 X148.396 Y120.56 E.01702
M73 P1 R41
G1 X158.943 Y131.107 E.47193
G1 X158.942 Y131.645 E.01702
G1 X147.857 Y120.56 E.496
G1 X147.319 Y120.559 E.01702
G1 X158.942 Y132.182 E.52007
G1 X158.942 Y132.72 E.01702
G1 X146.781 Y120.559 E.54415
G1 X146.242 Y120.559 E.01705
G1 X158.941 Y133.258 E.56822
G1 X158.941 Y133.5 E.00766
G1 X158.904 Y133.758 E.00825
G1 X145.704 Y120.559 E.59062
G1 X145.166 Y120.559 E.01702
G1 X158.792 Y134.185 E.6097
G1 X158.75 Y134.314 E.00429
G1 X158.621 Y134.552 E.00857
G1 X144.627 Y120.558 E.62617
G1 X144.089 Y120.558 E.01702
G1 X158.401 Y134.87 E.64039
G1 X158.297 Y135.002 E.00532
G1 X158.137 Y135.145 E.00679
G1 X143.551 Y120.558 E.65268
G1 X143.068 Y120.614 E.01538
G1 X157.824 Y135.369 E.66024
G1 X157.476 Y135.56 E.01256
G1 X142.658 Y120.742 E.66304
G1 X142.315 Y120.937 E.01248
G1 X157.062 Y135.684 E.65986
G1 X156.972 Y135.711 E.00297
G1 X156.585 Y135.745 E.01229
G1 X142.003 Y121.163 E.65248
G1 X141.85 Y121.299 E.00648
G1 X141.74 Y121.438 E.00561
G1 X156.051 Y135.749 E.64035
G1 X155.513 Y135.749 E.01702
M73 P2 R41
M73 Q2 S42
G1 X141.521 Y121.757 E.62608
G1 X141.397 Y121.987 E.00827
G1 X141.351 Y122.126 E.00463
G1 X154.974 Y135.749 E.60957
G1 X154.436 Y135.748 E.01702
G1 X141.242 Y122.554 E.59037
G1 X141.206 Y122.802 E.00793
G1 X141.205 Y123.056 E.00804
G1 X153.898 Y135.748 E.56793
G1 X153.359 Y135.748 E.01705
G1 X141.205 Y123.594 E.54383
G1 X141.205 Y124.131 E.01699
G1 X152.821 Y135.748 E.51978
G1 X152.283 Y135.747 E.01702
G1 X141.205 Y124.669 E.49569
G1 X141.204 Y125.207 E.01702
G1 X151.744 Y135.747 E.47162
G1 X151.206 Y135.747 E.01702
G1 X141.204 Y125.745 E.44754
G1 X141.204 Y126.283 E.01702
G1 X150.668 Y135.747 E.42347
G1 X150.129 Y135.747 E.01705
G1 X141.203 Y126.821 E.3994
G1 X141.203 Y127.358 E.01699
G1 X149.591 Y135.746 E.37532
G1 X149.053 Y135.746 E.01702
G1 X141.203 Y127.896 E.35125
G1 X141.203 Y128.434 E.01702
G1 X148.514 Y135.746 E.32716
G1 X147.976 Y135.746 E.01702
G1 X141.202 Y128.972 E.3031
G1 X141.202 Y129.51 E.01702
G1 X147.438 Y135.745 E.27901
G1 X146.899 Y135.745 E.01705
G1 X141.202 Y130.048 E.25491
G1 X141.201 Y130.586 E.01702
G1 X146.361 Y135.745 E.23086
G1 X145.822 Y135.745 E.01705
M73 Q2 S41
G1 X141.201 Y131.123 E.20679
G1 X141.201 Y131.661 E.01702
G1 X145.284 Y135.744 E.1827
G1 X144.746 Y135.744 E.01702
G1 X141.201 Y132.199 E.15862
G1 X141.2 Y132.737 E.01702
G1 X144.207 Y135.744 E.13455
G1 X143.669 Y135.744 E.01702
G1 X141.2 Y133.275 E.11048
G1 X141.238 Y133.775 E.01587
G1 X141.271 Y133.884 E.0036
G1 X143.076 Y135.689 E.08077
G1 X142.635 Y135.552 E.01461
G1 X142.271 Y135.356 E.01308
G1 X141.954 Y135.105 E.01279
G1 X141.26 Y134.411 E.03105
M204 S1000
;WIPE_START
G1 F8640
G1 X141.954 Y135.105 E-.22662
G1 X142.271 Y135.356 E-.09336
G1 X142.635 Y135.552 E-.09546
G1 X143.076 Y135.689 E-.10663
G1 X142.225 Y134.838 E-.27793
;WIPE_END
G1 Z.6 F720
; stop printing object Clip.stl id:8 copy 0
; printing object Clip.stl id:1 copy 0
G1 X142.899 Y111.844 F10800
G1 Z.2 F720
G1 E.8 F2100
M204 S800
;TYPE:Perimeter
;WIDTH:0.419999
G1 F1200
G1 X142.71 Y111.633 E.00888
G1 X142.392 Y111.081 E.01997
G1 X142.209 Y110.471 E.01997
G1 X142.166 Y109.98 E.01545
G1 X142.172 Y99.609 E.32517
G1 X142.242 Y98.933 E.02131
G1 X142.39 Y98.484 E.01482
G1 X142.615 Y98.068 E.01483
G1 X142.908 Y97.698 E.0148
G1 X143.255 Y97.389 E.01457
G1 X143.813 Y97.066 E.02022
G1 X144.254 Y96.92 E.01457
G1 X144.73 Y96.851 E.01508
G1 X157.732 Y96.845 E.40767
G1 X158.35 Y96.888 E.01942
G1 X158.806 Y97.011 E.01481
G1 X159.235 Y97.21 E.01483
G1 X159.622 Y97.481 E.01481
G1 X159.956 Y97.816 E.01483
G1 X160.227 Y98.203 E.01481
G1 X160.426 Y98.631 E.0148
G1 X160.549 Y99.087 E.01481
G1 X160.592 Y99.712 E.01964
G1 X160.587 Y109.957 E.32122
G1 X160.517 Y110.633 E.02131
G1 X160.368 Y111.081 E.0148
G1 X160.144 Y111.497 E.01481
G1 X159.851 Y111.868 E.01482
G1 X159.504 Y112.177 E.01457
G1 X158.952 Y112.495 E.01997
G1 X158.342 Y112.678 E.01997
G1 X157.851 Y112.721 E.01545
G1 X144.93 Y112.715 E.40513
G1 X144.254 Y112.645 E.02131
G1 X143.806 Y112.497 E.01479
G1 X143.39 Y112.273 E.01481
G1 X143.019 Y111.98 E.01482
G1 X142.939 Y111.889 E.0038
M204 S1000
G1 X142.939 Y111.889 F10800
G1 X142.632 Y112.111
M204 S800
;TYPE:External perimeter
G1 F1200
G1 X142.403 Y111.854 E.01079
G1 X142.043 Y111.231 E.02256
G1 X141.837 Y110.542 E.02255
G1 X141.789 Y109.996 E.01719
G1 X141.795 Y99.381 E.33283
G1 X141.873 Y98.846 E.01695
G1 X142.043 Y98.334 E.01692
G1 X142.298 Y97.86 E.01688
G1 X142.632 Y97.438 E.01687
G1 X143.033 Y97.082 E.01681
G1 X143.658 Y96.721 E.02263
G1 X144.167 Y96.552 E.01682
G1 X144.703 Y96.474 E.01698
G1 X157.874 Y96.468 E.41297
G1 X158.416 Y96.516 E.01706
G1 X158.936 Y96.655 E.01688
G1 X159.424 Y96.883 E.01689
G1 X159.865 Y97.191 E.01687
G1 X160.246 Y97.572 E.01689
G1 X160.555 Y98.013 E.01688
G1 X160.782 Y98.501 E.01688
G1 X160.921 Y99.021 E.01688
G1 X160.969 Y99.712 E.02172
G1 X160.964 Y110.184 E.32834
G1 X160.885 Y110.72 E.01699
G1 X160.716 Y111.231 E.01688
G1 X160.46 Y111.705 E.01689
G1 X160.126 Y112.128 E.0169
G1 X159.726 Y112.484 E.01679
G1 X159.103 Y112.844 E.02256
G1 X158.413 Y113.05 E.02258
G1 X157.867 Y113.098 E.01719
G1 X144.703 Y113.092 E.41275
G1 X144.167 Y113.014 E.01698
G1 X143.656 Y112.844 E.01689
G1 X143.182 Y112.589 E.01688
G1 X142.759 Y112.255 E.0169
G1 X142.672 Y112.156 E.00413
M204 S1000
;WIPE_START
G1 F8640
G1 X142.632 Y112.111 E-.0139
G1 X142.403 Y111.854 E-.07948
G1 X142.043 Y111.231 E-.16614
G1 X141.837 Y110.542 E-.16605
G1 X141.789 Y109.996 E-.12656
G1 X141.79 Y108.923 E-.24787
;WIPE_END
G1 Z.6 F720
G1 X160.196 Y98.538 F10800
G1 Z.2 F720
G1 E.8 F2100
M204 S800
;TYPE:Solid infill
;WIDTH:0.423432
G1 F1200
G1 X159.394 Y97.737 E.03586
G1 X159.064 Y97.505 E.01276
G1 X158.69 Y97.331 E.01305
G1 X158.363 Y97.243 E.01071
G1 X160.194 Y99.074 E.08193
G1 X160.253 Y99.671 E.01898
G1 X157.776 Y97.195 E.11081
G1 X157.238 Y97.195 E.01702
G1 X160.252 Y100.209 E.13486
G1 X160.252 Y100.747 E.01702
G1 X156.7 Y97.194 E.15896
G1 X156.161 Y97.194 E.01705
G1 X160.252 Y101.285 E.18305
G1 X160.252 Y101.823 E.01702
G1 X155.623 Y97.194 E.20713
G1 X155.085 Y97.194 E.01702
G1 X160.251 Y102.361 E.23118
G1 X160.251 Y102.898 E.01699
G1 X154.546 Y97.194 E.25525
G1 X154.008 Y97.193 E.01702
G1 X160.251 Y103.436 E.27934
G1 X160.25 Y103.974 E.01702
M73 P3 R41
G1 X153.47 Y97.193 E.3034
G1 X152.931 Y97.193 E.01705
M73 Q3 S41
G1 X160.25 Y104.512 E.32749
G1 X160.25 Y105.05 E.01702
G1 X152.393 Y97.193 E.35156
G1 X151.855 Y97.193 E.01702
G1 X160.25 Y105.588 E.37564
G1 X160.249 Y106.125 E.01699
G1 X151.316 Y97.192 E.39971
G1 X150.778 Y97.192 E.01702
G1 X160.249 Y106.663 E.42378
G1 X160.249 Y107.201 E.01702
G1 X150.24 Y97.192 E.44786
G1 X149.701 Y97.192 E.01705
