; generated by PrusaSlicer 2.4.1+win64 on 2022-12-16 at 09:37:34 UTC


;
;
; 

; external perimeters extrusion width = 0.45mm
; perimeters extrusion width = 0.45mm
; infill extrusion width = 0.45mm
; solid infill extrusion width = 0.45mm
; top infill extrusion width = 0.40mm
; first layer extrusion width = 0.42mm

M73 P0 R29
M73 Q0 S29
M201 X1000 Y1000 Z200 E5000 ; sets maximum accelerations, mm/sec^2
M203 X200 Y200 Z12 E120 ; sets maximum feedrates, mm / sec
M204 P1250 R1250 T1250 ; sets acceleration (P, T) and retract acceleration (R), mm/sec^2
M205 X8.00 Y8.00 Z0.40 E4.50 ; sets the jerk limits, mm/sec
M205 S0 T0 ; sets the minimum extruding and travel feed rate, mm/sec
M107
;TYPE:Custom
M862.3 P "MK3S" ; printer model check
M862.1 P0.4 ; nozzle diameter check
M115 U3.11.0 ; tell printer latest fw version
G90 ; use absolute coordinates
M83 ; extruder relative mode
M104 S215 ; set extruder temp
M140 S60 ; set bed temp
M190 S60 ; wait for bed temp
M109 S215 ; wait for extruder temp
G28 W ; home all without mesh bed level
G80 ; mesh bed leveling

G1 Z0.2 F720
G1 Y-3 F1000 ; go outside print area
G92 E0
G1 X60 E9 F1000 ; intro line
G1 X100 E12.5 F1000 ; intro line

G92 E0
M221 S95

; Don't change E values below. Excessive value can damage the printer.
M907 E430 ; set extruder motor current
G21 ; set units to millimeters
G90 ; use absolute coordinates
M83 ; use relative distances for extrusion
M900 K0.05 ; Filament gcode LA 1.5
M900 K30 ; Filament gcode LA 1.0
M107
;LAYER_CHANGE
;Z:0.2
;HEIGHT:0.2
;BEFORE_LAYER_CHANGE
G92 E0.0
;0.2


G1 E-.8 F2100
G1 Z.4 F720
;AFTER_LAYER_CHANGE
;0.2
G1 X122.316 Y96.45 F10800
G1 Z.2 F720
G1 E.8 F2100
M204 S800
;TYPE:Skirt/Brim
;WIDTH:0.42
G1 F1200
G1 X130.602 Y85.942 E.41958
G1 X131.702 Y84.817 E.04934
G1 X132.399 Y84.31 E.02703
G1 X133.514 Y83.742 E.03923
G1 X134.333 Y83.476 E.02699
G1 X135.569 Y83.28 E.03924
G1 X136.431 Y83.28 E.02705
G1 X137.667 Y83.476 E.03924
G1 X138.486 Y83.742 E.02699
G1 X139.601 Y84.31 E.03923
G1 X140.298 Y84.817 E.02703
G1 X141.183 Y85.702 E.03924
G1 X141.69 Y86.399 E.02703
G1 X142.258 Y87.514 E.03923
G1 X142.524 Y88.333 E.02699
G1 X142.72 Y89.569 E.03924
G1 X142.72 Y90.431 E.02705
G1 X142.524 Y91.667 E.03924
G1 X142.258 Y92.486 E.02699
G1 X141.457 Y93.98 E.05314
G1 X119.183 Y124.298 E1.17958
G1 X118.298 Y125.183 E.03924
G1 X117.601 Y125.69 E.02703
G1 X116.486 Y126.258 E.03923
G1 X115.667 Y126.524 E.02699
G1 X114.431 Y126.72 E.03924
G1 X113.569 Y126.72 E.02705
G1 X112.333 Y126.524 E.03924
G1 X111.514 Y126.258 E.02699
G1 X110.399 Y125.69 E.03923
G1 X109.702 Y125.183 E.02703
G1 X108.817 Y124.298 E.03924
G1 X108.31 Y123.601 E.02702
G1 X107.742 Y122.486 E.03923
G1 X107.476 Y121.667 E.02699
G1 X107.28 Y120.431 E.03924
G1 X107.28 Y119.569 E.02705
G1 X107.476 Y118.333 E.03924
G1 X107.742 Y117.514 E.02699
G1 X108.44 Y116.17 E.04748
G1 X115.44 Y105.17 E.40881
G1 X122.279 Y96.498 E.3463
M204 S1000
G1 X122.574 Y96.73 F10800
M204 S800
G1 F1200
G1 X130.898 Y86.176 E.42146
G1 X131.968 Y85.083 E.04795
G1 X132.57 Y84.646 E.02332
G1 X133.685 Y84.078 E.03923
G1 X134.392 Y83.848 E.0233
G1 X135.628 Y83.652 E.03924
G1 X136.372 Y83.652 E.02335
G1 X137.608 Y83.848 E.03924
G1 X138.315 Y84.078 E.0233
G1 X139.43 Y84.646 E.03923
G1 X140.032 Y85.083 E.02332
G1 X140.917 Y85.968 E.03924
G1 X141.354 Y86.57 E.02332
G1 X141.922 Y87.685 E.03923
G1 X142.152 Y88.392 E.0233
G1 X142.348 Y89.628 E.03924
G1 X142.348 Y90.372 E.02335
G1 X142.152 Y91.608 E.03924
G1 X141.922 Y92.315 E.0233
G1 X141.153 Y93.757 E.05124
G1 X118.917 Y124.032 E1.17778
G1 X118.032 Y124.917 E.03924
G1 X117.43 Y125.354 E.02332
G1 X116.315 Y125.922 E.03923
G1 X115.608 Y126.152 E.0233
G1 X114.372 Y126.348 E.03924
G1 X113.628 Y126.348 E.02335
G1 X112.392 Y126.152 E.03924
G1 X111.685 Y125.922 E.0233
G1 X110.57 Y125.354 E.03923
G1 X109.968 Y124.917 E.02332
G1 X109.083 Y124.032 E.03924
G1 X108.646 Y123.43 E.02332
G1 X108.078 Y122.315 E.03923
G1 X107.848 Y121.608 E.0233
G1 X107.652 Y120.372 E.03924
G1 X107.652 Y119.628 E.02335
G1 X107.848 Y118.392 E.03924
G1 X108.078 Y117.685 E.0233
G1 X108.759 Y116.373 E.04635
G1 X115.759 Y105.373 E.40881
G1 X122.537 Y96.778 E.34322
M204 S1000
; printing object stifte.stl id:0 copy 0
;WIPE_START
M73 P1 R29
M73 Q1 S29
G1 F8640
G1 X124.575 Y94.193 E-.76
;WIPE_END
G1 E-.04 F2100
G1 Z.6 F720
G1 X114.872 Y117.317 F10800
G1 Z.2 F720
G1 E.8 F2100
M204 S800
;TYPE:Perimeter
G1 F1200
G1 X115.658 Y117.718 E.02768
G1 X116.282 Y118.342 E.02768
G1 X116.683 Y119.128 E.02768
G1 X116.821 Y120 E.02767
G1 X116.683 Y120.872 E.02767
G1 X116.282 Y121.658 E.02768
G1 X115.658 Y122.282 E.02768
G1 X114.872 Y122.683 E.02768
G1 X114 Y122.821 E.02767
G1 X113.128 Y122.683 E.02767
G1 X112.342 Y122.282 E.02768
G1 X111.718 Y121.658 E.02768
G1 X111.317 Y120.872 E.02768
G1 X111.179 Y120 E.02767
G1 X111.317 Y119.128 E.02767
G1 X111.718 Y118.342 E.02768
G1 X112.342 Y117.718 E.02768
G1 X113.128 Y117.317 E.02768
G1 X114 Y117.179 E.02767
G1 X114.812 Y117.308 E.02579
M204 S1000
G1 X114.99 Y116.954 F10800
M204 S800
G1 F1200
G1 X115.883 Y117.409 E.03142
G1 X116.591 Y118.117 E.03142
G1 X117.046 Y119.01 E.03142
G1 X117.203 Y120 E.03142
G1 X117.046 Y120.99 E.03142
G1 X116.591 Y121.883 E.03142
G1 X115.883 Y122.591 E.03142
G1 X114.99 Y123.046 E.03142
G1 X114 Y123.203 E.03142
G1 X113.01 Y123.046 E.03142
G1 X112.117 Y122.591 E.03142
G1 X111.409 Y121.883 E.03142
G1 X110.954 Y120.99 E.03142
G1 X110.797 Y120 E.03142
G1 X110.954 Y119.01 E.03142
G1 X111.409 Y118.117 E.03142
G1 X112.117 Y117.409 E.03142
G1 X113.01 Y116.954 E.03142
G1 X114 Y116.797 E.03142
G1 X114.93 Y116.944 E.02954
M204 S1000
G1 X115.108 Y116.591 F10800
M204 S800
;TYPE:External perimeter
G1 F1200
G1 X116.107 Y117.1 E.03516
G1 X116.9 Y117.893 E.03517
G1 X117.409 Y118.892 E.03516
G1 X117.585 Y120 E.03517
G1 X117.409 Y121.108 E.03517
G1 X116.9 Y122.107 E.03516
G1 X116.107 Y122.9 E.03517
G1 X115.108 Y123.409 E.03516
G1 X114 Y123.585 E.03517
G1 X112.892 Y123.409 E.03517
G1 X111.893 Y122.9 E.03516
G1 X111.1 Y122.107 E.03517
G1 X110.591 Y121.108 E.03516
G1 X110.415 Y120 E.03517
G1 X110.591 Y118.892 E.03517
G1 X111.1 Y117.893 E.03516
G1 X111.893 Y117.1 E.03517
G1 X112.892 Y116.591 E.03516
G1 X114 Y116.415 E.03517
G1 X115.048 Y116.581 E.03328
M204 S1000
G1 X115.191 Y116.982 F10800
G1 X115.091 Y117.555
M204 S800
;TYPE:Solid infill
;WIDTH:0.427519
G1 F1200
G1 X116.056 Y118.521 E.04367
G1 X116.411 Y119.217 E.02497
G1 X116.449 Y119.458 E.0078
G1 X114.542 Y117.551 E.08622
G1 X114 Y117.465 E.01756
G1 X113.925 Y117.477 E.00244
G1 X116.523 Y120.075 E.11752
G1 X116.449 Y120.545 E.0152
G1 X113.455 Y117.551 E.13538
G1 X113.217 Y117.589 E.00772
G1 X113.039 Y117.68 E.00637
G1 X116.32 Y120.961 E.14839
G1 X116.137 Y121.321 E.01293
G1 X112.679 Y117.863 E.15638
G1 X112.51 Y117.949 E.00606
G1 X112.366 Y118.094 E.00653
G1 X115.906 Y121.634 E.16013
G1 X115.634 Y121.906 E.0123
G1 X112.094 Y118.366 E.16013
G1 X111.949 Y118.51 E.00653
G1 X111.863 Y118.679 E.00607
G1 X115.321 Y122.137 E.15638
G1 X114.961 Y122.32 E.01293
G1 X111.68 Y119.039 E.14839
G1 X111.589 Y119.217 E.00637
G1 X111.551 Y119.455 E.00772
G1 X114.545 Y122.449 E.13538
G1 X114.075 Y122.523 E.0152
G1 X111.477 Y119.925 E.11752
G1 X111.465 Y120 E.00244
G1 X111.551 Y120.543 E.01757
G1 X113.457 Y122.449 E.08621
G1 X113.217 Y122.411 E.00779
G1 X112.521 Y122.056 E.02498
G1 X111.556 Y121.091 E.04365
M204 S1000
;WIPE_START
G1 F8640
G1 X112.521 Y122.056 E-.31518
G1 X113.217 Y122.411 E-.18036
G1 X113.457 Y122.449 E-.05625
G1 X112.82 Y121.811 E-.20821
;WIPE_END
G1 E-.04 F2100
G1 Z.6 F720
G1 X119.342 Y111.282 F10800
G1 Z.2 F720
G1 E.8 F2100
M204 S800
;TYPE:Perimeter
;WIDTH:0.42
G1 F1200
G1 X118.718 Y110.658 E.02768
G1 X118.317 Y109.872 E.02768
G1 X118.179 Y109 E.02767
G1 X118.317 Y108.128 E.02767
G1 X118.718 Y107.342 E.02768
G1 X119.342 Y106.718 E.02768
G1 X120.128 Y106.317 E.02768
G1 X121 Y106.179 E.02767
G1 X121.872 Y106.317 E.02767
G1 X122.658 Y106.718 E.02768
G1 X123.282 Y107.342 E.02768
G1 X123.683 Y108.128 E.02768
G1 X123.821 Y109 E.02767
G1 X123.683 Y109.872 E.02767
G1 X123.282 Y110.658 E.02768
G1 X122.658 Y111.282 E.02768
G1 X121.872 Y111.683 E.02768
G1 X121 Y111.821 E.02767
G1 X120.128 Y111.683 E.02767
G1 X119.395 Y111.31 E.02579
M204 S1000
G1 X119.117 Y111.591 F10800
M204 S800
G1 F1200
G1 X118.409 Y110.883 E.03142
G1 X117.954 Y109.99 E.03142
G1 X117.797 Y109 E.03142
G1 X117.954 Y108.01 E.03142
G1 X118.409 Y107.117 E.03142
G1 X119.117 Y106.409 E.03142
G1 X120.01 Y105.954 E.03142
G1 X121 Y105.797 E.03142
G1 X121.99 Y105.954 E.03142
G1 X122.883 Y106.409 E.03142
G1 X123.591 Y107.117 E.03142
G1 X124.046 Y108.01 E.03142
G1 X124.203 Y109 E.03142
G1 X124.046 Y109.99 E.03142
G1 X123.591 Y110.883 E.03142
G1 X122.883 Y111.591 E.03142
G1 X121.99 Y112.046 E.03142
G1 X121 Y112.203 E.03142
G1 X120.01 Y112.046 E.03142
G1 X119.171 Y111.619 E.02954
M204 S1000
G1 X118.893 Y111.9 F10800
M204 S800
;TYPE:External perimeter
G1 F1200
G1 X118.1 Y111.107 E.03517
G1 X117.591 Y110.108 E.03516
G1 X117.415 Y109 E.03517
G1 X117.591 Y107.892 E.03517
G1 X118.1 Y106.893 E.03516
G1 X118.893 Y106.1 E.03517
G1 X119.892 Y105.591 E.03516
G1 X121 Y105.415 E.03517
G1 X122.108 Y105.591 E.03517
G1 X123.107 Y106.1 E.03516
G1 X123.9 Y106.893 E.03517
G1 X124.409 Y107.892 E.03516
G1 X124.585 Y109 E.03517
G1 X124.409 Y110.108 E.03517
G1 X123.9 Y111.107 E.03516
G1 X123.107 Y111.9 E.03517
G1 X122.108 Y112.409 E.03516
G1 X121 Y112.585 E.03517
G1 X119.892 Y112.409 E.03517
G1 X118.946 Y111.927 E.03328
M204 S1000
G1 X118.935 Y111.502 F10800
;WIPE_START
G1 F8640
G1 X118.1 Y111.107 E-.2722
G1 X117.591 Y110.108 E-.25896
G1 X117.436 Y109.129 E-.22884
;WIPE_END
G1 E-.04 F2100
G1 Z.6 F720
G1 X123.445 Y107.909 F10800
G1 Z.2 F720
G1 E.8 F2100
M204 S800
;TYPE:Solid infill
;WIDTH:0.427519
G1 F1200
G1 X122.479 Y106.944 E.04367
G1 X121.783 Y106.589 E.02497
G1 X121.542 Y106.551 E.0078
G1 X123.449 Y108.458 E.08622
G1 X123.535 Y109 E.01756
G1 X123.523 Y109.075 E.00244
G1 X120.925 Y106.477 E.11752
G1 X120.455 Y106.551 E.0152
G1 X123.449 Y109.545 E.13538
G1 X123.411 Y109.783 E.00772
G1 X123.32 Y109.961 E.00637
G1 X120.039 Y106.68 E.14839
G1 X119.679 Y106.863 E.01293
G1 X123.137 Y110.321 E.15638
G1 X123.051 Y110.49 E.00606
G1 X122.906 Y110.634 E.00653
G1 X119.366 Y107.094 E.16013
G1 X119.094 Y107.366 E.0123
G1 X122.634 Y110.906 E.16013
G1 X122.49 Y111.051 E.00653
G1 X122.321 Y111.137 E.00607
G1 X118.863 Y107.679 E.15638
G1 X118.68 Y108.039 E.01293
G1 X121.961 Y111.32 E.14839
G1 X121.783 Y111.411 E.00637
G1 X121.545 Y111.449 E.00772
G1 X118.551 Y108.455 E.13538
G1 X118.477 Y108.925 E.0152
G1 X121.075 Y111.523 E.11752
G1 X121 Y111.535 E.00244
G1 X120.457 Y111.449 E.01757
G1 X118.551 Y109.543 E.08621
G1 X118.589 Y109.783 E.00779
G1 X118.944 Y110.479 E.02498
G1 X119.909 Y111.444 E.04365
M204 S1000
;WIPE_START
G1 F8640
G1 X118.944 Y110.479 E-.31518
G1 X118.589 Y109.783 E-.18036
G1 X118.551 Y109.543 E-.05626
G1 X119.189 Y110.18 E-.20821
;WIPE_END
G1 E-.04 F2100
G1 Z.6 F720
G1 X127.342 Y101.282 F10800
G1 Z.2 F720
G1 E.8 F2100
M204 S800
;TYPE:Perimeter
;WIDTH:0.42
G1 F1200
G1 X126.718 Y100.658 E.02768
G1 X126.317 Y99.872 E.02768
G1 X126.179 Y99 E.02767
G1 X126.317 Y98.128 E.02767
G1 X126.718 Y97.342 E.02768
G1 X127.342 Y96.718 E.02768
G1 X128.128 Y96.317 E.02768
G1 X129 Y96.179 E.02767
G1 X129.872 Y96.317 E.02767
G1 X130.658 Y96.718 E.02768
G1 X131.282 Y97.342 E.02768
G1 X131.683 Y98.128 E.02768
G1 X131.821 Y99 E.02767
G1 X131.683 Y99.872 E.02767
G1 X131.282 Y100.658 E.02768
G1 X130.658 Y101.282 E.02768
G1 X129.872 Y101.683 E.02768
G1 X129 Y101.821 E.02767
G1 X128.128 Y101.683 E.02767
G1 X127.395 Y101.31 E.02579
M204 S1000
G1 X127.117 Y101.591 F10800
M204 S800
G1 F1200
G1 X126.409 Y100.883 E.03142
G1 X125.954 Y99.99 E.03142
G1 X125.797 Y99 E.03142
G1 X125.954 Y98.01 E.03142
G1 X126.409 Y97.117 E.03142
G1 X127.117 Y96.409 E.03142
G1 X128.01 Y95.954 E.03142
G1 X129 Y95.797 E.03142
G1 X129.99 Y95.954 E.03142
G1 X130.883 Y96.409 E.03142
G1 X131.591 Y97.117 E.03142
G1 X132.046 Y98.01 E.03142
G1 X132.203 Y99 E.03142
G1 X132.046 Y99.99 E.03142
G1 X131.591 Y100.883 E.03142
G1 X130.883 Y101.591 E.03142
G1 X129.99 Y102.046 E.03142
G1 X129 Y102.203 E.03142
G1 X128.01 Y102.046 E.03142
G1 X127.171 Y101.619 E.02954
M204 S1000
G1 X126.893 Y101.9 F10800
M204 S800
;TYPE:External perimeter
G1 F1200
G1 X126.1 Y101.107 E.03517
G1 X125.591 Y100.108 E.03516
G1 X125.415 Y99 E.03517
M73 Q2 S29
G1 X125.591 Y97.892 E.03517
G1 X126.1 Y96.893 E.03516
M73 P2 R29
G1 X126.893 Y96.1 E.03517
G1 X127.892 Y95.591 E.03516
G1 X129 Y95.415 E.03517
G1 X130.108 Y95.591 E.03517
G1 X131.107 Y96.1 E.03516
G1 X131.9 Y96.893 E.03517
G1 X132.409 Y97.892 E.03516
G1 X132.585 Y99 E.03517
G1 X132.409 Y100.108 E.03517
G1 X131.9 Y101.107 E.03516
G1 X131.107 Y101.9 E.03517
G1 X130.108 Y102.409 E.03516
G1 X129 Y102.585 E.03517
G1 X127.892 Y102.409 E.03517
G1 X126.946 Y101.927 E.03328
M204 S1000
G1 X126.935 Y101.502 F10800
;WIPE_START
G1 F8640
G1 X126.1 Y101.107 E-.2722
G1 X125.591 Y100.108 E-.25896
G1 X125.436 Y99.129 E-.22884
;WIPE_END
G1 E-.04 F2100
G1 Z.6 F720
G1 X130.091 Y96.555 F10800
G1 Z.2 F720
G1 E.8 F2100
M204 S800
;TYPE:Solid infill
;WIDTH:0.427519
G1 F1200
G1 X131.056 Y97.521 E.04367
G1 X131.411 Y98.217 E.02497
G1 X131.449 Y98.458 E.0078
G1 X129.542 Y96.551 E.08622
G1 X129 Y96.465 E.01756
G1 X128.925 Y96.477 E.00244
G1 X131.523 Y99.075 E.11752
G1 X131.449 Y99.545 E.0152
G1 X128.455 Y96.551 E.13538
G1 X128.217 Y96.589 E.00772
G1 X128.039 Y96.68 E.00637
G1 X131.32 Y99.961 E.14839
G1 X131.137 Y100.321 E.01293
M73 P2 R28
G1 X127.679 Y96.863 E.15638
G1 X127.51 Y96.949 E.00606
G1 X127.366 Y97.094 E.00653
G1 X130.906 Y100.634 E.16013
G1 X130.634 Y100.906 E.0123
G1 X127.094 Y97.366 E.16013
G1 X126.949 Y97.51 E.00653
G1 X126.863 Y97.679 E.00607
G1 X130.321 Y101.137 E.15638
G1 X129.961 Y101.32 E.01293
G1 X126.68 Y98.039 E.14839
G1 X126.589 Y98.217 E.00637
G1 X126.551 Y98.455 E.00772
G1 X129.545 Y101.449 E.13538
G1 X129.075 Y101.523 E.0152
G1 X126.477 Y98.925 E.11752
G1 X126.465 Y99 E.00244
G1 X126.551 Y99.543 E.01757
G1 X128.457 Y101.449 E.08621
G1 X128.217 Y101.411 E.00779
G1 X127.521 Y101.056 E.02498
G1 X126.556 Y100.091 E.04365
M204 S1000
;WIPE_START
G1 F8640
G1 X127.521 Y101.056 E-.31518
G1 X128.217 Y101.411 E-.18035
G1 X128.457 Y101.449 E-.05626
G1 X127.82 Y100.811 E-.20821
;WIPE_END
G1 E-.04 F2100
G1 Z.6 F720
G1 X134.342 Y92.282 F10800
G1 Z.2 F720
G1 E.8 F2100
M204 S800
;TYPE:Perimeter
;WIDTH:0.42
G1 F1200
G1 X133.718 Y91.658 E.02768
G1 X133.317 Y90.872 E.02768
G1 X133.179 Y90 E.02767
G1 X133.317 Y89.128 E.02767
G1 X133.718 Y88.342 E.02768
G1 X134.342 Y87.718 E.02768
G1 X135.128 Y87.317 E.02768
G1 X136 Y87.179 E.02767
G1 X136.872 Y87.317 E.02767
G1 X137.658 Y87.718 E.02768
G1 X138.282 Y88.342 E.02768
G1 X138.683 Y89.128 E.02768
G1 X138.821 Y90 E.02767
G1 X138.683 Y90.872 E.02767
G1 X138.282 Y91.658 E.02768
G1 X137.658 Y92.282 E.02768
G1 X136.872 Y92.683 E.02768
G1 X136 Y92.821 E.02767
G1 X135.128 Y92.683 E.02767
G1 X134.395 Y92.31 E.02579
M204 S1000
G1 X134.117 Y92.591 F10800
M204 S800
G1 F1200
G1 X133.409 Y91.883 E.03142
G1 X132.954 Y90.99 E.03142
G1 X132.797 Y90 E.03142
G1 X132.954 Y89.01 E.03142
G1 X133.409 Y88.117 E.03142
G1 X134.117 Y87.409 E.03142
G1 X135.01 Y86.954 E.03142
G1 X136 Y86.797 E.03142
G1 X136.99 Y86.954 E.03142
G1 X137.883 Y87.409 E.03142
G1 X138.591 Y88.117 E.03142
G1 X139.046 Y89.01 E.03142
G1 X139.203 Y90 E.03142
G1 X139.046 Y90.99 E.03142
G1 X138.591 Y91.883 E.03142
G1 X137.883 Y92.591 E.03142
G1 X136.99 Y93.046 E.03142
G1 X136 Y93.203 E.03142
G1 X135.01 Y93.046 E.03142
G1 X134.171 Y92.619 E.02954
M204 S1000
G1 X133.893 Y92.9 F10800
M204 S800
;TYPE:External perimeter
G1 F1200
G1 X133.1 Y92.107 E.03517
G1 X132.591 Y91.108 E.03516
G1 X132.415 Y90 E.03517
G1 X132.591 Y88.892 E.03517
G1 X133.1 Y87.893 E.03516
G1 X133.893 Y87.1 E.03517
G1 X134.892 Y86.591 E.03516
G1 X136 Y86.415 E.03517
G1 X137.108 Y86.591 E.03517
G1 X138.107 Y87.1 E.03516
G1 X138.9 Y87.893 E.03517
G1 X139.409 Y88.892 E.03516
G1 X139.585 Y90 E.03517
G1 X139.409 Y91.108 E.03517
G1 X138.9 Y92.107 E.03516
G1 X138.107 Y92.9 E.03517
G1 X137.108 Y93.409 E.03516
