; generated by PrusaSlicer 2.4.1+win64 on 2022-12-16 at 12:26:16 UTC


;
;
; 

; external perimeters extrusion width = 0.45mm
; perimeters extrusion width = 0.45mm
; infill extrusion width = 0.45mm
; solid infill extrusion width = 0.45mm
; top infill extrusion width = 0.40mm
; first layer extrusion width = 0.42mm

M73 P0 R6
M73 Q0 S6
M201 X1000 Y1000 Z200 E5000 ; sets maximum accelerations, mm/sec^2
M203 X200 Y200 Z12 E120 ; sets maximum feedrates, mm / sec
M204 P1250 R1250 T1250 ; sets acceleration (P, T) and retract acceleration (R), mm/sec^2
M205 X8.00 Y8.00 Z0.40 E4.50 ; sets the jerk limits, mm/sec
M205 S0 T0 ; sets the minimum extruding and travel feed rate, mm/sec
M107
;TYPE:Custom
M862.3 P "MK3S" ; printer model check
M862.1 P0.4 ; nozzle diameter check
M115 U3.11.0 ; tell printer latest fw version
G90 ; use absolute coordinates
M83 ; extruder relative mode
M104 S215 ; set extruder temp
M140 S60 ; set bed temp
M190 S60 ; wait for bed temp
M109 S215 ; wait for extruder temp
G28 W ; home all without mesh bed level
G80 ; mesh bed leveling

G1 Z0.2 F720
G1 Y-3 F1000 ; go outside print area
G92 E0
G1 X60 E9 F1000 ; intro line
G1 X100 E12.5 F1000 ; intro line

G92 E0
M221 S95

; Don't change E values below. Excessive value can damage the printer.
M907 E430 ; set extruder motor current
G21 ; set units to millimeters
G90 ; use absolute coordinates
M83 ; use relative distances for extrusion
M900 K0.05 ; Filament gcode LA 1.5
M900 K30 ; Filament gcode LA 1.0
M107
;LAYER_CHANGE
;Z:0.2
;HEIGHT:0.2
;BEFORE_LAYER_CHANGE
G92 E0.0
;0.2


G1 E-.8 F2100
M73 P1 R6
M73 Q1 S6
G1 Z.4 F720
;AFTER_LAYER_CHANGE
;0.2
G1 X119.283 Y100.168 F10800
G1 Z.2 F720
G1 E.8 F2100
M204 S800
;TYPE:Skirt/Brim
;WIDTH:0.42
G1 F1200
G1 X120.168 Y99.283 E.03924
G1 X121.057 Y98.638 E.03443
G1 X122.172 Y98.07 E.03923
G1 X123.215 Y97.731 E.03439
G1 X124.451 Y97.535 E.03924
M73 Q2 S6
G1 X125.549 Y97.535 E.03446
G1 X126.785 Y97.731 E.03924
G1 X127.828 Y98.07 E.03439
G1 X128.943 Y98.638 E.03924
G1 X129.832 Y99.283 E.03442
M73 P2 R6
G1 X130.717 Y100.168 E.03924
G1 X131.362 Y101.057 E.03443
G1 X131.93 Y102.172 E.03923
G1 X132.269 Y103.215 E.03439
G1 X132.465 Y104.451 E.03924
G1 X132.465 Y105.549 E.03446
G1 X132.269 Y106.785 E.03924
G1 X131.93 Y107.828 E.03439
G1 X131.362 Y108.943 E.03923
G1 X130.717 Y109.832 E.03443
G1 X129.832 Y110.717 E.03924
G1 X128.943 Y111.362 E.03443
G1 X127.828 Y111.93 E.03923
G1 X126.785 Y112.269 E.03439
G1 X125.549 Y112.465 E.03924
G1 X124.451 Y112.465 E.03446
G1 X123.215 Y112.269 E.03924
G1 X122.172 Y111.93 E.03439
G1 X121.057 Y111.362 E.03923
G1 X120.168 Y110.717 E.03443
G1 X119.283 Y109.832 E.03924
G1 X118.638 Y108.943 E.03443
G1 X118.07 Y107.828 E.03923
G1 X117.731 Y106.785 E.03439
G1 X117.535 Y105.549 E.03924
G1 X117.535 Y104.451 E.03446
G1 X117.731 Y103.215 E.03924
G1 X118.07 Y102.172 E.03439
G1 X118.638 Y101.057 E.03923
G1 X119.248 Y100.217 E.03254
M204 S1000
G1 X119.549 Y100.436 F10800
M204 S800
G1 F1200
G1 X120.435 Y99.55 E.03927
G1 X121.228 Y98.974 E.03073
G1 X122.343 Y98.406 E.03923
G1 X123.274 Y98.103 E.03069
G1 X124.51 Y97.907 E.03924
G1 X125.49 Y97.907 E.03075
G1 X126.726 Y98.103 E.03924
G1 X127.657 Y98.406 E.03069
G1 X128.772 Y98.974 E.03924
G1 X129.565 Y99.55 E.03072
G1 X130.45 Y100.435 E.03924
G1 X131.026 Y101.228 E.03073
G1 X131.594 Y102.343 E.03923
G1 X131.897 Y103.274 E.03069
G1 X132.093 Y104.51 E.03924
G1 X132.093 Y105.49 E.03075
G1 X131.897 Y106.726 E.03924
G1 X131.594 Y107.657 E.03069
G1 X131.026 Y108.772 E.03923
G1 X130.45 Y109.565 E.03073
G1 X129.565 Y110.45 E.03924
G1 X128.772 Y111.026 E.03073
G1 X127.657 Y111.594 E.03923
G1 X126.726 Y111.897 E.03069
G1 X125.49 Y112.093 E.03924
G1 X124.51 Y112.093 E.03075
G1 X123.274 Y111.897 E.03924
G1 X122.343 Y111.594 E.03069
G1 X121.228 Y111.026 E.03923
G1 X120.435 Y110.45 E.03073
G1 X119.55 Y109.565 E.03924
G1 X118.974 Y108.772 E.03073
M73 Q3 S6
G1 X118.406 Y107.657 E.03923
G1 X118.103 Y106.726 E.03069
G1 X117.907 Y105.49 E.03924
G1 X117.907 Y104.51 E.03075
G1 X118.103 Y103.274 E.03924
M73 P3 R6
G1 X118.406 Y102.343 E.03069
G1 X118.974 Y101.228 E.03923
G1 X119.514 Y100.484 E.02881
M204 S1000
G1 X119.815 Y100.703 F10800
M204 S800
G1 F1200
G1 X120.702 Y99.817 E.0393
G1 X121.399 Y99.31 E.02703
G1 X122.514 Y98.742 E.03923
G1 X123.333 Y98.476 E.02699
G1 X124.569 Y98.28 E.03924
G1 X125.431 Y98.28 E.02705
G1 X126.667 Y98.476 E.03924
G1 X127.486 Y98.742 E.02699
G1 X128.601 Y99.31 E.03924
G1 X129.298 Y99.817 E.02702
G1 X130.183 Y100.702 E.03924
G1 X130.69 Y101.399 E.02703
G1 X131.258 Y102.514 E.03923
G1 X131.524 Y103.333 E.02699
G1 X131.72 Y104.569 E.03924
G1 X131.72 Y105.431 E.02705
G1 X131.524 Y106.667 E.03924
G1 X131.258 Y107.486 E.02699
G1 X130.69 Y108.601 E.03923
G1 X130.183 Y109.298 E.02703
G1 X129.298 Y110.183 E.03924
G1 X128.601 Y110.69 E.02703
G1 X127.486 Y111.258 E.03923
G1 X126.667 Y111.524 E.02699
G1 X125.431 Y111.72 E.03924
G1 X124.569 Y111.72 E.02705
G1 X123.333 Y111.524 E.03924
G1 X122.514 Y111.258 E.02699
G1 X121.399 Y110.69 E.03923
G1 X120.702 Y110.183 E.02703
G1 X119.817 Y109.298 E.03924
G1 X119.31 Y108.601 E.02703
G1 X118.742 Y107.486 E.03923
G1 X118.476 Y106.667 E.02699
G1 X118.28 Y105.431 E.03924
G1 X118.28 Y104.569 E.02705
G1 X118.476 Y103.333 E.03924
G1 X118.742 Y102.514 E.02699
G1 X119.31 Y101.399 E.03923
G1 X119.78 Y100.752 E.02508
M204 S1000
G1 X120.081 Y100.971 F10800
M204 S800
G1 F1200
G1 X120.968 Y100.083 E.03933
G1 X121.57 Y99.646 E.02332
G1 X122.685 Y99.078 E.03923
G1 X123.392 Y98.848 E.0233
G1 X124.628 Y98.652 E.03924
G1 X125.372 Y98.652 E.02335
G1 X126.608 Y98.848 E.03924
G1 X127.315 Y99.078 E.0233
G1 X128.43 Y99.646 E.03924
G1 X129.032 Y100.083 E.02332
G1 X129.917 Y100.968 E.03924
G1 X130.354 Y101.57 E.02332
G1 X130.922 Y102.685 E.03923
G1 X131.152 Y103.392 E.0233
G1 X131.348 Y104.628 E.03924
G1 X131.348 Y105.372 E.02335
G1 X131.152 Y106.608 E.03924
G1 X130.922 Y107.315 E.0233
G1 X130.354 Y108.43 E.03923
G1 X129.917 Y109.032 E.02332
G1 X129.032 Y109.917 E.03924
G1 X128.43 Y110.354 E.02332
G1 X127.315 Y110.922 E.03923
G1 X126.608 Y111.152 E.0233
M73 Q4 S6
G1 X125.372 Y111.348 E.03924
G1 X124.628 Y111.348 E.02335
G1 X123.392 Y111.152 E.03924
G1 X122.685 Y110.922 E.0233
G1 X121.57 Y110.354 E.03923
G1 X120.968 Y109.917 E.02332
M73 P4 R6
G1 X120.083 Y109.032 E.03924
G1 X119.646 Y108.43 E.02332
G1 X119.078 Y107.315 E.03923
G1 X118.848 Y106.608 E.0233
G1 X118.652 Y105.372 E.03924
G1 X118.652 Y104.628 E.02335
G1 X118.848 Y103.392 E.03924
G1 X119.078 Y102.685 E.0233
G1 X119.646 Y101.57 E.03923
G1 X120.046 Y101.019 E.02135
M204 S1000
; printing object Stift2_30.stl id:0 copy 0
;WIPE_START
G1 F8640
G1 X120.968 Y100.083 E-.30337
G1 X121.57 Y99.646 E-.17177
G1 X122.669 Y99.086 E-.28486
;WIPE_END
G1 E-.04 F2100
G1 Z.6 F720
G1 X122.718 Y103.342 F10800
G1 Z.2 F720
G1 E.8 F2100
M204 S800
;TYPE:Perimeter
G1 F1200
G1 X123.342 Y102.718 E.02768
G1 X124.128 Y102.317 E.02768
G1 X125 Y102.179 E.02767
G1 X125.872 Y102.317 E.02767
G1 X126.658 Y102.718 E.02768
G1 X127.282 Y103.342 E.02768
G1 X127.683 Y104.128 E.02768
G1 X127.821 Y105 E.02767
G1 X127.683 Y105.872 E.02767
G1 X127.282 Y106.658 E.02768
G1 X126.658 Y107.282 E.02768
G1 X125.872 Y107.683 E.02768
G1 X125 Y107.821 E.02767
G1 X124.128 Y107.683 E.02767
G1 X123.342 Y107.282 E.02768
G1 X122.718 Y106.658 E.02768
G1 X122.317 Y105.872 E.02768
G1 X122.179 Y105 E.02767
G1 X122.317 Y104.128 E.02767
G1 X122.69 Y103.395 E.02579
M204 S1000
G1 X122.409 Y103.117 F10800
M204 S800
G1 F1200
G1 X123.117 Y102.409 E.03142
G1 X124.01 Y101.954 E.03142
G1 X125 Y101.797 E.03142
G1 X125.99 Y101.954 E.03142
G1 X126.883 Y102.409 E.03142
G1 X127.591 Y103.117 E.03142
G1 X128.046 Y104.01 E.03142
G1 X128.203 Y105 E.03142
G1 X128.046 Y105.99 E.03142
G1 X127.591 Y106.883 E.03142
G1 X126.883 Y107.591 E.03142
G1 X125.99 Y108.046 E.03142
G1 X125 Y108.203 E.03142
G1 X124.01 Y108.046 E.03142
G1 X123.117 Y107.591 E.03142
G1 X122.409 Y106.883 E.03142
G1 X121.954 Y105.99 E.03142
G1 X121.797 Y105 E.03142
G1 X121.954 Y104.01 E.03142
G1 X122.381 Y103.171 E.02954
M204 S1000
G1 X122.1 Y102.893 F10800
M204 S800
;TYPE:External perimeter
G1 F1200
G1 X122.893 Y102.1 E.03517
G1 X123.892 Y101.591 E.03516
G1 X125 Y101.415 E.03517
G1 X126.108 Y101.591 E.03517
G1 X127.107 Y102.1 E.03516
G1 X127.9 Y102.893 E.03517
G1 X128.409 Y103.892 E.03516
G1 X128.585 Y105 E.03517
G1 X128.409 Y106.108 E.03517
G1 X127.9 Y107.107 E.03516
G1 X127.107 Y107.9 E.03517
G1 X126.108 Y108.409 E.03516
G1 X125 Y108.585 E.03517
M73 Q5 S6
G1 X123.892 Y108.409 E.03517
G1 X122.893 Y107.9 E.03516
G1 X122.1 Y107.107 E.03517
G1 X121.591 Y106.108 E.03516
G1 X121.415 Y105 E.03517
M73 P5 R6
G1 X121.591 Y103.892 E.03517
G1 X122.073 Y102.946 E.03328
M204 S1000
G1 X122.498 Y102.935 F10800
;WIPE_START
G1 F8640
G1 X122.893 Y102.1 E-.27221
G1 X123.892 Y101.591 E-.25896
G1 X124.871 Y101.436 E-.22884
;WIPE_END
G1 E-.04 F2100
G1 Z.6 F720
G1 X127.445 Y103.909 F10800
G1 Z.2 F720
G1 E.8 F2100
M204 S800
;TYPE:Solid infill
;WIDTH:0.427518
G1 F1200
G1 X126.479 Y102.944 E.04367
G1 X125.783 Y102.589 E.02497
G1 X125.542 Y102.551 E.0078
G1 X127.449 Y104.458 E.08622
G1 X127.535 Y105 E.01756
G1 X127.523 Y105.075 E.00244
G1 X124.925 Y102.477 E.11752
G1 X124.455 Y102.551 E.0152
G1 X127.449 Y105.545 E.13538
G1 X127.411 Y105.783 E.00772
G1 X127.32 Y105.961 E.00637
G1 X124.039 Y102.68 E.14839
G1 X123.679 Y102.863 E.01293
G1 X127.137 Y106.321 E.15638
G1 X127.051 Y106.49 E.00606
G1 X126.906 Y106.634 E.00653
G1 X123.366 Y103.094 E.16013
G1 X123.094 Y103.366 E.0123
G1 X126.634 Y106.906 E.16013
G1 X126.49 Y107.051 E.00653
G1 X126.321 Y107.137 E.00607
G1 X122.863 Y103.679 E.15638
G1 X122.68 Y104.039 E.01293
G1 X125.961 Y107.32 E.14839
G1 X125.783 Y107.411 E.00637
G1 X125.545 Y107.449 E.00772
G1 X122.551 Y104.455 E.13538
G1 X122.477 Y104.925 E.0152
G1 X125.075 Y107.523 E.11751
G1 X125 Y107.535 E.00244
G1 X124.457 Y107.449 E.01757
G1 X122.551 Y105.543 E.08621
G1 X122.589 Y105.783 E.00779
M73 Q6 S6
G1 X122.944 Y106.479 E.02498
G1 X123.909 Y107.444 E.04365
M204 S1000
; stop printing object Stift2_30.stl id:0 copy 0
M106 S84.15
;LAYER_CHANGE
;Z:0.3
;HEIGHT:0.1
;BEFORE_LAYER_CHANGE
G92 E0.0
;0.3


;WIPE_START
G1 F8640
G1 X122.944 Y106.479 E-.31517
G1 X122.589 Y105.783 E-.18036
G1 X122.551 Y105.543 E-.05625
M73 P6 R6
G1 X123.189 Y106.18 E-.20822
;WIPE_END
G1 E-.04 F2100
G1 Z.6 F720
;AFTER_LAYER_CHANGE
;0.3
M104 S210 ; set temperature
G1 X118.896 Y109.299 F10800
G1 Z.3 F720
G1 E.8 F2100
;TYPE:Skirt/Brim
;WIDTH:0.42
G1 F1201
G1 X118.638 Y108.943 E.00728
G1 X118.07 Y107.828 E.02073
G1 X117.731 Y106.785 E.01817
G1 X117.535 Y105.549 E.02074
G1 X117.535 Y104.451 E.01821
G1 X117.731 Y103.215 E.02074
G1 X118.07 Y102.172 E.01817
G1 X118.638 Y101.057 E.02073
G1 X119.283 Y100.168 E.01819
G1 X120.168 Y99.283 E.02074
G1 X121.057 Y98.638 E.01819
G1 X122.172 Y98.07 E.02073
G1 X123.215 Y97.731 E.01817
G1 X124.451 Y97.535 E.02074
G1 X125.549 Y97.535 E.01821
G1 X126.785 Y97.731 E.02074
G1 X127.828 Y98.07 E.01817
G1 X128.943 Y98.638 E.02073
G1 X129.832 Y99.283 E.01819
G1 X130.717 Y100.168 E.02074
G1 X131.362 Y101.057 E.01819
G1 X131.93 Y102.172 E.02073
G1 X132.269 Y103.215 E.01817
G1 X132.465 Y104.451 E.02074
G1 X132.465 Y105.549 E.01821
G1 X132.269 Y106.785 E.02074
G1 X131.93 Y107.828 E.01817
G1 X131.362 Y108.943 E.02073
G1 X130.717 Y109.832 E.01819
G1 X129.832 Y110.717 E.02074
G1 X128.943 Y111.362 E.01819
G1 X127.828 Y111.93 E.02073
G1 X126.785 Y112.269 E.01817
G1 X125.549 Y112.465 E.02074
G1 X124.451 Y112.465 E.01821
G1 X123.215 Y112.269 E.02074
G1 X122.172 Y111.93 E.01817
M73 P6 R5
G1 X121.057 Y111.362 E.02073
G1 X120.168 Y110.717 E.01819
G1 X119.283 Y109.832 E.02074
G1 X118.931 Y109.347 E.00992
G1 X119.233 Y109.128 F10800
G1 F1201
G1 X118.974 Y108.772 E.00729
G1 X118.406 Y107.657 E.02073
G1 X118.103 Y106.726 E.01622
G1 X117.907 Y105.49 E.02074
G1 X117.907 Y104.51 E.01625
G1 X118.103 Y103.274 E.02074
G1 X118.406 Y102.343 E.01622
G1 X118.974 Y101.228 E.02073
G1 X119.55 Y100.435 E.01624
G1 X120.435 Y99.55 E.02074
G1 X121.228 Y98.974 E.01624
G1 X122.343 Y98.406 E.02073
G1 X123.274 Y98.103 E.01622
G1 X124.51 Y97.907 E.02074
G1 X125.49 Y97.907 E.01625
G1 X126.726 Y98.103 E.02074
G1 X127.657 Y98.406 E.01622
M73 Q7 S6
G1 X128.772 Y98.974 E.02073
G1 X129.565 Y99.55 E.01624
G1 X130.45 Y100.435 E.02074
G1 X131.026 Y101.228 E.01624
M73 P7 R5
G1 X131.594 Y102.343 E.02073
G1 X131.897 Y103.274 E.01622
G1 X132.093 Y104.51 E.02074
G1 X132.093 Y105.49 E.01625
G1 X131.897 Y106.726 E.02074
M73 Q7 S5
G1 X131.594 Y107.657 E.01622
G1 X131.026 Y108.772 E.02073
G1 X130.45 Y109.565 E.01624
G1 X129.565 Y110.45 E.02074
G1 X128.772 Y111.026 E.01624
G1 X127.657 Y111.594 E.02073
G1 X126.726 Y111.897 E.01622
G1 X125.49 Y112.093 E.02074
G1 X124.51 Y112.093 E.01625
G1 X123.274 Y111.897 E.02074
G1 X122.343 Y111.594 E.01622
G1 X121.228 Y111.026 E.02073
G1 X120.435 Y110.45 E.01624
G1 X119.55 Y109.565 E.02074
G1 X119.268 Y109.177 E.00795
G1 X119.569 Y108.958 F10800
G1 F1201
G1 X119.31 Y108.601 E.00731
G1 X118.742 Y107.486 E.02073
G1 X118.476 Y106.667 E.01427
G1 X118.28 Y105.431 E.02074
G1 X118.28 Y104.569 E.01429
G1 X118.476 Y103.333 E.02074
G1 X118.742 Y102.514 E.01427
G1 X119.31 Y101.399 E.02073
G1 X119.817 Y100.702 E.01428
G1 X120.702 Y99.817 E.02074
G1 X121.399 Y99.31 E.01428
G1 X122.514 Y98.742 E.02073
G1 X123.333 Y98.476 E.01427
G1 X124.569 Y98.28 E.02074
G1 X125.431 Y98.28 E.01429
G1 X126.667 Y98.476 E.02074
G1 X127.486 Y98.742 E.01427
G1 X128.601 Y99.31 E.02073
G1 X129.298 Y99.817 E.01428
G1 X130.183 Y100.702 E.02074
G1 X130.69 Y101.399 E.01428
G1 X131.258 Y102.514 E.02073
G1 X131.524 Y103.333 E.01427
G1 X131.72 Y104.569 E.02074
G1 X131.72 Y105.431 E.01429
G1 X131.524 Y106.667 E.02074
G1 X131.258 Y107.486 E.01427
G1 X130.69 Y108.601 E.02073
G1 X130.183 Y109.298 E.01428
G1 X129.298 Y110.183 E.02074
G1 X128.601 Y110.69 E.01428
G1 X127.486 Y111.258 E.02073
G1 X126.667 Y111.524 E.01427
G1 X125.431 Y111.72 E.02074
G1 X124.569 Y111.72 E.01429
G1 X123.333 Y111.524 E.02074
G1 X122.514 Y111.258 E.01427
G1 X121.399 Y110.69 E.02073
G1 X120.702 Y110.183 E.01428
G1 X119.817 Y109.298 E.02074
G1 X119.604 Y109.007 E.00598
G1 X119.906 Y108.788 F10800
G1 F1201
G1 X119.646 Y108.43 E.00733
G1 X119.078 Y107.315 E.02073
G1 X118.848 Y106.608 E.01231
G1 X118.652 Y105.372 E.02074
G1 X118.652 Y104.628 E.01234
G1 X118.848 Y103.392 E.02074
G1 X119.078 Y102.685 E.01231
G1 X119.646 Y101.57 E.02073
G1 X120.083 Y100.968 E.01233
M73 Q8 S5
G1 X120.968 Y100.083 E.02074
G1 X121.57 Y99.646 E.01233
G1 X122.685 Y99.078 E.02073
G1 X123.392 Y98.848 E.01231
M73 P8 R5
G1 X124.628 Y98.652 E.02074
G1 X125.372 Y98.652 E.01234
G1 X126.608 Y98.848 E.02074
G1 X127.315 Y99.078 E.01231
G1 X128.43 Y99.646 E.02073
G1 X129.032 Y100.083 E.01233
G1 X129.917 Y100.968 E.02074
G1 X130.354 Y101.57 E.01233
G1 X130.922 Y102.685 E.02073
G1 X131.152 Y103.392 E.01231
G1 X131.348 Y104.628 E.02074
G1 X131.348 Y105.372 E.01234
G1 X131.152 Y106.608 E.02074
G1 X130.922 Y107.315 E.01231
G1 X130.354 Y108.43 E.02073
G1 X129.917 Y109.032 E.01233
G1 X129.032 Y109.917 E.02074
G1 X128.43 Y110.354 E.01233
G1 X127.315 Y110.922 E.02073
G1 X126.608 Y111.152 E.01231
G1 X125.372 Y111.348 E.02074
G1 X124.628 Y111.348 E.01234
G1 X123.392 Y111.152 E.02074
G1 X122.685 Y110.922 E.01231
G1 X121.57 Y110.354 E.02073
G1 X120.968 Y109.917 E.01233
G1 X120.083 Y109.032 E.02074
G1 X119.941 Y108.836 E.00401
; printing object Stift2_30.stl id:0 copy 0
;WIPE_START
G1 F8640
G1 X119.646 Y108.43 E-.11595
G1 X119.078 Y107.315 E-.28894
G1 X118.848 Y106.608 E-.17158
G1 X118.724 Y105.823 E-.18353
;WIPE_END
G1 E-.04 F2100
G1 Z.7 F720
G1 X122.65 Y106.707 F10800
G1 Z.3 F720
G1 E.8 F2100
M204 S600
;TYPE:Perimeter
;WIDTH:0.45
G1 F1201
G1 X122.238 Y105.897 E.01619
G1 X122.096 Y105 E.01619
G1 X122.238 Y104.103 E.01619
G1 X122.65 Y103.293 E.01619
G1 X123.293 Y102.65 E.01619
G1 X124.103 Y102.238 E.01619
G1 X125 Y102.096 E.01619
G1 X125.897 Y102.238 E.01619
G1 X126.707 Y102.65 E.01619
G1 X127.35 Y103.293 E.01619
G1 X127.762 Y104.103 E.01619
G1 X127.904 Y105 E.01619
G1 X127.762 Y105.897 E.01619
G1 X127.35 Y106.707 E.01619
G1 X126.707 Y107.35 E.01619
