; generated by PrusaSlicer 2.4.1+win64 on 2023-09-19 at 10:43:21 UTC


;
;
; 

; external perimeters extrusion width = 0.60mm
; perimeters extrusion width = 0.50mm
; infill extrusion width = 0.50mm
; solid infill extrusion width = 0.50mm
; top infill extrusion width = 0.45mm
; first layer extrusion width = 0.42mm

M73 P0 R3
M73 Q0 S3
M201 X1000 Y1000 Z200 E5000 ; sets maximum accelerations, mm/sec^2
M203 X200 Y200 Z12 E120 ; sets maximum feedrates, mm / sec
M204 P1250 R1250 T1250 ; sets acceleration (P, T) and retract acceleration (R), mm/sec^2
M205 X8.00 Y8.00 Z0.40 E4.50 ; sets the jerk limits, mm/sec
M205 S0 T0 ; sets the minimum extruding and travel feed rate, mm/sec
M107
;TYPE:Custom
M862.3 P "MK3S" ; printer model check
M862.1 P0.4 ; nozzle diameter check
M115 U3.11.0 ; tell printer latest fw version
G90 ; use absolute coordinates
M83 ; extruder relative mode
M104 S215 ; set extruder temp
M140 S60 ; set bed temp
M190 S60 ; wait for bed temp
M109 S215 ; wait for extruder temp
G28 W ; home all without mesh bed level
G80 ; mesh bed leveling

G1 Z0.2 F720
G1 Y-3 F1000 ; go outside print area
G92 E0
G1 X60 E9 F1000 ; intro line
G1 X100 E12.5 F1000 ; intro line

G92 E0
M221 S95

; Don't change E values below. Excessive value can damage the printer.

M907 E538 ; set extruder motor current
G21 ; set units to millimeters
G90 ; use absolute coordinates
M83 ; use relative distances for extrusion
M900 K0.05 ; Filament gcode LA 1.5
M900 K30 ; Filament gcode LA 1.0
M107
;LAYER_CHANGE
;Z:0.2
;HEIGHT:0.2
;BEFORE_LAYER_CHANGE
G92 E0.0
;0.2


M73 P1 R3
M73 Q1 S3
G1 E-.8 F2100
M73 P2 R3
M73 Q2 S3
G1 Z.4 F720
;AFTER_LAYER_CHANGE
;0.2
G1 X114.367 Y95.507 F10800
G1 Z.2 F720
M73 P3 R3
M73 Q3 S3
G1 E.8 F2100
M204 S800
;TYPE:Skirt/Brim
;WIDTH:0.42
G1 F1200
G1 X115.288 Y94.567 E.04126
G1 X116.401 Y93.632 E.04558
G1 X117.595 Y92.821 E.04526
G1 X118.86 Y92.137 E.04508
G1 X120.189 Y91.583 E.04516
G1 X121.537 Y91.174 E.04418
G1 X122.882 Y90.905 E.043
G1 X124.239 Y90.767 E.04275
G1 X125.398 Y90.753 E.03636
G1 X126.806 Y90.861 E.04429
G1 X128.152 Y91.099 E.04285
G1 X129.591 Y91.506 E.04689
G1 X130.89 Y92.02 E.04379
G1 X132.154 Y92.672 E.04458
G1 X133.361 Y93.457 E.04517
G1 X134.493 Y94.367 E.04553
G1 X135.433 Y95.288 E.04126
G1 X136.368 Y96.401 E.04558
G1 X137.179 Y97.595 E.04526
G1 X137.863 Y98.86 E.04508
G1 X138.417 Y100.189 E.04516
G1 X138.826 Y101.537 E.04418
G1 X139.095 Y102.882 E.04301
G1 X139.233 Y104.239 E.04275
M73 Q4 S3
G1 X139.246 Y105.464 E.03842
G1 X139.121 Y106.939 E.04642
G1 X138.871 Y108.279 E.04273
G1 X138.494 Y109.591 E.04281
G1 X137.98 Y110.89 E.04379
M73 P4 R3
G1 X137.328 Y112.154 E.04458
G1 X136.543 Y113.361 E.04517
G1 X135.633 Y114.493 E.04553
G1 X134.712 Y115.433 E.04126
G1 X133.599 Y116.368 E.04558
G1 X132.405 Y117.179 E.04526
G1 X131.14 Y117.863 E.04508
G1 X129.811 Y118.417 E.04516
G1 X128.463 Y118.826 E.04417
G1 X127.118 Y119.095 E.04301
G1 X125.761 Y119.233 E.04275
G1 X124.536 Y119.246 E.03842
G1 X123.061 Y119.121 E.04642
G1 X121.721 Y118.871 E.04273
G1 X120.409 Y118.494 E.04281
G1 X119.11 Y117.98 E.04379
G1 X117.846 Y117.328 E.04458
G1 X116.639 Y116.543 E.04517
G1 X115.507 Y115.633 E.04553
G1 X114.567 Y114.712 E.04126
G1 X113.632 Y113.599 E.04558
G1 X112.821 Y112.405 E.04526
G1 X112.137 Y111.14 E.04508
G1 X111.583 Y109.811 E.04516
G1 X111.174 Y108.463 E.04417
G1 X110.905 Y107.118 E.04301
G1 X110.767 Y105.761 E.04275
M73 Q5 S3
G1 X110.754 Y104.536 E.03842
G1 X110.879 Y103.061 E.04642
G1 X111.129 Y101.721 E.04273
G1 X111.506 Y100.409 E.04281
G1 X112.02 Y99.11 E.04379
M73 P5 R3
G1 X112.672 Y97.846 E.04458
G1 X113.457 Y96.639 E.04517
G1 X114.33 Y95.554 E.04365
M204 S1000
G1 X114.623 Y95.79 F10800
M204 S800
G1 F1200
G1 X115.551 Y94.838 E.04168
G1 X116.635 Y93.928 E.04437
G1 X117.798 Y93.139 E.04406
G1 X119.029 Y92.474 E.04389
G1 X120.324 Y91.935 E.04396
G1 X121.636 Y91.537 E.043
G1 X122.945 Y91.276 E.04186
G1 X124.266 Y91.143 E.04162
G1 X125.391 Y91.13 E.03528
G1 X126.766 Y91.236 E.04323
G1 X128.076 Y91.469 E.04171
G1 X129.463 Y91.861 E.04519
G1 X130.727 Y92.36 E.04262
G1 X131.958 Y92.994 E.0434
G1 X133.134 Y93.757 E.04397
G1 X134.236 Y94.643 E.04433
G1 X135.162 Y95.551 E.04065
G1 X136.072 Y96.635 E.04437
G1 X136.861 Y97.798 E.04406
G1 X137.526 Y99.029 E.04389
G1 X138.065 Y100.324 E.04396
G1 X138.463 Y101.636 E.043
G1 X138.724 Y102.945 E.04186
G1 X138.857 Y104.266 E.04162
G1 X138.869 Y105.457 E.03734
M73 Q6 S3
G1 X138.748 Y106.881 E.04479
G1 X138.506 Y108.185 E.04161
G1 X138.139 Y109.463 E.04168
G1 X137.64 Y110.727 E.04262
G1 X137.006 Y111.958 E.0434
M73 P6 R3
G1 X136.243 Y113.134 E.04397
G1 X135.357 Y114.236 E.04433
G1 X134.449 Y115.162 E.04065
G1 X133.365 Y116.072 E.04437
G1 X132.202 Y116.861 E.04406
G1 X130.971 Y117.526 E.04389
G1 X129.676 Y118.065 E.04397
G1 X128.364 Y118.463 E.043
G1 X127.055 Y118.724 E.04186
G1 X125.734 Y118.857 E.04162
G1 X124.543 Y118.869 E.03734
G1 X123.119 Y118.748 E.04479
G1 X121.815 Y118.506 E.04161
G1 X120.537 Y118.139 E.04168
G1 X119.273 Y117.64 E.04263
G1 X118.042 Y117.006 E.0434
G1 X116.866 Y116.243 E.04397
G1 X115.764 Y115.357 E.04433
G1 X114.838 Y114.449 E.04065
G1 X113.928 Y113.365 E.04437
G1 X113.139 Y112.202 E.04406
G1 X112.474 Y110.971 E.04389
G1 X111.935 Y109.676 E.04396
G1 X111.537 Y108.364 E.043
G1 X111.276 Y107.055 E.04186
G1 X111.143 Y105.734 E.04162
G1 X111.131 Y104.543 E.03734
G1 X111.252 Y103.119 E.04479
M73 Q7 S3
G1 X111.494 Y101.815 E.04161
G1 X111.861 Y100.537 E.04168
G1 X112.361 Y99.273 E.04262
G1 X112.994 Y98.042 E.0434
G1 X113.758 Y96.866 E.04397
M73 P7 R3
G1 X114.585 Y95.837 E.04142
M204 S1000
; printing object 1_Shop.stl id:0 copy 0
;WIPE_START
G1 F8640
G1 X115.551 Y94.838 E-.32073
G1 X116.635 Y93.928 E-.32678
G1 X117.038 Y93.655 E-.1125
;WIPE_END
G1 E-.04 F2100
G1 Z.6 F720
G1 X116.974 Y97.905 F10800
G1 Z.2 F720
G1 E.8 F2100
M204 S800
;TYPE:Perimeter
G1 F1200
G1 X117.347 Y97.504 E.01716
G1 X117.74 Y97.123 E.01717
G1 X118.151 Y96.763 E.01715
G1 X118.579 Y96.425 E.01711
G1 X119.023 Y96.11 E.01705
G1 X119.479 Y95.819 E.01697
G1 X119.947 Y95.554 E.01685
G1 X120.432 Y95.31 E.01704
G1 X120.93 Y95.09 E.01706
G1 X121.433 Y94.898 E.01688
G1 X121.94 Y94.734 E.01669
G1 X122.447 Y94.596 E.01648
G1 X123.457 Y94.399 E.03228
G1 X124.473 Y94.3 E.03199
G1 X125.377 Y94.294 E.02834
G1 X125.891 Y94.324 E.01616
G1 X126.407 Y94.38 E.01628
G1 X127.416 Y94.563 E.03216
G1 X128.403 Y94.842 E.03214
G1 X128.893 Y95.02 E.01636
G1 X129.38 Y95.224 E.01653
G1 X129.86 Y95.453 E.01668
G1 X130.331 Y95.708 E.01681
G1 X130.793 Y95.988 E.01693
G1 X131.242 Y96.293 E.01702
G1 X131.676 Y96.622 E.01709
G1 X132.095 Y96.974 E.01714
G1 X132.496 Y97.347 E.01717
G1 X132.877 Y97.74 E.01717
G1 X133.237 Y98.151 E.01715
G1 X133.575 Y98.579 E.01711
G1 X133.89 Y99.023 E.01705
G1 X134.181 Y99.479 E.01696
G1 X134.446 Y99.947 E.01686
G1 X134.69 Y100.432 E.01704
G1 X134.909 Y100.93 E.01706
G1 X135.101 Y101.433 E.01688
G1 X135.266 Y101.94 E.01669
G1 X135.404 Y102.447 E.01648
G1 X135.601 Y103.457 E.03228
G1 X135.7 Y104.473 E.03199
G1 X135.705 Y105.391 E.02879
G1 X135.62 Y106.407 E.03198
G1 X135.437 Y107.416 E.03216
M73 Q8 S3
G1 X135.158 Y108.403 E.03214
G1 X134.98 Y108.893 E.01636
G1 X134.776 Y109.38 E.01653
G1 X134.547 Y109.86 E.01668
G1 X134.292 Y110.331 E.01681
G1 X134.012 Y110.793 E.01693
G1 X133.707 Y111.242 E.01702
G1 X133.378 Y111.676 E.01709
G1 X133.026 Y112.095 E.01714
M73 P8 R3
G1 X132.653 Y112.496 E.01716
G1 X132.26 Y112.877 E.01717
G1 X131.849 Y113.237 E.01715
G1 X131.421 Y113.575 E.01711
G1 X130.977 Y113.89 E.01705
G1 X130.521 Y114.181 E.01697
G1 X130.053 Y114.446 E.01686
G1 X129.568 Y114.69 E.01704
G1 X129.07 Y114.91 E.01706
G1 X128.567 Y115.101 E.01688
G1 X128.06 Y115.266 E.01669
G1 X127.553 Y115.404 E.01648
G1 X126.543 Y115.601 E.03228
G1 X125.527 Y115.7 E.03199
G1 X124.609 Y115.705 E.02879
G1 X123.593 Y115.62 E.03198
G1 X122.584 Y115.437 E.03216
G1 X121.597 Y115.158 E.03214
G1 X121.107 Y114.98 E.01636
G1 X120.62 Y114.776 E.01653
G1 X120.14 Y114.547 E.01668
G1 X119.669 Y114.292 E.01681
G1 X119.207 Y114.011 E.01693
G1 X118.758 Y113.707 E.01702
G1 X118.324 Y113.378 E.01709
G1 X117.905 Y113.026 E.01714
G1 X117.504 Y112.653 E.01716
G1 X117.123 Y112.26 E.01717
G1 X116.763 Y111.849 E.01715
G1 X116.425 Y111.421 E.01711
G1 X116.11 Y110.977 E.01705
G1 X115.819 Y110.521 E.01697
G1 X115.554 Y110.053 E.01685
G1 X115.31 Y109.568 E.01704
G1 X115.09 Y109.07 E.01706
G1 X114.899 Y108.567 E.01688
G1 X114.734 Y108.06 E.01669
G1 X114.596 Y107.553 E.01648
G1 X114.399 Y106.543 E.03228
G1 X114.3 Y105.527 E.03199
G1 X114.295 Y104.609 E.02879
G1 X114.38 Y103.593 E.03198
G1 X114.563 Y102.584 E.03216
G1 X114.842 Y101.597 E.03214
G1 X115.02 Y101.107 E.01636
G1 X115.224 Y100.62 E.01653
G1 X115.453 Y100.14 E.01668
G1 X115.708 Y99.669 E.01681
G1 X115.988 Y99.207 E.01692
G1 X116.293 Y98.758 E.01702
G1 X116.622 Y98.324 E.01709
G1 X116.935 Y97.951 E.01526
M204 S1000
G1 X116.691 Y97.655 F10800
M204 S800
;TYPE:External perimeter
G1 F1200
G1 X117.077 Y97.24 E.01777
G1 X117.484 Y96.846 E.01777
G1 X117.91 Y96.473 E.01775
G1 X118.353 Y96.123 E.01771
G1 X118.812 Y95.797 E.01765
G1 X119.285 Y95.496 E.01756
G1 X119.769 Y95.221 E.01745
G1 X120.272 Y94.969 E.01764
G1 X120.787 Y94.742 E.01766
M73 Q9 S3
G1 X121.308 Y94.543 E.01748
G1 X121.832 Y94.372 E.01728
G1 X122.357 Y94.23 E.01706
G1 X122.881 Y94.114 E.01684
G1 X123.403 Y94.026 E.01659
G1 X123.92 Y93.963 E.01632
G1 X124.458 Y93.923 E.01692
G1 X125.386 Y93.917 E.02911
G1 X125.922 Y93.949 E.01684
G1 X126.457 Y94.006 E.01685
M73 P9 R3
G1 X126.992 Y94.091 E.01699
G1 X127.502 Y94.196 E.01631
G1 X128.012 Y94.327 E.01654
G1 X128.523 Y94.484 E.01674
G1 X129.031 Y94.669 E.01694
G1 X129.534 Y94.879 E.01711
G1 X130.031 Y95.117 E.01727
G1 X130.519 Y95.381 E.01741
G1 X130.997 Y95.671 E.01752
G1 X131.461 Y95.987 E.01762
G1 X131.911 Y96.327 E.01769
G1 X132.345 Y96.691 E.01774
G1 X132.76 Y97.077 E.01777
G1 X133.154 Y97.484 E.01777
G1 X133.527 Y97.91 E.01775
G1 X133.877 Y98.353 E.01771
G1 X134.203 Y98.812 E.01765
G1 X134.504 Y99.285 E.01756
G1 X134.779 Y99.769 E.01745
G1 X135.031 Y100.272 E.01764
G1 X135.258 Y100.787 E.01765
G1 X135.457 Y101.308 E.01748
G1 X135.628 Y101.832 E.01728
G1 X135.77 Y102.357 E.01706
G1 X135.886 Y102.881 E.01684
G1 X135.974 Y103.403 E.01659
G1 X136.037 Y103.92 E.01632
G1 X136.077 Y104.458 E.01692
G1 X136.083 Y105.401 E.02957
G1 X136.051 Y105.922 E.01638
G1 X135.994 Y106.457 E.01686
G1 X135.909 Y106.992 E.01699
G1 X135.804 Y107.502 E.01631
G1 X135.673 Y108.012 E.01654
G1 X135.516 Y108.523 E.01674
G1 X135.332 Y109.031 E.01694
G1 X135.121 Y109.534 E.01711
G1 X134.883 Y110.031 E.01727
G1 X134.619 Y110.519 E.0174
G1 X134.329 Y110.997 E.01752
G1 X134.013 Y111.461 E.01762
G1 X133.673 Y111.911 E.01769
G1 X133.309 Y112.345 E.01774
G1 X132.923 Y112.76 E.01777
G1 X132.516 Y113.154 E.01777
G1 X132.09 Y113.527 E.01776
G1 X131.647 Y113.877 E.01771
G1 X131.188 Y114.203 E.01765
G1 X130.715 Y114.504 E.01756
G1 X130.231 Y114.779 E.01745
G1 X129.728 Y115.031 E.01764
G1 X129.213 Y115.258 E.01766
G1 X128.692 Y115.457 E.01748
G1 X128.168 Y115.628 E.01728
G1 X127.643 Y115.77 E.01706
G1 X127.119 Y115.886 E.01684
G1 X126.597 Y115.974 E.01659
G1 X126.08 Y116.037 E.01632
G1 X125.542 Y116.077 E.01692
G1 X124.599 Y116.083 E.02957
G1 X124.078 Y116.051 E.01638
G1 X123.543 Y115.994 E.01686
G1 X123.008 Y115.909 E.01699
G1 X122.498 Y115.804 E.01631
G1 X121.988 Y115.673 E.01654
G1 X121.477 Y115.516 E.01674
G1 X120.969 Y115.332 E.01694
G1 X120.466 Y115.121 E.01711
G1 X119.969 Y114.883 E.01727
G1 X119.481 Y114.619 E.0174
M73 Q10 S3
G1 X119.003 Y114.329 E.01752
G1 X118.539 Y114.013 E.01762
G1 X118.089 Y113.673 E.01769
G1 X117.655 Y113.309 E.01774
G1 X117.24 Y112.923 E.01777
G1 X116.846 Y112.516 E.01777
G1 X116.473 Y112.09 E.01775
G1 X116.123 Y111.647 E.01771
G1 X115.797 Y111.188 E.01765
G1 X115.496 Y110.715 E.01756
G1 X115.221 Y110.231 E.01745
M73 P10 R3
G1 X114.969 Y109.728 E.01764
G1 X114.742 Y109.213 E.01765
G1 X114.543 Y108.692 E.01748
G1 X114.372 Y108.168 E.01728
G1 X114.23 Y107.643 E.01706
G1 X114.114 Y107.119 E.01684
G1 X114.026 Y106.597 E.01659
G1 X113.963 Y106.08 E.01632
G1 X113.923 Y105.542 E.01692
G1 X113.917 Y104.599 E.02957
G1 X113.949 Y104.078 E.01638
G1 X114.006 Y103.543 E.01686
G1 X114.091 Y103.008 E.01699
G1 X114.196 Y102.498 E.01631
G1 X114.327 Y101.988 E.01654
G1 X114.484 Y101.477 E.01674
G1 X114.668 Y100.969 E.01694
G1 X114.879 Y100.466 E.01711
G1 X115.117 Y99.969 E.01727
G1 X115.381 Y99.481 E.01741
G1 X115.671 Y99.003 E.01752
G1 X115.987 Y98.539 E.01762
G1 X116.327 Y98.089 E.01769
G1 X116.652 Y97.701 E.01586
M204 S1000
G1 X117.083 Y97.735 F10800
;WIPE_START
G1 F8640
G1 X117.077 Y97.24 E-.14469
G1 X117.484 Y96.846 E-.1309
G1 X117.91 Y96.473 E-.13074
G1 X118.353 Y96.123 E-.13045
G1 X118.812 Y95.797 E-.12997
G1 X119.153 Y95.58 E-.09324
;WIPE_END
G1 E-.04 F2100
G1 Z.6 F720
G1 X131.043 Y96.295 F10800
G1 Z.2 F720
G1 E.8 F2100
M204 S800
;TYPE:Solid infill
;WIDTH:0.422127
G1 F1200
G1 X132.347 Y97.599 E.05814
G1 X132.669 Y97.931 E.0146
G1 X133.02 Y98.332 E.01679
G1 X133.349 Y98.749 E.01675
G1 X133.655 Y99.181 E.01669
G1 X134.072 Y99.86 E.02513
G1 X130.135 Y95.923 E.17556
G1 X129.731 Y95.705 E.01446
G1 X129.079 Y95.404 E.02264
G1 X134.597 Y100.922 E.24602
G1 X134.916 Y101.777 E.0288
M73 Q11 S3
G1 X128.221 Y95.082 E.29856
M73 P11 R3
G1 X127.836 Y94.963 E.01269
G1 X127.484 Y94.882 E.01139
G1 X135.133 Y102.53 E.34107
G1 X135.265 Y103.199 E.0215
G1 X126.793 Y94.727 E.37778
G1 X126.169 Y94.639 E.01989
G1 X135.357 Y103.827 E.40972
G1 X135.412 Y104.418 E.01872
M73 P12 R3
M73 Q12 S3
G1 X125.583 Y94.59 E.43828
G1 X125.037 Y94.579 E.01724
G1 X135.42 Y104.963 E.463
G1 X135.416 Y105.495 E.01678
G1 X124.504 Y94.583 E.48658
G1 X124.003 Y94.618 E.01583
M73 P13 R3
M73 Q13 S3
G1 X135.38 Y105.995 E.50731
G1 X135.323 Y106.474 E.01522
G1 X123.534 Y94.686 E.52568
G1 X123.066 Y94.754 E.01491
G1 X135.246 Y106.934 E.54312
M73 Q14 S3
G1 X135.145 Y107.369 E.01409
M73 P14 R3
G1 X122.623 Y94.847 E.55839
G1 X122.197 Y94.957 E.01388
G1 X135.044 Y107.804 E.57289
G1 X134.92 Y108.216 E.01356
M73 P15 R3
M73 Q15 S3
G1 X121.785 Y95.081 E.5857
G1 X121.386 Y95.219 E.0133
G1 X134.781 Y108.614 E.59728
G1 X134.629 Y108.999 E.01304
M73 Q16 S3
G1 X121 Y95.369 E.60777
G1 X120.628 Y95.533 E.01283
M73 P16 R3
G1 X134.467 Y109.372 E.61711
G1 X134.293 Y109.735 E.01268
G1 X120.268 Y95.709 E.62542
G1 X119.918 Y95.896 E.0125
M73 P17 R3
M73 Q17 S3
G1 X134.105 Y110.083 E.63263
G1 X133.907 Y110.421 E.01236
G1 X119.578 Y96.092 E.63895
G1 X119.25 Y96.301 E.01225
M73 P18 R3
M73 Q18 S3
G1 X133.699 Y110.749 E.64431
G1 X133.482 Y111.069 E.01217
G1 X118.933 Y96.52 E.64875
G1 X118.625 Y96.749 E.01209
M73 P19 R3
M73 Q19 S3
G1 X133.251 Y111.375 E.6522
G1 X133.012 Y111.672 E.01203
G1 X118.326 Y96.985 E.65489
G1 X118.04 Y97.236 E.01198
M73 P20 R3
M73 Q20 S3
G1 X132.765 Y111.961 E.65661
G1 X132.507 Y112.238 E.01196
G1 X117.763 Y97.495 E.65746
G1 X117.493 Y97.762 E.01196
M73 P21 R2
M73 Q21 S2
G1 X132.237 Y112.505 E.65746
G1 X131.96 Y112.764 E.01196
G1 X117.235 Y98.039 E.65661
G1 X116.988 Y98.328 E.01199
M73 Q22 S2
G1 X131.674 Y113.015 E.65489
G1 X131.374 Y113.252 E.01204
M73 P22 R2
G1 X116.748 Y98.626 E.6522
G1 X116.518 Y98.931 E.01207
M73 Q23 S2
G1 X131.067 Y113.48 E.64875
G1 X130.75 Y113.7 E.01215
M73 P23 R2
G1 X116.301 Y99.251 E.6443
G1 X116.093 Y99.579 E.01226
G1 X130.422 Y113.908 E.63895
G1 X130.082 Y114.104 E.01238
M73 P24 R2
M73 Q24 S2
G1 X115.895 Y99.917 E.63262
G1 X115.707 Y100.265 E.01248
G1 X129.732 Y114.291 E.62542
G1 X129.372 Y114.467 E.01264
M73 P25 R2
M73 Q25 S2
G1 X115.533 Y100.628 E.61711
G1 X115.37 Y101.001 E.01285
G1 X129 Y114.631 E.60777
G1 X128.614 Y114.781 E.01307
M73 P26 R2
M73 Q26 S2
G1 X115.219 Y101.387 E.59728
G1 X115.08 Y101.784 E.01328
G1 X128.215 Y114.919 E.58569
G1 X127.803 Y115.043 E.01356
M73 Q27 S2
G1 X114.956 Y102.196 E.57288
G1 X114.855 Y102.631 E.01409
M73 P27 R2
G1 X127.377 Y115.153 E.55838
G1 X126.934 Y115.246 E.01428
G1 X114.754 Y103.066 E.54311
G1 X114.677 Y103.526 E.01468
M73 P28 R2
M73 Q28 S2
G1 X126.466 Y115.314 E.52568
G1 X125.997 Y115.382 E.01494
G1 X114.62 Y104.005 E.5073
G1 X114.584 Y104.505 E.01581
M73 Q29 S2
