; generated by PrusaSlicer 2.4.1+win64 on 2023-04-19 at 14:07:02 UTC


;
;
; 

; external perimeters extrusion width = 0.60mm
; perimeters extrusion width = 0.50mm
; infill extrusion width = 0.50mm
; solid infill extrusion width = 0.50mm
; top infill extrusion width = 0.45mm
; first layer extrusion width = 0.42mm

M73 P0 R48
M73 Q0 S49
M201 X1000 Y1000 Z200 E5000 ; sets maximum accelerations, mm/sec^2
M203 X200 Y200 Z12 E120 ; sets maximum feedrates, mm / sec
M204 P1250 R1250 T1250 ; sets acceleration (P, T) and retract acceleration (R), mm/sec^2
M205 X8.00 Y8.00 Z0.40 E4.50 ; sets the jerk limits, mm/sec
M205 S0 T0 ; sets the minimum extruding and travel feed rate, mm/sec
M107
;TYPE:Custom
M862.3 P "MK3S" ; printer model check
M862.1 P0.4 ; nozzle diameter check
M115 U3.11.0 ; tell printer latest fw version
G90 ; use absolute coordinates
M83 ; extruder relative mode
M104 S215 ; set extruder temp
M140 S60 ; set bed temp
M190 S60 ; wait for bed temp
M109 S215 ; wait for extruder temp
G28 W ; home all without mesh bed level
G80 ; mesh bed leveling

G1 Z0.2 F720
G1 Y-3 F1000 ; go outside print area
G92 E0
G1 X60 E9 F1000 ; intro line
G1 X100 E12.5 F1000 ; intro line

G92 E0
M221 S95

; Don't change E values below. Excessive value can damage the printer.

M907 E538 ; set extruder motor current
G21 ; set units to millimeters
G90 ; use absolute coordinates
M83 ; use relative distances for extrusion
M900 K0.05 ; Filament gcode LA 1.5
M900 K30 ; Filament gcode LA 1.0
M107
;LAYER_CHANGE
;Z:0.2
;HEIGHT:0.2
;BEFORE_LAYER_CHANGE
G92 E0.0
;0.2


M73 Q0 S48
G1 E-.8 F2100
G1 Z.4 F720
;AFTER_LAYER_CHANGE
;0.2
G1 X92.44 Y86.568 F10800
G1 Z.2 F720
G1 E.8 F2100
M204 S800
;TYPE:Skirt/Brim
;WIDTH:0.42
G1 F1200
G1 X92.882 Y86.125 E.01959
G1 X93.816 Y85.408 E.03693
G1 X94.349 Y85.1 E.01932
G1 X95.452 Y84.64 E.03746
G1 X96.053 Y84.478 E.01951
G1 X97.533 Y84.303 E.04671
G1 X104.304 Y84.303 E.21232
G1 X155.904 Y84.773 E1.61795
G1 X157.563 Y85.469 E.05642
G1 X158.213 Y86.119 E.02882
G1 X158.91 Y87.8 E.05704
G1 X158.91 Y122.2 E1.07859
G1 X158.213 Y123.881 E.05704
G1 X157.563 Y124.531 E.02882
G1 X155.904 Y125.227 E.05642
G1 X104.304 Y125.697 E1.61795
G1 X97.533 Y125.697 E.21232
G1 X96.053 Y125.521 E.04671
G1 X95.457 Y125.361 E.01937
G1 X94.36 Y124.907 E.0372
G1 X93.823 Y124.597 E.01946
G1 X92.882 Y123.875 E.0372
G1 X92.443 Y123.436 E.01946
G1 X91.721 Y122.495 E.0372
G1 X91.41 Y121.957 E.01946
G1 X90.956 Y120.861 E.0372
G1 X90.796 Y120.262 E.01945
G1 X90.641 Y119.085 E.0372
G1 X90.62 Y91.225 E.87354
G1 X90.795 Y89.747 E.04667
G1 X90.953 Y89.152 E.01931
G1 X91.405 Y88.055 E.03719
G1 X91.715 Y87.517 E.01946
G1 X92.404 Y86.615 E.03558
M204 S1000
; printing object flexbatterAAx2.stl id:0 copy 0
;WIPE_START
G1 F8640
G1 X92.882 Y86.125 E-.15805
G1 X93.816 Y85.408 E-.27197
G1 X94.349 Y85.1 E-.14227
G1 X95.1 Y84.787 E-.18772
;WIPE_END
G1 E-.04 F2100
G1 Z.6 F720
G1 X111.641 Y116.81 F10800
G1 Z.2 F720
G1 E.8 F2100
M204 S800
;TYPE:Perimeter
G1 F1200
G1 X111.217 Y117.135 E.01673
G1 X110.892 Y117.558 E.01673
G1 X110.688 Y118.051 E.01673
G1 X110.619 Y118.58 E.01673
G1 X110.688 Y119.109 E.01673
G1 X110.892 Y119.602 E.01673
G1 X111.217 Y120.025 E.01673
G1 X111.641 Y120.35 E.01673
G1 X112.133 Y120.554 E.01673
G1 X112.663 Y120.624 E.01673
G1 X113.192 Y120.554 E.01674
G1 X113.686 Y120.349 E.01677
G1 X114.11 Y120.02 E.01685
G1 X114.244 Y119.841 E.007
G1 X114.242 Y121.513 E.05244
G1 X109.95 Y121.513 E.1346
G1 X109.95 Y118.253 E.10223
G1 X104.97 Y118.253 E.15614
G1 X104.97 Y115.587 E.08357
G1 X114.242 Y115.587 E.29074
G1 X114.244 Y117.32 E.05431
G1 X114.11 Y117.14 E.007
G1 X113.686 Y116.811 E.01685
G1 X113.192 Y116.606 E.01677
G1 X112.663 Y116.536 E.01674
G1 X112.133 Y116.606 E.01673
G1 X111.696 Y116.787 E.01485
M204 S1000
G1 X111.831 Y117.139 F10800
M204 S800
;TYPE:External perimeter
G1 F1200
G1 X112.232 Y116.973 E.01362
G1 X112.663 Y116.916 E.01362
G1 X113.093 Y116.973 E.01362
G1 X113.495 Y117.14 E.01363
G1 X113.839 Y117.407 E.01365
G1 X114.099 Y117.756 E.01366
G1 X114.253 Y118.163 E.01365
G1 X114.284 Y118.58 E.0131
G1 X114.253 Y118.997 E.0131
G1 X114.099 Y119.404 E.01365
G1 X113.839 Y119.753 E.01366
G1 X113.495 Y120.02 E.01365
G1 X113.093 Y120.187 E.01363
G1 X112.663 Y120.244 E.01362
G1 X112.232 Y120.187 E.01362
G1 X111.831 Y120.021 E.01362
G1 X111.486 Y119.756 E.01362
G1 X111.222 Y119.412 E.01362
G1 X111.056 Y119.011 E.01362
G1 X110.999 Y118.58 E.01362
G1 X111.056 Y118.149 E.01362
G1 X111.222 Y117.748 E.01362
G1 X111.486 Y117.404 E.01362
G1 X111.783 Y117.176 E.01173
M204 S1000
G1 X111.831 Y116.739 F10800
;WIPE_START
G1 F8640
G1 X112.232 Y116.973 E-.11371
G1 X112.663 Y116.916 E-.10028
G1 X113.093 Y116.973 E-.1003
G1 X113.495 Y117.14 E-.10037
G1 X113.839 Y117.407 E-.10052
G1 X114.099 Y117.756 E-.10059
G1 X114.253 Y118.163 E-.1005
G1 X114.267 Y118.352 E-.04372
;WIPE_END
G1 E-.04 F2100
G1 Z.6 F720
G1 X104.793 Y121.693 F10800
G1 Z.2 F720
G1 E.8 F2100
M204 S800
;TYPE:Perimeter
G1 F1200
G1 X104.8 Y121.655 E.0012
G1 X104.939 Y121.66 E.00435
G1 X104.852 Y121.68 E.0028
M204 S1000
;WIPE_START
G1 F8640
G1 X104.8 Y121.655 E-.01309
G1 X104.939 Y121.66 E-.032
G1 X104.852 Y121.68 E-.02065
;WIPE_END
G1 E-.73425 F2100
G1 Z.6 F720
G1 X109.572 Y121.29 F10800
G1 Z.2 F720
G1 E.8 F2100
M204 S800
;TYPE:External perimeter
G1 F1200
G1 X109.572 Y118.63 E.08342
G1 X104.592 Y118.63 E.15614
G1 X104.592 Y115.21 E.10722
G1 X114.619 Y115.21 E.31438
G1 X114.621 Y117.302 E.06559
G1 X114.65 Y118.799 E.04694
G1 X114.621 Y119.797 E.0313
G1 X114.619 Y121.89 E.06563
G1 X106.722 Y121.89 E.2476
G1 X105.731 Y121.914 E.03108
G1 X105.222 Y121.982 E.01611
G1 X104.747 Y122.09 E.01527
G1 X104.392 Y122.09 E.01113
G1 X104.392 Y121.78 E.00972
G1 X104.491 Y121.268 E.01633
G1 X105.175 Y121.29 E.02147
G1 X109.512 Y121.29 E.13599
M204 S1000
G1 X109.972 Y121.291 F10800
;WIPE_START
G1 F8640
G1 X109.572 Y118.63 E-.61446
G1 X108.942 Y118.63 E-.14554
;WIPE_END
G1 E-.04 F2100
G1 Z.6 F720
G1 X104.073 Y122.41 F10800
G1 Z.2 F720
G1 E.8 F2100
M204 S800
G1 F1200
G1 X104.062 Y122.98 E.01788
G1 X103.812 Y122.957 E.00788
G1 X103.32 Y122.949 E.01542
G1 X97.558 Y122.95 E.18066
G1 X96.462 Y122.806 E.03465
G1 X95.456 Y122.389 E.03416
G1 X94.591 Y121.726 E.03416
G1 X93.927 Y120.861 E.03419
G1 X93.511 Y119.855 E.03413
G1 X93.369 Y118.775 E.03417
G1 X93.511 Y117.695 E.03416
G1 X93.928 Y116.688 E.03418
G1 X94.591 Y115.824 E.03414
G1 X95.456 Y115.161 E.03417
G1 X96.462 Y114.744 E.03416
G1 X97.565 Y114.6 E.03488
G1 X98.02 Y114.601 E.01425
G1 X98.434 Y114.656 E.01311
G1 X98.799 Y114.807 E.01239
G1 X99.113 Y115.048 E.01239
G1 X99.353 Y115.362 E.01239
G1 X99.505 Y115.727 E.01239
G1 X99.556 Y116.118 E.01239
G1 X99.505 Y116.51 E.01239
G1 X99.353 Y116.875 E.01239
G1 X99.113 Y117.189 E.01239
G1 X98.799 Y117.429 E.01239
G1 X98.434 Y117.581 E.01241
G1 X98.015 Y117.637 E.01324
G1 X97.767 Y117.64 E.00778
G1 X97.498 Y117.676 E.00852
G1 X97.223 Y117.789 E.00932
G1 X96.988 Y117.97 E.00931
G1 X96.807 Y118.206 E.00932
G1 X96.693 Y118.48 E.00932
G1 X96.654 Y118.775 E.00932
G1 X96.693 Y119.07 E.00932
G1 X96.807 Y119.344 E.00932
G1 X96.988 Y119.58 E.00932
G1 X97.223 Y119.761 E.00931
G1 X97.498 Y119.874 E.00932
G1 X97.769 Y119.91 E.00856
G1 X99.067 Y119.91 E.0407
G1 X99.818 Y119.811 E.02378
G1 X100.541 Y119.511 E.02454
G1 X101.162 Y119.035 E.02454
G1 X101.639 Y118.414 E.02454
G1 X101.938 Y117.691 E.02454
G1 X102.037 Y116.94 E.02377
G1 X102.042 Y115.652 E.04038
G1 X102.063 Y115.209 E.0139
G1 X102.398 Y115.209 E.01048
G1 X102.419 Y115.651 E.01389
G1 X102.421 Y116.892 E.0389
G1 X102.304 Y117.789 E.02837
G1 X101.967 Y118.604 E.02764
G1 X101.7 Y118.954 E.01381
G1 X101.43 Y119.303 E.01381
G1 X100.731 Y119.84 E.02765
G1 X99.916 Y120.177 E.02764
G1 X99.028 Y120.293 E.02811
G1 X97.817 Y120.292 E.03796
G1 X97.401 Y120.237 E.01316
G1 X97.036 Y120.086 E.01239
G1 X96.722 Y119.845 E.01239
G1 X96.482 Y119.532 E.01239
G1 X96.33 Y119.167 E.01239
G1 X96.279 Y118.775 E.01239
G1 X96.33 Y118.383 E.01239
G1 X96.482 Y118.018 E.01239
G1 X96.722 Y117.705 E.01239
G1 X97.036 Y117.464 E.01239
G1 X97.401 Y117.312 E.01241
G1 X97.821 Y117.256 E.01329
G1 X98.068 Y117.253 E.00773
G1 X98.337 Y117.218 E.00852
G1 X98.612 Y117.104 E.00932
G1 X98.847 Y116.923 E.00931
G1 X99.028 Y116.687 E.00932
G1 X99.142 Y116.413 E.00932
G1 X99.181 Y116.118 E.00932
G1 X99.142 Y115.824 E.00931
G1 X99.028 Y115.549 E.00931
G1 X98.847 Y115.314 E.00932
G1 X98.612 Y115.133 E.00932
G1 X98.337 Y115.019 E.00931
G1 X98.067 Y114.983 E.00855
G1 X97.518 Y114.983 E.01718
G1 X96.56 Y115.109 E.0303
G1 X95.645 Y115.489 E.03106
G1 X94.859 Y116.092 E.03106
G1 X94.256 Y116.878 E.03106
G1 X93.877 Y117.793 E.03106
G1 X93.748 Y118.775 E.03106
G1 X93.877 Y119.757 E.03106
G1 X94.256 Y120.672 E.03106
G1 X94.859 Y121.458 E.03106
G1 X95.645 Y122.061 E.03106
G1 X96.56 Y122.44 E.03106
G1 X97.518 Y122.567 E.0303
G1 X101.813 Y122.571 E.13465
G1 X102.773 Y122.555 E.0301
G1 X103.266 Y122.503 E.01555
G1 X103.729 Y122.41 E.01482
G1 X104.013 Y122.41 E.00889
M204 S1000
G1 X103.882 Y122.761 F10800
G1 X103.799 Y122.683
M204 S800
;TYPE:Gap fill
;WIDTH:0.212688
G1 F1200
G1 X103.823 Y122.708 E.00048
M204 S1000
M204 S800
;WIDTH:0.165006
G1 X103.884 Y122.772 E.0009
M204 S1000
G1 X103.799 Y122.683 F10800
M204 S800
;WIDTH:0.212687
G1 F1200
G1 X103.756 Y122.683 E.00061
M204 S1000
M204 S800
;WIDTH:0.211984
G1 X103.539 Y122.703 E.00306
M204 S1000
M204 S800
;WIDTH:0.165495
G1 X103.322 Y122.722 E.00222
M204 S1000
M204 S800
;WIDTH:0.119007
G1 X103.321 Y122.723 E0
M204 S1000
M204 S800
;WIDTH:0.118876
G1 X103.301 Y122.725 E.00013
M204 S1000
M204 S800
;WIDTH:0.11488
G1 X103.298 Y122.725 E.00002
M204 S1000
M204 S800
;WIDTH:0.114381
G1 X103.073 Y122.737 E.00134
M204 S1000
;WIPE_START
G1 F8640
G1 X103.298 Y122.725 E-.05194
;WIPE_END
G1 E-.74806 F2100
G1 Z.6 F720
G1 X105.127 Y121.641 F10800
G1 Z.2 F720
G1 E.8 F2100
M204 S800
;WIDTH:0.347502
G1 F1200
G1 X105.413 Y121.622 E.00728
M204 S1000
M204 S800
;WIDTH:0.319551
G1 X105.7 Y121.603 E.00661
M204 S1000
M204 S800
;WIDTH:0.291601
G1 X105.714 Y121.602 E.00028
M204 S1000
M204 S800
;WIDTH:0.290551
G1 X106.717 Y121.59 E.02067
M204 S1000
M204 S800
;WIDTH:0.266091
G1 X106.72 Y121.59 E.00005
M204 S1000
M204 S800
;WIDTH:0.266056
G1 X109.761 Y121.59 E.05642
M204 S1000
;WIPE_START
G1 F8640
G1 X106.72 Y121.59 E-.70216
;WIPE_END
G1 E-.09784 F2100
G1 Z.6 F720
G1 X110.312 Y119.032 F10800
G1 Z.2 F720
M73 Q1 S48
G1 E.8 F2100
M204 S800
;WIDTH:0.369704
G1 F1200
G1 X110.284 Y118.599 E.01179
M204 S1000
M204 S800
;WIDTH:0.334513
G1 X110.284 Y118.561 E.00092
M204 S1000
M204 S800
;WIDTH:0.369704
G1 X110.312 Y118.128 E.01179
M204 S1000
;WIPE_START
G1 F8640
M73 P1 R48
G1 X110.284 Y118.561 E-.10017
;WIPE_END
G1 E-.69983 F2100
G1 Z.6 F720
G1 X113.924 Y116.73 F10800
G1 Z.2 F720
G1 E.8 F2100
M204 S800
;WIDTH:0.115453
G1 F1200
G1 X114.055 Y116.806 E.00091
M204 S1000
G1 X114.305 Y117.498 F10800
M204 S800
;WIDTH:0.243706
G1 F1200
G1 X114.342 Y117.608 E.00194
M204 S1000
M204 S800
;WIDTH:0.23408
G1 X114.349 Y117.633 E.00042
M204 S1000
M204 S800
;WIDTH:0.221491
G1 X114.374 Y117.764 E.00198
M204 S1000
M204 S800
;WIDTH:0.178767
G1 X114.4 Y117.896 E.00151
M204 S1000
M204 S800
;WIDTH:0.136043
G1 X114.425 Y118.027 E.00103
M204 S1000
;WIPE_START
G1 F8640
G1 X114.4 Y117.896 E-.03084
;WIPE_END
G1 E-.76916 F2100
G1 Z.6 F720
G1 X114.431 Y119.119 F10800
G1 Z.2 F720
G1 E.8 F2100
M204 S800
;WIDTH:0.136571
G1 F1200
G1 X114.404 Y119.255 E.00108
M204 S1000
M204 S800
;WIDTH:0.179822
G1 X114.377 Y119.391 E.00158
M204 S1000
M204 S800
;WIDTH:0.223073
G1 X114.35 Y119.527 E.00208
M204 S1000
M204 S800
;WIDTH:0.235504
G1 X114.343 Y119.553 E.00042
M204 S1000
M204 S800
;WIDTH:0.244644
G1 X114.305 Y119.662 E.00195
M204 S1000
G1 X114.055 Y120.354 F10800
M204 S800
;WIDTH:0.115486
G1 F1200
G1 X113.924 Y120.43 E.00091
M204 S1000
G1 X113.416 Y120.584 F10800
M204 S800
;TYPE:Solid infill
;WIDTH:0.439569
G1 F1200
G1 X113.96 Y121.128 E.02539
G1 X113.96 Y121.23 E.00337
G1 X113.501 Y121.23 E.01512
G1 X113.12 Y120.849 E.01779
G1 X112.613 Y120.903 E.01682
G1 X112.94 Y121.23 E.01528
G1 X112.379 Y121.23 E.0185
G1 X111.922 Y120.773 E.02134
G1 X111.498 Y120.597 E.01513
G1 X111.016 Y120.227 E.02005
G1 X110.645 Y119.745 E.02006
G1 X110.455 Y119.306 E.01577
G1 X110.232 Y119.321 E.00736
G1 X110.232 Y119.644 E.01067
G1 X111.818 Y121.23 E.07398
G1 X111.258 Y121.23 E.0185
G1 X110.232 Y120.205 E.04782
G1 X110.232 Y120.766 E.0185
G1 X110.866 Y121.4 E.02957
M204 S1000
;WIPE_START
G1 F8640
G1 X110.232 Y120.766 E-.20701
G1 X110.232 Y120.205 E-.12952
G1 X111.258 Y121.23 E-.33477
G1 X111.642 Y121.23 E-.08869
;WIPE_END
G1 E-.04 F2100
G1 Z.6 F720
G1 X113.341 Y115.7 F10800
G1 Z.2 F720
G1 E.8 F2100
M204 S800
;WIDTH:0.432208
G1 F1200
G1 X113.96 Y116.319 E.02834
G1 X113.96 Y116.357 E.00121
G1 X113.851 Y116.293 E.00409
G1 X113.72 Y116.519 E.00845
G1 X113.531 Y116.441 E.00662
G1 X112.96 Y115.87 E.02611
G1 X112.41 Y115.87 E.01782
G1 X112.81 Y116.27 E.01832
G1 X112.663 Y116.251 E.00481
G1 X112.289 Y116.3 E.01219
G1 X111.859 Y115.87 E.01968
G1 X111.309 Y115.87 E.01782
G1 X111.854 Y116.415 E.02497
G1 X111.471 Y116.583 E.01353
G1 X110.758 Y115.87 E.03265
G1 X110.208 Y115.87 E.01782
G1 X111.16 Y116.822 E.04359
G1 X111.016 Y116.933 E.00589
G1 X110.887 Y117.1 E.00682
G1 X109.657 Y115.87 E.05631
G1 X109.107 Y115.87 E.01782
G1 X110.648 Y117.412 E.07057
G1 X110.486 Y117.8 E.01362
G1 X108.556 Y115.87 E.08835
G1 X108.005 Y115.87 E.01782
G1 X109.957 Y117.821 E.08933
G1 X109.864 Y117.815 E.00301
G1 X109.854 Y117.97 E.00502
G1 X109.555 Y117.97 E.00969
G1 X107.455 Y115.87 E.09613
G1 X106.904 Y115.87 E.01782
G1 X109.004 Y117.97 E.09613
G1 X108.454 Y117.97 E.01782
G1 X106.354 Y115.87 E.09613
G1 X105.803 Y115.87 E.01782
G1 X107.903 Y117.97 E.09613
G1 X107.353 Y117.97 E.01782
G1 X105.252 Y115.87 E.09614
G1 X105.252 Y116.42 E.01781
G1 X106.802 Y117.97 E.07094
G1 X106.252 Y117.97 E.01782
G1 X105.252 Y116.971 E.04574
G1 X105.252 Y117.521 E.01782
G1 X105.871 Y118.14 E.02831
M204 S1000
;WIPE_START
G1 F8640
G1 X105.252 Y117.521 E-.20193
G1 X105.252 Y116.971 E-.12712
G1 X106.252 Y117.97 E-.32629
G1 X106.705 Y117.97 E-.10466
;WIPE_END
G1 E-.04 F2100
G1 Z.6 F720
G1 X117.883 Y115.587 F10800
G1 Z.2 F720
G1 E.8 F2100
M204 S800
;TYPE:Perimeter
;WIDTH:0.42
G1 F1200
G1 X140.042 Y115.587 E.69478
G1 X140.042 Y121.513 E.18579
G1 X117.883 Y121.513 E.69478
G1 X117.883 Y115.647 E.18391
M204 S1000
G1 X117.506 Y115.21 F10800
M204 S800
;TYPE:External perimeter
G1 F1200
G1 X140.419 Y115.21 E.71843
G1 X140.419 Y121.89 E.20944
G1 X117.506 Y121.89 E.71843
G1 X117.506 Y115.27 E.20756
M204 S1000
G1 X117.904 Y115.248 F10800
;WIPE_START
G1 F8640
G1 X120.797 Y115.262 E-.76
;WIPE_END
G1 E-.04 F2100
G1 Z.6 F720
G1 X139.152 Y115.7 F10800
G1 Z.2 F720
G1 E.8 F2100
M204 S800
;TYPE:Solid infill
;WIDTH:0.427081
G1 F1200
G1 X139.759 Y116.308 E.02745
G1 X139.759 Y116.851 E.01735
G1 X138.778 Y115.87 E.04433
G1 X138.235 Y115.87 E.01735
G1 X139.759 Y117.395 E.06887
G1 X139.759 Y117.938 E.01735
G1 X137.691 Y115.87 E.09341
G1 X137.148 Y115.87 E.01735
G1 X139.759 Y118.481 E.11795
G1 X139.759 Y119.024 E.01735
G1 X136.605 Y115.87 E.1425
G1 X136.062 Y115.87 E.01735
G1 X139.759 Y119.568 E.16704
G1 X139.759 Y120.111 E.01735
G1 X135.518 Y115.87 E.19158
G1 X134.975 Y115.87 E.01735
G1 X139.759 Y120.654 E.21612
G1 X139.759 Y121.198 E.01735
G1 X134.432 Y115.87 E.24067
G1 X133.888 Y115.87 E.01735
G1 X139.248 Y121.23 E.24214
G1 X138.705 Y121.23 E.01735
G1 X133.345 Y115.87 E.24214
G1 X132.802 Y115.87 E.01735
G1 X138.162 Y121.23 E.24214
G1 X137.619 Y121.23 E.01735
G1 X132.259 Y115.87 E.24214
G1 X131.715 Y115.87 E.01735
G1 X137.075 Y121.23 E.24214
G1 X136.532 Y121.23 E.01735
G1 X131.172 Y115.87 E.24214
G1 X130.629 Y115.87 E.01735
G1 X135.989 Y121.23 E.24214
G1 X135.445 Y121.23 E.01735
G1 X130.085 Y115.87 E.24214
G1 X129.542 Y115.87 E.01735
G1 X134.902 Y121.23 E.24214
G1 X134.359 Y121.23 E.01735
M73 P1 R47
G1 X128.999 Y115.87 E.24214
G1 X128.456 Y115.87 E.01735
G1 X133.816 Y121.23 E.24214
G1 X133.272 Y121.23 E.01735
G1 X127.912 Y115.87 E.24214
G1 X127.369 Y115.87 E.01735
G1 X132.729 Y121.23 E.24214
G1 X132.186 Y121.23 E.01735
G1 X126.826 Y115.87 E.24214
G1 X126.282 Y115.87 E.01735
