; generated by PrusaSlicer 2.4.1+win64 on 2023-05-11 at 12:26:59 UTC


;
;
; 

; external perimeters extrusion width = 0.60mm
; perimeters extrusion width = 0.50mm
; infill extrusion width = 0.50mm
; solid infill extrusion width = 0.50mm
; top infill extrusion width = 0.45mm
; first layer extrusion width = 0.42mm

M73 P0 R10
M73 Q0 S10
M201 X1000 Y1000 Z200 E5000 ; sets maximum accelerations, mm/sec^2
M203 X200 Y200 Z12 E120 ; sets maximum feedrates, mm / sec
M204 P1250 R1250 T1250 ; sets acceleration (P, T) and retract acceleration (R), mm/sec^2
M205 X8.00 Y8.00 Z0.40 E4.50 ; sets the jerk limits, mm/sec
M205 S0 T0 ; sets the minimum extruding and travel feed rate, mm/sec
M107
;TYPE:Custom
M862.3 P "MK3S" ; printer model check
M862.1 P0.4 ; nozzle diameter check
M115 U3.11.0 ; tell printer latest fw version
G90 ; use absolute coordinates
M83 ; extruder relative mode
M104 S215 ; set extruder temp
M140 S60 ; set bed temp
M190 S60 ; wait for bed temp
M109 S215 ; wait for extruder temp
G28 W ; home all without mesh bed level
G80 ; mesh bed leveling

G1 Z0.2 F720
G1 Y-3 F1000 ; go outside print area
G92 E0
G1 X60 E9 F1000 ; intro line
G1 X100 E12.5 F1000 ; intro line

G92 E0
M221 S95

; Don't change E values below. Excessive value can damage the printer.

M907 E538 ; set extruder motor current
G21 ; set units to millimeters
G90 ; use absolute coordinates
M83 ; use relative distances for extrusion
M900 K0.05 ; Filament gcode LA 1.5
M900 K30 ; Filament gcode LA 1.0
M107
;LAYER_CHANGE
;Z:0.2
;HEIGHT:0.2
;BEFORE_LAYER_CHANGE
G92 E0.0
;0.2


G1 E-.8 F2100
G1 Z.4 F720
;AFTER_LAYER_CHANGE
;0.2
G1 X111.139 Y87.583 F10800
G1 Z.2 F720
M73 P1 R10
M73 Q1 S10
G1 E.8 F2100
M204 S800
;TYPE:Skirt/Brim
;WIDTH:0.42
G1 F1200
G1 X112.205 Y86.569 E.04612
G1 X113.5 Y86.246 E.04186
G1 X128.5 Y86.246 E.47031
G1 X129.917 Y86.639 E.04612
G1 X131.113 Y88.129 E.05991
G1 X139.113 Y112.129 E.79321
G1 X139.254 Y113 E.02766
G1 X139.254 Y121 E.25083
G1 X138.861 Y122.417 E.04612
G1 X137.795 Y123.431 E.04612
G1 X136.5 Y123.754 E.04186
G1 X125 Y123.754 E.36057
G1 X123.583 Y123.361 E.04612
G1 X122.644 Y122.426 E.04155
G1 X111.144 Y103.426 E.69635
G1 X110.746 Y102 E.04642
G1 X110.746 Y89 E.40761
G1 X111.123 Y87.64 E.04424
M204 S1000
M73 Q2 S10
G1 X111.497 Y87.752 F10800
M204 S800
G1 F1200
G1 X111.515 Y87.693 E.00195
G1 X112.56 Y86.817 E.04278
G1 X113.5 Y86.623 E.03008
M73 P2 R10
G1 X128.5 Y86.623 E.47031
G1 X129.807 Y87.015 E.04278
G1 X130.755 Y88.248 E.04879
G1 X138.755 Y112.248 E.79321
G1 X138.877 Y113 E.02388
G1 X138.877 Y121 E.25083
G1 X138.485 Y122.307 E.04278
G1 X137.44 Y123.183 E.04278
G1 X136.5 Y123.377 E.03008
G1 X125 Y123.377 E.36057
G1 X123.693 Y122.985 E.04278
G1 X122.966 Y122.231 E.03285
G1 X111.466 Y103.231 E.69635
G1 X111.123 Y102 E.04007
G1 X111.123 Y89 E.40761
G1 X111.479 Y87.81 E.03895
M204 S1000
; printing object HackenTrennwand.stl id:0 copy 0
;WIPE_START
G1 F8640
G1 X111.515 Y87.693 E-.0282
G1 X112.56 Y86.817 E-.31505
G1 X113.5 Y86.623 E-.22155
G1 X114.345 Y86.623 E-.1952
;WIPE_END
G1 E-.04 F2100
G1 Z.6 F720
G1 X114.287 Y89.787 F10800
G1 Z.2 F720
G1 E.8 F2100
M204 S800
;TYPE:Perimeter
G1 F1200
G1 X127.713 Y89.787 E.42096
G1 X127.713 Y91.213 E.04471
M73 P3 R10
M73 Q3 S10
G1 X127.213 Y91.213 E.01568
G1 X127.213 Y118.787 E.86457
G1 X133.287 Y118.787 E.19045
G1 X133.287 Y113.787 E.15677
G1 X135.713 Y113.787 E.07606
G1 X135.713 Y120.213 E.20148
G1 X125.787 Y120.213 E.31122
G1 X125.787 Y91.213 E.90927
G1 X115.713 Y91.213 E.31587
G1 X115.713 Y101.213 E.31354
G1 X114.287 Y101.213 E.04471
G1 X114.287 Y89.847 E.35637
M204 S1000
G1 X113.91 Y89.41 F10800
M204 S800
;TYPE:External perimeter
M73 Q4 S10
G1 F1200
M73 P4 R10
G1 X128.09 Y89.41 E.4446
G1 X128.09 Y91.59 E.06835
G1 X127.59 Y91.59 E.01568
G1 X127.59 Y118.41 E.84092
G1 X132.91 Y118.41 E.1668
G1 X132.91 Y113.41 E.15677
G1 X136.09 Y113.41 E.09971
G1 X136.09 Y120.59 E.22512
G1 X125.41 Y120.59 E.33486
G1 X125.41 Y91.59 E.90927
G1 X116.09 Y91.59 E.29222
G1 X116.09 Y101.59 E.31354
G1 X113.91 Y101.59 E.06835
M73 Q5 S10
G1 X113.91 Y89.47 E.38001
M204 S1000
M73 P5 R10
G1 X114.268 Y89.589 F10800
;WIPE_START
G1 F8640
G1 X117.201 Y89.456 E-.76
;WIPE_END
G1 E-.04 F2100
G1 Z.6 F720
G1 X127.6 Y90.675 F10800
G1 Z.2 F720
G1 E.8 F2100
M204 S800
;TYPE:Solid infill
;WIDTH:0.426131
G1 F1200
G1 X126.994 Y90.07 E.02729
G1 X126.452 Y90.07 E.01727
G1 X127.313 Y90.93 E.03876
G1 X126.93 Y90.93 E.01218
G1 X126.93 Y91.09 E.00508
G1 X125.91 Y90.07 E.04595
G1 X125.368 Y90.07 E.01727
G1 X126.93 Y91.632 E.07038
G1 X126.93 Y92.174 E.01727
G1 X126.07 Y91.313 E.03876
G1 X126.07 Y90.93 E.01221
G1 X125.687 Y90.93 E.01221
G1 X124.826 Y90.07 E.03876
G1 X124.285 Y90.07 E.01727
G1 X125.145 Y90.93 E.03876
G1 X124.603 Y90.93 E.01727
G1 X123.743 Y90.07 E.03876
G1 X123.201 Y90.07 E.01727
G1 X124.061 Y90.93 E.03876
G1 X123.519 Y90.93 E.01727
G1 X122.659 Y90.07 E.03876
G1 X122.117 Y90.07 E.01727
G1 X122.977 Y90.93 E.03876
G1 X122.435 Y90.93 E.01727
G1 X121.575 Y90.07 E.03876
G1 X121.033 Y90.07 E.01727
G1 X121.893 Y90.93 E.03876
G1 X121.351 Y90.93 E.01727
G1 X120.491 Y90.07 E.03876
G1 X119.949 Y90.07 E.01727
G1 X120.809 Y90.93 E.03876
G1 X120.267 Y90.93 E.01727
G1 X119.407 Y90.07 E.03876
G1 X118.865 Y90.07 E.01727
G1 X119.725 Y90.93 E.03876
G1 X119.183 Y90.93 E.01727
G1 X118.323 Y90.07 E.03876
G1 X117.781 Y90.07 E.01727
G1 X118.641 Y90.93 E.03876
G1 X118.1 Y90.93 E.01727
G1 X117.239 Y90.07 E.03876
G1 X116.697 Y90.07 E.01727
G1 X117.558 Y90.93 E.03876
G1 X117.016 Y90.93 E.01727
G1 X116.155 Y90.07 E.03876
G1 X115.613 Y90.07 E.01727
G1 X116.474 Y90.93 E.03876
G1 X115.932 Y90.93 E.01727
G1 X115.071 Y90.07 E.03876
G1 X114.57 Y90.07 E.01598
G1 X114.57 Y90.11 E.00129
G1 X115.43 Y90.97 E.03876
G1 X115.43 Y91.512 E.01727
G1 X114.57 Y90.652 E.03876
G1 X114.57 Y91.194 E.01727
G1 X115.43 Y92.054 E.03876
G1 X115.43 Y92.596 E.01727
G1 X114.57 Y91.736 E.03876
G1 X114.57 Y92.278 E.01727
G1 X115.43 Y93.138 E.03876
G1 X115.43 Y93.68 E.01727
G1 X114.57 Y92.82 E.03876
G1 X114.57 Y93.362 E.01727
G1 X115.43 Y94.222 E.03876
G1 X115.43 Y94.764 E.01727
G1 X114.57 Y93.904 E.03876
G1 X114.57 Y94.446 E.01727
G1 X115.43 Y95.306 E.03876
G1 X115.43 Y95.848 E.01727
G1 X114.57 Y94.988 E.03876
G1 X114.57 Y95.53 E.01727
G1 X115.43 Y96.39 E.03876
G1 X115.43 Y96.932 E.01727
G1 X114.57 Y96.072 E.03876
G1 X114.57 Y96.614 E.01727
G1 X115.43 Y97.474 E.03876
G1 X115.43 Y98.016 E.01727
G1 X114.57 Y97.155 E.03876
G1 X114.57 Y97.697 E.01727
G1 X115.43 Y98.558 E.03876
G1 X115.43 Y99.1 E.01727
G1 X114.57 Y98.239 E.03876
G1 X114.57 Y98.781 E.01727
G1 X115.43 Y99.642 E.03876
G1 X115.43 Y100.183 E.01727
G1 X114.57 Y99.323 E.03876
G1 X114.57 Y99.865 E.01727
G1 X115.43 Y100.725 E.03876
G1 X115.43 Y100.93 E.00652
G1 X115.093 Y100.93 E.01075
G1 X114.4 Y100.237 E.03121
M204 S1000
;WIPE_START
G1 F8640
G1 X115.093 Y100.93 E-.2262
G1 X115.43 Y100.93 E-.07787
G1 X115.43 Y100.725 E-.04727
G1 X114.57 Y99.865 E-.28091
G1 X114.57 Y99.323 E-.12514
G1 X114.578 Y99.331 E-.00262
;WIPE_END
G1 E-.04 F2100
G1 Z.6 F720
G1 X125.9 Y91.686 F10800
G1 Z.2 F720
G1 E.8 F2100
M204 S800
M73 Q6 S10
G1 F1200
G1 X126.93 Y92.715 E.04641
G1 X126.93 Y93.257 E.01727
G1 X126.07 Y92.397 E.03876
G1 X126.07 Y92.939 E.01727
M73 P6 R10
G1 X126.93 Y93.799 E.03876
M73 P6 R9
G1 X126.93 Y94.341 E.01727
G1 X126.07 Y93.481 E.03876
G1 X126.07 Y94.023 E.01727
G1 X126.93 Y94.883 E.03876
G1 X126.93 Y95.425 E.01727
G1 X126.07 Y94.565 E.03876
G1 X126.07 Y95.107 E.01727
G1 X126.93 Y95.967 E.03876
G1 X126.93 Y96.509 E.01727
G1 X126.07 Y95.649 E.03876
G1 X126.07 Y96.191 E.01727
G1 X126.93 Y97.051 E.03876
G1 X126.93 Y97.593 E.01727
G1 X126.07 Y96.733 E.03876
G1 X126.07 Y97.275 E.01727
G1 X126.93 Y98.135 E.03876
G1 X126.93 Y98.677 E.01727
G1 X126.07 Y97.817 E.03876
G1 X126.07 Y98.359 E.01727
G1 X126.93 Y99.219 E.03876
G1 X126.93 Y99.761 E.01727
G1 X126.07 Y98.9 E.03876
G1 X126.07 Y99.442 E.01727
G1 X126.93 Y100.303 E.03876
G1 X126.93 Y100.845 E.01727
G1 X126.07 Y99.984 E.03876
G1 X126.07 Y100.526 E.01727
G1 X126.93 Y101.387 E.03876
G1 X126.93 Y101.929 E.01727
G1 X126.07 Y101.068 E.03876
G1 X126.07 Y101.61 E.01727
G1 X126.93 Y102.47 E.03876
G1 X126.93 Y103.012 E.01727
G1 X126.07 Y102.152 E.03876
G1 X126.07 Y102.694 E.01727
G1 X126.93 Y103.554 E.03876
M73 Q6 S9
G1 X126.93 Y104.096 E.01727
G1 X126.07 Y103.236 E.03876
G1 X126.07 Y103.778 E.01727
G1 X126.93 Y104.638 E.03876
G1 X126.93 Y105.18 E.01727
G1 X126.07 Y104.32 E.03876
G1 X126.07 Y104.862 E.01727
G1 X126.93 Y105.722 E.03876
G1 X126.93 Y106.264 E.01727
G1 X126.07 Y105.404 E.03876
G1 X126.07 Y105.946 E.01727
G1 X126.93 Y106.806 E.03876
G1 X126.93 Y107.348 E.01727
G1 X126.07 Y106.488 E.03876
G1 X126.07 Y107.03 E.01727
G1 X126.93 Y107.89 E.03876
G1 X126.93 Y108.432 E.01727
G1 X126.07 Y107.572 E.03876
G1 X126.07 Y108.114 E.01727
G1 X126.93 Y108.974 E.03876
G1 X126.93 Y109.516 E.01727
G1 X126.07 Y108.655 E.03876
G1 X126.07 Y109.197 E.01727
G1 X126.93 Y110.058 E.03876
G1 X126.93 Y110.6 E.01727
G1 X126.07 Y109.739 E.03876
G1 X126.07 Y110.281 E.01727
G1 X126.93 Y111.142 E.03876
G1 X126.93 Y111.683 E.01727
G1 X126.07 Y110.823 E.03876
G1 X126.07 Y111.365 E.01727
G1 X126.93 Y112.225 E.03876
G1 X126.93 Y112.767 E.01727
G1 X126.07 Y111.907 E.03876
G1 X126.07 Y112.449 E.01727
G1 X126.93 Y113.309 E.03876
G1 X126.93 Y113.851 E.01727
G1 X126.07 Y112.991 E.03876
G1 X126.07 Y113.533 E.01727
G1 X126.93 Y114.393 E.03876
G1 X126.93 Y114.935 E.01727
G1 X126.07 Y114.075 E.03876
G1 X126.07 Y114.617 E.01727
G1 X126.93 Y115.477 E.03876
G1 X126.93 Y116.019 E.01727
G1 X126.07 Y115.159 E.03876
G1 X126.07 Y115.701 E.01727
G1 X126.93 Y116.561 E.03876
G1 X126.93 Y117.103 E.01727
G1 X126.07 Y116.243 E.03876
G1 X126.07 Y116.785 E.01727
G1 X126.93 Y117.645 E.03876
G1 X126.93 Y118.187 E.01727
G1 X125.9 Y117.157 E.04641
M204 S1000
;WIPE_START
G1 F8640
G1 X126.93 Y118.187 E-.33632
G1 X126.93 Y117.645 E-.12514
G1 X126.07 Y116.785 E-.28091
G1 X126.07 Y116.708 E-.01764
;WIPE_END
G1 E-.04 F2100
G1 Z.6 F720
G1 X135.108 Y113.9 F10800
G1 Z.2 F720
G1 E.8 F2100
M204 S800
G1 F1200
G1 X135.43 Y114.222 E.01451
G1 X135.43 Y114.764 E.01727
G1 X134.736 Y114.07 E.03128
G1 X134.194 Y114.07 E.01727
G1 X135.43 Y115.306 E.0557
G1 X135.43 Y115.848 E.01727
G1 X133.652 Y114.07 E.08012
G1 X133.57 Y114.07 E.00262
G1 X133.57 Y114.53 E.01465
G1 X135.43 Y116.39 E.08383
G1 X135.43 Y116.932 E.01727
G1 X133.57 Y115.072 E.08383
G1 X133.57 Y115.614 E.01727
G1 X135.43 Y117.474 E.08383
G1 X135.43 Y118.016 E.01727
M73 Q7 S9
G1 X133.57 Y116.155 E.08383
G1 X133.57 Y116.697 E.01727
G1 X135.43 Y118.558 E.08383
M73 P7 R9
G1 X135.43 Y119.1 E.01727
G1 X133.57 Y117.239 E.08383
G1 X133.57 Y117.781 E.01727
G1 X135.43 Y119.642 E.08383
G1 X135.43 Y119.93 E.0092
G1 X135.177 Y119.93 E.00807
G1 X133.57 Y118.323 E.07241
G1 X133.57 Y118.865 E.01727
G1 X134.635 Y119.93 E.04799
G1 X134.093 Y119.93 E.01727
G1 X133.233 Y119.07 E.03876
G1 X132.691 Y119.07 E.01727
G1 X133.551 Y119.93 E.03876
G1 X133.009 Y119.93 E.01727
G1 X132.149 Y119.07 E.03876
G1 X131.607 Y119.07 E.01727
G1 X132.467 Y119.93 E.03876
G1 X131.925 Y119.93 E.01727
G1 X131.065 Y119.07 E.03876
G1 X130.523 Y119.07 E.01727
G1 X131.383 Y119.93 E.03876
G1 X130.841 Y119.93 E.01727
G1 X129.981 Y119.07 E.03876
G1 X129.439 Y119.07 E.01727
G1 X130.299 Y119.93 E.03876
G1 X129.757 Y119.93 E.01727
G1 X128.897 Y119.07 E.03876
G1 X128.355 Y119.07 E.01727
G1 X129.215 Y119.93 E.03876
G1 X128.673 Y119.93 E.01727
G1 X127.644 Y118.9 E.04641
M204 S1000
;WIPE_START
G1 F8640
G1 X128.673 Y119.93 E-.33632
G1 X129.215 Y119.93 E-.12514
G1 X128.355 Y119.07 E-.28091
G1 X128.432 Y119.07 E-.01763
;WIPE_END
G1 E-.04 F2100
G1 Z.6 F720
G1 X128.301 Y120.1 F10800
G1 Z.2 F720
G1 E.8 F2100
M204 S800
G1 F1200
G1 X127.271 Y119.07 E.04641
G1 X126.93 Y119.07 E.01087
G1 X126.93 Y118.729 E.01087
G1 X126.07 Y117.868 E.03876
G1 X126.07 Y118.41 E.01727
G1 X127.59 Y119.93 E.06848
G1 X127.048 Y119.93 E.01727
G1 X126.07 Y118.952 E.04406
G1 X126.07 Y119.494 E.01727
G1 X126.675 Y120.1 E.02729
M204 S1000
; stop printing object HackenTrennwand.stl id:0 copy 0
M106 S84.15
;LAYER_CHANGE
;Z:0.5
;HEIGHT:0.3
;BEFORE_LAYER_CHANGE
G92 E0.0
;0.5


;WIPE_START
G1 F8640
G1 X126.07 Y119.494 E-.19773
G1 X126.07 Y118.952 E-.12514
G1 X127.048 Y119.93 E-.31929
G1 X127.558 Y119.93 E-.11785
;WIPE_END
G1 E-.04 F2100
G1 Z.6 F720
;AFTER_LAYER_CHANGE
;0.5
M104 S210 ; set temperature
G1 X127.558 Y123.754 F10800
G1 Z.5 F720
G1 E.8 F2100
;TYPE:Skirt/Brim
;WIDTH:0.42
G1 F2700
G1 X125 Y123.754 E.11346
G1 X123.583 Y123.361 E.06524
G1 X122.644 Y122.426 E.05878
G1 X111.144 Y103.426 E.98509
G1 X110.746 Y102 E.06567
G1 X110.746 Y89 E.57661
G1 X111.139 Y87.583 E.06524
G1 X112.205 Y86.569 E.06524
G1 X113.5 Y86.246 E.05921
G1 X128.5 Y86.246 E.66532
G1 X129.917 Y86.639 E.06524
G1 X131.113 Y88.129 E.08475
G1 X139.113 Y112.129 E1.1221
G1 X139.254 Y113 E.03914
G1 X139.254 Y121 E.35484
G1 X138.861 Y122.417 E.06524
G1 X137.795 Y123.431 E.06524
G1 X136.5 Y123.754 E.05921
G1 X127.618 Y123.754 E.39396
G1 X127.618 Y123.377 F10800
G1 F2700
G1 X125 Y123.377 E.11612
G1 X123.693 Y122.985 E.06052
G1 X122.966 Y122.231 E.04646
G1 X111.466 Y103.231 E.98509
G1 X111.123 Y102 E.05668
M73 P8 R9
M73 Q8 S9
G1 X111.123 Y89 E.57661
G1 X111.515 Y87.693 E.06052
G1 X112.56 Y86.817 E.06052
G1 X113.5 Y86.623 E.04256
G1 X128.5 Y86.623 E.66532
G1 X129.807 Y87.015 E.06052
G1 X130.755 Y88.248 E.06902
G1 X138.755 Y112.248 E1.1221
G1 X138.877 Y113 E.03378
G1 X138.877 Y121 E.35484
G1 X138.485 Y122.307 E.06052
G1 X137.44 Y123.183 E.06052
G1 X136.5 Y123.377 E.04256
G1 X127.678 Y123.377 E.3913
; printing object HackenTrennwand.stl id:0 copy 0
;WIPE_START
G1 F8640
G1 X125 Y123.377 E-.61837
G1 X124.412 Y123.201 E-.14163
;WIPE_END
G1 E-.04 F2100
G1 Z.9 F720
G1 X127.714 Y91.214 F10800
G1 Z.5 F720
G1 E.8 F2100
M204 S800
;TYPE:Perimeter
;WIDTH:0.5
G1 F3000
G1 X127.214 Y91.214 E.02717
G1 X127.214 Y118.786 E1.49802
G1 X133.286 Y118.786 E.32987
G1 X133.286 Y113.786 E.27166
G1 X135.714 Y113.786 E.13196
G1 X135.714 Y120.214 E.34929
G1 X125.786 Y120.214 E.53946
G1 X125.786 Y91.214 E1.57565
G1 X115.714 Y91.214 E.5472
G1 X115.714 Y101.214 E.54333
G1 X114.286 Y101.214 E.07763
G1 X114.286 Y89.786 E.62096
G1 X127.714 Y89.786 E.72962
G1 X127.714 Y91.154 E.07437
M204 S1000
G1 X127.7 Y91.7 F10800
M204 S800
;TYPE:External perimeter
;WIDTH:0.6
G1 F2100
M73 Q9 S9
G1 X127.7 Y118.3 E1.77702
G1 X132.8 Y118.3 E.34071
M73 P9 R9
G1 X132.8 Y113.3 E.33403
G1 X136.2 Y113.3 E.22714
G1 X136.2 Y120.7 E.49436
G1 X125.3 Y120.7 E.72818
G1 X125.3 Y91.7 E1.93736
G1 X116.2 Y91.7 E.60793
G1 X116.2 Y101.7 E.66805
G1 X113.8 Y101.7 E.16033
G1 X113.8 Y89.3 E.82839
G1 X128.2 Y89.3 E.962
G1 X128.2 Y91.7 E.16033
G1 X127.76 Y91.7 E.02939
M204 S1000
G1 X127.341 Y91.876 F10800
;WIPE_START
G1 F8640
G1 X127.753 Y94.991 E-.76
;WIPE_END
G1 E-.04 F2100
G1 Z.9 F720
G1 X134.698 Y120.084 F10800
G1 Z.5 F720
G1 E.8 F2100
;TYPE:Solid infill
;WIDTH:0.502462
G1 F4800
G1 X135.388 Y119.394 E.0533
G1 X135.388 Y118.774 E.03385
G1 X134.274 Y119.888 E.08603
G1 X133.655 Y119.888 E.03385
G1 X135.388 Y118.155 E.1339
G1 X135.388 Y117.535 E.03385
G1 X133.035 Y119.888 E.18177
G1 X132.416 Y119.888 E.03385
G1 X133.191 Y119.112 E.05991
G1 X133.612 Y119.112 E.02302
G1 X133.612 Y118.691 E.02302
G1 X135.388 Y116.916 E.13718
G1 X135.388 Y116.296 E.03385
G1 X133.612 Y118.072 E.13718
G1 X133.612 Y117.452 E.03385
G1 X135.388 Y115.677 E.13718
G1 X135.388 Y115.057 E.03385
G1 X133.612 Y116.832 E.13718
G1 X133.612 Y116.213 E.03385
G1 X135.388 Y114.438 E.13718
G1 X135.388 Y114.112 E.01777
G1 X135.093 Y114.112 E.01608
G1 X133.612 Y115.593 E.11444
G1 X133.612 Y114.974 E.03385
G1 X134.474 Y114.112 E.06657
G1 X133.854 Y114.112 E.03385
G1 X133.416 Y114.55 E.03384
;WIPE_START
G1 F8640
G1 X133.854 Y114.112 E-.14302
G1 X134.474 Y114.112 E-.14305
G1 X133.612 Y114.974 E-.28132
M73 Q10 S9
G1 X133.612 Y115.593 E-.14305
G1 X133.764 Y115.442 E-.04955
;WIPE_END
G1 E-.04 F2100
G1 Z.9 F720
G1 X132.768 Y118.916 F10800
G1 Z.5 F720
M73 P10 R9
G1 E.8 F2100
G1 F4800
G1 X131.796 Y119.888 E.07506
G1 X131.177 Y119.888 E.03385
G1 X131.952 Y119.112 E.05991
G1 X131.332 Y119.112 E.03385
G1 X130.557 Y119.888 E.05991
G1 X129.938 Y119.888 E.03385
