; generated by PrusaSlicer 2.4.1+win64 on 2023-04-19 at 13:52:50 UTC


;
;
; 

; external perimeters extrusion width = 0.60mm
; perimeters extrusion width = 0.50mm
; infill extrusion width = 0.50mm
; solid infill extrusion width = 0.50mm
; top infill extrusion width = 0.45mm
; first layer extrusion width = 0.42mm

; external perimeters extrusion width = 0.60mm
; perimeters extrusion width = 0.50mm
; infill extrusion width = 0.50mm
; solid infill extrusion width = 0.50mm
; top infill extrusion width = 0.45mm
; first layer extrusion width = 0.42mm

; external perimeters extrusion width = 0.60mm
; perimeters extrusion width = 0.50mm
; infill extrusion width = 0.50mm
; solid infill extrusion width = 0.50mm
; top infill extrusion width = 0.45mm
; first layer extrusion width = 0.42mm

; external perimeters extrusion width = 0.60mm
; perimeters extrusion width = 0.50mm
; infill extrusion width = 0.50mm
; solid infill extrusion width = 0.50mm
; top infill extrusion width = 0.45mm
; first layer extrusion width = 0.42mm

; external perimeters extrusion width = 0.60mm
; perimeters extrusion width = 0.50mm
; infill extrusion width = 0.50mm
; solid infill extrusion width = 0.50mm
; top infill extrusion width = 0.45mm
; first layer extrusion width = 0.42mm

; external perimeters extrusion width = 0.60mm
; perimeters extrusion width = 0.50mm
; infill extrusion width = 0.50mm
; solid infill extrusion width = 0.50mm
; top infill extrusion width = 0.45mm
; first layer extrusion width = 0.42mm

M73 P0 R42
M73 Q0 S43
M201 X1000 Y1000 Z200 E5000 ; sets maximum accelerations, mm/sec^2
M203 X200 Y200 Z12 E120 ; sets maximum feedrates, mm / sec
M204 P1250 R1250 T1250 ; sets acceleration (P, T) and retract acceleration (R), mm/sec^2
M205 X8.00 Y8.00 Z0.40 E4.50 ; sets the jerk limits, mm/sec
M205 S0 T0 ; sets the minimum extruding and travel feed rate, mm/sec
M107
;TYPE:Custom
M862.3 P "MK3S" ; printer model check
M862.1 P0.4 ; nozzle diameter check
M115 U3.11.0 ; tell printer latest fw version
G90 ; use absolute coordinates
M83 ; extruder relative mode
M104 S215 ; set extruder temp
M140 S60 ; set bed temp
M190 S60 ; wait for bed temp
M109 S215 ; wait for extruder temp
G28 W ; home all without mesh bed level
G80 ; mesh bed leveling

G1 Z0.2 F720
G1 Y-3 F1000 ; go outside print area
G92 E0
G1 X60 E9 F1000 ; intro line
G1 X100 E12.5 F1000 ; intro line

G92 E0
M221 S95

; Don't change E values below. Excessive value can damage the printer.

M907 E538 ; set extruder motor current
G21 ; set units to millimeters
G90 ; use absolute coordinates
M83 ; use relative distances for extrusion
M900 K0.05 ; Filament gcode LA 1.5
M900 K30 ; Filament gcode LA 1.0
M107
;LAYER_CHANGE
;Z:0.2
;HEIGHT:0.2
;BEFORE_LAYER_CHANGE
G92 E0.0
;0.2


G1 E-.8 F2100
M73 Q0 S42
G1 Z.4 F720
;AFTER_LAYER_CHANGE
;0.2
G1 X57.326 Y90.694 F10800
G1 Z.2 F720
G1 E.8 F2100
M204 S800
;TYPE:Skirt/Brim
;WIDTH:0.42
G1 F1200
G1 X58.11 Y90.505 E.02528
G1 X71.997 Y89.594 E.43635
G1 X85.514 Y89.09 E.42412
G1 X123.735 Y88.995 E1.19839
G1 X137.431 Y90.333 E.43149
G1 X138.694 Y90.85 E.04278
G1 X139.469 Y91.99 E.04322
G1 X146.969 Y115.99 E.78839
G1 X147.077 Y116.699 E.02249
G1 X147.077 Y122.699 E.18813
G1 X146.686 Y124.006 E.04278
G1 X145.64 Y124.882 E.04278
G1 X144.706 Y125.076 E.02989
G1 X65.765 Y125.254 E2.47515
G1 X64.458 Y124.863 E.04278
G1 X63.591 Y123.837 E.04213
G1 X56.091 Y106.837 E.58259
G1 X55.888 Y105.877 E.03075
G1 X55.888 Y92.877 E.40761
G1 X56.28 Y91.57 E.04278
G1 X57.28 Y90.732 E.0409
M204 S1000
; printing object HackenTrennwand.stl id:2 copy 0
;WIPE_START
G1 F8640
G1 X58.11 Y90.505 E-.19871
G1 X60.535 Y90.346 E-.56129
;WIPE_END
G1 E-.04 F2100
G1 Z.6 F720
G1 X127.487 Y93.486 F10800
G1 Z.2 F720
G1 E.8 F2100
M204 S800
;TYPE:Perimeter
G1 F1200
G1 X136.413 Y93.486 E.27986
G1 X136.413 Y120.486 E.84657
G1 X142.487 Y120.486 E.19045
G1 X142.487 Y117.486 E.09406
G1 X143.913 Y117.486 E.04471
G1 X143.913 Y121.912 E.13877
G1 X134.987 Y121.912 E.27986
G1 X134.987 Y94.912 E.84657
G1 X128.913 Y94.912 E.19045
G1 X128.913 Y104.912 E.31354
G1 X127.487 Y104.912 E.04471
G1 X127.487 Y93.546 E.35637
M204 S1000
G1 X127.11 Y93.109 F10800
M204 S800
;TYPE:External perimeter
M73 Q1 S42
G1 F1200
M73 P1 R42
G1 X136.79 Y93.109 E.30351
G1 X136.79 Y120.109 E.84657
G1 X142.11 Y120.109 E.1668
G1 X142.11 Y117.109 E.09406
G1 X144.29 Y117.109 E.06835
G1 X144.29 Y122.289 E.16242
G1 X134.61 Y122.289 E.30351
G1 X134.61 Y95.289 E.84657
G1 X129.29 Y95.289 E.1668
G1 X129.29 Y105.289 E.31354
G1 X127.11 Y105.289 E.06835
G1 X127.11 Y93.169 E.38001
M204 S1000
G1 X127.468 Y93.288 F10800
;WIPE_START
G1 F8640
G1 X130.402 Y93.148 E-.76
;WIPE_END
G1 E-.04 F2100
G1 Z.6 F720
G1 X135.534 Y93.599 F10800
G1 Z.2 F720
G1 E.8 F2100
M204 S800
;TYPE:Solid infill
;WIDTH:0.42186
G1 F1200
G1 X136.13 Y94.195 E.02658
G1 X136.13 Y94.731 E.01689
G1 X135.168 Y93.769 E.0429
G1 X134.632 Y93.769 E.01689
G1 X136.13 Y95.267 E.06678
G1 X136.13 Y95.803 E.01689
G1 X134.096 Y93.769 E.09066
G1 X133.56 Y93.769 E.01689
G1 X134.42 Y94.629 E.03833
G1 X133.884 Y94.629 E.01689
G1 X133.024 Y93.769 E.03833
G1 X132.488 Y93.769 E.01689
G1 X133.348 Y94.629 E.03833
G1 X132.812 Y94.629 E.01689
G1 X131.952 Y93.769 E.03833
G1 X131.416 Y93.769 E.01689
G1 X132.277 Y94.629 E.03833
G1 X131.741 Y94.629 E.01689
G1 X130.88 Y93.769 E.03833
G1 X130.345 Y93.769 E.01689
G1 X131.205 Y94.629 E.03833
G1 X130.669 Y94.629 E.01689
G1 X129.809 Y93.769 E.03833
G1 X129.273 Y93.769 E.01689
G1 X130.133 Y94.629 E.03833
G1 X129.597 Y94.629 E.01689
G1 X128.737 Y93.769 E.03833
G1 X128.201 Y93.769 E.01689
G1 X129.061 Y94.629 E.03833
G1 X128.63 Y94.629 E.01357
G1 X128.63 Y94.734 E.00331
G1 X127.77 Y93.874 E.03833
G1 X127.77 Y94.41 E.01689
G1 X128.63 Y95.27 E.03833
G1 X128.63 Y95.806 E.01689
G1 X127.77 Y94.946 E.03833
G1 X127.77 Y95.481 E.01689
G1 X128.63 Y96.342 E.03833
G1 X128.63 Y96.878 E.01689
G1 X127.77 Y96.017 E.03833
G1 X127.77 Y96.553 E.01689
G1 X128.63 Y97.414 E.03833
G1 X128.63 Y97.949 E.01689
G1 X127.77 Y97.089 E.03833
G1 X127.77 Y97.625 E.01689
G1 X128.63 Y98.485 E.03833
G1 X128.63 Y99.021 E.01689
G1 X127.77 Y98.161 E.03833
G1 X127.77 Y98.697 E.01689
G1 X128.63 Y99.557 E.03833
G1 X128.63 Y100.093 E.01689
G1 X127.77 Y99.233 E.03833
G1 X127.77 Y99.769 E.01689
G1 X128.63 Y100.629 E.03833
G1 X128.63 Y101.165 E.01689
G1 X127.77 Y100.305 E.03833
G1 X127.77 Y100.84 E.01689
G1 X128.63 Y101.701 E.03833
G1 X128.63 Y102.237 E.01689
G1 X127.77 Y101.376 E.03833
G1 X127.77 Y101.912 E.01689
G1 X128.63 Y102.773 E.03833
G1 X128.63 Y103.308 E.01689
G1 X127.77 Y102.448 E.03833
G1 X127.77 Y102.984 E.01689
G1 X128.63 Y103.844 E.03833
G1 X128.63 Y104.38 E.01689
G1 X127.77 Y103.52 E.03833
G1 X127.77 Y104.056 E.01689
G1 X128.343 Y104.629 E.02553
G1 X127.807 Y104.629 E.01689
G1 X127.6 Y104.422 E.00921
M204 S1000
;WIPE_START
G1 F8640
G1 X127.807 Y104.629 E-.06752
G1 X128.343 Y104.629 E-.12374
G1 X127.77 Y104.056 E-.1871
G1 X127.77 Y103.52 E-.12374
G1 X128.56 Y104.31 E-.2579
;WIPE_END
G1 E-.04 F2100
G1 Z.6 F720
G1 X135.1 Y95.309 F10800
G1 Z.2 F720
G1 E.8 F2100
M204 S800
G1 F1200
G1 X136.13 Y96.339 E.04589
G1 X136.13 Y96.875 E.01689
G1 X135.27 Y96.015 E.03833
G1 X135.27 Y96.551 E.01689
G1 X136.13 Y97.411 E.03833
G1 X136.13 Y97.947 E.01689
G1 X135.27 Y97.087 E.03833
G1 X135.27 Y97.622 E.01689
G1 X136.13 Y98.483 E.03833
G1 X136.13 Y99.019 E.01689
G1 X135.27 Y98.158 E.03833
G1 X135.27 Y98.694 E.01689
G1 X136.13 Y99.554 E.03833
G1 X136.13 Y100.09 E.01689
G1 X135.27 Y99.23 E.03833
G1 X135.27 Y99.766 E.01689
G1 X136.13 Y100.626 E.03833
G1 X136.13 Y101.162 E.01689
G1 X135.27 Y100.302 E.03833
G1 X135.27 Y100.838 E.01689
G1 X136.13 Y101.698 E.03833
G1 X136.13 Y102.234 E.01689
G1 X135.27 Y101.374 E.03833
G1 X135.27 Y101.91 E.01689
G1 X136.13 Y102.77 E.03833
G1 X136.13 Y103.306 E.01689
G1 X135.27 Y102.446 E.03833
G1 X135.27 Y102.981 E.01689
G1 X136.13 Y103.842 E.03833
G1 X136.13 Y104.378 E.01689
G1 X135.27 Y103.517 E.03833
G1 X135.27 Y104.053 E.01689
G1 X136.13 Y104.914 E.03833
G1 X136.13 Y105.449 E.01689
G1 X135.27 Y104.589 E.03833
G1 X135.27 Y105.125 E.01689
G1 X136.13 Y105.985 E.03833
G1 X136.13 Y106.521 E.01689
G1 X135.27 Y105.661 E.03833
G1 X135.27 Y106.197 E.01689
G1 X136.13 Y107.057 E.03833
G1 X136.13 Y107.593 E.01689
G1 X135.27 Y106.733 E.03833
G1 X135.27 Y107.269 E.01689
G1 X136.13 Y108.129 E.03833
G1 X136.13 Y108.665 E.01689
G1 X135.27 Y107.805 E.03833
G1 X135.27 Y108.34 E.01689
G1 X136.13 Y109.201 E.03833
G1 X136.13 Y109.737 E.01689
G1 X135.27 Y108.876 E.03833
G1 X135.27 Y109.412 E.01689
G1 X136.13 Y110.273 E.03833
G1 X136.13 Y110.808 E.01689
G1 X135.27 Y109.948 E.03833
G1 X135.27 Y110.484 E.01689
G1 X136.13 Y111.344 E.03833
G1 X136.13 Y111.88 E.01689
G1 X135.27 Y111.02 E.03833
G1 X135.27 Y111.556 E.01689
G1 X136.13 Y112.416 E.03833
G1 X136.13 Y112.952 E.01689
G1 X135.27 Y112.092 E.03833
G1 X135.27 Y112.628 E.01689
G1 X136.13 Y113.488 E.03833
G1 X136.13 Y114.024 E.01689
G1 X135.27 Y113.164 E.03833
G1 X135.27 Y113.7 E.01689
G1 X136.13 Y114.56 E.03833
G1 X136.13 Y115.096 E.01689
G1 X135.27 Y114.235 E.03833
G1 X135.27 Y114.771 E.01689
G1 X136.13 Y115.632 E.03833
G1 X136.13 Y116.167 E.01689
G1 X135.27 Y115.307 E.03833
G1 X135.27 Y115.843 E.01689
G1 X136.13 Y116.703 E.03833
G1 X136.13 Y117.239 E.01689
G1 X135.27 Y116.379 E.03833
G1 X135.27 Y116.915 E.01689
G1 X136.13 Y117.775 E.03833
G1 X136.13 Y118.311 E.01689
G1 X135.27 Y117.451 E.03833
G1 X135.27 Y117.987 E.01689
G1 X136.13 Y118.847 E.03833
G1 X136.13 Y119.383 E.01689
G1 X135.27 Y118.523 E.03833
G1 X135.27 Y119.059 E.01689
G1 X136.3 Y120.088 E.04589
M204 S1000
;WIPE_START
G1 F8640
G1 X135.27 Y119.059 E-.33632
G1 X135.27 Y118.523 E-.12374
G1 X136.13 Y119.383 E-.28091
G1 X136.13 Y119.3 E-.01903
;WIPE_END
G1 E-.04 F2100
G1 Z.6 F720
G1 X143.457 Y117.599 F10800
G1 Z.2 F720
G1 E.8 F2100
M204 S800
G1 F1200
G1 X143.63 Y117.773 E.00774
G1 X143.63 Y118.308 E.01689
G1 X143.091 Y117.769 E.02405
G1 X142.77 Y117.769 E.0101
G1 X142.77 Y117.984 E.00679
G1 X143.63 Y118.844 E.03833
G1 X143.63 Y119.38 E.01689
G1 X142.77 Y118.52 E.03833
G1 X142.77 Y119.056 E.01689
G1 X143.63 Y119.916 E.03833
G1 X143.63 Y120.452 E.01689
G1 X142.77 Y119.592 E.03833
G1 X142.77 Y120.128 E.01689
G1 X143.63 Y120.988 E.03833
G1 X143.63 Y121.524 E.01689
G1 X142.77 Y120.664 E.03833
G1 X142.77 Y120.769 E.00331
G1 X142.339 Y120.769 E.01358
G1 X143.199 Y121.629 E.03833
G1 X142.664 Y121.629 E.01689
G1 X141.803 Y120.769 E.03833
G1 X141.267 Y120.769 E.01689
G1 X142.128 Y121.629 E.03833
G1 X141.592 Y121.629 E.01689
G1 X140.732 Y120.769 E.03833
G1 X140.196 Y120.769 E.01689
G1 X141.056 Y121.629 E.03833
G1 X140.52 Y121.629 E.01689
G1 X139.66 Y120.769 E.03833
G1 X139.124 Y120.769 E.01689
G1 X139.984 Y121.629 E.03833
G1 X139.448 Y121.629 E.01689
G1 X138.588 Y120.769 E.03833
G1 X138.052 Y120.769 E.01689
G1 X138.912 Y121.629 E.03833
G1 X138.376 Y121.629 E.01689
G1 X137.516 Y120.769 E.03833
G1 X136.98 Y120.769 E.01689
G1 X137.84 Y121.629 E.03833
G1 X137.305 Y121.629 E.01689
G1 X135.27 Y119.594 E.09066
G1 X135.27 Y120.13 E.01689
G1 X136.769 Y121.629 E.06678
G1 X136.233 Y121.629 E.01689
G1 X135.27 Y120.666 E.0429
G1 X135.27 Y121.202 E.01689
G1 X135.867 Y121.799 E.02658
M204 S1000
; stop printing object HackenTrennwand.stl id:2 copy 0
; printing object HackenTrennwand.stl id:3 copy 0
;WIPE_START
G1 F8640
G1 X135.27 Y121.202 E-.19476
G1 X135.27 Y120.666 E-.12374
G1 X136.233 Y121.629 E-.31435
G1 X136.769 Y121.629 E-.12374
G1 X136.758 Y121.618 E-.00341
;WIPE_END
G1 E-.04 F2100
G1 Z.6 F720
G1 X130.217 Y120.574 F10800
G1 Z.2 F720
G1 E.8 F2100
M204 S800
;TYPE:Perimeter
;WIDTH:0.42
G1 F1200
G1 X121.291 Y120.574 E.27986
G1 X121.291 Y93.574 E.84657
G1 X115.217 Y93.574 E.19045
G1 X115.217 Y103.574 E.31354
G1 X113.791 Y103.574 E.04471
G1 X113.791 Y92.148 E.35825
G1 X122.717 Y92.148 E.27986
G1 X122.717 Y119.148 E.84657
G1 X128.791 Y119.148 E.19045
M73 P1 R41
G1 X128.791 Y116.148 E.09406
G1 X130.217 Y116.148 E.04471
G1 X130.217 Y120.514 E.13689
M204 S1000
G1 X130.594 Y120.951 F10800
M204 S800
;TYPE:External perimeter
G1 F1200
G1 X120.914 Y120.951 E.30351
G1 X120.914 Y93.951 E.84657
G1 X115.594 Y93.951 E.1668
M73 P2 R41
M73 Q2 S42
G1 X115.594 Y103.951 E.31354
G1 X113.414 Y103.951 E.06835
G1 X113.414 Y91.771 E.3819
G1 X123.094 Y91.771 E.30351
G1 X123.094 Y118.771 E.84657
G1 X128.414 Y118.771 E.1668
G1 X128.414 Y115.771 E.09406
G1 X130.594 Y115.771 E.06835
G1 X130.594 Y120.891 E.16053
M204 S1000
G1 X130.224 Y120.799 F10800
;WIPE_START
G1 F8640
G1 X127.302 Y120.911 E-.76
;WIPE_END
G1 E-.04 F2100
G1 Z.6 F720
G1 X121.837 Y92.261 F10800
G1 Z.2 F720
G1 E.8 F2100
M204 S800
;TYPE:Solid infill
;WIDTH:0.42186
G1 F1200
G1 X122.434 Y92.858 E.02658
G1 X122.434 Y93.394 E.01689
G1 X121.471 Y92.431 E.0429
G1 X120.935 Y92.431 E.01689
G1 X122.434 Y93.929 E.06678
G1 X122.434 Y94.465 E.01689
G1 X120.399 Y92.431 E.09066
G1 X119.863 Y92.431 E.01689
G1 X120.724 Y93.291 E.03833
G1 X120.188 Y93.291 E.01689
G1 X119.327 Y92.431 E.03833
G1 X118.792 Y92.431 E.01689
G1 X119.652 Y93.291 E.03833
G1 X119.116 Y93.291 E.01689
G1 X118.256 Y92.431 E.03833
G1 X117.72 Y92.431 E.01689
G1 X118.58 Y93.291 E.03833
G1 X118.044 Y93.291 E.01689
G1 X117.184 Y92.431 E.03833
G1 X116.648 Y92.431 E.01689
G1 X117.508 Y93.291 E.03833
G1 X116.972 Y93.291 E.01689
G1 X116.112 Y92.431 E.03833
G1 X115.576 Y92.431 E.01689
G1 X116.436 Y93.291 E.03833
G1 X115.9 Y93.291 E.01689
G1 X115.04 Y92.431 E.03833
G1 X114.504 Y92.431 E.01689
G1 X115.365 Y93.291 E.03833
G1 X114.934 Y93.291 E.01357
G1 X114.934 Y93.396 E.00331
G1 X114.074 Y92.536 E.03833
G1 X114.074 Y93.072 E.01689
G1 X114.934 Y93.932 E.03833
G1 X114.934 Y94.468 E.01689
G1 X114.074 Y93.608 E.03833
G1 X114.074 Y94.144 E.01689
G1 X114.934 Y95.004 E.03833
G1 X114.934 Y95.54 E.01689
G1 X114.074 Y94.68 E.03833
G1 X114.074 Y95.215 E.01689
G1 X114.934 Y96.076 E.03833
G1 X114.934 Y96.612 E.01689
G1 X114.074 Y95.751 E.03833
G1 X114.074 Y96.287 E.01689
G1 X114.934 Y97.147 E.03833
G1 X114.934 Y97.683 E.01689
G1 X114.074 Y96.823 E.03833
G1 X114.074 Y97.359 E.01689
G1 X114.934 Y98.219 E.03833
G1 X114.934 Y98.755 E.01689
G1 X114.074 Y97.895 E.03833
G1 X114.074 Y98.431 E.01689
G1 X114.934 Y99.291 E.03833
G1 X114.934 Y99.827 E.01689
G1 X114.074 Y98.967 E.03833
G1 X114.074 Y99.503 E.01689
G1 X114.934 Y100.363 E.03833
G1 X114.934 Y100.899 E.01689
G1 X114.074 Y100.039 E.03833
G1 X114.074 Y100.574 E.01689
G1 X114.934 Y101.435 E.03833
G1 X114.934 Y101.971 E.01689
G1 X114.074 Y101.11 E.03833
G1 X114.074 Y101.646 E.01689
G1 X114.934 Y102.506 E.03833
G1 X114.934 Y103.042 E.01689
G1 X114.074 Y102.182 E.03833
G1 X114.074 Y102.718 E.01689
G1 X114.647 Y103.291 E.02553
G1 X114.111 Y103.291 E.01689
G1 X113.904 Y103.084 E.00921
M204 S1000
;WIPE_START
G1 F8640
G1 X114.111 Y103.291 E-.06752
G1 X114.647 Y103.291 E-.12374
G1 X114.074 Y102.718 E-.1871
G1 X114.074 Y102.182 E-.12374
G1 X114.863 Y102.972 E-.2579
;WIPE_END
G1 E-.04 F2100
G1 Z.6 F720
G1 X121.404 Y93.971 F10800
G1 Z.2 F720
G1 E.8 F2100
M204 S800
G1 F1200
G1 X122.434 Y95.001 E.04589
G1 X122.434 Y95.537 E.01689
G1 X121.574 Y94.677 E.03833
G1 X121.574 Y95.213 E.01689
G1 X122.434 Y96.073 E.03833
G1 X122.434 Y96.609 E.01689
G1 X121.574 Y95.749 E.03833
G1 X121.574 Y96.285 E.01689
G1 X122.434 Y97.145 E.03833
G1 X122.434 Y97.681 E.01689
G1 X121.574 Y96.821 E.03833
G1 X121.574 Y97.356 E.01689
G1 X122.434 Y98.217 E.03833
G1 X122.434 Y98.753 E.01689
G1 X121.574 Y97.892 E.03833
G1 X121.574 Y98.428 E.01689
G1 X122.434 Y99.288 E.03833
G1 X122.434 Y99.824 E.01689
G1 X121.574 Y98.964 E.03833
G1 X121.574 Y99.5 E.01689
G1 X122.434 Y100.36 E.03833
G1 X122.434 Y100.896 E.01689
G1 X121.574 Y100.036 E.03833
G1 X121.574 Y100.572 E.01689
G1 X122.434 Y101.432 E.03833
G1 X122.434 Y101.968 E.01689
G1 X121.574 Y101.108 E.03833
G1 X121.574 Y101.644 E.01689
G1 X122.434 Y102.504 E.03833
G1 X122.434 Y103.04 E.01689
G1 X121.574 Y102.18 E.03833
G1 X121.574 Y102.715 E.01689
G1 X122.434 Y103.576 E.03833
G1 X122.434 Y104.112 E.01689
G1 X121.574 Y103.251 E.03833
G1 X121.574 Y103.787 E.01689
G1 X122.434 Y104.647 E.03833
G1 X122.434 Y105.183 E.01689
G1 X121.574 Y104.323 E.03833
G1 X121.574 Y104.859 E.01689
G1 X122.434 Y105.719 E.03833
