; generated by PrusaSlicer 2.4.1+win64 on 2023-05-12 at 05:17:05 UTC


;
;
; 

; external perimeters extrusion width = 0.60mm
; perimeters extrusion width = 0.50mm
; infill extrusion width = 0.50mm
; solid infill extrusion width = 0.50mm
; top infill extrusion width = 0.45mm
; first layer extrusion width = 0.42mm

; external perimeters extrusion width = 0.60mm
; perimeters extrusion width = 0.50mm
; infill extrusion width = 0.50mm
; solid infill extrusion width = 0.50mm
; top infill extrusion width = 0.45mm
; first layer extrusion width = 0.42mm

; external perimeters extrusion width = 0.60mm
; perimeters extrusion width = 0.50mm
; infill extrusion width = 0.50mm
; solid infill extrusion width = 0.50mm
; top infill extrusion width = 0.45mm
; first layer extrusion width = 0.42mm

; external perimeters extrusion width = 0.60mm
; perimeters extrusion width = 0.50mm
; infill extrusion width = 0.50mm
; solid infill extrusion width = 0.50mm
; top infill extrusion width = 0.45mm
; first layer extrusion width = 0.42mm

M73 P0 R32
M73 Q0 S32
M201 X1000 Y1000 Z200 E5000 ; sets maximum accelerations, mm/sec^2
M203 X200 Y200 Z12 E120 ; sets maximum feedrates, mm / sec
M204 P1250 R1250 T1250 ; sets acceleration (P, T) and retract acceleration (R), mm/sec^2
M205 X8.00 Y8.00 Z0.40 E4.50 ; sets the jerk limits, mm/sec
M205 S0 T0 ; sets the minimum extruding and travel feed rate, mm/sec
M107
;TYPE:Custom
M862.3 P "MK3S" ; printer model check
M862.1 P0.4 ; nozzle diameter check
M115 U3.11.0 ; tell printer latest fw version
G90 ; use absolute coordinates
M83 ; extruder relative mode
M104 S215 ; set extruder temp
M140 S60 ; set bed temp
M190 S60 ; wait for bed temp
M109 S215 ; wait for extruder temp
G28 W ; home all without mesh bed level
G80 ; mesh bed leveling

G1 Z0.2 F720
G1 Y-3 F1000 ; go outside print area
G92 E0
G1 X60 E9 F1000 ; intro line
G1 X100 E12.5 F1000 ; intro line

G92 E0
M221 S95

; Don't change E values below. Excessive value can damage the printer.

M907 E538 ; set extruder motor current
G21 ; set units to millimeters
G90 ; use absolute coordinates
M83 ; use relative distances for extrusion
M900 K0.05 ; Filament gcode LA 1.5
M900 K30 ; Filament gcode LA 1.0
M107
;LAYER_CHANGE
;Z:0.2
;HEIGHT:0.2
;BEFORE_LAYER_CHANGE
G92 E0.0
;0.2


G1 E-.8 F2100
G1 Z.4 F720
;AFTER_LAYER_CHANGE
;0.2
G1 X57.734 Y88.661 F10800
G1 Z.2 F720
G1 E.8 F2100
M204 S800
;TYPE:Skirt/Brim
;WIDTH:0.42
G1 F1200
G1 X58.593 Y88.469 E.02762
G1 X113.42 Y86.624 E1.72002
G1 X128.509 Y86.623 E.47311
G1 X155.134 Y86.728 E.83481
G1 X156.44 Y87.124 E.04278
G1 X157.38 Y88.353 E.04851
G1 X165.38 Y112.353 E.79321
G1 X165.502 Y113.105 E.02388
G1 X165.502 Y121.105 E.25083
G1 X165.11 Y122.412 E.04278
G1 X164.065 Y123.288 E.04278
G1 X163.205 Y123.481 E.02762
G1 X108.378 Y125.325 E1.72002
G1 X70.164 Y125.222 E1.19819
M73 P0 R31
G1 X68.858 Y124.825 E.04278
G1 X68.14 Y124.076 E.03256
G1 X56.64 Y105.076 E.69635
G1 X56.296 Y103.845 E.04007
M73 P1 R31
M73 Q1 S32
G1 X56.296 Y90.845 E.40761
G1 X56.688 Y89.538 E.04278
G1 X57.688 Y88.7 E.0409
M204 S1000
; printing object HackenTrennwand.stl id:1 copy 0
;WIPE_START
G1 F8640
G1 X58.593 Y88.469 E-.21584
G1 X60.949 Y88.39 E-.54416
;WIPE_END
G1 E-.04 F2100
G1 Z.6 F720
G1 X140.912 Y89.892 F10800
G1 Z.2 F720
G1 E.8 F2100
M204 S800
;TYPE:Perimeter
G1 F1200
G1 X154.338 Y89.892 E.42096
G1 X154.338 Y91.318 E.04471
G1 X153.838 Y91.318 E.01568
G1 X153.838 Y118.892 E.86457
G1 X159.912 Y118.892 E.19045
G1 X159.912 Y113.892 E.15677
G1 X162.338 Y113.892 E.07606
G1 X162.338 Y120.318 E.20148
G1 X152.412 Y120.318 E.31122
G1 X152.412 Y91.318 E.90927
G1 X142.338 Y91.318 E.31587
G1 X142.338 Y101.318 E.31354
G1 X140.912 Y101.318 E.04471
G1 X140.912 Y89.952 E.35637
M204 S1000
G1 X140.535 Y89.515 F10800
M204 S800
;TYPE:External perimeter
G1 F1200
G1 X154.715 Y89.515 E.4446
G1 X154.715 Y91.695 E.06835
G1 X154.215 Y91.695 E.01568
G1 X154.215 Y118.515 E.84092
G1 X159.535 Y118.515 E.1668
G1 X159.535 Y113.515 E.15677
M73 Q1 S31
G1 X162.715 Y113.515 E.09971
G1 X162.715 Y120.695 E.22512
G1 X152.035 Y120.695 E.33486
G1 X152.035 Y91.695 E.90927
G1 X142.715 Y91.695 E.29222
G1 X142.715 Y101.695 E.31354
G1 X140.535 Y101.695 E.06835
G1 X140.535 Y89.575 E.38001
M204 S1000
G1 X140.893 Y89.694 F10800
;WIPE_START
G1 F8640
G1 X143.826 Y89.561 E-.76
;WIPE_END
G1 E-.04 F2100
G1 Z.6 F720
G1 X154.225 Y90.78 F10800
G1 Z.2 F720
G1 E.8 F2100
M204 S800
;TYPE:Solid infill
;WIDTH:0.426131
G1 F1200
G1 X153.619 Y90.175 E.02729
G1 X153.077 Y90.175 E.01727
G1 X153.938 Y91.035 E.03876
G1 X153.555 Y91.035 E.01218
G1 X153.555 Y91.194 E.00508
G1 X152.535 Y90.175 E.04595
G1 X151.993 Y90.175 E.01727
G1 X153.555 Y91.736 E.07038
G1 X153.555 Y92.278 E.01727
G1 X152.695 Y91.418 E.03876
G1 X152.695 Y91.035 E.01221
G1 X152.312 Y91.035 E.01221
G1 X151.451 Y90.175 E.03876
G1 X150.909 Y90.175 E.01727
G1 X151.77 Y91.035 E.03876
G1 X151.228 Y91.035 E.01727
G1 X150.368 Y90.175 E.03876
G1 X149.826 Y90.175 E.01727
G1 X150.686 Y91.035 E.03876
G1 X150.144 Y91.035 E.01727
G1 X149.284 Y90.175 E.03876
G1 X148.742 Y90.175 E.01727
G1 X149.602 Y91.035 E.03876
G1 X149.06 Y91.035 E.01727
G1 X148.2 Y90.175 E.03876
G1 X147.658 Y90.175 E.01727
G1 X148.518 Y91.035 E.03876
G1 X147.976 Y91.035 E.01727
G1 X147.116 Y90.175 E.03876
G1 X146.574 Y90.175 E.01727
G1 X147.434 Y91.035 E.03876
G1 X146.892 Y91.035 E.01727
G1 X146.032 Y90.175 E.03876
G1 X145.49 Y90.175 E.01727
G1 X146.35 Y91.035 E.03876
G1 X145.808 Y91.035 E.01727
G1 X144.948 Y90.175 E.03876
G1 X144.406 Y90.175 E.01727
G1 X145.266 Y91.035 E.03876
G1 X144.724 Y91.035 E.01727
G1 X143.864 Y90.175 E.03876
G1 X143.322 Y90.175 E.01727
G1 X144.183 Y91.035 E.03876
G1 X143.641 Y91.035 E.01727
G1 X142.78 Y90.175 E.03876
G1 X142.238 Y90.175 E.01727
G1 X143.099 Y91.035 E.03876
G1 X142.557 Y91.035 E.01727
M73 Q2 S31
G1 X141.696 Y90.175 E.03876
G1 X141.195 Y90.175 E.01598
G1 X141.195 Y90.215 E.00129
G1 X142.055 Y91.075 E.03876
G1 X142.055 Y91.617 E.01727
G1 X141.195 Y90.757 E.03876
M73 P2 R31
G1 X141.195 Y91.299 E.01727
G1 X142.055 Y92.159 E.03876
G1 X142.055 Y92.701 E.01727
G1 X141.195 Y91.841 E.03876
G1 X141.195 Y92.383 E.01727
G1 X142.055 Y93.243 E.03876
G1 X142.055 Y93.785 E.01727
G1 X141.195 Y92.925 E.03876
G1 X141.195 Y93.467 E.01727
G1 X142.055 Y94.327 E.03876
G1 X142.055 Y94.869 E.01727
G1 X141.195 Y94.009 E.03876
G1 X141.195 Y94.551 E.01727
G1 X142.055 Y95.411 E.03876
G1 X142.055 Y95.953 E.01727
G1 X141.195 Y95.093 E.03876
G1 X141.195 Y95.634 E.01727
G1 X142.055 Y96.495 E.03876
G1 X142.055 Y97.037 E.01727
G1 X141.195 Y96.176 E.03876
G1 X141.195 Y96.718 E.01727
G1 X142.055 Y97.579 E.03876
G1 X142.055 Y98.121 E.01727
G1 X141.195 Y97.26 E.03876
G1 X141.195 Y97.802 E.01727
G1 X142.055 Y98.662 E.03876
G1 X142.055 Y99.204 E.01727
G1 X141.195 Y98.344 E.03876
G1 X141.195 Y98.886 E.01727
G1 X142.055 Y99.746 E.03876
G1 X142.055 Y100.288 E.01727
G1 X141.195 Y99.428 E.03876
G1 X141.195 Y99.97 E.01727
G1 X142.055 Y100.83 E.03876
G1 X142.055 Y101.035 E.00652
G1 X141.718 Y101.035 E.01075
G1 X141.025 Y100.342 E.03121
M204 S1000
;WIPE_START
G1 F8640
G1 X141.718 Y101.035 E-.2262
G1 X142.055 Y101.035 E-.07787
G1 X142.055 Y100.83 E-.04727
G1 X141.195 Y99.97 E-.28091
G1 X141.195 Y99.428 E-.12514
G1 X141.203 Y99.436 E-.00262
;WIPE_END
G1 E-.04 F2100
G1 Z.6 F720
G1 X152.525 Y91.79 F10800
G1 Z.2 F720
G1 E.8 F2100
M204 S800
G1 F1200
G1 X153.555 Y92.82 E.04641
G1 X153.555 Y93.362 E.01727
G1 X152.695 Y92.502 E.03876
G1 X152.695 Y93.044 E.01727
G1 X153.555 Y93.904 E.03876
G1 X153.555 Y94.446 E.01727
G1 X152.695 Y93.586 E.03876
G1 X152.695 Y94.128 E.01727
G1 X153.555 Y94.988 E.03876
G1 X153.555 Y95.53 E.01727
G1 X152.695 Y94.67 E.03876
G1 X152.695 Y95.212 E.01727
G1 X153.555 Y96.072 E.03876
G1 X153.555 Y96.614 E.01727
G1 X152.695 Y95.754 E.03876
G1 X152.695 Y96.296 E.01727
G1 X153.555 Y97.156 E.03876
G1 X153.555 Y97.698 E.01727
G1 X152.695 Y96.838 E.03876
G1 X152.695 Y97.379 E.01727
G1 X153.555 Y98.24 E.03876
G1 X153.555 Y98.782 E.01727
G1 X152.695 Y97.921 E.03876
G1 X152.695 Y98.463 E.01727
G1 X153.555 Y99.324 E.03876
G1 X153.555 Y99.866 E.01727
G1 X152.695 Y99.005 E.03876
G1 X152.695 Y99.547 E.01727
G1 X153.555 Y100.408 E.03876
G1 X153.555 Y100.949 E.01727
G1 X152.695 Y100.089 E.03876
G1 X152.695 Y100.631 E.01727
G1 X153.555 Y101.491 E.03876
G1 X153.555 Y102.033 E.01727
G1 X152.695 Y101.173 E.03876
G1 X152.695 Y101.715 E.01727
G1 X153.555 Y102.575 E.03876
G1 X153.555 Y103.117 E.01727
G1 X152.695 Y102.257 E.03876
G1 X152.695 Y102.799 E.01727
G1 X153.555 Y103.659 E.03876
G1 X153.555 Y104.201 E.01727
G1 X152.695 Y103.341 E.03876
G1 X152.695 Y103.883 E.01727
G1 X153.555 Y104.743 E.03876
G1 X153.555 Y105.285 E.01727
G1 X152.695 Y104.425 E.03876
G1 X152.695 Y104.967 E.01727
G1 X153.555 Y105.827 E.03876
G1 X153.555 Y106.369 E.01727
G1 X152.695 Y105.509 E.03876
G1 X152.695 Y106.051 E.01727
G1 X153.555 Y106.911 E.03876
G1 X153.555 Y107.453 E.01727
G1 X152.695 Y106.593 E.03876
G1 X152.695 Y107.134 E.01727
G1 X153.555 Y107.995 E.03876
G1 X153.555 Y108.537 E.01727
G1 X152.695 Y107.676 E.03876
G1 X152.695 Y108.218 E.01727
G1 X153.555 Y109.079 E.03876
G1 X153.555 Y109.621 E.01727
G1 X152.695 Y108.76 E.03876
G1 X152.695 Y109.302 E.01727
G1 X153.555 Y110.162 E.03876
G1 X153.555 Y110.704 E.01727
G1 X152.695 Y109.844 E.03876
G1 X152.695 Y110.386 E.01727
G1 X153.555 Y111.246 E.03876
G1 X153.555 Y111.788 E.01727
G1 X152.695 Y110.928 E.03876
G1 X152.695 Y111.47 E.01727
G1 X153.555 Y112.33 E.03876
G1 X153.555 Y112.872 E.01727
G1 X152.695 Y112.012 E.03876
G1 X152.695 Y112.554 E.01727
G1 X153.555 Y113.414 E.03876
G1 X153.555 Y113.956 E.01727
G1 X152.695 Y113.096 E.03876
G1 X152.695 Y113.638 E.01727
G1 X153.555 Y114.498 E.03876
G1 X153.555 Y115.04 E.01727
G1 X152.695 Y114.18 E.03876
G1 X152.695 Y114.722 E.01727
G1 X153.555 Y115.582 E.03876
G1 X153.555 Y116.124 E.01727
G1 X152.695 Y115.264 E.03876
G1 X152.695 Y115.806 E.01727
G1 X153.555 Y116.666 E.03876
G1 X153.555 Y117.208 E.01727
G1 X152.695 Y116.347 E.03876
G1 X152.695 Y116.889 E.01727
G1 X153.555 Y117.75 E.03876
G1 X153.555 Y118.292 E.01727
G1 X152.525 Y117.262 E.04641
M204 S1000
;WIPE_START
G1 F8640
G1 X153.555 Y118.292 E-.33632
G1 X153.555 Y117.75 E-.12514
G1 X152.695 Y116.889 E-.28091
G1 X152.695 Y116.813 E-.01764
;WIPE_END
G1 E-.04 F2100
G1 Z.6 F720
G1 X161.733 Y114.005 F10800
G1 Z.2 F720
G1 E.8 F2100
M204 S800
G1 F1200
G1 X162.055 Y114.327 E.01451
G1 X162.055 Y114.869 E.01727
G1 X161.361 Y114.175 E.03128
G1 X160.819 Y114.175 E.01727
G1 X162.055 Y115.411 E.0557
G1 X162.055 Y115.953 E.01727
G1 X160.277 Y114.175 E.08012
G1 X160.195 Y114.175 E.00262
G1 X160.195 Y114.634 E.01465
G1 X162.055 Y116.495 E.08383
G1 X162.055 Y117.037 E.01727
G1 X160.195 Y115.176 E.08383
G1 X160.195 Y115.718 E.01727
G1 X162.055 Y117.579 E.08383
G1 X162.055 Y118.121 E.01727
G1 X160.195 Y116.26 E.08383
G1 X160.195 Y116.802 E.01727
G1 X162.055 Y118.662 E.08383
G1 X162.055 Y119.204 E.01727
G1 X160.195 Y117.344 E.08383
G1 X160.195 Y117.886 E.01727
G1 X162.055 Y119.746 E.08383
G1 X162.055 Y120.035 E.0092
G1 X161.802 Y120.035 E.00807
G1 X160.195 Y118.428 E.07241
G1 X160.195 Y118.97 E.01727
G1 X161.26 Y120.035 E.04799
G1 X160.718 Y120.035 E.01727
G1 X159.858 Y119.175 E.03876
G1 X159.316 Y119.175 E.01727
G1 X160.176 Y120.035 E.03876
G1 X159.634 Y120.035 E.01727
G1 X158.774 Y119.175 E.03876
G1 X158.232 Y119.175 E.01727
G1 X159.092 Y120.035 E.03876
G1 X158.55 Y120.035 E.01727
G1 X157.69 Y119.175 E.03876
G1 X157.148 Y119.175 E.01727
G1 X158.008 Y120.035 E.03876
G1 X157.466 Y120.035 E.01727
G1 X156.606 Y119.175 E.03876
G1 X156.064 Y119.175 E.01727
G1 X156.924 Y120.035 E.03876
G1 X156.382 Y120.035 E.01727
G1 X155.522 Y119.175 E.03876
G1 X154.98 Y119.175 E.01727
G1 X155.84 Y120.035 E.03876
G1 X155.298 Y120.035 E.01727
G1 X154.269 Y119.005 E.04641
M204 S1000
;WIPE_START
G1 F8640
G1 X155.298 Y120.035 E-.33632
G1 X155.84 Y120.035 E-.12514
G1 X154.98 Y119.175 E-.28091
G1 X155.057 Y119.175 E-.01763
;WIPE_END
G1 E-.04 F2100
G1 Z.6 F720
G1 X154.926 Y120.205 F10800
G1 Z.2 F720
G1 E.8 F2100
M204 S800
G1 F1200
G1 X153.896 Y119.175 E.04641
G1 X153.555 Y119.175 E.01087
G1 X153.555 Y118.834 E.01087
G1 X152.695 Y117.973 E.03876
G1 X152.695 Y118.515 E.01727
G1 X154.215 Y120.035 E.06848
G1 X153.673 Y120.035 E.01727
G1 X152.695 Y119.057 E.04406
G1 X152.695 Y119.599 E.01727
G1 X153.3 Y120.205 E.02729
M204 S1000
; stop printing object HackenTrennwand.stl id:1 copy 0
; printing object HackenTrennwand.stl id:0 copy 0
;WIPE_START
G1 F8640
G1 X152.695 Y119.599 E-.19773
G1 X152.695 Y119.057 E-.12514
G1 X153.673 Y120.035 E-.31929
G1 X154.183 Y120.035 E-.11785
;WIPE_END
G1 E-.04 F2100
G1 Z.6 F720
G1 X127.59 Y91.213 F10800
G1 Z.2 F720
G1 E.8 F2100
M204 S800
;TYPE:Perimeter
;WIDTH:0.42
G1 F1200
G1 X127.213 Y91.213 E.01182
G1 X127.213 Y118.787 E.86457
G1 X133.287 Y118.787 E.19045
G1 X133.287 Y113.787 E.15677
G1 X135.713 Y113.787 E.07606
G1 X135.713 Y120.213 E.20148
G1 X125.787 Y120.213 E.31122
G1 X125.787 Y91.213 E.90927
G1 X115.713 Y91.213 E.31587
G1 X115.713 Y101.213 E.31354
G1 X114.287 Y101.213 E.04471
G1 X114.287 Y89.787 E.35825
G1 X127.713 Y89.787 E.42096
G1 X127.713 Y91.213 E.04471
M73 P3 R31
M73 Q3 S31
G1 X127.65 Y91.213 E.00197
M204 S1000
G1 X127.59 Y91.59 F10800
M204 S800
;TYPE:External perimeter
G1 F1200
G1 X127.59 Y118.41 E.84092
G1 X132.91 Y118.41 E.1668
G1 X132.91 Y113.41 E.15677
G1 X136.09 Y113.41 E.09971
G1 X136.09 Y120.59 E.22512
G1 X125.41 Y120.59 E.33486
G1 X125.41 Y91.59 E.90927
G1 X116.09 Y91.59 E.29222
G1 X116.09 Y101.59 E.31354
G1 X113.91 Y101.59 E.06835
G1 X113.91 Y89.41 E.3819
G1 X128.09 Y89.41 E.4446
G1 X128.09 Y91.59 E.06835
G1 X127.65 Y91.59 E.0138
M204 S1000
G1 X127.23 Y91.763 F10800
G1 X127.6 Y90.675
M204 S800
;TYPE:Solid infill
;WIDTH:0.426131
G1 F1200
G1 X126.994 Y90.07 E.02729
G1 X126.452 Y90.07 E.01727
G1 X127.313 Y90.93 E.03876
G1 X126.93 Y90.93 E.01218
G1 X126.93 Y91.09 E.00508
G1 X125.91 Y90.07 E.04595
G1 X125.368 Y90.07 E.01727
G1 X126.93 Y91.632 E.07038
G1 X126.93 Y92.174 E.01727
G1 X126.07 Y91.313 E.03876
G1 X126.07 Y90.93 E.01221
G1 X125.687 Y90.93 E.01221
G1 X124.826 Y90.07 E.03876
G1 X124.285 Y90.07 E.01727
G1 X125.145 Y90.93 E.03876
G1 X124.603 Y90.93 E.01727
G1 X123.743 Y90.07 E.03876
G1 X123.201 Y90.07 E.01727
G1 X124.061 Y90.93 E.03876
G1 X123.519 Y90.93 E.01727
G1 X122.659 Y90.07 E.03876
G1 X122.117 Y90.07 E.01727
G1 X122.977 Y90.93 E.03876
G1 X122.435 Y90.93 E.01727
G1 X121.575 Y90.07 E.03876
G1 X121.033 Y90.07 E.01727
G1 X121.893 Y90.93 E.03876
G1 X121.351 Y90.93 E.01727
G1 X120.491 Y90.07 E.03876
G1 X119.949 Y90.07 E.01727
G1 X120.809 Y90.93 E.03876
G1 X120.267 Y90.93 E.01727
G1 X119.407 Y90.07 E.03876
G1 X118.865 Y90.07 E.01727
G1 X119.725 Y90.93 E.03876
G1 X119.183 Y90.93 E.01727
G1 X118.323 Y90.07 E.03876
G1 X117.781 Y90.07 E.01727
G1 X118.641 Y90.93 E.03876
G1 X118.1 Y90.93 E.01727
G1 X117.239 Y90.07 E.03876
G1 X116.697 Y90.07 E.01727
G1 X117.558 Y90.93 E.03876
G1 X117.016 Y90.93 E.01727
G1 X116.155 Y90.07 E.03876
G1 X115.613 Y90.07 E.01727
G1 X116.474 Y90.93 E.03876
G1 X115.932 Y90.93 E.01727
G1 X115.071 Y90.07 E.03876
G1 X114.57 Y90.07 E.01598
G1 X114.57 Y90.11 E.00129
G1 X115.43 Y90.97 E.03876
G1 X115.43 Y91.512 E.01727
G1 X114.57 Y90.652 E.03876
G1 X114.57 Y91.194 E.01727
G1 X115.43 Y92.054 E.03876
G1 X115.43 Y92.596 E.01727
G1 X114.57 Y91.736 E.03876
G1 X114.57 Y92.278 E.01727
G1 X115.43 Y93.138 E.03876
G1 X115.43 Y93.68 E.01727
G1 X114.57 Y92.82 E.03876
G1 X114.57 Y93.362 E.01727
G1 X115.43 Y94.222 E.03876
G1 X115.43 Y94.764 E.01727
G1 X114.57 Y93.904 E.03876
G1 X114.57 Y94.446 E.01727
G1 X115.43 Y95.306 E.03876
G1 X115.43 Y95.848 E.01727
G1 X114.57 Y94.988 E.03876
G1 X114.57 Y95.53 E.01727
G1 X115.43 Y96.39 E.03876
G1 X115.43 Y96.932 E.01727
G1 X114.57 Y96.072 E.03876
G1 X114.57 Y96.614 E.01727
G1 X115.43 Y97.474 E.03876
G1 X115.43 Y98.016 E.01727
G1 X114.57 Y97.155 E.03876
G1 X114.57 Y97.697 E.01727
G1 X115.43 Y98.558 E.03876
G1 X115.43 Y99.1 E.01727
G1 X114.57 Y98.239 E.03876
G1 X114.57 Y98.781 E.01727
G1 X115.43 Y99.642 E.03876
G1 X115.43 Y100.183 E.01727
G1 X114.57 Y99.323 E.03876
G1 X114.57 Y99.865 E.01727
G1 X115.43 Y100.725 E.03876
