; generated by PrusaSlicer 2.4.1+win64 on 2023-04-19 at 12:11:58 UTC


;
;
; 

; external perimeters extrusion width = 0.60mm
; perimeters extrusion width = 0.50mm
; infill extrusion width = 0.50mm
; solid infill extrusion width = 0.50mm
; top infill extrusion width = 0.45mm
; first layer extrusion width = 0.42mm

M73 P0 R10
M73 Q0 S10
M201 X1000 Y1000 Z200 E5000 ; sets maximum accelerations, mm/sec^2
M203 X200 Y200 Z12 E120 ; sets maximum feedrates, mm / sec
M204 P1250 R1250 T1250 ; sets acceleration (P, T) and retract acceleration (R), mm/sec^2
M205 X8.00 Y8.00 Z0.40 E4.50 ; sets the jerk limits, mm/sec
M205 S0 T0 ; sets the minimum extruding and travel feed rate, mm/sec
M107
;TYPE:Custom
M862.3 P "MK3S" ; printer model check
M862.1 P0.4 ; nozzle diameter check
M115 U3.11.0 ; tell printer latest fw version
G90 ; use absolute coordinates
M83 ; extruder relative mode
M104 S215 ; set extruder temp
M140 S60 ; set bed temp
M190 S60 ; wait for bed temp
M109 S215 ; wait for extruder temp
G28 W ; home all without mesh bed level
G80 ; mesh bed leveling

G1 Z0.2 F720
G1 Y-3 F1000 ; go outside print area
G92 E0
G1 X60 E9 F1000 ; intro line
G1 X100 E12.5 F1000 ; intro line

G92 E0
M221 S95

; Don't change E values below. Excessive value can damage the printer.

M907 E538 ; set extruder motor current
G21 ; set units to millimeters
G90 ; use absolute coordinates
M83 ; use relative distances for extrusion
M900 K0.05 ; Filament gcode LA 1.5
M900 K30 ; Filament gcode LA 1.0
M107
;LAYER_CHANGE
;Z:0.2
;HEIGHT:0.2
;BEFORE_LAYER_CHANGE
G92 E0.0
;0.2


G1 E-.8 F2100
M73 P1 R10
M73 Q1 S10
G1 Z.4 F720
;AFTER_LAYER_CHANGE
;0.2
G1 X113.639 Y88.583 F10800
G1 Z.2 F720
G1 E.8 F2100
M204 S800
;TYPE:Skirt/Brim
;WIDTH:0.42
G1 F1200
G1 X114.705 Y87.569 E.04612
G1 X116 Y87.246 E.04186
G1 X126.5 Y87.246 E.32922
G1 X127.917 Y87.639 E.04612
G1 X129.129 Y89.179 E.06143
G1 X136.629 Y113.179 E.78839
G1 X136.754 Y114 E.02606
G1 X136.754 Y120 E.18813
G1 X136.361 Y121.417 E.04612
G1 X135.295 Y122.431 E.04612
G1 X134 Y122.754 E.04186
G1 X123.5 Y122.754 E.32922
G1 X122.083 Y122.361 E.04612
G1 X120.98 Y121.112 E.05225
G1 X113.48 Y104.112 E.58259
G1 X113.246 Y103 E.03562
G1 X113.246 Y90 E.40761
G1 X113.623 Y88.64 E.04424
M204 S1000
M73 Q2 S10
G1 X113.997 Y88.752 F10800
M204 S800
G1 F1200
G1 X114.015 Y88.693 E.00195
G1 X115.06 Y87.817 E.04278
G1 X116 Y87.623 E.03008
G1 X126.5 Y87.623 E.32922
M73 P2 R10
G1 X127.807 Y88.015 E.04278
G1 X128.769 Y89.291 E.05011
G1 X136.269 Y113.291 E.78839
G1 X136.377 Y114 E.02249
M73 P2 R9
G1 X136.377 Y120 E.18813
G1 X135.985 Y121.307 E.04278
G1 X134.94 Y122.183 E.04278
M73 Q2 S9
G1 X134 Y122.377 E.03008
G1 X123.5 Y122.377 E.32922
G1 X122.193 Y121.985 E.04278
G1 X121.325 Y120.959 E.04213
G1 X113.825 Y103.959 E.58259
G1 X113.623 Y103 E.03075
G1 X113.623 Y90 E.40761
G1 X113.979 Y88.81 E.03895
M204 S1000
; printing object HackenTrennwand.stl id:0 copy 0
;WIPE_START
G1 F8640
G1 X114.015 Y88.693 E-.0282
G1 X115.06 Y87.817 E-.31505
G1 X116 Y87.623 E-.22155
G1 X116.845 Y87.623 E-.1952
;WIPE_END
G1 E-.04 F2100
G1 Z.6 F720
G1 X116.787 Y90.787 F10800
G1 Z.2 F720
G1 E.8 F2100
M204 S800
;TYPE:Perimeter
G1 F1200
G1 X125.713 Y90.787 E.27986
G1 X125.713 Y117.787 E.84657
G1 X131.787 Y117.787 E.19045
M73 P3 R9
M73 Q3 S9
G1 X131.787 Y114.787 E.09406
G1 X133.213 Y114.787 E.04471
G1 X133.213 Y119.213 E.13877
G1 X124.287 Y119.213 E.27986
G1 X124.287 Y92.213 E.84657
G1 X118.213 Y92.213 E.19045
G1 X118.213 Y102.213 E.31354
G1 X116.787 Y102.213 E.04471
G1 X116.787 Y90.847 E.35637
M204 S1000
G1 X116.41 Y90.41 F10800
M204 S800
;TYPE:External perimeter
G1 F1200
G1 X126.09 Y90.41 E.30351
G1 X126.09 Y117.41 E.84657
G1 X131.41 Y117.41 E.1668
M73 P4 R9
M73 Q4 S9
G1 X131.41 Y114.41 E.09406
G1 X133.59 Y114.41 E.06835
G1 X133.59 Y119.59 E.16242
G1 X123.91 Y119.59 E.30351
G1 X123.91 Y92.59 E.84657
G1 X118.59 Y92.59 E.1668
G1 X118.59 Y102.59 E.31354
G1 X116.41 Y102.59 E.06835
G1 X116.41 Y90.47 E.38001
M204 S1000
G1 X116.768 Y90.589 F10800
;WIPE_START
G1 F8640
G1 X119.701 Y90.45 E-.76
;WIPE_END
G1 E-.04 F2100
G1 Z.6 F720
G1 X124.834 Y90.9 F10800
G1 Z.2 F720
G1 E.8 F2100
M204 S800
;TYPE:Solid infill
;WIDTH:0.42186
G1 F1200
G1 X125.43 Y91.497 E.02658
G1 X125.43 Y92.033 E.01689
G1 X124.467 Y91.07 E.0429
G1 X123.931 Y91.07 E.01689
G1 X125.43 Y92.569 E.06678
G1 X125.43 Y93.104 E.01689
G1 X123.396 Y91.07 E.09066
G1 X122.86 Y91.07 E.01689
M73 Q5 S9
G1 X123.72 Y91.93 E.03833
G1 X123.184 Y91.93 E.01689
G1 X122.324 Y91.07 E.03833
G1 X121.788 Y91.07 E.01689
G1 X122.648 Y91.93 E.03833
G1 X122.112 Y91.93 E.01689
M73 P5 R9
G1 X121.252 Y91.07 E.03833
G1 X120.716 Y91.07 E.01689
G1 X121.576 Y91.93 E.03833
G1 X121.04 Y91.93 E.01689
G1 X120.18 Y91.07 E.03833
G1 X119.644 Y91.07 E.01689
G1 X120.505 Y91.93 E.03833
G1 X119.969 Y91.93 E.01689
G1 X119.108 Y91.07 E.03833
G1 X118.572 Y91.07 E.01689
G1 X119.433 Y91.93 E.03833
G1 X118.897 Y91.93 E.01689
G1 X118.037 Y91.07 E.03833
G1 X117.501 Y91.07 E.01689
G1 X118.361 Y91.93 E.03833
G1 X117.93 Y91.93 E.01357
G1 X117.93 Y92.035 E.00331
G1 X117.07 Y91.175 E.03833
G1 X117.07 Y91.711 E.01689
G1 X117.93 Y92.571 E.03833
G1 X117.93 Y93.107 E.01689
G1 X117.07 Y92.247 E.03833
G1 X117.07 Y92.783 E.01689
G1 X117.93 Y93.643 E.03833
G1 X117.93 Y94.179 E.01689
G1 X117.07 Y93.319 E.03833
G1 X117.07 Y93.855 E.01689
G1 X117.93 Y94.715 E.03833
G1 X117.93 Y95.251 E.01689
G1 X117.07 Y94.39 E.03833
G1 X117.07 Y94.926 E.01689
G1 X117.93 Y95.787 E.03833
G1 X117.93 Y96.322 E.01689
G1 X117.07 Y95.462 E.03833
G1 X117.07 Y95.998 E.01689
G1 X117.93 Y96.858 E.03833
G1 X117.93 Y97.394 E.01689
G1 X117.07 Y96.534 E.03833
G1 X117.07 Y97.07 E.01689
G1 X117.93 Y97.93 E.03833
G1 X117.93 Y98.466 E.01689
G1 X117.07 Y97.606 E.03833
G1 X117.07 Y98.142 E.01689
G1 X117.93 Y99.002 E.03833
G1 X117.93 Y99.538 E.01689
G1 X117.07 Y98.678 E.03833
G1 X117.07 Y99.214 E.01689
G1 X117.93 Y100.074 E.03833
G1 X117.93 Y100.61 E.01689
G1 X117.07 Y99.749 E.03833
G1 X117.07 Y100.285 E.01689
G1 X117.93 Y101.146 E.03833
G1 X117.93 Y101.681 E.01689
G1 X117.07 Y100.821 E.03833
G1 X117.07 Y101.357 E.01689
G1 X117.643 Y101.93 E.02553
G1 X117.107 Y101.93 E.01689
G1 X116.9 Y101.723 E.00921
M204 S1000
;WIPE_START
G1 F8640
G1 X117.107 Y101.93 E-.06752
G1 X117.643 Y101.93 E-.12374
G1 X117.07 Y101.357 E-.1871
G1 X117.07 Y100.821 E-.12374
G1 X117.86 Y101.611 E-.2579
;WIPE_END
G1 E-.04 F2100
G1 Z.6 F720
G1 X124.4 Y92.61 F10800
G1 Z.2 F720
G1 E.8 F2100
M204 S800
G1 F1200
G1 X125.43 Y93.64 E.04589
G1 X125.43 Y94.176 E.01689
G1 X124.57 Y93.316 E.03833
G1 X124.57 Y93.852 E.01689
G1 X125.43 Y94.712 E.03833
G1 X125.43 Y95.248 E.01689
G1 X124.57 Y94.388 E.03833
G1 X124.57 Y94.924 E.01689
G1 X125.43 Y95.784 E.03833
G1 X125.43 Y96.32 E.01689
G1 X124.57 Y95.46 E.03833
G1 X124.57 Y95.995 E.01689
G1 X125.43 Y96.856 E.03833
G1 X125.43 Y97.392 E.01689
G1 X124.57 Y96.531 E.03833
G1 X124.57 Y97.067 E.01689
G1 X125.43 Y97.928 E.03833
G1 X125.43 Y98.463 E.01689
G1 X124.57 Y97.603 E.03833
G1 X124.57 Y98.139 E.01689
G1 X125.43 Y98.999 E.03833
G1 X125.43 Y99.535 E.01689
G1 X124.57 Y98.675 E.03833
G1 X124.57 Y99.211 E.01689
G1 X125.43 Y100.071 E.03833
G1 X125.43 Y100.607 E.01689
G1 X124.57 Y99.747 E.03833
G1 X124.57 Y100.283 E.01689
G1 X125.43 Y101.143 E.03833
G1 X125.43 Y101.679 E.01689
G1 X124.57 Y100.819 E.03833
G1 X124.57 Y101.355 E.01689
G1 X125.43 Y102.215 E.03833
G1 X125.43 Y102.751 E.01689
G1 X124.57 Y101.89 E.03833
G1 X124.57 Y102.426 E.01689
G1 X125.43 Y103.287 E.03833
G1 X125.43 Y103.822 E.01689
G1 X124.57 Y102.962 E.03833
G1 X124.57 Y103.498 E.01689
G1 X125.43 Y104.358 E.03833
G1 X125.43 Y104.894 E.01689
G1 X124.57 Y104.034 E.03833
G1 X124.57 Y104.57 E.01689
G1 X125.43 Y105.43 E.03833
G1 X125.43 Y105.966 E.01689
G1 X124.57 Y105.106 E.03833
G1 X124.57 Y105.642 E.01689
M73 Q6 S9
G1 X125.43 Y106.502 E.03833
G1 X125.43 Y107.038 E.01689
G1 X124.57 Y106.178 E.03833
G1 X124.57 Y106.714 E.01689
M73 P6 R9
G1 X125.43 Y107.574 E.03833
G1 X125.43 Y108.11 E.01689
G1 X124.57 Y107.249 E.03833
G1 X124.57 Y107.785 E.01689
G1 X125.43 Y108.646 E.03833
G1 X125.43 Y109.181 E.01689
G1 X124.57 Y108.321 E.03833
G1 X124.57 Y108.857 E.01689
G1 X125.43 Y109.717 E.03833
G1 X125.43 Y110.253 E.01689
G1 X124.57 Y109.393 E.03833
G1 X124.57 Y109.929 E.01689
G1 X125.43 Y110.789 E.03833
G1 X125.43 Y111.325 E.01689
G1 X124.57 Y110.465 E.03833
G1 X124.57 Y111.001 E.01689
G1 X125.43 Y111.861 E.03833
G1 X125.43 Y112.397 E.01689
G1 X124.57 Y111.537 E.03833
G1 X124.57 Y112.073 E.01689
G1 X125.43 Y112.933 E.03833
G1 X125.43 Y113.469 E.01689
G1 X124.57 Y112.608 E.03833
G1 X124.57 Y113.144 E.01689
G1 X125.43 Y114.005 E.03833
G1 X125.43 Y114.541 E.01689
G1 X124.57 Y113.68 E.03833
G1 X124.57 Y114.216 E.01689
G1 X125.43 Y115.076 E.03833
G1 X125.43 Y115.612 E.01689
G1 X124.57 Y114.752 E.03833
G1 X124.57 Y115.288 E.01689
G1 X125.43 Y116.148 E.03833
G1 X125.43 Y116.684 E.01689
G1 X124.57 Y115.824 E.03833
G1 X124.57 Y116.36 E.01689
G1 X125.6 Y117.39 E.04589
M204 S1000
;WIPE_START
G1 F8640
G1 X124.57 Y116.36 E-.33632
G1 X124.57 Y115.824 E-.12374
G1 X125.43 Y116.684 E-.28091
G1 X125.43 Y116.602 E-.01903
;WIPE_END
G1 E-.04 F2100
G1 Z.6 F720
G1 X132.757 Y114.9 F10800
G1 Z.2 F720
G1 E.8 F2100
M204 S800
G1 F1200
G1 X132.93 Y115.074 E.00774
G1 X132.93 Y115.61 E.01689
G1 X132.39 Y115.07 E.02405
G1 X132.07 Y115.07 E.0101
G1 X132.07 Y115.285 E.00679
G1 X132.93 Y116.146 E.03833
G1 X132.93 Y116.681 E.01689
G1 X132.07 Y115.821 E.03833
G1 X132.07 Y116.357 E.01689
G1 X132.93 Y117.217 E.03833
G1 X132.93 Y117.753 E.01689
G1 X132.07 Y116.893 E.03833
G1 X132.07 Y117.429 E.01689
G1 X132.93 Y118.289 E.03833
G1 X132.93 Y118.825 E.01689
G1 X132.07 Y117.965 E.03833
G1 X132.07 Y118.07 E.00331
G1 X131.639 Y118.07 E.01358
G1 X132.499 Y118.93 E.03833
G1 X131.963 Y118.93 E.01689
G1 X131.103 Y118.07 E.03833
G1 X130.567 Y118.07 E.01689
G1 X131.427 Y118.93 E.03833
G1 X130.892 Y118.93 E.01689
G1 X130.031 Y118.07 E.03833
G1 X129.495 Y118.07 E.01689
G1 X130.356 Y118.93 E.03833
G1 X129.82 Y118.93 E.01689
G1 X128.959 Y118.07 E.03833
G1 X128.424 Y118.07 E.01689
G1 X129.284 Y118.93 E.03833
G1 X128.748 Y118.93 E.01689
G1 X127.888 Y118.07 E.03833
G1 X127.352 Y118.07 E.01689
G1 X128.212 Y118.93 E.03833
G1 X127.676 Y118.93 E.01689
G1 X126.816 Y118.07 E.03833
G1 X126.28 Y118.07 E.01689
G1 X127.14 Y118.93 E.03833
G1 X126.604 Y118.93 E.01689
G1 X124.57 Y116.896 E.09066
G1 X124.57 Y117.432 E.01689
G1 X126.068 Y118.93 E.06678
G1 X125.533 Y118.93 E.01689
G1 X124.57 Y117.967 E.0429
G1 X124.57 Y118.503 E.01689
G1 X125.166 Y119.1 E.02658
M204 S1000
; stop printing object HackenTrennwand.stl id:0 copy 0
M106 S84.15
;LAYER_CHANGE
;Z:0.5
;HEIGHT:0.3
;BEFORE_LAYER_CHANGE
G92 E0.0
;0.5


;WIPE_START
G1 F8640
G1 X124.57 Y118.503 E-.19476
G1 X124.57 Y117.967 E-.12374
G1 X125.533 Y118.93 E-.31435
G1 X126.068 Y118.93 E-.12374
G1 X126.058 Y118.92 E-.00341
;WIPE_END
G1 E-.04 F2100
G1 Z.6 F720
;AFTER_LAYER_CHANGE
;0.5
M104 S210 ; set temperature
G1 X126.058 Y122.754 F10800
G1 Z.5 F720
G1 E.8 F2100
;TYPE:Skirt/Brim
;WIDTH:0.42
G1 F2622
G1 X123.5 Y122.754 E.11346
G1 X122.083 Y122.361 E.06524
G1 X120.98 Y121.112 E.07392
G1 X113.48 Y104.112 E.82415
G1 X113.246 Y103 E.05039
G1 X113.246 Y90 E.57661
G1 X113.639 Y88.583 E.06524
M73 P7 R9
M73 Q7 S9
G1 X114.705 Y87.569 E.06524
G1 X116 Y87.246 E.05921
G1 X126.5 Y87.246 E.46573
G1 X127.917 Y87.639 E.06524
G1 X129.129 Y89.179 E.0869
G1 X136.629 Y113.179 E1.11528
G1 X136.754 Y114 E.03686
G1 X136.754 Y120 E.26613
G1 X136.361 Y121.417 E.06524
G1 X135.295 Y122.431 E.06524
G1 X134 Y122.754 E.05921
G1 X126.118 Y122.754 E.34961
G1 X126.118 Y122.377 F10800
G1 F2622
G1 X123.5 Y122.377 E.11612
G1 X122.193 Y121.985 E.06052
G1 X121.325 Y120.959 E.0596
G1 X113.825 Y103.959 E.82415
G1 X113.623 Y103 E.04349
G1 X113.623 Y90 E.57661
G1 X114.015 Y88.693 E.06052
G1 X115.06 Y87.817 E.06052
G1 X116 Y87.623 E.04256
G1 X126.5 Y87.623 E.46573
G1 X127.807 Y88.015 E.06052
G1 X128.769 Y89.291 E.07089
G1 X136.269 Y113.291 E1.11528
G1 X136.377 Y114 E.03181
G1 X136.377 Y120 E.26613
G1 X135.985 Y121.307 E.06052
G1 X134.94 Y122.183 E.06052
G1 X134 Y122.377 E.04256
G1 X126.178 Y122.377 E.34694
; printing object HackenTrennwand.stl id:0 copy 0
;WIPE_START
G1 F8640
G1 X123.5 Y122.377 E-.61835
G1 X122.912 Y122.201 E-.14165
;WIPE_END
G1 E-.04 F2100
G1 Z.9 F720
G1 X125.714 Y117.786 F10800
G1 Z.5 F720
G1 E.8 F2100
M204 S800
;TYPE:Perimeter
;WIDTH:0.5
G1 F2622
G1 X131.786 Y117.786 E.32987
G1 X131.786 Y114.786 E.163
G1 X133.214 Y114.786 E.07763
G1 X133.214 Y119.214 E.24063
G1 X124.286 Y119.214 E.48513
G1 X124.286 Y92.214 E1.46699
G1 X118.214 Y92.214 E.32987
G1 X118.214 Y102.214 E.54333
M73 Q8 S9
G1 X116.786 Y102.214 E.07763
M73 P8 R9
G1 X116.786 Y90.786 E.62096
G1 X125.714 Y90.786 E.48513
G1 X125.714 Y117.726 E1.46373
M204 S1000
G1 X126.2 Y117.3 F10800
M204 S800
;TYPE:External perimeter
;WIDTH:0.6
G1 F2100
G1 X131.3 Y117.3 E.34071
G1 X131.3 Y114.3 E.20042
G1 X133.7 Y114.3 E.16033
G1 X133.7 Y119.7 E.36075
G1 X123.8 Y119.7 E.66137
G1 X123.8 Y92.7 E1.80375
G1 X118.7 Y92.7 E.34071
G1 X118.7 Y102.7 E.66805
G1 X116.3 Y102.7 E.16033
G1 X116.3 Y90.3 E.82839
G1 X126.2 Y90.3 E.66137
G1 X126.2 Y117.24 E1.79974
M204 S1000
G1 X126.247 Y117.697 F10800
;WIPE_START
G1 F8640
G1 X129.491 Y117.279 E-.76
;WIPE_END
G1 E-.04 F2100
G1 Z.9 F720
G1 X132.202 Y119.084 F10800
G1 Z.5 F720
G1 E.8 F2100
;TYPE:Solid infill
;WIDTH:0.500645
G1 F2622
G1 X132.888 Y118.398 E.05278
G1 X132.888 Y117.781 E.03357
G1 X131.781 Y118.888 E.08518
G1 X131.164 Y118.888 E.03357
G1 X132.888 Y117.164 E.13265
G1 X132.888 Y116.547 E.03357
G1 X132.112 Y117.322 E.05966
G1 X132.112 Y116.705 E.03357
M73 Q9 S9
G1 X132.888 Y115.93 E.05966
G1 X132.888 Y115.313 E.03357
G1 X132.112 Y116.088 E.05966
G1 X132.112 Y115.471 E.03357
G1 X132.667 Y114.916 E.04271
;WIPE_START
G1 F8640
M73 P9 R9
G1 X132.112 Y115.471 E-.18122
G1 X132.112 Y116.088 E-.14246
G1 X132.888 Y115.313 E-.25318
G1 X132.888 Y115.93 E-.14246
G1 X132.763 Y116.054 E-.04068
;WIPE_END
G1 E-.04 F2100
G1 Z.9 F720
G1 X131.518 Y117.916 F10800
G1 Z.5 F720
G1 E.8 F2100
G1 F2622
G1 X130.547 Y118.888 E.07475
G1 X129.93 Y118.888 E.03357
G1 X130.705 Y118.112 E.05966
G1 X130.088 Y118.112 E.03357
G1 X129.313 Y118.888 E.05966
G1 X128.696 Y118.888 E.03357
G1 X129.471 Y118.112 E.05966
G1 X128.854 Y118.112 E.03357
G1 X128.079 Y118.888 E.05966
G1 X127.462 Y118.888 E.03357
G1 X128.237 Y118.112 E.05966
G1 X127.62 Y118.112 E.03357
G1 X126.845 Y118.888 E.05966
G1 X126.228 Y118.888 E.03357
G1 X127.003 Y118.112 E.05966
G1 X126.386 Y118.112 E.03357
G1 X125.611 Y118.888 E.05966
G1 X124.994 Y118.888 E.03357
G1 X125.769 Y118.112 E.05966
G1 X125.388 Y118.112 E.02077
G1 X125.388 Y117.877 E.0128
G1 X124.612 Y118.652 E.05966
G1 X124.612 Y118.036 E.03357
G1 X125.388 Y117.26 E.05966
G1 X125.388 Y116.643 E.03357
G1 X124.612 Y117.419 E.05966
G1 X124.612 Y116.802 E.03357
G1 X125.388 Y116.026 E.05966
G1 X125.388 Y115.409 E.03357
G1 X124.612 Y116.185 E.05966
G1 X124.612 Y115.568 E.03357
G1 X125.388 Y114.792 E.05966
G1 X125.388 Y114.175 E.03357
G1 X124.612 Y114.951 E.05966
G1 X124.612 Y114.334 E.03357
G1 X125.388 Y113.558 E.05966
G1 X125.388 Y112.941 E.03357
G1 X124.612 Y113.717 E.05966
G1 X124.612 Y113.1 E.03357
G1 X125.388 Y112.324 E.05966
G1 X125.388 Y111.707 E.03357
G1 X124.612 Y112.483 E.05966
G1 X124.612 Y111.866 E.03357
G1 X125.388 Y111.09 E.05966
G1 X125.388 Y110.473 E.03357
G1 X124.612 Y111.249 E.05966
G1 X124.612 Y110.632 E.03357
G1 X125.388 Y109.857 E.05966
G1 X125.388 Y109.24 E.03357
G1 X124.612 Y110.015 E.05966
G1 X124.612 Y109.398 E.03357
G1 X125.388 Y108.623 E.05966
G1 X125.388 Y108.006 E.03357
G1 X124.612 Y108.781 E.05966
G1 X124.612 Y108.164 E.03357
G1 X125.388 Y107.389 E.05966
G1 X125.388 Y106.772 E.03357
G1 X124.612 Y107.547 E.05966
G1 X124.612 Y106.93 E.03357
G1 X125.388 Y106.155 E.05966
G1 X125.388 Y105.538 E.03357
G1 X124.612 Y106.313 E.05966
G1 X124.612 Y105.696 E.03357
G1 X125.388 Y104.921 E.05966
G1 X125.388 Y104.304 E.03357
G1 X124.612 Y105.079 E.05966
G1 X124.612 Y104.462 E.03357
G1 X125.388 Y103.687 E.05966
G1 X125.388 Y103.07 E.03357
G1 X124.612 Y103.845 E.05966
G1 X124.612 Y103.228 E.03357
G1 X125.388 Y102.453 E.05966
