; generated by PrusaSlicer 2.4.1+win64 on 2023-06-23 at 12:49:22 UTC


;
;
; 

; external perimeters extrusion width = 0.60mm
; perimeters extrusion width = 0.50mm
; infill extrusion width = 0.50mm
; solid infill extrusion width = 0.50mm
; top infill extrusion width = 0.45mm
; first layer extrusion width = 0.42mm

M73 P0 R136
M73 Q0 S137
M201 X1000 Y1000 Z200 E5000 ; sets maximum accelerations, mm/sec^2
M203 X200 Y200 Z12 E120 ; sets maximum feedrates, mm / sec
M204 P1250 R1250 T1250 ; sets acceleration (P, T) and retract acceleration (R), mm/sec^2
M205 X8.00 Y8.00 Z0.40 E4.50 ; sets the jerk limits, mm/sec
M205 S0 T0 ; sets the minimum extruding and travel feed rate, mm/sec
M107
;TYPE:Custom
M862.3 P "MK3S" ; printer model check
M862.1 P0.4 ; nozzle diameter check
M115 U3.11.0 ; tell printer latest fw version
G90 ; use absolute coordinates
M83 ; extruder relative mode
M104 S215 ; set extruder temp
M140 S60 ; set bed temp
M190 S60 ; wait for bed temp
M109 S215 ; wait for extruder temp
G28 W ; home all without mesh bed level
G80 ; mesh bed leveling

G1 Z0.2 F720
G1 Y-3 F1000 ; go outside print area
G92 E0
G1 X60 E9 F1000 ; intro line
G1 X100 E12.5 F1000 ; intro line

G92 E0
M221 S95

; Don't change E values below. Excessive value can damage the printer.

M907 E538 ; set extruder motor current
G21 ; set units to millimeters
G90 ; use absolute coordinates
M83 ; use relative distances for extrusion
M900 K0.05 ; Filament gcode LA 1.5
M900 K30 ; Filament gcode LA 1.0
M107
;LAYER_CHANGE
;Z:0.2
;HEIGHT:0.2
;BEFORE_LAYER_CHANGE
G92 E0.0
;0.2


G1 E-.8 F2100
G1 Z.4 F720
;AFTER_LAYER_CHANGE
;0.2
G1 X93.015 Y43.693 F10800
G1 Z.2 F720
G1 E.8 F2100
M204 S800
;TYPE:Skirt/Brim
;WIDTH:0.42
G1 F1200
G1 X94.06 Y42.817 E.04278
G1 X95 Y42.623 E.03008
G1 X155 Y42.623 E1.88126
G1 X156.307 Y43.015 E.04278
G1 X157.183 Y44.06 E.04278
G1 X157.377 Y45 E.03008
G1 X157.377 Y85 E1.25417
G1 X157.306 Y85.577 E.01821
G1 X137.306 Y165.577 E2.58554
G1 X136.609 Y166.75 E.04278
G1 X135 Y167.377 E.05416
G1 X115 Y167.377 E.62709
G1 X113.693 Y166.985 E.04278
G1 X112.694 Y165.577 E.05416
G1 X92.694 Y85.577 E2.58554
G1 X92.623 Y85 E.01821
G1 X92.623 Y45 E1.25417
G1 X92.997 Y43.75 E.0409
M204 S1000
; printing object KotFlügelHalterung.stl id:0 copy 0
;WIPE_START
G1 F8640
G1 X94.06 Y42.817 E-.32671
G1 X95 Y42.623 E-.22155
G1 X95.917 Y42.623 E-.21174
;WIPE_END
G1 E-.04 F2100
G1 Z.6 F720
G1 X95.787 Y66.789 F10800
G1 Z.2 F720
G1 E.8 F2100
M204 S800
;TYPE:Perimeter
G1 F1200
G1 X109.484 Y66.789 E.42945
G1 X109.974 Y69.882 E.0982
G1 X112.218 Y74.286 E.15498
G1 X115.714 Y77.782 E.15499
G1 X120.118 Y80.026 E.15498
G1 X125 Y80.799 E.15499
G1 X129.882 Y80.026 E.15499
G1 X134.286 Y77.782 E.15498
G1 X137.782 Y74.286 E.15499
G1 X140.026 Y69.882 E.15498
G1 X140.516 Y66.789 E.0982
G1 X154.213 Y66.789 E.42945
G1 X154.213 Y84.213 E.54631
G1 X134.213 Y84.213 E.62709
G1 X134.213 Y164.213 E2.50834
G1 X115.787 Y164.213 E.57773
G1 X115.787 Y84.213 E2.50834
G1 X95.787 Y84.213 E.62709
G1 X95.787 Y66.849 E.54443
M204 S1000
G1 X95.41 Y66.412 F10800
M204 S800
;TYPE:External perimeter
G1 F1200
G1 X109.806 Y66.412 E.45137
G1 X110.337 Y69.764 E.10642
G1 X112.527 Y74.062 E.15124
G1 X115.938 Y77.473 E.15124
G1 X120.236 Y79.663 E.15124
G1 X125 Y80.417 E.15124
G1 X129.764 Y79.663 E.15124
G1 X134.062 Y77.473 E.15124
G1 X137.473 Y74.062 E.15124
G1 X139.663 Y69.764 E.15124
G1 X140.194 Y66.412 E.10642
G1 X154.59 Y66.412 E.45137
G1 X154.59 Y84.59 E.56996
G1 X134.59 Y84.59 E.62709
G1 X134.59 Y164.59 E2.50834
G1 X115.41 Y164.59 E.60138
M73 P0 R135
G1 X115.41 Y84.59 E2.50834
G1 X95.41 Y84.59 E.62709
M73 Q0 S136
G1 X95.41 Y66.472 E.56808
M204 S1000
G1 X95.798 Y66.509 F10800
;WIPE_START
G1 F8640
G1 X98.701 Y66.458 E-.76
;WIPE_END
G1 E-.04 F2100
G1 Z.6 F720
G1 X154.1 Y67.665 F10800
G1 Z.2 F720
G1 E.8 F2100
M204 S800
;TYPE:Solid infill
;WIDTH:0.42006
G1 F1200
G1 X153.507 Y67.072 E.02629
G1 X152.974 Y67.072 E.01673
G1 X153.93 Y68.028 E.04241
G1 X153.93 Y68.562 E.01673
G1 X152.44 Y67.072 E.06607
G1 X151.907 Y67.072 E.01673
G1 X153.93 Y69.095 E.08972
G1 X153.93 Y69.628 E.01673
G1 X151.374 Y67.072 E.11338
G1 X150.84 Y67.072 E.01673
G1 X153.93 Y70.162 E.13703
G1 X153.93 Y70.695 E.01673
G1 X150.307 Y67.072 E.16068
G1 X149.774 Y67.072 E.01673
G1 X153.93 Y71.228 E.18434
G1 X153.93 Y71.762 E.01673
G1 X149.24 Y67.072 E.20799
G1 X148.707 Y67.072 E.01673
G1 X153.93 Y72.295 E.23164
G1 X153.93 Y72.828 E.01673
G1 X148.174 Y67.072 E.2553
G1 X147.64 Y67.072 E.01673
G1 X153.93 Y73.362 E.27895
G1 X153.93 Y73.895 E.01673
G1 X147.107 Y67.072 E.30261
G1 X146.573 Y67.072 E.01673
G1 X153.93 Y74.429 E.32626
G1 X153.93 Y74.962 E.01673
G1 X146.04 Y67.072 E.34991
G1 X145.507 Y67.072 E.01673
G1 X153.93 Y75.495 E.37357
G1 X153.93 Y76.029 E.01673
G1 X144.973 Y67.072 E.39722
G1 X144.44 Y67.072 E.01673
G1 X153.93 Y76.562 E.42087
G1 X153.93 Y77.095 E.01673
G1 X143.907 Y67.072 E.44453
G1 X143.373 Y67.072 E.01673
G1 X153.93 Y77.629 E.46818
G1 X153.93 Y78.162 E.01673
G1 X142.84 Y67.072 E.49183
G1 X142.307 Y67.072 E.01673
G1 X153.93 Y78.695 E.51549
G1 X153.93 Y79.229 E.01673
G1 X141.773 Y67.072 E.53914
G1 X141.24 Y67.072 E.01673
G1 X153.93 Y79.762 E.5628
G1 X153.93 Y80.295 E.01673
G1 X140.751 Y67.116 E.58449
G1 X140.678 Y67.576 E.01462
G1 X153.93 Y80.829 E.58773
G1 X153.93 Y81.362 E.01673
G1 X140.605 Y68.037 E.59096
G1 X140.532 Y68.497 E.01462
G1 X153.93 Y81.896 E.5942
G1 X153.93 Y82.429 E.01673
G1 X140.459 Y68.958 E.59744
G1 X140.386 Y69.418 E.01462
G1 X153.93 Y82.962 E.60067
G1 X153.93 Y83.496 E.01673
G1 X140.313 Y69.878 E.60391
G1 X140.298 Y69.971 E.00294
G1 X140.154 Y70.253 E.00994
G1 X153.831 Y83.93 E.60656
G1 X153.298 Y83.93 E.01673
G1 X139.974 Y70.606 E.59089
G1 X139.794 Y70.96 E.01244
G1 X152.765 Y83.93 E.57522
G1 X152.231 Y83.93 E.01673
G1 X139.614 Y71.313 E.55955
G1 X139.434 Y71.666 E.01244
G1 X151.698 Y83.93 E.54388
G1 X151.165 Y83.93 E.01673
G1 X139.254 Y72.02 E.52821
G1 X139.074 Y72.373 E.01244
M73 P1 R135
M73 Q1 S136
G1 X150.631 Y83.93 E.51254
G1 X150.098 Y83.93 E.01673
G1 X138.894 Y72.726 E.49687
G1 X138.714 Y73.08 E.01244
G1 X149.564 Y83.93 E.48121
G1 X149.031 Y83.93 E.01673
G1 X138.534 Y73.433 E.46554
G1 X138.354 Y73.786 E.01244
G1 X148.498 Y83.93 E.44987
G1 X147.964 Y83.93 E.01673
G1 X138.174 Y74.14 E.4342
G1 X137.984 Y74.484 E.01231
G1 X147.431 Y83.93 E.41894
G1 X146.898 Y83.93 E.01673
G1 X137.718 Y74.75 E.40712
G1 X137.451 Y75.017 E.01183
G1 X146.364 Y83.93 E.39529
G1 X145.831 Y83.93 E.01673
G1 X137.184 Y75.284 E.38346
G1 X136.918 Y75.55 E.01183
G1 X145.298 Y83.93 E.37164
G1 X144.764 Y83.93 E.01673
G1 X136.651 Y75.817 E.35981
G1 X136.384 Y76.084 E.01183
G1 X144.231 Y83.93 E.34798
G1 X143.698 Y83.93 E.01673
G1 X136.118 Y76.35 E.33616
G1 X135.851 Y76.617 E.01183
G1 X143.164 Y83.93 E.32433
G1 X142.631 Y83.93 E.01673
G1 X135.584 Y76.884 E.3125
G1 X135.318 Y77.15 E.01183
G1 X142.097 Y83.93 E.30068
G1 X141.564 Y83.93 E.01673
G1 X135.051 Y77.417 E.28885
G1 X134.784 Y77.684 E.01183
G1 X141.031 Y83.93 E.27702
G1 X140.497 Y83.93 E.01673
G1 X134.518 Y77.95 E.26519
G1 X134.455 Y78.013 E.00279
G1 X134.185 Y78.151 E.0095
G1 X139.964 Y83.93 E.2563
G1 X139.431 Y83.93 E.01673
G1 X133.831 Y78.331 E.24832
G1 X133.478 Y78.511 E.01244
G1 X138.897 Y83.93 E.24033
G1 X138.364 Y83.93 E.01673
G1 X133.125 Y78.691 E.23235
G1 X132.772 Y78.871 E.01244
G1 X137.831 Y83.93 E.22437
G1 X137.297 Y83.93 E.01673
G1 X132.418 Y79.051 E.21638
G1 X132.065 Y79.231 E.01244
G1 X136.764 Y83.93 E.2084
G1 X136.231 Y83.93 E.01673
G1 X131.712 Y79.411 E.20041
G1 X131.358 Y79.591 E.01244
G1 X135.697 Y83.93 E.19243
G1 X135.164 Y83.93 E.01673
G1 X131.005 Y79.771 E.18444
G1 X130.652 Y79.951 E.01244
G1 X134.63 Y83.93 E.17646
G1 X134.097 Y83.93 E.01673
G1 X130.298 Y80.131 E.16847
G1 X129.937 Y80.304 E.01255
G1 X133.93 Y84.296 E.17708
G1 X133.93 Y84.83 E.01673
G1 X129.477 Y80.376 E.1975
G1 X129.016 Y80.449 E.01462
G1 X133.93 Y85.363 E.21792
G1 X133.93 Y85.897 E.01673
G1 X128.556 Y80.522 E.23835
G1 X128.095 Y80.595 E.01462
G1 X133.93 Y86.43 E.25877
G1 X133.93 Y86.963 E.01673
G1 X127.635 Y80.668 E.27919
G1 X127.174 Y80.741 E.01462
G1 X133.93 Y87.497 E.29961
G1 X133.93 Y88.03 E.01673
G1 X126.714 Y80.814 E.32003
G1 X126.254 Y80.887 E.01462
G1 X133.93 Y88.563 E.34045
G1 X133.93 Y89.097 E.01673
G1 X125.793 Y80.96 E.36087
G1 X125.333 Y81.033 E.01462
G1 X133.93 Y89.63 E.38129
G1 X133.93 Y90.163 E.01673
G1 X124.824 Y81.057 E.40384
G1 X124.19 Y80.957 E.02012
G1 X133.93 Y90.697 E.43195
G1 X133.93 Y91.23 E.01673
G1 X123.557 Y80.857 E.46005
G1 X122.923 Y80.756 E.02012
G1 X133.93 Y91.763 E.48815
G1 X133.93 Y92.297 E.01673
M73 P1 R134
G1 X122.289 Y80.656 E.51626
G1 X121.656 Y80.556 E.02012
G1 X133.93 Y92.83 E.54436
G1 X133.93 Y93.364 E.01673
G1 X121.022 Y80.455 E.57246
G1 X120.388 Y80.355 E.02012
G1 X133.93 Y93.897 E.60057
G1 X133.93 Y94.43 E.01673
G1 X119.558 Y80.058 E.63739
G1 X118.47 Y79.504 E.03828
G1 X133.93 Y94.964 E.68562
G1 X133.93 Y95.497 E.01673
M73 Q1 S135
G1 X116.994 Y78.561 E.75108
M204 S1000
;WIPE_START
G1 F8640
G1 X119.322 Y80.889 E-.76
;WIPE_END
G1 E-.04 F2100
G1 Z.6 F720
G1 X109.447 Y67.28 F10800
G1 Z.2 F720
G1 E.8 F2100
M204 S800
G1 F1200
G1 X109.239 Y67.072 E.00925
G1 X108.705 Y67.072 E.01673
G1 X109.343 Y67.71 E.02831
G1 X109.444 Y68.344 E.02013
G1 X108.172 Y67.072 E.05642
G1 X107.638 Y67.072 E.01673
G1 X109.544 Y68.978 E.08453
G1 X109.645 Y69.612 E.02013
G1 X107.105 Y67.072 E.11264
G1 X106.572 Y67.072 E.01673
G1 X109.942 Y70.442 E.14947
G1 X110.496 Y71.53 E.03828
G1 X106.038 Y67.072 E.1977
G1 X105.505 Y67.072 E.01673
G1 X111.439 Y73.006 E.26315
M204 S1000
;WIPE_START
G1 F8640
G1 X109.111 Y70.678 E-.76
;WIPE_END
G1 E-.04 F2100
G1 Z.6 F720
G1 X104.802 Y66.902 F10800
G1 Z.2 F720
G1 E.8 F2100
M204 S800
G1 F1200
G1 X111.605 Y73.705 E.30168
G1 X111.987 Y74.455 E.0264
G1 X115.545 Y78.013 E.15782
G1 X116.295 Y78.395 E.0264
G1 X133.93 Y96.03 E.78208
G1 X133.93 Y96.564 E.01673
G1 X104.438 Y67.072 E1.30793
G1 X103.905 Y67.072 E.01673
G1 X133.93 Y97.097 E1.33158
G1 X133.93 Y97.63 E.01673
G1 X103.372 Y67.072 E1.35523
G1 X102.838 Y67.072 E.01673
G1 X133.93 Y98.164 E1.37889
G1 X133.93 Y98.697 E.01673
G1 X102.305 Y67.072 E1.40254
G1 X101.772 Y67.072 E.01673
G1 X133.93 Y99.23 E1.42619
G1 X133.93 Y99.764 E.01673
G1 X101.238 Y67.072 E1.44985
G1 X100.705 Y67.072 E.01673
G1 X133.93 Y100.297 E1.4735
G1 X133.93 Y100.831 E.01673
G1 X100.171 Y67.072 E1.49716
G1 X99.638 Y67.072 E.01673
G1 X133.93 Y101.364 E1.52081
G1 X133.93 Y101.897 E.01673
G1 X99.105 Y67.072 E1.54446
G1 X98.571 Y67.072 E.01673
G1 X115.43 Y83.93 E.74764
G1 X114.896 Y83.93 E.01673
G1 X98.038 Y67.072 E.74764
G1 X97.505 Y67.072 E.01673
G1 X114.363 Y83.93 E.74764
G1 X113.83 Y83.93 E.01673
G1 X96.971 Y67.072 E.74764
G1 X96.438 Y67.072 E.01673
G1 X113.296 Y83.93 E.74764
G1 X112.763 Y83.93 E.01673
G1 X96.07 Y67.237 E.74031
G1 X96.07 Y67.77 E.01673
G1 X112.23 Y83.93 E.71666
G1 X111.696 Y83.93 E.01673
G1 X96.07 Y68.304 E.69301
G1 X96.07 Y68.837 E.01673
G1 X111.163 Y83.93 E.66935
G1 X110.629 Y83.93 E.01673
G1 X96.07 Y69.371 E.6457
G1 X96.07 Y69.904 E.01673
G1 X110.096 Y83.93 E.62205
G1 X109.563 Y83.93 E.01673
G1 X96.07 Y70.437 E.59839
G1 X96.07 Y70.971 E.01673
G1 X109.029 Y83.93 E.57474
G1 X108.496 Y83.93 E.01673
G1 X96.07 Y71.504 E.55108
G1 X96.07 Y72.037 E.01673
G1 X107.963 Y83.93 E.52743
G1 X107.429 Y83.93 E.01673
G1 X96.07 Y72.571 E.50378
G1 X96.07 Y73.104 E.01673
G1 X106.896 Y83.93 E.48012
G1 X106.363 Y83.93 E.01673
M73 P2 R134
G1 X96.07 Y73.637 E.45647
G1 X96.07 Y74.171 E.01673
G1 X105.829 Y83.93 E.43282
M73 Q2 S135
G1 X105.296 Y83.93 E.01673
G1 X96.07 Y74.704 E.40916
G1 X96.07 Y75.237 E.01673
G1 X104.763 Y83.93 E.38551
G1 X104.229 Y83.93 E.01673
G1 X96.07 Y75.771 E.36185
G1 X96.07 Y76.304 E.01673
G1 X103.696 Y83.93 E.3382
G1 X103.162 Y83.93 E.01673
G1 X96.07 Y76.838 E.31455
G1 X96.07 Y77.371 E.01673
M73 P2 R133
G1 X102.629 Y83.93 E.29089
G1 X102.096 Y83.93 E.01673
G1 X96.07 Y77.904 E.26724
G1 X96.07 Y78.438 E.01673
G1 X101.562 Y83.93 E.24359
G1 X101.029 Y83.93 E.01673
G1 X96.07 Y78.971 E.21993
G1 X96.07 Y79.504 E.01673
G1 X100.496 Y83.93 E.19628
G1 X99.962 Y83.93 E.01673
G1 X96.07 Y80.038 E.17263
G1 X96.07 Y80.571 E.01673
G1 X99.429 Y83.93 E.14897
G1 X98.896 Y83.93 E.01673
G1 X96.07 Y81.104 E.12532
G1 X96.07 Y81.638 E.01673
G1 X98.362 Y83.93 E.10166
G1 X97.829 Y83.93 E.01673
G1 X96.07 Y82.171 E.07801
G1 X96.07 Y82.704 E.01673
G1 X97.296 Y83.93 E.05436
G1 X96.762 Y83.93 E.01673
G1 X96.07 Y83.238 E.0307
G1 X96.07 Y83.771 E.01673
G1 X96.399 Y84.1 E.01457
M204 S1000
;WIPE_START
G1 F8640
G1 X96.07 Y83.771 E-.10732
G1 X96.07 Y83.238 E-.12315
G1 X96.762 Y83.93 E-.22607
G1 X97.296 Y83.93 E-.12315
G1 X96.743 Y83.378 E-.18031
;WIPE_END
G1 E-.04 F2100
G1 Z.6 F720
G1 X115.9 Y84.401 F10800
G1 Z.2 F720
G1 E.8 F2100
M204 S800
G1 F1200
G1 X133.93 Y102.431 E.79961
G1 X133.93 Y102.964 E.01673
M73 Q2 S134
G1 X116.07 Y85.104 E.79208
G1 X116.07 Y85.637 E.01673
G1 X133.93 Y103.497 E.79208
G1 X133.93 Y104.031 E.01673
G1 X116.07 Y86.17 E.79208
G1 X116.07 Y86.704 E.01673
G1 X133.93 Y104.564 E.79208
G1 X133.93 Y105.097 E.01673
G1 X116.07 Y87.237 E.79208
G1 X116.07 Y87.77 E.01673
G1 X133.93 Y105.631 E.79208
G1 X133.93 Y106.164 E.01673
G1 X116.07 Y88.304 E.79208
G1 X116.07 Y88.837 E.01673
G1 X133.93 Y106.697 E.79208
G1 X133.93 Y107.231 E.01673
G1 X116.07 Y89.371 E.79208
G1 X116.07 Y89.904 E.01673
G1 X133.93 Y107.764 E.79208
G1 X133.93 Y108.298 E.01673
G1 X116.07 Y90.437 E.79208
G1 X116.07 Y90.971 E.01673
G1 X133.93 Y108.831 E.79208
G1 X133.93 Y109.364 E.01673
G1 X116.07 Y91.504 E.79208
G1 X116.07 Y92.037 E.01673
G1 X133.93 Y109.898 E.79208
G1 X133.93 Y110.431 E.01673
G1 X116.07 Y92.571 E.79208
G1 X116.07 Y93.104 E.01673
G1 X133.93 Y110.964 E.79208
G1 X133.93 Y111.498 E.01673
G1 X116.07 Y93.637 E.79208
G1 X116.07 Y94.171 E.01673
G1 X133.93 Y112.031 E.79208
G1 X133.93 Y112.564 E.01673
G1 X116.07 Y94.704 E.79208
G1 X116.07 Y95.237 E.01673
G1 X133.93 Y113.098 E.79208
G1 X133.93 Y113.631 E.01673
G1 X116.07 Y95.771 E.79208
G1 X116.07 Y96.304 E.01673
G1 X133.93 Y114.164 E.79208
G1 X133.93 Y114.698 E.01673
G1 X116.07 Y96.838 E.79208
G1 X116.07 Y97.371 E.01673
G1 X133.93 Y115.231 E.79208
G1 X133.93 Y115.765 E.01673
G1 X116.07 Y97.904 E.79208
G1 X116.07 Y98.438 E.01673
G1 X133.93 Y116.298 E.79208
G1 X133.93 Y116.831 E.01673
G1 X116.07 Y98.971 E.79208
G1 X116.07 Y99.504 E.01673
G1 X133.93 Y117.365 E.79208
G1 X133.93 Y117.898 E.01673
G1 X116.07 Y100.038 E.79208
G1 X116.07 Y100.571 E.01673
G1 X133.93 Y118.431 E.79208
G1 X133.93 Y118.965 E.01673
G1 X116.07 Y101.104 E.79208
G1 X116.07 Y101.638 E.01673
G1 X133.93 Y119.498 E.79208
G1 X133.93 Y120.031 E.01673
G1 X116.07 Y102.171 E.79208
G1 X116.07 Y102.704 E.01673
G1 X133.93 Y120.565 E.79208
G1 X133.93 Y121.098 E.01673
G1 X116.07 Y103.238 E.79208
G1 X116.07 Y103.771 E.01673
G1 X133.93 Y121.631 E.79208
G1 X133.93 Y122.165 E.01673
G1 X116.07 Y104.305 E.79208
G1 X116.07 Y104.838 E.01673
G1 X133.93 Y122.698 E.79208
G1 X133.93 Y123.232 E.01673
G1 X116.07 Y105.371 E.79208
G1 X116.07 Y105.905 E.01673
G1 X133.93 Y123.765 E.79208
G1 X133.93 Y124.298 E.01673
G1 X116.07 Y106.438 E.79208
G1 X116.07 Y106.971 E.01673
G1 X133.93 Y124.832 E.79208
G1 X133.93 Y125.365 E.01673
M73 P2 R132
G1 X116.07 Y107.505 E.79208
G1 X116.07 Y108.038 E.01673
G1 X133.93 Y125.898 E.79208
G1 X133.93 Y126.432 E.01673
G1 X116.07 Y108.571 E.79208
G1 X116.07 Y109.105 E.01673
G1 X133.93 Y126.965 E.79208
G1 X133.93 Y127.498 E.01673
M73 Q2 S133
G1 X116.07 Y109.638 E.79208
G1 X116.07 Y110.171 E.01673
G1 X133.93 Y128.032 E.79208
G1 X133.93 Y128.565 E.01673
G1 X116.07 Y110.705 E.79208
G1 X116.07 Y111.238 E.01673
G1 X133.93 Y129.098 E.79208
G1 X133.93 Y129.632 E.01673
G1 X116.07 Y111.772 E.79208
G1 X116.07 Y112.305 E.01673
G1 X133.93 Y130.165 E.79208
G1 X133.93 Y130.699 E.01673
G1 X116.07 Y112.838 E.79208
G1 X116.07 Y113.372 E.01673
G1 X133.93 Y131.232 E.79208
G1 X133.93 Y131.765 E.01673
G1 X116.07 Y113.905 E.79208
G1 X116.07 Y114.438 E.01673
G1 X133.93 Y132.299 E.79208
G1 X133.93 Y132.832 E.01673
M73 P3 R132
G1 X116.07 Y114.972 E.79208
G1 X116.07 Y115.505 E.01673
M73 Q3 S133
G1 X133.93 Y133.365 E.79208
G1 X133.93 Y133.899 E.01673
