; generated by PrusaSlicer 2.4.1+win64 on 2024-01-18 at 09:08:16 UTC


;
;
; 

; external perimeters extrusion width = 0.60mm
; perimeters extrusion width = 0.50mm
; infill extrusion width = 0.50mm
; solid infill extrusion width = 0.50mm
; top infill extrusion width = 0.45mm
; first layer extrusion width = 0.42mm

M73 P0 R21
M73 Q0 S21
M201 X1000 Y1000 Z200 E5000 ; sets maximum accelerations, mm/sec^2
M203 X200 Y200 Z12 E120 ; sets maximum feedrates, mm / sec
M204 P1250 R1250 T1250 ; sets acceleration (P, T) and retract acceleration (R), mm/sec^2
M205 X8.00 Y8.00 Z0.40 E4.50 ; sets the jerk limits, mm/sec
M205 S0 T0 ; sets the minimum extruding and travel feed rate, mm/sec
M107
;TYPE:Custom
M862.3 P "MK3S" ; printer model check
M862.1 P0.4 ; nozzle diameter check
M115 U3.11.0 ; tell printer latest fw version
G90 ; use absolute coordinates
M83 ; extruder relative mode
M104 S215 ; set extruder temp
M140 S60 ; set bed temp
M190 S60 ; wait for bed temp
M109 S215 ; wait for extruder temp
G28 W ; home all without mesh bed level
G80 ; mesh bed leveling

G1 Z0.2 F720
G1 Y-3 F1000 ; go outside print area
G92 E0
G1 X60 E9 F1000 ; intro line
G1 X100 E12.5 F1000 ; intro line

G92 E0
M221 S95

; Don't change E values below. Excessive value can damage the printer.

M907 E538 ; set extruder motor current
G21 ; set units to millimeters
G90 ; use absolute coordinates
M83 ; use relative distances for extrusion
M900 K0.05 ; Filament gcode LA 1.5
M900 K30 ; Filament gcode LA 1.0
M107
;LAYER_CHANGE
;Z:0.2
;HEIGHT:0.2
;BEFORE_LAYER_CHANGE
G92 E0.0
;0.2


G1 E-.8 F2100
G1 Z.4 F720
;AFTER_LAYER_CHANGE
;0.2
G1 X113.015 Y68.693 F10800
G1 Z.2 F720
G1 E.8 F2100
M204 S800
;TYPE:Skirt/Brim
;WIDTH:0.42
G1 F1200
G1 X114.06 Y67.817 E.04278
G1 X115 Y67.623 E.03008
G1 X135 Y67.623 E.62709
G1 X136.307 Y68.015 E.04278
G1 X137.183 Y69.06 E.04278
G1 X137.377 Y70 E.03008
G1 X137.377 Y140 E2.1948
G1 X136.985 Y141.307 E.04278
G1 X135.94 Y142.183 E.04278
G1 X135 Y142.377 E.03008
G1 X115 Y142.377 E.62709
G1 X113.693 Y141.985 E.04278
M73 Q1 S21
G1 X112.817 Y140.94 E.04278
M73 P1 R21
G1 X112.623 Y140 E.03008
G1 X112.623 Y70 E2.1948
G1 X112.997 Y68.75 E.0409
M204 S1000
; printing object SkiFixHalterung.stl id:0 copy 0
;WIPE_START
G1 F8640
G1 X114.06 Y67.817 E-.32671
G1 X115 Y67.623 E-.22155
G1 X115.917 Y67.623 E-.21174
;WIPE_END
G1 E-.04 F2100
G1 Z.6 F720
G1 X119.21 Y74.21 F10800
G1 Z.2 F720
G1 E.8 F2100
M204 S800
;TYPE:Perimeter
G1 F1200
G1 X124.789 Y74.21 E.17493
G1 X124.789 Y95.322 E.66195
G1 X124.782 Y95.838 E.01618
G1 X124.719 Y96.53 E.02181
G1 X126.5 Y96.196 E.05682
G1 X128.484 Y96.569 E.06331
G1 X130.251 Y97.631 E.06464
G1 X131.628 Y99.259 E.06685
G1 X132.499 Y101.279 E.06897
G1 X132.796 Y103.5 E.07026
G1 X132.499 Y105.721 E.07026
G1 X131.628 Y107.741 E.06897
G1 X130.251 Y109.369 E.06685
G1 X128.484 Y110.431 E.06464
G1 X126.5 Y110.804 E.06331
G1 X124.719 Y110.47 E.05683
G1 X124.782 Y111.164 E.02187
G1 X124.789 Y111.681 E.0162
G1 X124.789 Y135.79 E.75593
G1 X119.21 Y135.79 E.17493
G1 X119.21 Y74.27 E1.92892
M204 S1000
G1 X119.587 Y74.587 F10800
M204 S800
;TYPE:External perimeter
G1 F1200
G1 X124.412 Y74.587 E.15128
G1 X124.412 Y95.319 E.65005
G1 X124.405 Y95.822 E.01577
G1 X124.369 Y96.334 E.01608
G1 X124.29 Y96.807 E.01505
G1 X124.335 Y97.119 E.00987
M73 Q2 S21
G1 X124.651 Y96.927 E.01162
G1 X126.5 Y96.58 E.05897
G1 X128.348 Y96.927 E.05896
M73 P2 R21
G1 X130.003 Y97.923 E.06057
G1 X131.304 Y99.46 E.06314
G1 X132.132 Y101.381 E.06558
G1 X132.416 Y103.5 E.06704
G1 X132.132 Y105.619 E.06704
G1 X131.304 Y107.54 E.06558
G1 X130.003 Y109.077 E.06314
G1 X128.348 Y110.073 E.06057
G1 X126.5 Y110.42 E.05896
G1 X124.651 Y110.073 E.05897
G1 X124.335 Y109.881 E.01161
G1 X124.29 Y110.194 E.0099
G1 X124.369 Y110.668 E.01507
G1 X124.405 Y111.18 E.0161
G1 X124.412 Y111.683 E.01579
G1 X124.412 Y135.413 E.74403
G1 X119.587 Y135.413 E.15128
G1 X119.587 Y74.647 E1.90528
M204 S1000
G1 X119.576 Y74.187 F10800
;WIPE_START
G1 F8640
G1 X122.878 Y74.606 E-.76
;WIPE_END
G1 E-.04 F2100
G1 Z.6 F720
G1 X115.787 Y70.787 F10800
G1 Z.2 F720
G1 E.8 F2100
M204 S800
;TYPE:Perimeter
G1 F1200
G1 X134.213 Y70.787 E.57773
G1 X134.213 Y139.213 E2.14544
G1 X115.787 Y139.213 E.57773
G1 X115.787 Y70.847 E2.14356
M204 S1000
G1 X115.41 Y70.41 F10800
M204 S800
;TYPE:External perimeter
M73 P3 R21
M73 Q3 S21
G1 F1200
G1 X134.59 Y70.41 E.60138
G1 X134.59 Y139.59 E2.16909
G1 X115.41 Y139.59 E.60138
M73 P3 R20
G1 X115.41 Y70.47 E2.16721
M204 S1000
G1 X115.773 Y70.578 F10800
;WIPE_START
M73 Q3 S20
G1 F8640
G1 X118.701 Y70.46 E-.76
;WIPE_END
G1 E-.04 F2100
G1 Z.6 F720
G1 X133.337 Y70.9 F10800
G1 Z.2 F720
G1 E.8 F2100
M204 S800
;TYPE:Solid infill
;WIDTH:0.420369
G1 F1200
G1 X133.93 Y71.494 E.02634
G1 X133.93 Y72.027 E.01675
G1 X132.973 Y71.07 E.0425
G1 X132.439 Y71.07 E.01675
G1 X133.93 Y72.561 E.06619
G1 X133.93 Y73.095 E.01675
G1 X131.905 Y71.07 E.08988
G1 X131.371 Y71.07 E.01675
G1 X133.93 Y73.629 E.11358
G1 X133.93 Y74.163 E.01675
G1 X130.837 Y71.07 E.13727
G1 X130.304 Y71.07 E.01675
G1 X133.93 Y74.696 E.16096
G1 X133.93 Y75.23 E.01675
G1 X129.77 Y71.07 E.18465
G1 X129.236 Y71.07 E.01675
G1 X133.93 Y75.764 E.20835
G1 X133.93 Y76.298 E.01675
M73 P4 R20
M73 Q4 S20
G1 X128.702 Y71.07 E.23204
G1 X128.169 Y71.07 E.01675
G1 X133.93 Y76.831 E.25573
G1 X133.93 Y77.365 E.01675
G1 X127.635 Y71.07 E.27942
G1 X127.101 Y71.07 E.01675
G1 X133.93 Y77.899 E.30312
G1 X133.93 Y78.433 E.01675
G1 X126.567 Y71.07 E.32681
G1 X126.033 Y71.07 E.01675
G1 X133.93 Y78.967 E.3505
G1 X133.93 Y79.5 E.01675
G1 X125.5 Y71.07 E.37419
G1 X124.966 Y71.07 E.01675
G1 X133.93 Y80.034 E.39788
G1 X133.93 Y80.568 E.01675
G1 X124.432 Y71.07 E.42158
G1 X123.898 Y71.07 E.01675
G1 X133.93 Y81.102 E.44527
G1 X133.93 Y81.636 E.01675
G1 X123.364 Y71.07 E.46896
G1 X122.831 Y71.07 E.01675
G1 X133.93 Y82.169 E.49265
G1 X133.93 Y82.703 E.01675
G1 X122.297 Y71.07 E.51635
G1 X121.763 Y71.07 E.01675
G1 X124.62 Y73.927 E.12682
G1 X125.072 Y73.927 E.01418
G1 X125.072 Y74.379 E.01418
G1 X133.93 Y83.237 E.39317
G1 X133.93 Y83.771 E.01675
G1 X125.072 Y74.913 E.39317
G1 X125.072 Y75.446 E.01675
G1 X133.93 Y84.305 E.39317
G1 X133.93 Y84.838 E.01675
G1 X125.072 Y75.98 E.39318
G1 X125.072 Y76.514 E.01675
G1 X133.93 Y85.372 E.39318
G1 X133.93 Y85.906 E.01675
G1 X125.072 Y77.048 E.39318
G1 X125.072 Y77.581 E.01675
G1 X133.93 Y86.44 E.39318
G1 X133.93 Y86.974 E.01675
M73 P5 R20
M73 Q5 S20
G1 X125.072 Y78.115 E.39318
G1 X125.072 Y78.649 E.01675
G1 X133.93 Y87.507 E.39318
G1 X133.93 Y88.041 E.01675
G1 X125.072 Y79.183 E.39318
G1 X125.072 Y79.717 E.01675
G1 X133.93 Y88.575 E.39318
G1 X133.93 Y89.109 E.01675
G1 X125.072 Y80.25 E.39318
G1 X125.072 Y80.784 E.01675
G1 X133.93 Y89.643 E.39318
G1 X133.93 Y90.176 E.01675
G1 X125.072 Y81.318 E.39318
G1 X125.072 Y81.852 E.01675
G1 X133.93 Y90.71 E.39318
G1 X133.93 Y91.244 E.01675
G1 X125.072 Y82.386 E.39318
G1 X125.072 Y82.919 E.01675
G1 X133.93 Y91.778 E.39318
G1 X133.93 Y92.312 E.01675
G1 X125.072 Y83.453 E.39318
G1 X125.072 Y83.987 E.01675
G1 X133.93 Y92.845 E.39318
G1 X133.93 Y93.379 E.01675
G1 X125.072 Y84.521 E.39318
G1 X125.072 Y85.054 E.01675
G1 X133.93 Y93.913 E.39318
G1 X133.93 Y94.447 E.01675
G1 X125.072 Y85.588 E.39318
G1 X125.072 Y86.122 E.01675
G1 X133.93 Y94.98 E.39318
G1 X133.93 Y95.514 E.01675
G1 X125.072 Y86.656 E.39319
G1 X125.072 Y87.19 E.01675
G1 X133.93 Y96.048 E.39319
G1 X133.93 Y96.582 E.01675
G1 X125.072 Y87.723 E.39319
G1 X125.072 Y88.257 E.01675
M73 P6 R20
M73 Q6 S20
G1 X133.93 Y97.116 E.39319
G1 X133.93 Y97.649 E.01675
G1 X125.072 Y88.791 E.39319
G1 X125.072 Y89.325 E.01675
G1 X133.93 Y98.183 E.39319
G1 X133.93 Y98.717 E.01675
G1 X125.072 Y89.858 E.39319
G1 X125.072 Y90.392 E.01675
G1 X133.93 Y99.251 E.39319
G1 X133.93 Y99.785 E.01675
G1 X125.072 Y90.926 E.39319
G1 X125.072 Y91.46 E.01675
G1 X133.93 Y100.318 E.39319
G1 X133.93 Y100.852 E.01675
G1 X125.072 Y91.994 E.39319
G1 X125.072 Y92.527 E.01675
G1 X129.233 Y96.689 E.18472
G1 X130.437 Y97.413 E.04408
G1 X131.872 Y99.108 E.0697
G1 X132.037 Y99.493 E.01315
G1 X133.93 Y101.386 E.08401
G1 X133.93 Y101.92 E.01675
G1 X132.441 Y100.431 E.06608
G1 X132.774 Y101.203 E.02638
G1 X132.788 Y101.312 E.00345
G1 X133.93 Y102.454 E.05067
G1 X133.93 Y102.987 E.01675
G1 X132.871 Y101.928 E.04701
G1 X132.953 Y102.545 E.01952
G1 X133.93 Y103.521 E.04335
G1 X133.93 Y104.055 E.01675
G1 X133.036 Y103.161 E.03969
G1 X133.081 Y103.5 E.01074
G1 X133.053 Y103.712 E.0067
G1 X133.93 Y104.589 E.03893
G1 X133.93 Y105.123 E.01675
G1 X132.99 Y104.182 E.04173
G1 X132.927 Y104.653 E.01491
G1 X133.93 Y105.656 E.04452
G1 X133.93 Y106.19 E.01675
G1 X132.864 Y105.124 E.04732
G1 X132.801 Y105.595 E.01491
G1 X133.93 Y106.724 E.05012
G1 X133.93 Y107.258 E.01675
G1 X132.682 Y106.01 E.05539
G1 X132.521 Y106.383 E.01275
G1 X133.93 Y107.792 E.06252
G1 X133.93 Y108.325 E.01675
G1 X132.361 Y106.756 E.06966
G1 X132.2 Y107.129 E.01275
G1 X133.93 Y108.859 E.07679
G1 X133.93 Y109.393 E.01675
G1 X132.039 Y107.502 E.08392
G1 X131.879 Y107.875 E.01275
G1 X133.93 Y109.927 E.09106
G1 X133.93 Y110.46 E.01675
G1 X131.638 Y108.168 E.10175
G1 X131.393 Y108.457 E.01189
G1 X133.93 Y110.994 E.11261
G1 X133.93 Y111.528 E.01675
G1 X131.148 Y108.746 E.12347
G1 X130.904 Y109.035 E.01189
G1 X133.93 Y112.062 E.13434
G1 X133.93 Y112.596 E.01675
G1 X130.659 Y109.324 E.1452
G1 X130.406 Y109.605 E.01186
G1 X133.93 Y113.129 E.15642
G1 X133.93 Y113.663 E.01675
G1 X130.073 Y109.806 E.17121
G1 X129.739 Y110.006 E.01221
G1 X133.93 Y114.197 E.186
G1 X133.93 Y114.731 E.01675
G1 X129.406 Y110.207 E.2008
G1 X129.073 Y110.407 E.01221
G1 X133.93 Y115.265 E.21559
G1 X133.93 Y115.798 E.01675
G1 X128.74 Y110.608 E.23038
G1 X128.587 Y110.7 E.00561
G1 X128.344 Y110.746 E.00776
G1 X133.93 Y116.332 E.24796
G1 X133.93 Y116.866 E.01675
G1 X127.894 Y110.83 E.26791
G1 X127.445 Y110.914 E.01435
G1 X133.93 Y117.4 E.28786
G1 X133.93 Y117.934 E.01675
G1 X126.995 Y110.999 E.30781
G1 X126.546 Y111.083 E.01435
M73 P7 R20
M73 Q7 S20
G1 X133.93 Y118.467 E.32776
G1 X133.93 Y119.001 E.01675
G1 X125.91 Y110.981 E.35599
G1 X125.253 Y110.857 E.02098
G1 X133.93 Y119.535 E.38515
G1 X133.93 Y120.069 E.01675
G1 X125.065 Y111.204 E.39346
G1 X125.071 Y111.744 E.01694
G1 X133.93 Y120.603 E.39319
G1 X133.93 Y121.136 E.01675
G1 X125.071 Y112.278 E.39319
G1 X125.071 Y112.812 E.01675
G1 X133.93 Y121.67 E.39319
G1 X133.93 Y122.204 E.01675
G1 X125.071 Y113.345 E.39319
G1 X125.071 Y113.879 E.01675
G1 X133.93 Y122.738 E.39319
G1 X133.93 Y123.272 E.01675
G1 X125.072 Y114.413 E.39319
G1 X125.072 Y114.947 E.01675
G1 X133.93 Y123.805 E.39319
G1 X133.93 Y124.339 E.01675
G1 X125.072 Y115.481 E.39319
G1 X125.072 Y116.014 E.01675
G1 X133.93 Y124.873 E.39319
G1 X133.93 Y125.407 E.01675
G1 X125.072 Y116.548 E.39319
G1 X125.072 Y117.082 E.01675
G1 X133.93 Y125.94 E.39319
G1 X133.93 Y126.474 E.01675
G1 X125.072 Y117.616 E.39319
G1 X125.072 Y118.15 E.01675
G1 X133.93 Y127.008 E.39319
G1 X133.93 Y127.542 E.01675
G1 X125.072 Y118.683 E.39319
G1 X125.072 Y119.217 E.01675
G1 X133.93 Y128.076 E.39319
G1 X133.93 Y128.609 E.01675
M73 P7 R19
G1 X125.072 Y119.751 E.39319
G1 X125.072 Y120.285 E.01675
M73 P8 R19
M73 Q8 S20
G1 X133.93 Y129.143 E.39319
G1 X133.93 Y129.677 E.01675
G1 X125.072 Y120.819 E.39319
G1 X125.072 Y121.352 E.01675
G1 X133.93 Y130.211 E.39319
G1 X133.93 Y130.745 E.01675
G1 X125.072 Y121.886 E.39318
G1 X125.072 Y122.42 E.01675
G1 X133.93 Y131.278 E.39318
G1 X133.93 Y131.812 E.01675
G1 X125.072 Y122.954 E.39318
G1 X125.072 Y123.488 E.01675
M73 Q8 S19
G1 X133.93 Y132.346 E.39318
G1 X133.93 Y132.88 E.01675
G1 X125.072 Y124.021 E.39318
G1 X125.072 Y124.555 E.01675
G1 X133.93 Y133.414 E.39318
G1 X133.93 Y133.947 E.01675
G1 X125.072 Y125.089 E.39318
G1 X125.072 Y125.623 E.01675
G1 X133.93 Y134.481 E.39318
G1 X133.93 Y135.015 E.01675
G1 X125.072 Y126.157 E.39318
G1 X125.072 Y126.69 E.01675
G1 X133.93 Y135.549 E.39318
G1 X133.93 Y136.083 E.01675
G1 X125.072 Y127.224 E.39318
G1 X125.072 Y127.758 E.01675
G1 X133.93 Y136.616 E.39318
G1 X133.93 Y137.15 E.01675
G1 X125.072 Y128.292 E.39318
G1 X125.072 Y128.826 E.01675
G1 X133.93 Y137.684 E.39318
G1 X133.93 Y138.218 E.01675
G1 X125.072 Y129.359 E.39318
G1 X125.072 Y129.893 E.01675
G1 X133.93 Y138.752 E.39318
G1 X133.93 Y138.93 E.0056
M73 P9 R19
G1 X133.575 Y138.93 E.01115
G1 X125.072 Y130.427 E.37741
G1 X125.072 Y130.961 E.01675
M73 Q9 S19
G1 X133.041 Y138.93 E.35372
G1 X132.507 Y138.93 E.01675
G1 X125.072 Y131.495 E.33003
G1 X125.072 Y132.028 E.01675
G1 X131.974 Y138.93 E.30633
G1 X131.44 Y138.93 E.01675
G1 X125.072 Y132.562 E.28264
G1 X125.072 Y133.096 E.01675
G1 X130.906 Y138.93 E.25895
G1 X130.372 Y138.93 E.01675
G1 X125.072 Y133.63 E.23525
G1 X125.072 Y134.164 E.01675
G1 X129.838 Y138.93 E.21156
G1 X129.305 Y138.93 E.01675
G1 X125.072 Y134.697 E.18787
G1 X125.072 Y135.231 E.01675
G1 X128.771 Y138.93 E.16418
G1 X128.237 Y138.93 E.01675
G1 X125.072 Y135.765 E.14048
G1 X125.072 Y136.073 E.00966
G1 X124.846 Y136.073 E.00709
G1 X127.703 Y138.93 E.12682
G1 X127.169 Y138.93 E.01675
G1 X124.312 Y136.073 E.12682
G1 X123.778 Y136.073 E.01675
G1 X126.636 Y138.93 E.12682
G1 X126.102 Y138.93 E.01675
G1 X123.245 Y136.073 E.12682
G1 X122.711 Y136.073 E.01675
G1 X125.568 Y138.93 E.12682
G1 X125.034 Y138.93 E.01675
G1 X122.177 Y136.073 E.12682
G1 X121.643 Y136.073 E.01675
G1 X124.5 Y138.93 E.12682
G1 X123.967 Y138.93 E.01675
G1 X121.109 Y136.073 E.12682
G1 X120.576 Y136.073 E.01675
G1 X123.433 Y138.93 E.12682
G1 X122.899 Y138.93 E.01675
G1 X120.042 Y136.073 E.12682
G1 X119.508 Y136.073 E.01675
G1 X122.535 Y139.1 E.13435
M204 S1000
;WIPE_START
G1 F8640
G1 X120.208 Y136.772 E-.76
;WIPE_END
G1 E-.04 F2100
G1 Z.6 F720
G1 X128.459 Y96.449 F10800
G1 Z.2 F720
G1 E.8 F2100
M204 S800
G1 F1200
G1 X125.072 Y93.061 E.15036
G1 X125.071 Y93.595 E.01675
G1 X127.589 Y96.113 E.11176
G1 X126.932 Y95.99 E.02098
G1 X125.071 Y94.129 E.08259
G1 X125.071 Y94.663 E.01675
G1 X126.346 Y95.937 E.05658
G1 X125.897 Y96.022 E.01435
G1 X125.071 Y95.196 E.03663
G1 X125.066 Y95.725 E.01659
G1 X125.593 Y96.251 E.02336
M204 S1000
;WIPE_START
G1 F8640
G1 X125.066 Y95.725 E-.17188
G1 X125.071 Y95.196 E-.12208
G1 X125.897 Y96.022 E-.26951
G1 X126.346 Y95.937 E-.10559
G1 X126.068 Y95.659 E-.09093
;WIPE_END
G1 E-.04 F2100
G1 Z.6 F720
G1 X124.256 Y74.097 F10800
G1 Z.2 F720
G1 E.8 F2100
M204 S800
G1 F1200
G1 X121.229 Y71.07 E.13435
G1 X120.695 Y71.07 E.01675
G1 X123.553 Y73.927 E.12682
G1 X123.019 Y73.927 E.01675
G1 X120.162 Y71.07 E.12682
G1 X119.628 Y71.07 E.01675
G1 X122.485 Y73.927 E.12682
G1 X121.951 Y73.927 E.01675
G1 X119.094 Y71.07 E.12682
G1 X118.56 Y71.07 E.01675
G1 X121.417 Y73.927 E.12682
G1 X120.884 Y73.927 E.01675
G1 X118.026 Y71.07 E.12682
G1 X117.493 Y71.07 E.01675
G1 X120.35 Y73.927 E.12682
G1 X119.816 Y73.927 E.01675
G1 X116.959 Y71.07 E.12682
G1 X116.425 Y71.07 E.01675
G1 X119.282 Y73.927 E.12682
G1 X118.927 Y73.927 E.01115
G1 X118.927 Y74.106 E.00561
G1 X116.07 Y71.248 E.12682
G1 X116.07 Y71.782 E.01675
G1 X118.927 Y74.64 E.12682
G1 X118.927 Y75.173 E.01675
G1 X116.07 Y72.316 E.12682
G1 X116.07 Y72.85 E.01675
M73 P10 R19
M73 Q10 S19
G1 X118.927 Y75.707 E.12682
G1 X118.927 Y76.241 E.01675
G1 X116.07 Y73.384 E.12682
G1 X116.07 Y73.917 E.01675
G1 X118.927 Y76.775 E.12682
G1 X118.927 Y77.309 E.01675
G1 X116.07 Y74.451 E.12682
G1 X116.07 Y74.985 E.01675
G1 X118.927 Y77.842 E.12682
G1 X118.927 Y78.376 E.01675
G1 X116.07 Y75.519 E.12682
G1 X116.07 Y76.053 E.01675
G1 X118.927 Y78.91 E.12682
G1 X118.927 Y79.444 E.01675
G1 X116.07 Y76.586 E.12682
G1 X116.07 Y77.12 E.01675
G1 X118.927 Y79.977 E.12682
G1 X118.927 Y80.511 E.01675
G1 X116.07 Y77.654 E.12682
G1 X116.07 Y78.188 E.01675
G1 X118.927 Y81.045 E.12682
G1 X118.927 Y81.579 E.01675
G1 X116.07 Y78.722 E.12682
G1 X116.07 Y79.255 E.01675
G1 X118.927 Y82.113 E.12682
G1 X118.927 Y82.646 E.01675
G1 X116.07 Y79.789 E.12682
G1 X116.07 Y80.323 E.01675
G1 X118.927 Y83.18 E.12682
G1 X118.927 Y83.714 E.01675
G1 X116.07 Y80.857 E.12682
G1 X116.07 Y81.391 E.01675
G1 X118.927 Y84.248 E.12682
G1 X118.927 Y84.782 E.01675
G1 X116.07 Y81.924 E.12682
G1 X116.07 Y82.458 E.01675
G1 X118.927 Y85.315 E.12682
