; generated by PrusaSlicer 2.4.1+win64 on 2024-01-18 at 13:34:35 UTC


;
;
; 

; external perimeters extrusion width = 0.60mm
; perimeters extrusion width = 0.50mm
; infill extrusion width = 0.50mm
; solid infill extrusion width = 0.50mm
; top infill extrusion width = 0.45mm
; first layer extrusion width = 0.42mm

; external perimeters extrusion width = 0.60mm
; perimeters extrusion width = 0.50mm
; infill extrusion width = 0.50mm
; solid infill extrusion width = 0.50mm
; top infill extrusion width = 0.45mm
; first layer extrusion width = 0.42mm

; external perimeters extrusion width = 0.60mm
; perimeters extrusion width = 0.50mm
; infill extrusion width = 0.50mm
; solid infill extrusion width = 0.50mm
; top infill extrusion width = 0.45mm
; first layer extrusion width = 0.42mm

; external perimeters extrusion width = 0.60mm
; perimeters extrusion width = 0.50mm
; infill extrusion width = 0.50mm
; solid infill extrusion width = 0.50mm
; top infill extrusion width = 0.45mm
; first layer extrusion width = 0.42mm

M73 P0 R85
M73 Q0 S86
M201 X1000 Y1000 Z200 E5000 ; sets maximum accelerations, mm/sec^2
M203 X200 Y200 Z12 E120 ; sets maximum feedrates, mm / sec
M204 P1250 R1250 T1250 ; sets acceleration (P, T) and retract acceleration (R), mm/sec^2
M205 X8.00 Y8.00 Z0.40 E4.50 ; sets the jerk limits, mm/sec
M205 S0 T0 ; sets the minimum extruding and travel feed rate, mm/sec
M107
;TYPE:Custom
M862.3 P "MK3S" ; printer model check
M862.1 P0.4 ; nozzle diameter check
M115 U3.11.0 ; tell printer latest fw version
G90 ; use absolute coordinates
M83 ; extruder relative mode
M104 S215 ; set extruder temp
M140 S60 ; set bed temp
M190 S60 ; wait for bed temp
M109 S215 ; wait for extruder temp
G28 W ; home all without mesh bed level
G80 ; mesh bed leveling

G1 Z0.2 F720
G1 Y-3 F1000 ; go outside print area
G92 E0
G1 X60 E9 F1000 ; intro line
G1 X100 E12.5 F1000 ; intro line

G92 E0
M221 S95

; Don't change E values below. Excessive value can damage the printer.

M907 E538 ; set extruder motor current
G21 ; set units to millimeters
G90 ; use absolute coordinates
M83 ; use relative distances for extrusion
M900 K0.05 ; Filament gcode LA 1.5
M900 K30 ; Filament gcode LA 1.0
M107
;LAYER_CHANGE
;Z:0.2
;HEIGHT:0.2
;BEFORE_LAYER_CHANGE
G92 E0.0
;0.2


G1 E-.8 F2100
G1 Z.4 F720
;AFTER_LAYER_CHANGE
;0.2
G1 X88.648 Y70.395 F10800
G1 Z.2 F720
G1 E.8 F2100
M204 S800
;TYPE:Skirt/Brim
;WIDTH:0.42
G1 F1200
G1 X89.694 Y69.519 E.04278
G1 X90.468 Y69.331 E.02497
G1 X114.834 Y67.629 E.76585
G1 X135.073 Y67.624 E.63457
G1 X186.828 Y69.217 E1.6235
G1 X188.122 Y69.649 E.04278
G1 X188.966 Y70.721 E.04278
G1 X189.132 Y71.593 E.02783
G1 X189.132 Y141.593 E2.1948
G1 X188.74 Y142.9 E.04278
G1 X187.694 Y143.776 E.04278
G1 X186.76 Y143.97 E.02992
G1 X90.634 Y144.08 E3.01398
G1 X89.327 Y143.688 E.04278
G1 X88.45 Y142.642 E.04278
G1 X88.257 Y141.703 E.03008
G1 X88.257 Y71.703 E2.1948
G1 X88.631 Y70.453 E.0409
M204 S1000
; printing object SkiFixHalterung.stl id:2 copy 0
;WIPE_START
G1 F8640
G1 X89.694 Y69.519 E-.32671
G1 X90.468 Y69.331 E-.18392
G1 X91.545 Y69.256 E-.24937
;WIPE_END
G1 E-.04 F2100
G1 Z.6 F720
G1 X170.964 Y75.803 F10800
G1 Z.2 F720
G1 E.8 F2100
M204 S800
;TYPE:Perimeter
G1 F1200
G1 X176.544 Y75.803 E.17493
G1 X176.543 Y96.915 E.66195
G1 X176.537 Y97.431 E.01618
M73 Q0 S85
G1 X176.473 Y98.123 E.02181
G1 X178.255 Y97.789 E.05682
G1 X180.239 Y98.162 E.06331
G1 X182.006 Y99.225 E.06464
G1 X183.383 Y100.852 E.06685
G1 X184.253 Y102.872 E.06897
G1 X184.551 Y105.093 E.07026
G1 X184.253 Y107.314 E.07026
G1 X183.383 Y109.334 E.06897
G1 X182.006 Y110.962 E.06685
G1 X180.239 Y112.024 E.06464
G1 X178.255 Y112.397 E.06331
G1 X176.473 Y112.063 E.05683
G1 X176.537 Y112.757 E.02187
G1 X176.543 Y113.274 E.0162
G1 X176.544 Y137.383 E.75593
G1 X170.964 Y137.383 E.17493
G1 X170.964 Y75.863 E1.92892
M204 S1000
G1 X171.342 Y76.18 F10800
M204 S800
;TYPE:External perimeter
G1 F1200
G1 X176.167 Y76.18 E.15128
G1 X176.166 Y96.912 E.65005
G1 X176.16 Y97.415 E.01577
G1 X176.124 Y97.927 E.01608
G1 X176.044 Y98.4 E.01505
G1 X176.089 Y98.712 E.00987
G1 X176.406 Y98.52 E.01162
G1 X178.255 Y98.173 E.05897
G1 X180.103 Y98.52 E.05896
G1 X181.758 Y99.516 E.06057
G1 X183.059 Y101.053 E.06314
G1 X183.886 Y102.974 E.06558
G1 X184.17 Y105.093 E.06704
G1 X183.886 Y107.212 E.06704
G1 X183.059 Y109.133 E.06558
G1 X181.758 Y110.67 E.06314
G1 X180.103 Y111.666 E.06057
G1 X178.255 Y112.013 E.05896
G1 X176.406 Y111.666 E.05897
G1 X176.089 Y111.474 E.01161
G1 X176.045 Y111.787 E.0099
G1 X176.124 Y112.261 E.01507
G1 X176.16 Y112.773 E.0161
G1 X176.166 Y113.276 E.01579
G1 X176.167 Y137.006 E.74403
G1 X171.342 Y137.006 E.15128
G1 X171.342 Y76.24 E1.90528
M204 S1000
G1 X171.331 Y75.78 F10800
;WIPE_START
G1 F8640
G1 X174.633 Y76.199 E-.76
;WIPE_END
G1 E-.04 F2100
G1 Z.6 F720
G1 X167.542 Y72.38 F10800
G1 Z.2 F720
G1 E.8 F2100
M204 S800
;TYPE:Perimeter
G1 F1200
G1 X185.967 Y72.38 E.57773
G1 X185.967 Y140.806 E2.14544
G1 X167.542 Y140.806 E.57773
G1 X167.542 Y72.44 E2.14356
M204 S1000
G1 X167.165 Y72.003 F10800
M204 S800
;TYPE:External perimeter
G1 F1200
G1 X186.345 Y72.003 E.60138
G1 X186.345 Y141.183 E2.16909
G1 X167.165 Y141.183 E.60138
M73 P1 R85
M73 Q1 S85
G1 X167.165 Y72.063 E2.16721
M204 S1000
G1 X167.528 Y72.171 F10800
;WIPE_START
M73 P1 R84
G1 F8640
G1 X170.456 Y72.053 E-.76
;WIPE_END
G1 E-.04 F2100
G1 Z.6 F720
G1 X185.091 Y72.493 F10800
G1 Z.2 F720
G1 E.8 F2100
M204 S800
;TYPE:Solid infill
;WIDTH:0.420369
G1 F1200
G1 X185.685 Y73.087 E.02634
G1 X185.685 Y73.62 E.01675
G1 X184.727 Y72.663 E.0425
G1 X184.193 Y72.663 E.01675
G1 X185.685 Y74.154 E.06619
G1 X185.685 Y74.688 E.01675
G1 X183.66 Y72.663 E.08988
G1 X183.126 Y72.663 E.01675
G1 X185.685 Y75.222 E.11358
G1 X185.685 Y75.756 E.01675
G1 X182.592 Y72.663 E.13727
G1 X182.058 Y72.663 E.01675
G1 X185.685 Y76.289 E.16096
G1 X185.685 Y76.823 E.01675
G1 X181.524 Y72.663 E.18465
G1 X180.991 Y72.663 E.01675
G1 X185.685 Y77.357 E.20835
G1 X185.685 Y77.891 E.01675
G1 X180.457 Y72.663 E.23204
G1 X179.923 Y72.663 E.01675
G1 X185.685 Y78.425 E.25573
G1 X185.685 Y78.958 E.01675
G1 X179.389 Y72.663 E.27942
G1 X178.855 Y72.663 E.01675
G1 X185.685 Y79.492 E.30312
G1 X185.685 Y80.026 E.01675
G1 X178.322 Y72.663 E.32681
G1 X177.788 Y72.663 E.01675
G1 X185.685 Y80.56 E.3505
G1 X185.685 Y81.093 E.01675
G1 X177.254 Y72.663 E.37419
G1 X176.72 Y72.663 E.01675
G1 X185.685 Y81.627 E.39788
G1 X185.685 Y82.161 E.01675
G1 X176.187 Y72.663 E.42158
G1 X175.653 Y72.663 E.01675
G1 X185.685 Y82.695 E.44527
G1 X185.685 Y83.229 E.01675
G1 X175.119 Y72.663 E.46896
G1 X174.585 Y72.663 E.01675
G1 X185.685 Y83.762 E.49265
G1 X185.685 Y84.296 E.01675
G1 X174.051 Y72.663 E.51635
G1 X173.518 Y72.663 E.01675
G1 X176.375 Y75.52 E.12682
G1 X176.826 Y75.52 E.01418
G1 X176.826 Y75.972 E.01418
G1 X185.685 Y84.83 E.39317
G1 X185.685 Y85.364 E.01675
G1 X176.826 Y76.506 E.39317
G1 X176.826 Y77.039 E.01675
G1 X185.685 Y85.898 E.39317
G1 X185.685 Y86.431 E.01675
G1 X176.826 Y77.573 E.39318
G1 X176.826 Y78.107 E.01675
G1 X185.685 Y86.965 E.39318
G1 X185.685 Y87.499 E.01675
G1 X176.826 Y78.641 E.39318
G1 X176.826 Y79.174 E.01675
G1 X185.685 Y88.033 E.39318
G1 X185.685 Y88.567 E.01675
G1 X176.826 Y79.708 E.39318
G1 X176.826 Y80.242 E.01675
G1 X185.685 Y89.1 E.39318
G1 X185.685 Y89.634 E.01675
G1 X176.826 Y80.776 E.39318
G1 X176.826 Y81.31 E.01675
G1 X185.685 Y90.168 E.39318
G1 X185.685 Y90.702 E.01675
G1 X176.826 Y81.843 E.39318
G1 X176.826 Y82.377 E.01675
G1 X185.685 Y91.236 E.39318
G1 X185.685 Y91.769 E.01675
G1 X176.826 Y82.911 E.39318
G1 X176.826 Y83.445 E.01675
G1 X185.685 Y92.303 E.39318
G1 X185.685 Y92.837 E.01675
G1 X176.826 Y83.979 E.39318
G1 X176.826 Y84.512 E.01675
G1 X185.685 Y93.371 E.39318
G1 X185.685 Y93.905 E.01675
G1 X176.826 Y85.046 E.39318
G1 X176.826 Y85.58 E.01675
G1 X185.685 Y94.438 E.39318
G1 X185.685 Y94.972 E.01675
G1 X176.826 Y86.114 E.39318
G1 X176.826 Y86.647 E.01675
G1 X185.685 Y95.506 E.39318
G1 X185.685 Y96.04 E.01675
G1 X176.826 Y87.181 E.39318
G1 X176.826 Y87.715 E.01675
G1 X185.685 Y96.573 E.39318
G1 X185.685 Y97.107 E.01675
G1 X176.826 Y88.249 E.39319
G1 X176.826 Y88.783 E.01675
G1 X185.685 Y97.641 E.39319
G1 X185.685 Y98.175 E.01675
G1 X176.826 Y89.316 E.39319
G1 X176.826 Y89.85 E.01675
M73 Q1 S84
G1 X185.685 Y98.709 E.39319
G1 X185.685 Y99.242 E.01675
G1 X176.826 Y90.384 E.39319
G1 X176.826 Y90.918 E.01675
G1 X185.685 Y99.776 E.39319
G1 X185.685 Y100.31 E.01675
G1 X176.826 Y91.451 E.39319
G1 X176.826 Y91.985 E.01675
G1 X185.685 Y100.844 E.39319
G1 X185.685 Y101.378 E.01675
G1 X176.826 Y92.519 E.39319
G1 X176.826 Y93.053 E.01675
G1 X185.685 Y101.911 E.39319
G1 X185.685 Y102.445 E.01675
G1 X176.826 Y93.587 E.39319
G1 X176.826 Y94.12 E.01675
G1 X180.988 Y98.282 E.18472
G1 X182.191 Y99.006 E.04408
G1 X183.626 Y100.701 E.0697
G1 X183.792 Y101.086 E.01315
G1 X185.685 Y102.979 E.08401
G1 X185.685 Y103.513 E.01675
G1 X184.196 Y102.024 E.06608
G1 X184.528 Y102.796 E.02638
G1 X184.543 Y102.905 E.00345
G1 X185.685 Y104.047 E.05067
G1 X185.685 Y104.58 E.01675
G1 X184.626 Y103.521 E.04701
G1 X184.708 Y104.138 E.01952
G1 X185.685 Y105.114 E.04335
G1 X185.685 Y105.648 E.01675
G1 X184.791 Y104.754 E.03969
G1 X184.836 Y105.093 E.01074
G1 X184.808 Y105.305 E.0067
G1 X185.685 Y106.182 E.03893
G1 X185.685 Y106.716 E.01675
G1 X184.745 Y105.775 E.04173
G1 X184.682 Y106.246 E.01491
G1 X185.685 Y107.249 E.04452
G1 X185.685 Y107.783 E.01675
G1 X184.619 Y106.717 E.04732
G1 X184.556 Y107.188 E.01491
G1 X185.685 Y108.317 E.05012
G1 X185.685 Y108.851 E.01675
G1 X184.437 Y107.603 E.05539
G1 X184.276 Y107.976 E.01275
G1 X185.685 Y109.385 E.06252
G1 X185.685 Y109.918 E.01675
G1 X184.115 Y108.349 E.06966
G1 X183.955 Y108.722 E.01275
G1 X185.685 Y110.452 E.07679
G1 X185.685 Y110.986 E.01675
G1 X183.794 Y109.095 E.08392
G1 X183.633 Y109.468 E.01275
G1 X185.685 Y111.52 E.09106
G1 X185.685 Y112.054 E.01675
G1 X183.392 Y109.761 E.10175
G1 X183.147 Y110.05 E.01189
G1 X185.685 Y112.587 E.11261
G1 X185.685 Y113.121 E.01675
G1 X182.903 Y110.339 E.12347
G1 X182.658 Y110.628 E.01189
G1 X185.685 Y113.655 E.13434
G1 X185.685 Y114.189 E.01675
G1 X182.413 Y110.917 E.1452
G1 X182.161 Y111.198 E.01186
G1 X185.685 Y114.722 E.15642
G1 X185.685 Y115.256 E.01675
G1 X181.827 Y111.399 E.17121
G1 X181.494 Y111.599 E.01221
G1 X185.685 Y115.79 E.186
G1 X185.685 Y116.324 E.01675
G1 X181.161 Y111.8 E.2008
G1 X180.827 Y112 E.01221
G1 X185.685 Y116.858 E.21559
G1 X185.685 Y117.391 E.01675
G1 X180.494 Y112.201 E.23038
G1 X180.341 Y112.293 E.00561
G1 X180.098 Y112.339 E.00776
G1 X185.685 Y117.925 E.24796
G1 X185.685 Y118.459 E.01675
G1 X179.649 Y112.423 E.26791
G1 X179.199 Y112.507 E.01435
G1 X185.685 Y118.993 E.28786
G1 X185.685 Y119.527 E.01675
G1 X178.75 Y112.592 E.30781
G1 X178.3 Y112.676 E.01435
G1 X185.685 Y120.06 E.32776
G1 X185.685 Y120.594 E.01675
G1 X177.664 Y112.574 E.35599
G1 X177.007 Y112.451 E.02098
G1 X185.685 Y121.128 E.38515
G1 X185.685 Y121.662 E.01675
G1 X176.82 Y112.797 E.39346
G1 X176.826 Y113.337 E.01694
G1 X185.685 Y122.196 E.39319
G1 X185.685 Y122.729 E.01675
G1 X176.826 Y113.871 E.39319
G1 X176.826 Y114.405 E.01675
M73 P2 R84
M73 Q2 S84
G1 X185.685 Y123.263 E.39319
G1 X185.685 Y123.797 E.01675
G1 X176.826 Y114.938 E.39319
G1 X176.826 Y115.472 E.01675
G1 X185.685 Y124.331 E.39319
G1 X185.685 Y124.865 E.01675
G1 X176.826 Y116.006 E.39319
G1 X176.826 Y116.54 E.01675
G1 X185.685 Y125.398 E.39319
G1 X185.685 Y125.932 E.01675
G1 X176.826 Y117.074 E.39319
G1 X176.826 Y117.607 E.01675
G1 X185.685 Y126.466 E.39319
G1 X185.685 Y127 E.01675
G1 X176.826 Y118.141 E.39319
G1 X176.826 Y118.675 E.01675
G1 X185.685 Y127.534 E.39319
G1 X185.685 Y128.067 E.01675
G1 X176.826 Y119.209 E.39319
G1 X176.826 Y119.743 E.01675
G1 X185.685 Y128.601 E.39319
G1 X185.685 Y129.135 E.01675
G1 X176.826 Y120.276 E.39319
G1 X176.826 Y120.81 E.01675
G1 X185.685 Y129.669 E.39319
G1 X185.685 Y130.202 E.01675
G1 X176.826 Y121.344 E.39319
G1 X176.826 Y121.878 E.01675
G1 X185.685 Y130.736 E.39319
G1 X185.685 Y131.27 E.01675
G1 X176.826 Y122.412 E.39319
G1 X176.826 Y122.945 E.01675
G1 X185.685 Y131.804 E.39319
G1 X185.685 Y132.338 E.01675
G1 X176.826 Y123.479 E.39318
G1 X176.826 Y124.013 E.01675
G1 X185.685 Y132.871 E.39318
G1 X185.685 Y133.405 E.01675
G1 X176.826 Y124.547 E.39318
G1 X176.826 Y125.081 E.01675
M73 P2 R83
G1 X185.685 Y133.939 E.39318
G1 X185.685 Y134.473 E.01675
G1 X176.826 Y125.614 E.39318
G1 X176.826 Y126.148 E.01675
G1 X185.685 Y135.007 E.39318
G1 X185.685 Y135.54 E.01675
G1 X176.826 Y126.682 E.39318
G1 X176.826 Y127.216 E.01675
G1 X185.685 Y136.074 E.39318
G1 X185.685 Y136.608 E.01675
G1 X176.826 Y127.75 E.39318
G1 X176.826 Y128.283 E.01675
G1 X185.685 Y137.142 E.39318
G1 X185.685 Y137.676 E.01675
G1 X176.826 Y128.817 E.39318
G1 X176.826 Y129.351 E.01675
G1 X185.685 Y138.209 E.39318
G1 X185.685 Y138.743 E.01675
G1 X176.826 Y129.885 E.39318
G1 X176.826 Y130.419 E.01675
G1 X185.685 Y139.277 E.39318
G1 X185.685 Y139.811 E.01675
G1 X176.826 Y130.952 E.39318
G1 X176.826 Y131.486 E.01675
G1 X185.685 Y140.345 E.39318
G1 X185.685 Y140.523 E.0056
G1 X185.329 Y140.523 E.01115
G1 X176.826 Y132.02 E.37741
G1 X176.826 Y132.554 E.01675
G1 X184.796 Y140.523 E.35372
G1 X184.262 Y140.523 E.01675
G1 X176.826 Y133.088 E.33003
G1 X176.826 Y133.621 E.01675
G1 X183.728 Y140.523 E.30633
G1 X183.194 Y140.523 E.01675
G1 X176.826 Y134.155 E.28264
G1 X176.826 Y134.689 E.01675
G1 X182.661 Y140.523 E.25895
G1 X182.127 Y140.523 E.01675
G1 X176.826 Y135.223 E.23525
G1 X176.826 Y135.757 E.01675
G1 X181.593 Y140.523 E.21156
G1 X181.059 Y140.523 E.01675
G1 X176.826 Y136.29 E.18787
G1 X176.826 Y136.824 E.01675
G1 X180.525 Y140.523 E.16418
G1 X179.992 Y140.523 E.01675
G1 X176.826 Y137.358 E.14048
G1 X176.826 Y137.666 E.00966
G1 X176.601 Y137.666 E.00709
G1 X179.458 Y140.523 E.12682
G1 X178.924 Y140.523 E.01675
G1 X176.067 Y137.666 E.12682
G1 X175.533 Y137.666 E.01675
G1 X178.39 Y140.523 E.12682
G1 X177.856 Y140.523 E.01675
G1 X174.999 Y137.666 E.12682
G1 X174.465 Y137.666 E.01675
G1 X177.323 Y140.523 E.12682
G1 X176.789 Y140.523 E.01675
G1 X173.932 Y137.666 E.12682
G1 X173.398 Y137.666 E.01675
G1 X176.255 Y140.523 E.12682
G1 X175.721 Y140.523 E.01675
G1 X172.864 Y137.666 E.12682
G1 X172.33 Y137.666 E.01675
G1 X175.187 Y140.523 E.12682
G1 X174.654 Y140.523 E.01675
G1 X171.796 Y137.666 E.12682
G1 X171.263 Y137.666 E.01675
G1 X174.29 Y140.693 E.13435
M204 S1000
;WIPE_START
G1 F8640
G1 X171.962 Y138.365 E-.76
;WIPE_END
G1 E-.04 F2100
G1 Z.6 F720
G1 X180.214 Y98.042 F10800
G1 Z.2 F720
G1 E.8 F2100
M204 S800
G1 F1200
G1 X176.826 Y94.654 E.15036
G1 X176.826 Y95.188 E.01675
G1 X179.344 Y97.706 E.11176
G1 X178.687 Y97.583 E.02098
G1 X176.826 Y95.722 E.08259
G1 X176.826 Y96.256 E.01675
G1 X178.101 Y97.53 E.05658
G1 X177.651 Y97.615 E.01435
G1 X176.826 Y96.789 E.03663
G1 X176.821 Y97.318 E.01659
G1 X177.347 Y97.844 E.02336
M204 S1000
;WIPE_START
G1 F8640
G1 X176.821 Y97.318 E-.17188
G1 X176.826 Y96.789 E-.12208
G1 X177.651 Y97.615 E-.26951
G1 X178.101 Y97.53 E-.10559
G1 X177.822 Y97.252 E-.09093
;WIPE_END
G1 E-.04 F2100
G1 Z.6 F720
G1 X176.011 Y75.69 F10800
G1 Z.2 F720
G1 E.8 F2100
M204 S800
G1 F1200
G1 X172.984 Y72.663 E.13435
G1 X172.45 Y72.663 E.01675
G1 X175.307 Y75.52 E.12682
G1 X174.773 Y75.52 E.01675
G1 X171.916 Y72.663 E.12682
G1 X171.382 Y72.663 E.01675
G1 X174.24 Y75.52 E.12682
G1 X173.706 Y75.52 E.01675
G1 X170.849 Y72.663 E.12682
G1 X170.315 Y72.663 E.01675
G1 X173.172 Y75.52 E.12682
G1 X172.638 Y75.52 E.01675
G1 X169.781 Y72.663 E.12682
G1 X169.247 Y72.663 E.01675
G1 X172.104 Y75.52 E.12682
G1 X171.571 Y75.52 E.01675
G1 X168.713 Y72.663 E.12682
G1 X168.18 Y72.663 E.01675
G1 X171.037 Y75.52 E.12682
G1 X170.682 Y75.52 E.01115
G1 X170.682 Y75.699 E.00561
G1 X167.824 Y72.842 E.12682
G1 X167.824 Y73.375 E.01675
G1 X170.682 Y76.233 E.12682
G1 X170.682 Y76.766 E.01675
G1 X167.824 Y73.909 E.12682
G1 X167.824 Y74.443 E.01675
G1 X170.682 Y77.3 E.12682
G1 X170.682 Y77.834 E.01675
G1 X167.824 Y74.977 E.12682
G1 X167.824 Y75.51 E.01675
G1 X170.682 Y78.368 E.12682
G1 X170.682 Y78.902 E.01675
G1 X167.824 Y76.044 E.12682
