; generated by PrusaSlicer 2.6.0+win64 on 2024-03-06 at 07:18:42 UTC


;
;
; 

; external perimeters extrusion width = 0.60mm
; perimeters extrusion width = 0.50mm
; infill extrusion width = 0.50mm
; solid infill extrusion width = 0.50mm
; top infill extrusion width = 0.45mm
; first layer extrusion width = 0.42mm

M73 P0 R64
M73 Q0 S64
M201 X1000 Y1000 Z200 E5000 ; sets maximum accelerations, mm/sec^2
M203 X200 Y200 Z12 E120 ; sets maximum feedrates, mm / sec
M204 S1250 T1250 ; sets acceleration (S) and retract acceleration (R), mm/sec^2
M205 X8.00 Y8.00 Z0.40 E4.50 ; sets the jerk limits, mm/sec
M205 S0 T0 ; sets the minimum extruding and travel feed rate, mm/sec
;TYPE:Custom
M862.3 P "MK3S" ; printer model check
M862.1 P0.4 ; nozzle diameter check
M115 U3.12.2 ; tell printer latest fw version
G90 ; use absolute coordinates
M83 ; extruder relative mode
M104 S215 ; set extruder temp
M140 S60 ; set bed temp
M190 S60 ; wait for bed temp
M109 S215 ; wait for extruder temp
G28 W ; home all without mesh bed level
G80 ; mesh bed leveling

G1 Z0.2 F720
G1 Y-3 F1000 ; go outside print area
G92 E0
G1 X60 E9 F1000 ; intro line
G1 X100 E12.5 F1000 ; intro line

G92 E0
M221 S95

; Don't change E values below. Excessive value can damage the printer.

M907 E538 ; set extruder motor current
G21 ; set units to millimeters
G90 ; use absolute coordinates
M83 ; use relative distances for extrusion
M900 K0.05 ; Filament gcode LA 1.5
M900 K30 ; Filament gcode LA 1.0
M107
;LAYER_CHANGE
;Z:0.2
;HEIGHT:0.2
;BEFORE_LAYER_CHANGE
G92 E0.0
;0.2


G1 E-.8 F2100
G1 Z.4 F720
;AFTER_LAYER_CHANGE
;0.2
G1 X71.515 Y68.693 F10800
G1 Z.2 F720
G1 E.8 F2100
M204 S800
;TYPE:Skirt/Brim
;WIDTH:0.42
G1 F1200
G1 X72.56 Y67.817 E.04275
G1 X73.5 Y67.623 E.03009
G1 X143.953 Y67.667 E2.209
G1 X152.769 Y69.38 E.28159
G1 X153.395 Y69.595 E.02075
G1 X163.151 Y74.566 E.34331
G1 X163.753 Y75.003 E.02332
G1 X171.497 Y82.747 E.34338
G1 X171.934 Y83.349 E.02332
G1 X176.905 Y93.105 E.34331
G1 X177.135 Y93.812 E.02331
G1 X178.848 Y104.628 E.34335
G1 X178.848 Y105.372 E.02333
M73 P0 R63
G1 X177.135 Y116.188 E.34335
G1 X176.905 Y116.895 E.02331
G1 X171.934 Y126.651 E.34331
G1 X171.497 Y127.253 E.02332
G1 X163.753 Y134.997 E.34338
G1 X163.151 Y135.434 E.02332
G1 X153.395 Y140.405 E.34331
G1 X152.769 Y140.62 E.02075
G1 X143.953 Y142.333 E.28159
G1 X73.5 Y142.377 E2.209
G1 X72.193 Y141.985 E.04278
G1 X71.317 Y140.94 E.04275
G1 X71.123 Y140 E.03009
G1 X71.123 Y70 E2.1948
G1 X71.497 Y68.75 E.04091
M204 S1000
; printing object SkiSchuFerse.stl id:0 copy 0
;WIPE_START
G1 F8640
G1 X72.56 Y67.817 E-.32658
G1 X73.5 Y67.623 E-.22162
G1 X74.591 Y67.624 E-.2518
;WIPE_END
G1 Z.6 F720
G1 X74.287 Y139.213 F10800
G1 Z.2 F720
G1 E.8 F2100
M204 S800
;TYPE:Perimeter
;WIDTH:0.419999
G1 F1200
G1 X74.287 Y70.787 E2.14545
G1 X142.89 Y70.787 E2.151
G1 X143.033 Y71.015 E.00844
M73 Q0 S63
G1 X143.19 Y71.065 E.00517
G1 X152.07 Y72.471 E.28189
G1 X161.604 Y77.329 E.3355
G1 X169.171 Y84.896 E.33553
G1 X174.029 Y94.43 E.3355
G1 X175.703 Y105 E.33554
G1 X174.029 Y115.57 E.33554
G1 X169.171 Y125.104 E.3355
G1 X161.604 Y132.671 E.33553
G1 X152.07 Y137.529 E.3355
G1 X143.935 Y138.817 E.25824
G1 X143.018 Y138.992 E.02927
G1 X142.884 Y139.213 E.0081
G1 X74.347 Y139.213 E2.14893
M204 S1000
G1 X73.91 Y139.59 F10800
M204 S800
;TYPE:External perimeter
M73 P1 R63
M73 Q1 S63
G1 F1200
G1 X73.91 Y70.41 E2.16909
G1 X143.09 Y70.41 E2.16909
G1 X143.09 Y70.506 E.00301
G1 X143.197 Y70.676 E.0063
G1 X143.249 Y70.692 E.00171
G1 X152.188 Y72.108 E.28377
G1 X161.828 Y77.02 E.33923
G1 X169.48 Y84.672 E.3393
G1 X174.392 Y94.312 E.33923
G1 X176.085 Y105 E.33929
G1 X174.392 Y115.688 E.33929
G1 X169.48 Y125.328 E.33923
G1 X161.828 Y132.98 E.3393
G1 X152.188 Y137.892 E.33923
G1 X143.227 Y139.313 E.28448
G1 X143.09 Y139.494 E.00712
G1 X143.09 Y139.59 E.00301
G1 X73.97 Y139.59 E2.16721
M204 S1000
G1 X74.11 Y139.243 F10800
;WIPE_START
G1 F8640
G1 X73.967 Y136.125 E-.8
;WIPE_END
G1 Z.6 F720
G1 X160.69 Y106.375 F10800
G1 Z.2 F720
G1 E.8 F2100
M204 S800
;TYPE:Perimeter
G1 F1200
G1 X160.606 Y106.317 E.0032
G1 X160.203 Y105.915 E.01785
G1 X159.853 Y105.289 E.02249
G1 X159.715 Y104.588 E.0224
G1 X159.799 Y103.879 E.02239
G1 X160.098 Y103.229 E.02243
G1 X160.585 Y102.703 E.02248
G1 X161.21 Y102.354 E.02244
G1 X161.911 Y102.214 E.02241
G1 X162.622 Y102.299 E.02245
G1 X163.271 Y102.598 E.0224
G1 X163.797 Y103.085 E.02248
G1 X164.146 Y103.71 E.02244
G1 X164.286 Y104.411 E.02241
G1 X164.201 Y105.122 E.02245
G1 X163.902 Y105.771 E.0224
G1 X163.415 Y106.297 E.02248
G1 X162.789 Y106.647 E.02249
G1 X162.088 Y106.785 E.0224
G1 X161.461 Y106.714 E.01978
G1 X161.211 Y106.647 E.00812
G1 X160.741 Y106.408 E.01653
M204 S1000
G1 X160.923 Y106.077 F10800
M204 S800
;TYPE:External perimeter
G1 F1200
G1 X160.859 Y106.037 E.00237
G1 X160.469 Y105.648 E.01727
G1 X160.19 Y105.119 E.01875
G1 X160.088 Y104.529 E.01877
G1 X160.171 Y103.938 E.01871
G1 X160.434 Y103.4 E.01878
G1 X160.852 Y102.969 E.01883
G1 X161.381 Y102.69 E.01875
G1 X161.97 Y102.587 E.01875
G1 X162.563 Y102.672 E.01878
G1 X163.1 Y102.934 E.01873
G1 X163.531 Y103.352 E.01883
G1 X163.81 Y103.881 E.01875
G1 X163.913 Y104.47 E.01875
G1 X163.828 Y105.063 E.01878
G1 X163.566 Y105.6 E.01873
G1 X163.148 Y106.031 E.01883
G1 X162.619 Y106.31 E.01875
G1 X162.029 Y106.412 E.01877
G1 X161.381 Y106.31 E.02057
G1 X160.976 Y106.104 E.01425
M204 S1000
G1 X160.86 Y106.118 F10800
;WIPE_START
G1 F8640
G1 X160.859 Y106.037 E-.03113
G1 X160.469 Y105.648 E-.12719
G1 X160.19 Y105.119 E-.13809
G1 X160.088 Y104.529 E-.13825
G1 X160.171 Y103.938 E-.1378
G1 X160.434 Y103.4 E-.13827
G1 X160.703 Y103.122 E-.08927
;WIPE_END
G1 Z.6 F720
G1 X133.298 Y124.336 F10800
G1 Z.2 F720
G1 E.8 F2100
M204 S800
;TYPE:Perimeter
G1 F1200
G1 X133.872 Y124.221 E.01835
G1 X134.609 Y124.297 E.02323
G1 X134.789 Y124.353 E.00591
G1 X135.271 Y124.598 E.01695
G1 X135.797 Y125.085 E.02248
G1 X136.146 Y125.71 E.02244
G1 X136.286 Y126.411 E.02241
G1 X136.201 Y127.122 E.02245
G1 X135.902 Y127.771 E.0224
G1 X135.415 Y128.297 E.02248
G1 X134.79 Y128.646 E.02244
G1 X134.089 Y128.786 E.02241
G1 X133.378 Y128.701 E.02245
G1 X132.729 Y128.402 E.0224
G1 X132.203 Y127.915 E.02248
G1 X131.853 Y127.289 E.02249
G1 X131.715 Y126.588 E.0224
G1 X131.799 Y125.879 E.02239
G1 X132.098 Y125.229 E.02243
G1 X132.636 Y124.658 E.0246
G1 X133.239 Y124.348 E.02126
M204 S1000
G1 X133.356 Y124.703 F10800
M204 S800
;TYPE:External perimeter
G1 F1200
G1 X133.93 Y124.594 E.01832
G1 X134.558 Y124.671 E.01984
G1 X135.1 Y124.934 E.01889
G1 X135.531 Y125.352 E.01883
G1 X135.81 Y125.881 E.01875
G1 X135.913 Y126.47 E.01875
G1 X135.828 Y127.063 E.01878
G1 X135.566 Y127.6 E.01873
G1 X135.148 Y128.031 E.01883
G1 X134.619 Y128.31 E.01875
G1 X134.03 Y128.413 E.01875
G1 X133.437 Y128.328 E.01878
G1 X132.9 Y128.066 E.01873
G1 X132.469 Y127.648 E.01883
G1 X132.19 Y127.119 E.01875
G1 X132.088 Y126.529 E.01877
G1 X132.171 Y125.938 E.01871
G1 X132.434 Y125.4 E.01878
G1 X132.869 Y124.954 E.01953
G1 X133.303 Y124.73 E.01531
M204 S1000
G1 X133.429 Y124.309 F10800
;WIPE_START
G1 F8640
G1 X133.93 Y124.594 E-.14814
G1 X134.558 Y124.671 E-.14609
G1 X135.1 Y124.934 E-.1391
G1 X135.531 Y125.352 E-.13863
G1 X135.81 Y125.881 E-.13809
G1 X135.877 Y126.265 E-.08995
;WIPE_END
G1 Z.6 F720
G1 X131.16 Y84.162 F10800
G1 Z.2 F720
G1 E.8 F2100
M204 S800
;TYPE:Perimeter
G1 F1200
G1 X131.585 Y83.702 E.01964
G1 X131.74 Y83.593 E.00594
G1 X132.262 Y83.342 E.01816
G1 X132.911 Y83.214 E.02074
G1 X133.622 Y83.299 E.02245
G1 X134.271 Y83.598 E.0224
G1 X134.797 Y84.085 E.02248
G1 X135.146 Y84.71 E.02244
G1 X135.286 Y85.411 E.02241
G1 X135.201 Y86.122 E.02245
G1 X134.902 Y86.771 E.0224
G1 X134.415 Y87.297 E.02248
G1 X133.789 Y87.647 E.02249
G1 X133.088 Y87.785 E.0224
G1 X132.379 Y87.701 E.02239
G1 X131.729 Y87.402 E.02243
G1 X131.203 Y86.915 E.02248
G1 X130.853 Y86.289 E.02249
G1 X130.715 Y85.588 E.0224
G1 X130.799 Y84.879 E.02239
G1 X130.833 Y84.755 E.00403
G1 X131.119 Y84.207 E.01938
M204 S1000
G1 X131.424 Y84.421 F10800
M204 S800
;TYPE:External perimeter
G1 F1200
G1 X131.852 Y83.969 E.01952
G1 X132.426 Y83.681 E.02014
G1 X132.97 Y83.587 E.01731
G1 X133.563 Y83.672 E.01878
G1 X134.1 Y83.934 E.01873
G1 X134.531 Y84.352 E.01883
G1 X134.81 Y84.881 E.01875
G1 X134.913 Y85.47 E.01875
G1 X134.828 Y86.063 E.01878
G1 X134.566 Y86.6 E.01873
G1 X134.148 Y87.031 E.01883
G1 X133.619 Y87.31 E.01875
G1 X133.029 Y87.412 E.01877
G1 X132.438 Y87.329 E.01871
G1 X131.9 Y87.066 E.01878
G1 X131.469 Y86.648 E.01883
G1 X131.19 Y86.119 E.01875
G1 X131.088 Y85.529 E.01877
G1 X131.183 Y84.896 E.02007
G1 X131.397 Y84.474 E.01484
M204 S1000
G1 X131.252 Y84.059 F10800
;WIPE_START
G1 F8640
G1 X131.852 Y83.969 E-.15695
G1 X132.426 Y83.681 E-.14829
G1 X132.97 Y83.587 E-.12747
G1 X133.563 Y83.672 E-.13832
G1 X134.1 Y83.934 E-.13797
G1 X134.383 Y84.208 E-.091
;WIPE_END
G1 Z.6 F720
G1 X87.336 Y87.341 F10800
G1 Z.2 F720
G1 E.8 F2100
M204 S800
;TYPE:Perimeter
G1 F1200
G1 X86.789 Y87.647 E.01965
G1 X86.088 Y87.785 E.0224
G1 X85.379 Y87.701 E.02239
G1 X84.729 Y87.402 E.02243
G1 X84.203 Y86.915 E.02248
G1 X83.854 Y86.29 E.02244
G1 X83.714 Y85.589 E.02241
G1 X83.799 Y84.878 E.02245
G1 X84.098 Y84.229 E.0224
G1 X84.585 Y83.703 E.02248
G1 X85.21 Y83.354 E.02244
G1 X85.87 Y83.221 E.02111
G1 X86.61 Y83.297 E.02332
G1 X86.789 Y83.353 E.00588
G1 X87.271 Y83.598 E.01695
G1 X87.797 Y84.085 E.02248
G1 X88.147 Y84.711 E.02249
G1 X88.285 Y85.412 E.0224
G1 X88.201 Y86.121 E.02239
G1 X87.864 Y86.834 E.02473
G1 X87.388 Y87.312 E.02115
M204 S1000
G1 X87.165 Y87.014 F10800
M204 S800
;TYPE:External perimeter
G1 F1200
G1 X86.619 Y87.31 E.01947
G1 X86.029 Y87.412 E.01877
G1 X85.438 Y87.329 E.01871
G1 X84.9 Y87.066 E.01878
G1 X84.469 Y86.648 E.01883
G1 X84.19 Y86.119 E.01875
G1 X84.087 Y85.53 E.01875
G1 X84.172 Y84.937 E.01878
G1 X84.434 Y84.4 E.01873
G1 X84.852 Y83.969 E.01883
G1 X85.381 Y83.69 E.01875
G1 X85.929 Y83.593 E.01745
G1 X86.559 Y83.671 E.0199
G1 X87.1 Y83.934 E.01886
G1 X87.531 Y84.352 E.01883
G1 X87.81 Y84.881 E.01875
G1 X87.912 Y85.471 E.01877
G1 X87.829 Y86.062 E.01871
G1 X87.553 Y86.621 E.01955
G1 X87.207 Y86.971 E.01543
M204 S1000
G1 X87.216 Y87.411 F10800
;WIPE_START
G1 F8640
G1 X86.619 Y87.31 E-.15672
G1 X86.029 Y87.412 E-.13825
G1 X85.438 Y87.329 E-.1378
G1 X84.9 Y87.066 E-.13827
G1 X84.469 Y86.648 E-.13863
G1 X84.286 Y86.302 E-.09033
;WIPE_END
G1 Z.6 F720
G1 X87.337 Y127.341 F10800
G1 Z.2 F720
G1 E.8 F2100
M204 S800
;TYPE:Perimeter
G1 F1200
G1 X86.79 Y127.646 E.01964
G1 X86.089 Y127.786 E.02241
G1 X85.378 Y127.701 E.02245
G1 X84.729 Y127.402 E.0224
G1 X84.203 Y126.915 E.02248
G1 X83.854 Y126.29 E.02244
G1 X83.714 Y125.589 E.02241
G1 X83.799 Y124.878 E.02245
G1 X84.098 Y124.229 E.0224
G1 X84.586 Y123.702 E.02252
G1 X84.74 Y123.593 E.00592
G1 X85.263 Y123.341 E.0182
G1 X85.912 Y123.215 E.02073
G1 X86.621 Y123.299 E.02239
G1 X87.271 Y123.598 E.02243
G1 X87.797 Y124.085 E.02248
G1 X88.147 Y124.711 E.02249
G1 X88.285 Y125.412 E.0224
G1 X88.201 Y126.121 E.02239
G1 X87.902 Y126.771 E.02243
G1 X87.389 Y127.312 E.02338
M204 S1000
G1 X87.165 Y127.013 F10800
M204 S800
;TYPE:External perimeter
G1 F1200
G1 X86.619 Y127.31 E.01949
G1 X86.03 Y127.413 E.01875
G1 X85.437 Y127.328 E.01878
G1 X84.9 Y127.066 E.01873
G1 X84.469 Y126.648 E.01883
G1 X84.19 Y126.119 E.01875
G1 X84.087 Y125.53 E.01875
G1 X84.172 Y124.937 E.01878
G1 X84.434 Y124.4 E.01873
G1 X84.852 Y123.969 E.01883
G1 X85.426 Y123.681 E.02014
G1 X85.971 Y123.588 E.01734
G1 X86.562 Y123.671 E.01871
G1 X87.1 Y123.934 E.01878
G1 X87.531 Y124.352 E.01883
G1 X87.81 Y124.881 E.01875
G1 X87.912 Y125.471 E.01877
G1 X87.829 Y126.062 E.01871
G1 X87.566 Y126.6 E.01878
G1 X87.207 Y126.97 E.01616
M204 S1000
G1 X87.217 Y127.41 F10800
;WIPE_START
G1 F8640
G1 X86.619 Y127.31 E-.15683
G1 X86.03 Y127.413 E-.13807
G1 X85.437 Y127.328 E-.13832
G1 X84.9 Y127.066 E-.13797
G1 X84.469 Y126.648 E-.13863
G1 X84.287 Y126.303 E-.09018
;WIPE_END
G1 Z.6 F720
G1 X169.283 Y85.488 F10800
G1 Z.2 F720
G1 E.8 F2100
M204 S800
;TYPE:Solid infill
;WIDTH:0.421109
G1 F1200
G1 X161.4 Y77.606 E.35055
G1 X160.309 Y77.05 E.03851
G1 X169.45 Y86.191 E.40652
G1 X170.005 Y87.281 E.03846
G1 X159.219 Y76.495 E.47968
G1 X158.128 Y75.939 E.03851
G1 X170.561 Y88.372 E.55292
G1 X171.117 Y89.462 E.03848
G1 X157.038 Y75.383 E.62612
G1 X155.948 Y74.828 E.03846
G1 X171.672 Y90.552 E.69928
G1 X172.228 Y91.643 E.03851
G1 X154.857 Y74.272 E.77253
G1 X153.767 Y73.716 E.03848
M73 P1 R62
G1 X172.784 Y92.733 E.84573
G1 X173.339 Y93.824 E.03849
G1 X152.676 Y73.161 E.91893
G1 X151.964 Y72.798 E.02513
M73 Q2 S63
G1 X151.743 Y72.763 E.00704
G1 X173.737 Y94.757 E.97812
G1 X173.838 Y95.392 E.02022
M73 P2 R62
G1 X151.108 Y72.662 E1.01085
G1 X150.472 Y72.562 E.02025
G1 X173.938 Y96.028 E1.04358
G1 X174.039 Y96.663 E.02022
G1 X149.837 Y72.461 E1.07631
G1 X149.201 Y72.36 E.02025
G1 X174.14 Y97.299 E1.10909
G1 X174.24 Y97.934 E.02021
G1 X148.566 Y72.26 E1.14178
G1 X147.93 Y72.159 E.02025
G1 X174.341 Y98.57 E1.17455
G1 X174.442 Y99.205 E.02022
M73 Q2 S62
G1 X147.295 Y72.058 E1.20728
G1 X146.659 Y71.958 E.02025
G1 X174.542 Y99.841 E1.24002
G1 X174.643 Y100.476 E.02022
G1 X146.024 Y71.857 E1.27275
G1 X145.388 Y71.756 E.02025
G1 X174.744 Y101.112 E1.30552
G1 X174.844 Y101.747 E.02021
G1 X144.753 Y71.656 E1.33821
G1 X144.118 Y71.555 E.02022
G1 X174.945 Y102.382 E1.37094
G1 X175.046 Y103.018 E.02025
G1 X143.482 Y71.454 E1.40372
G1 X143.126 Y71.398 E.01133
G1 X142.853 Y71.313 E.00899
G1 X142.736 Y71.126 E.00694
G1 X142.619 Y71.126 E.00368
G1 X175.146 Y103.653 E1.44654
G1 X175.247 Y104.289 E.02025
G1 X142.084 Y71.126 E1.47483
G1 X141.55 Y71.126 E.01679
G1 X175.348 Y104.924 E1.50307
G1 X175.36 Y105 E.00242
G1 X175.295 Y105.407 E.01296
G1 X141.015 Y71.126 E1.52453
G1 X140.48 Y71.126 E.01682
G1 X175.222 Y105.869 E1.54507
G1 X175.149 Y106.33 E.01468
M73 P3 R62
M73 Q3 S62
G1 X139.945 Y71.126 E1.5656
G1 X139.41 Y71.126 E.01682
G1 X175.076 Y106.792 E1.58614
G1 X175.003 Y107.254 E.01471
G1 X138.875 Y71.126 E1.60669
G1 X138.341 Y71.126 E.01679
G1 X174.929 Y107.715 E1.62717
G1 X174.856 Y108.177 E.01471
G1 X137.806 Y71.126 E1.64771
G1 X137.271 Y71.126 E.01682
G1 X174.783 Y108.639 E1.66826
G1 X174.71 Y109.101 E.01471
G1 X136.736 Y71.126 E1.68881
G1 X136.201 Y71.126 E.01682
M73 P3 R61
G1 X174.637 Y109.562 E1.70933
G1 X174.564 Y110.024 E.01471
G1 X135.666 Y71.126 E1.72988
G1 X135.131 Y71.126 E.01682
G1 X174.491 Y110.486 E1.75042
G1 X174.418 Y110.947 E.01468
G1 X134.597 Y71.126 E1.77092
G1 X134.062 Y71.126 E.01682
G1 X174.344 Y111.409 E1.79145
G1 X174.271 Y111.871 E.01471
M73 Q3 S61
G1 X133.527 Y71.126 E1.81199
G1 X132.992 Y71.126 E.01682
G1 X174.198 Y112.333 E1.83254
G1 X174.125 Y112.794 E.01468
M73 P4 R61
M73 Q4 S61
G1 X132.457 Y71.126 E1.85306
G1 X131.922 Y71.126 E.01682
G1 X162.794 Y101.998 E1.37294
G1 X162.848 Y102.008 E.00173
G1 X163.435 Y102.301 E.02063
G1 X163.646 Y102.454 E.0082
G1 X164.043 Y102.851 E.01766
G1 X164.156 Y102.99 E.00563
G1 X164.454 Y103.567 E.02042
G1 X164.498 Y103.702 E.00447
G1 X174.052 Y113.256 E.42489
G1 X173.979 Y113.718 E.01471
G1 X164.616 Y104.355 E.41639
G1 X164.632 Y104.464 E.00346
G1 X164.622 Y104.636 E.00542
G1 X164.583 Y104.857 E.00706
G1 X173.906 Y114.179 E.41459
G1 X173.833 Y114.641 E.01471
G1 X164.503 Y105.311 E.41492
G1 X164.329 Y105.672 E.0126
G1 X173.759 Y115.103 E.41939
G1 X173.702 Y115.464 E.01149
G1 X173.663 Y115.541 E.00271
G1 X164.139 Y106.017 E.42355
G1 X164.045 Y106.147 E.00504
G1 X163.888 Y106.301 E.00692
G1 X173.482 Y115.895 E.42667
G1 X173.302 Y116.25 E.01252
G1 X163.619 Y106.567 E.43062
G1 X163.577 Y106.608 E.00185
G1 X163.283 Y106.766 E.0105
G1 X173.121 Y116.604 E.43752
G1 X172.941 Y116.958 E.01249
G1 X162.936 Y106.953 E.44494
G1 X162.684 Y107.035 E.00833
G1 X162.507 Y107.06 E.00562
G1 X172.76 Y117.313 E.45597
G1 X172.58 Y117.667 E.01249
G1 X162.039 Y107.126 E.46878
G1 X161.429 Y107.051 E.01933
G1 X172.525 Y118.147 E.49346
M204 S1000
;WIPE_START
G1 F8640
G1 X170.075 Y115.697 E-.8
;WIPE_END
G1 Z.6 F720
G1 X162.351 Y102.09 F10800
G1 Z.2 F720
G1 E.8 F2100
M204 S800
G1 F1200
G1 X131.388 Y71.126 E1.37701
G1 X130.853 Y71.126 E.01682
