; generated by PrusaSlicer 2.4.1+win64 on 2024-03-06 at 16:24:57 UTC


;
;
; 

; external perimeters extrusion width = 0.60mm
; perimeters extrusion width = 0.50mm
; infill extrusion width = 0.50mm
; solid infill extrusion width = 0.50mm
; top infill extrusion width = 0.45mm
; first layer extrusion width = 0.42mm

M73 P0 R63
M73 Q0 S64
M201 X1000 Y1000 Z200 E5000 ; sets maximum accelerations, mm/sec^2
M203 X200 Y200 Z12 E120 ; sets maximum feedrates, mm / sec
M204 P1250 R1250 T1250 ; sets acceleration (P, T) and retract acceleration (R), mm/sec^2
M205 X8.00 Y8.00 Z0.40 E4.50 ; sets the jerk limits, mm/sec
M205 S0 T0 ; sets the minimum extruding and travel feed rate, mm/sec
M107
;TYPE:Custom
M862.3 P "MK3S" ; printer model check
M862.1 P0.4 ; nozzle diameter check
M115 U3.11.0 ; tell printer latest fw version
G90 ; use absolute coordinates
M83 ; extruder relative mode
M104 S215 ; set extruder temp
M140 S60 ; set bed temp
M190 S60 ; wait for bed temp
M109 S215 ; wait for extruder temp
G28 W ; home all without mesh bed level
G80 ; mesh bed leveling

G1 Z0.2 F720
G1 Y-3 F1000 ; go outside print area
G92 E0
G1 X60 E9 F1000 ; intro line
G1 X100 E12.5 F1000 ; intro line

G92 E0
M221 S95

; Don't change E values below. Excessive value can damage the printer.

M907 E538 ; set extruder motor current
G21 ; set units to millimeters
G90 ; use absolute coordinates
M83 ; use relative distances for extrusion
M900 K0.05 ; Filament gcode LA 1.5
M900 K30 ; Filament gcode LA 1.0
M107
;LAYER_CHANGE
;Z:0.2
;HEIGHT:0.2
;BEFORE_LAYER_CHANGE
G92 E0.0
;0.2


G1 E-.8 F2100
G1 Z.4 F720
;AFTER_LAYER_CHANGE
;0.2
G1 X71.515 Y68.693 F10800
G1 Z.2 F720
G1 E.8 F2100
M204 S800
;TYPE:Skirt/Brim
;WIDTH:0.42
G1 F1200
G1 X72.56 Y67.817 E.04278
G1 X73.5 Y67.623 E.03008
G1 X143.953 Y67.667 E2.20902
G1 X152.769 Y69.38 E.28159
M73 Q0 S63
G1 X153.395 Y69.595 E.02075
G1 X163.151 Y74.566 E.34331
G1 X163.753 Y75.003 E.02332
G1 X171.497 Y82.747 E.34338
G1 X171.934 Y83.349 E.02332
G1 X176.905 Y93.105 E.34331
G1 X177.135 Y93.812 E.02332
G1 X178.848 Y104.628 E.34335
G1 X178.848 Y105.372 E.02332
G1 X177.135 Y116.188 E.34335
G1 X176.905 Y116.895 E.02332
G1 X171.934 Y126.651 E.34331
G1 X171.497 Y127.253 E.02332
G1 X163.753 Y134.997 E.34338
G1 X163.151 Y135.434 E.02332
G1 X153.395 Y140.405 E.34331
G1 X152.769 Y140.62 E.02075
G1 X143.953 Y142.333 E.28159
G1 X73.5 Y142.377 E2.20902
G1 X72.193 Y141.985 E.04278
G1 X71.317 Y140.94 E.04278
G1 X71.123 Y140 E.03008
G1 X71.123 Y70 E2.1948
G1 X71.497 Y68.75 E.0409
M204 S1000
; printing object SkiSchuFerse (3).stl id:0 copy 0
;WIPE_START
G1 F8640
G1 X72.56 Y67.817 E-.32671
G1 X73.5 Y67.623 E-.22155
G1 X74.417 Y67.623 E-.21174
;WIPE_END
G1 E-.04 F2100
G1 Z.6 F720
G1 X131.235 Y123.355 F10800
G1 Z.2 F720
G1 E.8 F2100
M204 S800
;TYPE:Perimeter
G1 F1200
G1 X131.855 Y122.735 E.02747
G1 X132.635 Y122.338 E.02745
G1 X133.5 Y122.201 E.02746
G1 X134.365 Y122.338 E.02746
G1 X135.145 Y122.735 E.02745
G1 X135.765 Y123.355 E.02747
G1 X136.162 Y124.134 E.02743
G1 X136.3 Y125 E.02749
G1 X136.162 Y125.866 E.02749
G1 X135.765 Y126.645 E.02743
G1 X135.145 Y127.265 E.02747
G1 X134.366 Y127.662 E.02743
G1 X133.5 Y127.8 E.02749
G1 X132.634 Y127.662 E.02749
G1 X131.855 Y127.265 E.02743
G1 X131.235 Y126.645 E.02747
G1 X130.838 Y125.865 E.02745
G1 X130.701 Y125 E.02746
G1 X130.838 Y124.135 E.02746
G1 X131.208 Y123.408 E.02557
M204 S1000
G1 X131.544 Y123.579 F10800
M204 S800
;TYPE:External perimeter
G1 F1200
G1 X132.079 Y123.044 E.02372
G1 X132.753 Y122.701 E.0237
G1 X133.5 Y122.583 E.02372
G1 X134.247 Y122.701 E.02372
G1 X134.921 Y123.044 E.0237
G1 X135.456 Y123.579 E.02372
G1 X135.799 Y124.253 E.02369
G1 X135.918 Y125 E.02373
G1 X135.799 Y125.747 E.02373
G1 X135.456 Y126.421 E.02369
G1 X134.921 Y126.956 E.02372
G1 X134.247 Y127.299 E.02369
G1 X133.5 Y127.418 E.02373
G1 X132.753 Y127.299 E.02373
G1 X132.079 Y126.956 E.02369
G1 X131.544 Y126.421 E.02372
G1 X131.201 Y125.747 E.0237
G1 X131.083 Y125 E.02372
G1 X131.201 Y124.253 E.02372
G1 X131.517 Y123.633 E.02182
M204 S1000
G1 X131.381 Y123.214 F10800
;WIPE_START
G1 F8640
G1 X132.079 Y123.044 E-.18791
G1 X132.753 Y122.701 E-.17456
G1 X133.5 Y122.583 E-.17467
G1 X134.247 Y122.701 E-.17467
G1 X134.433 Y122.796 E-.04818
;WIPE_END
G1 E-.04 F2100
G1 Z.6 F720
G1 X159.235 Y106.645 F10800
G1 Z.2 F720
G1 E.8 F2100
M204 S800
;TYPE:Perimeter
G1 F1200
G1 X158.838 Y105.865 E.02745
G1 X158.701 Y105 E.02746
G1 X158.838 Y104.135 E.02746
G1 X159.235 Y103.355 E.02745
G1 X159.855 Y102.735 E.02747
G1 X160.635 Y102.338 E.02745
G1 X161.5 Y102.201 E.02746
G1 X162.365 Y102.338 E.02746
G1 X163.145 Y102.735 E.02745
G1 X163.765 Y103.355 E.02747
G1 X164.162 Y104.134 E.02743
G1 X164.3 Y105 E.02749
G1 X164.162 Y105.866 E.02749
G1 X163.765 Y106.645 E.02743
G1 X163.145 Y107.265 E.02747
G1 X162.366 Y107.662 E.02743
G1 X161.5 Y107.8 E.02749
G1 X160.634 Y107.662 E.02749
G1 X159.855 Y107.265 E.02743
G1 X159.278 Y106.688 E.02559
M204 S1000
G1 X159.544 Y106.421 F10800
M204 S800
;TYPE:External perimeter
G1 F1200
G1 X159.201 Y105.747 E.0237
G1 X159.083 Y105 E.02372
G1 X159.201 Y104.253 E.02372
G1 X159.544 Y103.579 E.0237
G1 X160.079 Y103.044 E.02372
G1 X160.753 Y102.701 E.0237
G1 X161.5 Y102.583 E.02372
G1 X162.247 Y102.701 E.02372
G1 X162.921 Y103.044 E.0237
G1 X163.456 Y103.579 E.02372
G1 X163.799 Y104.253 E.02369
G1 X163.918 Y105 E.02373
G1 X163.799 Y105.747 E.02373
G1 X163.456 Y106.421 E.02369
G1 X162.921 Y106.956 E.02372
G1 X162.247 Y107.299 E.02369
G1 X161.5 Y107.418 E.02373
G1 X160.753 Y107.299 E.02373
G1 X160.079 Y106.956 E.02369
G1 X159.587 Y106.463 E.02184
M204 S1000
G1 X159.146 Y106.463 F10800
;WIPE_START
G1 F8640
G1 X159.201 Y105.747 E-.18779
G1 X159.083 Y105 E-.17467
G1 X159.201 Y104.253 E-.17467
G1 X159.544 Y103.579 E-.17456
G1 X159.692 Y103.431 E-.0483
;WIPE_END
G1 E-.04 F2100
G1 Z.6 F720
G1 X135.765 Y84.645 F10800
G1 Z.2 F720
G1 E.8 F2100
M204 S800
;TYPE:Perimeter
G1 F1200
G1 X135.145 Y85.265 E.02747
G1 X134.365 Y85.662 E.02745
G1 X133.5 Y85.799 E.02746
G1 X132.635 Y85.662 E.02746
G1 X131.855 Y85.265 E.02745
G1 X131.235 Y84.645 E.02747
G1 X130.838 Y83.865 E.02745
G1 X130.701 Y83 E.02746
G1 X130.838 Y82.135 E.02746
G1 X131.235 Y81.355 E.02745
G1 X131.855 Y80.735 E.02747
G1 X132.634 Y80.338 E.02743
G1 X133.5 Y80.2 E.02749
G1 X134.366 Y80.338 E.02749
G1 X135.145 Y80.735 E.02743
G1 X135.765 Y81.355 E.02747
G1 X136.162 Y82.134 E.02743
G1 X136.3 Y83 E.02749
G1 X136.162 Y83.866 E.02749
G1 X135.792 Y84.592 E.02555
M204 S1000
G1 X135.456 Y84.421 F10800
M204 S800
;TYPE:External perimeter
G1 F1200
G1 X134.921 Y84.956 E.02372
G1 X134.247 Y85.299 E.0237
G1 X133.5 Y85.417 E.02372
G1 X132.753 Y85.299 E.02372
G1 X132.079 Y84.956 E.0237
G1 X131.544 Y84.421 E.02372
G1 X131.201 Y83.747 E.0237
G1 X131.083 Y83 E.02372
G1 X131.201 Y82.253 E.02372
G1 X131.544 Y81.579 E.0237
G1 X132.079 Y81.044 E.02372
G1 X132.753 Y80.701 E.02369
G1 X133.5 Y80.582 E.02373
G1 X134.247 Y80.701 E.02373
G1 X134.921 Y81.044 E.02369
G1 X135.456 Y81.579 E.02372
G1 X135.799 Y82.253 E.02369
G1 X135.918 Y83 E.02373
G1 X135.799 Y83.747 E.02373
G1 X135.483 Y84.367 E.02181
M204 S1000
G1 X135.619 Y84.786 F10800
;WIPE_START
G1 F8640
G1 X134.921 Y84.956 E-.18791
G1 X134.247 Y85.299 E-.17456
G1 X133.5 Y85.417 E-.17467
G1 X132.753 Y85.299 E-.17467
G1 X132.567 Y85.204 E-.04818
;WIPE_END
G1 E-.04 F2100
G1 Z.6 F720
G1 X89.299 Y85 F10800
G1 Z.2 F720
G1 E.8 F2100
M204 S800
;TYPE:Perimeter
G1 F1200
G1 X89.162 Y85.865 E.02746
G1 X88.765 Y86.645 E.02745
G1 X88.145 Y87.265 E.02747
G1 X87.365 Y87.662 E.02745
G1 X86.5 Y87.799 E.02746
G1 X85.635 Y87.662 E.02746
G1 X84.855 Y87.265 E.02745
G1 X84.235 Y86.645 E.02747
G1 X83.838 Y85.866 E.02743
G1 X83.7 Y85 E.02749
G1 X83.838 Y84.134 E.02749
G1 X84.235 Y83.355 E.02743
G1 X84.855 Y82.735 E.02747
G1 X85.634 Y82.338 E.02743
G1 X86.5 Y82.2 E.02749
G1 X87.366 Y82.338 E.02748
G1 X88.145 Y82.735 E.02743
G1 X88.765 Y83.355 E.02747
G1 X89.162 Y84.135 E.02745
G1 X89.29 Y84.941 E.02558
M204 S1000
G1 X88.917 Y85 F10800
M204 S800
;TYPE:External perimeter
G1 F1200
G1 X88.799 Y85.747 E.02372
G1 X88.456 Y86.421 E.0237
G1 X87.921 Y86.956 E.02372
G1 X87.247 Y87.299 E.0237
G1 X86.5 Y87.417 E.02372
G1 X85.753 Y87.299 E.02372
G1 X85.079 Y86.956 E.0237
G1 X84.544 Y86.421 E.02372
G1 X84.201 Y85.747 E.02369
G1 X84.082 Y85 E.02373
G1 X84.201 Y84.253 E.02373
G1 X84.544 Y83.579 E.02369
G1 X85.079 Y83.044 E.02372
G1 X85.753 Y82.701 E.02369
G1 X86.5 Y82.582 E.02374
G1 X87.247 Y82.701 E.02373
G1 X87.921 Y83.044 E.02369
G1 X88.456 Y83.579 E.02372
G1 X88.799 Y84.253 E.0237
G1 X88.908 Y84.941 E.02184
M204 S1000
G1 X89.264 Y85.2 F10800
;WIPE_START
G1 F8640
G1 X88.799 Y85.747 E-.1879
G1 X88.456 Y86.421 E-.17456
G1 X87.921 Y86.956 E-.17469
G1 X87.247 Y87.299 E-.17456
G1 X87.041 Y87.332 E-.04828
;WIPE_END
G1 E-.04 F2100
G1 Z.6 F720
G1 X85.5 Y122.201 F10800
G1 Z.2 F720
G1 E.8 F2100
M204 S800
;TYPE:Perimeter
G1 F1200
G1 X86.365 Y122.338 E.02746
G1 X87.145 Y122.735 E.02745
G1 X87.765 Y123.355 E.02747
G1 X88.162 Y124.135 E.02745
G1 X88.299 Y125 E.02746
G1 X88.162 Y125.865 E.02746
G1 X87.765 Y126.645 E.02745
G1 X87.145 Y127.265 E.02747
G1 X86.366 Y127.662 E.02743
G1 X85.5 Y127.8 E.02749
G1 X84.634 Y127.662 E.02749
G1 X83.855 Y127.265 E.02743
G1 X83.235 Y126.645 E.02747
G1 X82.838 Y125.866 E.02743
G1 X82.7 Y125 E.02749
G1 X82.838 Y124.134 E.02749
G1 X83.235 Y123.355 E.02743
G1 X83.855 Y122.735 E.02747
G1 X84.635 Y122.338 E.02745
G1 X85.441 Y122.211 E.02558
M204 S1000
G1 X85.5 Y122.583 F10800
M204 S800
;TYPE:External perimeter
G1 F1200
G1 X86.247 Y122.701 E.02372
G1 X86.921 Y123.044 E.0237
G1 X87.456 Y123.579 E.02372
G1 X87.799 Y124.253 E.0237
G1 X87.917 Y125 E.02372
G1 X87.799 Y125.747 E.02372
G1 X87.456 Y126.421 E.0237
G1 X86.921 Y126.956 E.02372
G1 X86.247 Y127.299 E.02369
G1 X85.5 Y127.418 E.02373
G1 X84.753 Y127.299 E.02373
G1 X84.079 Y126.956 E.02369
G1 X83.544 Y126.421 E.02372
G1 X83.201 Y125.747 E.02369
G1 X83.082 Y125 E.02373
G1 X83.201 Y124.253 E.02373
G1 X83.544 Y123.579 E.02369
G1 X84.079 Y123.044 E.02372
G1 X84.753 Y122.701 E.0237
G1 X85.441 Y122.592 E.02184
M204 S1000
G1 X85.7 Y122.236 F10800
;WIPE_START
G1 F8640
G1 X86.247 Y122.701 E-.1879
G1 X86.921 Y123.044 E-.17456
G1 X87.456 Y123.579 E-.17469
G1 X87.799 Y124.253 E-.17456
G1 X87.832 Y124.459 E-.04828
;WIPE_END
G1 E-.04 F2100
G1 Z.6 F720
G1 X142.713 Y70.989 F10800
G1 Z.2 F720
G1 E.8 F2100
M204 S800
;TYPE:Perimeter
G1 F1200
G1 X152.07 Y72.471 E.29703
G1 X161.604 Y77.329 E.33549
G1 X169.171 Y84.896 E.33556
G1 X174.029 Y94.43 E.33549
M73 Q1 S63
G1 X175.703 Y105 E.33554
M73 P1 R63
G1 X174.029 Y115.57 E.33554
G1 X169.171 Y125.104 E.33549
G1 X161.604 Y132.671 E.33556
G1 X152.07 Y137.529 E.33549
G1 X142.713 Y139.011 E.29703
G1 X142.713 Y139.213 E.00633
G1 X74.287 Y139.213 E2.14544
G1 X74.287 Y70.787 E2.14544
G1 X142.713 Y70.787 E2.14544
G1 X142.713 Y70.929 E.00445
M204 S1000
G1 X143.09 Y70.667 F10800
M204 S800
;TYPE:External perimeter
G1 F1200
G1 X152.188 Y72.108 E.28881
G1 X161.828 Y77.02 E.33924
G1 X169.48 Y84.672 E.33931
G1 X174.392 Y94.312 E.33924
G1 X176.085 Y105 E.33928
G1 X174.392 Y115.688 E.33928
G1 X169.48 Y125.328 E.33924
G1 X161.828 Y132.98 E.33931
G1 X152.188 Y137.892 E.33924
G1 X143.09 Y139.333 E.28881
G1 X143.09 Y139.59 E.00806
G1 X73.91 Y139.59 E2.16909
G1 X73.91 Y70.41 E2.16909
M73 P1 R62
G1 X143.09 Y70.41 E2.16909
G1 X143.09 Y70.607 E.00617
M204 S1000
M73 Q1 S62
G1 X143.252 Y71.033 F10800
;WIPE_START
G1 F8640
G1 X146.338 Y71.143 E-.76
;WIPE_END
G1 E-.04 F2100
G1 Z.6 F720
G1 X169.328 Y85.453 F10800
G1 Z.2 F720
G1 E.8 F2100
M204 S800
;TYPE:Solid infill
;WIDTH:0.420243
G1 F1200
G1 X161.435 Y77.56 E.35023
G1 X160.347 Y77.006 E.03831
G1 X169.494 Y86.153 E.40587
G1 X170.049 Y87.241 E.03831
G1 X159.259 Y76.451 E.47875
G1 X158.171 Y75.897 E.03831
G1 X170.603 Y88.329 E.55162
G1 X171.157 Y89.417 E.03831
G1 X157.083 Y75.343 E.62449
G1 X155.995 Y74.788 E.03831
G1 X171.712 Y90.505 E.69736
G1 X172.266 Y91.593 E.03831
G1 X154.907 Y74.234 E.77023
G1 X153.819 Y73.68 E.03831
G1 X172.82 Y92.681 E.8431
G1 X173.375 Y93.769 E.03831
M73 Q2 S62
G1 X152.731 Y73.125 E.91597
G1 X151.981 Y72.743 E.0264
M73 P2 R62
G1 X151.784 Y72.712 E.00626
G1 X173.788 Y94.716 E.97632
G1 X173.888 Y95.35 E.02014
G1 X151.15 Y72.612 E1.00891
G1 X150.516 Y72.511 E.02014
G1 X173.989 Y95.984 E1.04149
G1 X174.089 Y96.618 E.02014
G1 X149.882 Y72.411 E1.07408
G1 X149.248 Y72.31 E.02014
G1 X174.19 Y97.252 E1.10667
G1 X174.29 Y97.886 E.02014
G1 X148.614 Y72.21 E1.13926
G1 X147.98 Y72.109 E.02014
G1 X174.391 Y98.52 E1.17184
G1 X174.491 Y99.154 E.02014
G1 X147.346 Y72.009 E1.20443
G1 X146.712 Y71.909 E.02014
G1 X174.591 Y99.788 E1.23702
G1 X174.692 Y100.422 E.02014
G1 X146.078 Y71.808 E1.26961
G1 X145.444 Y71.708 E.02014
G1 X174.792 Y101.056 E1.30219
G1 X174.893 Y101.69 E.02014
G1 X144.81 Y71.607 E1.33478
G1 X144.176 Y71.507 E.02014
G1 X174.993 Y102.324 E1.36737
G1 X175.093 Y102.958 E.02014
G1 X143.542 Y71.407 E1.39996
G1 X142.908 Y71.306 E.02014
G1 X175.194 Y103.592 E1.43254
G1 X175.294 Y104.226 E.02014
G1 X142.138 Y71.07 E1.47116
G1 X141.604 Y71.07 E.01674
G1 X175.395 Y104.86 E1.49929
G1 X175.417 Y105 E.00444
G1 X175.36 Y105.359 E.01141
G1 X141.071 Y71.07 E1.52143
G1 X140.537 Y71.07 E.01674
G1 X175.287 Y105.82 E1.54187
G1 X175.214 Y106.28 E.01463
M73 P3 R62
M73 Q3 S62
G1 X140.003 Y71.07 E1.56231
G1 X139.47 Y71.07 E.01674
M73 P3 R61
G1 X175.141 Y106.741 E1.58275
G1 X175.068 Y107.202 E.01463
G1 X138.936 Y71.07 E1.60318
G1 X138.403 Y71.07 E.01674
G1 X174.995 Y107.662 E1.62362
G1 X174.922 Y108.123 E.01463
M73 Q3 S61
G1 X137.869 Y71.07 E1.64406
G1 X137.335 Y71.07 E.01674
G1 X174.849 Y108.584 E1.6645
G1 X174.776 Y109.044 E.01463
G1 X136.802 Y71.07 E1.68494
G1 X136.268 Y71.07 E.01674
G1 X174.703 Y109.505 E1.70538
G1 X174.63 Y109.966 E.01463
G1 X135.734 Y71.07 E1.72582
G1 X135.201 Y71.07 E.01674
G1 X174.557 Y110.426 E1.74626
G1 X174.484 Y110.887 E.01463
G1 X134.667 Y71.07 E1.7667
G1 X134.134 Y71.07 E.01674
G1 X174.411 Y111.348 E1.78714
G1 X174.338 Y111.808 E.01463
G1 X133.6 Y71.07 E1.80758
G1 X133.066 Y71.07 E.01674
G1 X174.266 Y112.269 E1.82802
G1 X174.193 Y112.73 E.01463
M73 P4 R61
M73 Q4 S61
G1 X132.533 Y71.07 E1.84846
G1 X131.999 Y71.07 E.01674
G1 X174.12 Y113.19 E1.8689
G1 X174.047 Y113.651 E.01463
G1 X164.426 Y104.03 E.42687
G1 X163.997 Y103.186 E.02971
G1 X163.314 Y102.503 E.0303
G1 X162.47 Y102.074 E.02971
G1 X131.466 Y71.07 E1.37566
G1 X130.932 Y71.07 E.01674
G1 X161.829 Y101.967 E1.37091
G1 X161.5 Y101.915 E.01045
G1 X161.278 Y101.95 E.00704
G1 X130.398 Y71.07 E1.37016
G1 X129.865 Y71.07 E.01674
G1 X160.818 Y102.023 E1.37339
G1 X160.547 Y102.066 E.00861
G1 X160.401 Y102.14 E.00512
G1 X129.331 Y71.07 E1.37858
G1 X128.797 Y71.07 E.01674
G1 X160.047 Y102.32 E1.38657
G1 X159.694 Y102.5 E.01245
G1 X128.264 Y71.07 E1.39455
G1 X127.73 Y71.07 E.01674
M73 P4 R60
G1 X159.425 Y102.765 E1.40631
G1 X159.158 Y103.032 E.01184
G1 X127.197 Y71.07 E1.41815
G1 X126.663 Y71.07 E.01674
G1 X158.928 Y103.335 E1.43161
G1 X158.748 Y103.688 E.01245
G1 X126.129 Y71.07 E1.4473
G1 X125.596 Y71.07 E.01674
M73 Q4 S60
G1 X134.735 Y80.209 E.4055
G1 X135.314 Y80.503 E.02037
G1 X135.997 Y81.186 E.0303
G1 X136.291 Y81.765 E.02037
G1 X158.568 Y104.042 E.98844
G1 X158.494 Y104.501 E.0146
G1 X136.509 Y82.517 E.97546
G1 X136.586 Y83 E.01535
G1 X136.569 Y83.11 E.0035
G1 X158.421 Y104.962 E.96958
G1 X158.507 Y105.582 E.01963
M73 P5 R60
M73 Q5 S60
G1 X136.347 Y83.422 E.98324
M204 S1000
;WIPE_START
G1 F8640
G1 X138.675 Y85.749 E-.76
;WIPE_END
G1 E-.04 F2100
G1 Z.6 F720
G1 X134.188 Y80.195 F10800
G1 Z.2 F720
G1 E.8 F2100
M204 S800
G1 F1200
G1 X125.062 Y71.07 E.4049
G1 X124.529 Y71.07 E.01674
G1 X133.39 Y79.931 E.39318
G1 X132.93 Y80.005 E.01462
G1 X123.995 Y71.07 E.39644
G1 X123.461 Y71.07 E.01674
G1 X132.487 Y80.096 E.40049
G1 X132.134 Y80.276 E.01245
G1 X122.928 Y71.07 E.40847
G1 X122.394 Y71.07 E.01674
G1 X131.78 Y80.456 E.41646
G1 X131.686 Y80.503 E.00329
G1 X131.49 Y80.7 E.00871
G1 X121.86 Y71.07 E.42728
G1 X121.327 Y71.07 E.01674
G1 X131.223 Y80.967 E.43912
G1 X131.003 Y81.186 E.00976
G1 X130.972 Y81.249 E.00219
G1 X120.793 Y71.07 E.45163
G1 X120.26 Y71.07 E.01674
