; generated by PrusaSlicer 2.4.1+win64 on 2022-12-15 at 16:59:45 UTC


;
;
; 

; external perimeters extrusion width = 0.45mm
; perimeters extrusion width = 0.45mm
; infill extrusion width = 0.45mm
; solid infill extrusion width = 0.45mm
; top infill extrusion width = 0.40mm
; first layer extrusion width = 0.42mm

M73 P0 R4
M73 Q0 S4
M201 X1000 Y1000 Z200 E5000 ; sets maximum accelerations, mm/sec^2
M203 X200 Y200 Z12 E120 ; sets maximum feedrates, mm / sec
M204 P1250 R1250 T1250 ; sets acceleration (P, T) and retract acceleration (R), mm/sec^2
M205 X8.00 Y8.00 Z0.40 E4.50 ; sets the jerk limits, mm/sec
M205 S0 T0 ; sets the minimum extruding and travel feed rate, mm/sec
M107
;TYPE:Custom
M862.3 P "MK3S" ; printer model check
M862.1 P0.4 ; nozzle diameter check
M115 U3.11.0 ; tell printer latest fw version
G90 ; use absolute coordinates
M83 ; extruder relative mode
M104 S215 ; set extruder temp
M140 S60 ; set bed temp
M190 S60 ; wait for bed temp
M109 S215 ; wait for extruder temp
G28 W ; home all without mesh bed level
G80 ; mesh bed leveling

G1 Z0.2 F720
G1 Y-3 F1000 ; go outside print area
G92 E0
G1 X60 E9 F1000 ; intro line
G1 X100 E12.5 F1000 ; intro line

G92 E0
M221 S95

; Don't change E values below. Excessive value can damage the printer.
M907 E430 ; set extruder motor current
G21 ; set units to millimeters
G90 ; use absolute coordinates
M83 ; use relative distances for extrusion
M900 K0.05 ; Filament gcode LA 1.5
M900 K30 ; Filament gcode LA 1.0
M107
;LAYER_CHANGE
;Z:0.2
;HEIGHT:0.2
;BEFORE_LAYER_CHANGE
G92 E0.0
;0.2


M73 P1 R4
M73 Q1 S4
G1 E-.8 F2100
M73 P2 R4
M73 Q2 S4
G1 Z.4 F720
;AFTER_LAYER_CHANGE
;0.2
G1 X120.092 Y100.756 F10800
G1 Z.2 F720
G1 E.8 F2100
M204 S800
;TYPE:Skirt/Brim
;WIDTH:0.42
G1 F945
G1 X120.756 Y100.092 E.02944
G1 X121.644 Y99.447 E.03441
M73 Q3 S4
G1 X122.48 Y99.021 E.02942
G1 X123.524 Y98.682 E.0344
G1 X124.451 Y98.535 E.02943
G1 X125.549 Y98.535 E.03446
G1 X126.476 Y98.682 E.02943
M73 P3 R4
G1 X127.52 Y99.021 E.0344
G1 X128.356 Y99.447 E.02942
G1 X129.244 Y100.092 E.03441
G1 X129.908 Y100.756 E.02944
G1 X130.553 Y101.644 E.03441
G1 X130.979 Y102.48 E.02942
G1 X131.318 Y103.524 E.0344
G1 X131.465 Y104.451 E.02943
G1 X131.465 Y105.549 E.03446
G1 X131.318 Y106.476 E.02943
G1 X130.979 Y107.52 E.0344
G1 X130.553 Y108.356 E.02942
G1 X129.908 Y109.244 E.03441
G1 X129.244 Y109.908 E.02944
G1 X128.356 Y110.553 E.03441
G1 X127.52 Y110.979 E.02942
G1 X126.476 Y111.318 E.0344
G1 X125.549 Y111.465 E.02943
G1 X124.451 Y111.465 E.03446
G1 X123.524 Y111.318 E.02943
G1 X122.48 Y110.979 E.0344
G1 X121.644 Y110.553 E.02942
G1 X120.756 Y109.908 E.03441
G1 X120.092 Y109.244 E.02944
G1 X119.447 Y108.356 E.03441
G1 X119.021 Y107.52 E.02942
G1 X118.682 Y106.476 E.0344
G1 X118.535 Y105.549 E.02943
G1 X118.535 Y104.451 E.03446
G1 X118.682 Y103.524 E.02943
G1 X119.021 Y102.48 E.0344
G1 X119.447 Y101.644 E.02942
G1 X120.057 Y100.805 E.03253
M204 S1000
G1 X120.358 Y101.024 F10800
M204 S800
M73 Q4 S4
G1 F945
G1 X121.023 Y100.359 E.02948
G1 X121.815 Y99.783 E.03071
G1 X122.651 Y99.357 E.02942
G1 X123.583 Y99.054 E.0307
G1 X124.51 Y98.907 E.02943
G1 X125.49 Y98.907 E.03075
M73 P4 R4
G1 X126.417 Y99.054 E.02943
G1 X127.349 Y99.357 E.0307
G1 X128.185 Y99.783 E.02942
G1 X128.977 Y100.359 E.03071
G1 X129.641 Y101.023 E.02944
G1 X130.217 Y101.815 E.03071
G1 X130.643 Y102.651 E.02942
G1 X130.946 Y103.583 E.0307
G1 X131.093 Y104.51 E.02943
G1 X131.093 Y105.49 E.03075
G1 X130.946 Y106.417 E.02943
G1 X130.643 Y107.349 E.0307
G1 X130.217 Y108.185 E.02942
G1 X129.641 Y108.977 E.03071
G1 X128.977 Y109.641 E.02944
G1 X128.185 Y110.217 E.03071
G1 X127.349 Y110.643 E.02942
G1 X126.417 Y110.946 E.0307
G1 X125.49 Y111.093 E.02943
G1 X124.51 Y111.093 E.03075
G1 X123.583 Y110.946 E.02943
G1 X122.651 Y110.643 E.0307
G1 X121.815 Y110.217 E.02942
G1 X121.023 Y109.641 E.03071
G1 X120.359 Y108.977 E.02944
G1 X119.783 Y108.185 E.03071
G1 X119.357 Y107.349 E.02942
G1 X119.054 Y106.417 E.0307
G1 X118.907 Y105.49 E.02943
G1 X118.907 Y104.51 E.03075
G1 X119.054 Y103.583 E.02943
G1 X119.357 Y102.651 E.0307
G1 X119.783 Y101.815 E.02942
G1 X120.323 Y101.072 E.0288
M204 S1000
G1 X120.624 Y101.291 F10800
M204 S800
G1 F945
G1 X121.29 Y100.626 E.02951
G1 X121.987 Y100.119 E.02701
M73 Q5 S4
G1 X122.823 Y99.693 E.02942
G1 X123.642 Y99.427 E.027
G1 X124.569 Y99.28 E.02943
G1 X125.431 Y99.28 E.02705
G1 X126.358 Y99.427 E.02943
M73 P4 R3
G1 X127.177 Y99.693 E.027
M73 P5 R3
G1 X128.013 Y100.119 E.02942
G1 X128.71 Y100.626 E.02701
G1 X129.374 Y101.29 E.02944
G1 X129.881 Y101.987 E.02701
G1 X130.307 Y102.823 E.02942
G1 X130.573 Y103.642 E.027
M73 Q5 S3
G1 X130.72 Y104.569 E.02943
G1 X130.72 Y105.431 E.02705
G1 X130.573 Y106.358 E.02943
G1 X130.307 Y107.177 E.027
G1 X129.881 Y108.013 E.02942
G1 X129.374 Y108.71 E.02701
G1 X128.71 Y109.374 E.02944
G1 X128.013 Y109.881 E.02701
G1 X127.177 Y110.307 E.02942
G1 X126.358 Y110.573 E.027
G1 X125.431 Y110.72 E.02943
G1 X124.569 Y110.72 E.02705
G1 X123.642 Y110.573 E.02943
G1 X122.823 Y110.307 E.027
G1 X121.987 Y109.881 E.02942
G1 X121.29 Y109.374 E.02701
G1 X120.626 Y108.71 E.02944
G1 X120.119 Y108.013 E.02701
G1 X119.693 Y107.177 E.02942
G1 X119.427 Y106.358 E.027
G1 X119.28 Y105.431 E.02943
G1 X119.28 Y104.569 E.02705
G1 X119.427 Y103.642 E.02943
G1 X119.693 Y102.823 E.027
G1 X120.119 Y101.987 E.02942
G1 X120.589 Y101.34 E.02507
M204 S1000
G1 X120.89 Y101.559 F10800
M204 S800
G1 F945
G1 X121.556 Y100.892 E.02954
G1 X122.158 Y100.455 E.02332
G1 X122.994 Y100.029 E.02942
G1 X123.701 Y99.799 E.02331
G1 X124.628 Y99.652 E.02943
G1 X125.372 Y99.652 E.02335
M73 Q6 S3
G1 X126.299 Y99.799 E.02943
G1 X127.006 Y100.029 E.02331
G1 X127.842 Y100.455 E.02942
G1 X128.444 Y100.892 E.02332
G1 X129.108 Y101.556 E.02944
G1 X129.545 Y102.158 E.02332
M73 P6 R3
G1 X129.971 Y102.994 E.02942
G1 X130.201 Y103.701 E.02331
G1 X130.348 Y104.628 E.02943
G1 X130.348 Y105.372 E.02335
G1 X130.201 Y106.299 E.02943
G1 X129.971 Y107.006 E.02331
G1 X129.545 Y107.842 E.02942
G1 X129.108 Y108.444 E.02332
G1 X128.444 Y109.108 E.02944
G1 X127.842 Y109.545 E.02332
G1 X127.006 Y109.971 E.02942
G1 X126.299 Y110.201 E.02331
G1 X125.372 Y110.348 E.02943
G1 X124.628 Y110.348 E.02335
G1 X123.701 Y110.201 E.02943
G1 X122.994 Y109.971 E.02331
G1 X122.158 Y109.545 E.02942
G1 X121.556 Y109.108 E.02332
G1 X120.892 Y108.444 E.02944
G1 X120.455 Y107.842 E.02332
G1 X120.029 Y107.006 E.02942
G1 X119.799 Y106.299 E.02331
G1 X119.652 Y105.372 E.02943
G1 X119.652 Y104.628 E.02335
G1 X119.799 Y103.701 E.02943
G1 X120.029 Y102.994 E.02331
G1 X120.455 Y102.158 E.02942
G1 X120.855 Y101.607 E.02134
M204 S1000
; printing object stifte.stl id:0 copy 0
;WIPE_START
G1 F8640
G1 X121.556 Y100.892 E-.23122
G1 X122.158 Y100.455 E-.17171
G1 X122.994 Y100.029 E-.21665
G1 X123.572 Y99.841 E-.14042
;WIPE_END
G1 E-.04 F2100
G1 Z.6 F720
G1 X123.527 Y103.93 F10800
G1 Z.2 F720
G1 E.8 F2100
M204 S800
;TYPE:Perimeter
G1 F945
G1 X123.93 Y103.527 E.01788
G1 X124.437 Y103.268 E.01786
G1 X125 Y103.179 E.01786
G1 X125.563 Y103.268 E.01786
G1 X126.07 Y103.527 E.01786
G1 X126.473 Y103.93 E.01788
G1 X126.732 Y104.437 E.01786
M73 Q7 S3
G1 X126.821 Y105 E.01786
G1 X126.732 Y105.563 E.01786
G1 X126.473 Y106.07 E.01786
G1 X126.07 Y106.473 E.01788
G1 X125.563 Y106.732 E.01786
G1 X125 Y106.821 E.01786
G1 X124.437 Y106.732 E.01786
G1 X123.93 Y106.473 E.01786
G1 X123.527 Y106.07 E.01788
M73 P7 R3
G1 X123.268 Y105.563 E.01786
G1 X123.179 Y105 E.01786
G1 X123.268 Y104.437 E.01786
G1 X123.499 Y103.983 E.01598
M204 S1000
G1 X123.218 Y103.705 F10800
M204 S800
G1 F945
G1 X123.705 Y103.218 E.02163
G1 X124.319 Y102.905 E.0216
G1 X125 Y102.797 E.02161
G1 X125.681 Y102.905 E.02161
G1 X126.295 Y103.218 E.0216
G1 X126.782 Y103.705 E.02163
G1 X127.095 Y104.319 E.0216
G1 X127.203 Y105 E.02161
G1 X127.095 Y105.681 E.02161
G1 X126.782 Y106.295 E.0216
G1 X126.295 Y106.782 E.02163
G1 X125.681 Y107.095 E.0216
G1 X125 Y107.203 E.02161
G1 X124.319 Y107.095 E.02161
G1 X123.705 Y106.782 E.0216
G1 X123.218 Y106.295 E.02163
G1 X122.905 Y105.681 E.0216
G1 X122.797 Y105 E.02161
G1 X122.905 Y104.319 E.02161
G1 X123.19 Y103.759 E.01972
M204 S1000
G1 X122.909 Y103.481 F10800
M204 S800
;TYPE:External perimeter
G1 F945
G1 X123.481 Y102.909 E.02537
G1 X124.201 Y102.542 E.02535
G1 X125 Y102.415 E.02535
G1 X125.799 Y102.542 E.02535
G1 X126.519 Y102.909 E.02535
G1 X127.091 Y103.481 E.02537
G1 X127.458 Y104.201 E.02535
G1 X127.585 Y105 E.02535
G1 X127.458 Y105.799 E.02535
G1 X127.091 Y106.519 E.02535
G1 X126.519 Y107.091 E.02537
G1 X125.799 Y107.458 E.02535
G1 X125 Y107.585 E.02536
G1 X124.201 Y107.458 E.02535
G1 X123.481 Y107.091 E.02535
G1 X122.909 Y106.519 E.02537
G1 X122.542 Y105.799 E.02535
G1 X122.415 Y105 E.02536
G1 X122.542 Y104.201 E.02535
G1 X122.882 Y103.534 E.02347
M204 S1000
G1 X123.307 Y103.523 F10800
;WIPE_START
G1 F8640
G1 X123.481 Y102.909 E-.20006
G1 X124.201 Y102.542 E-.18667
M73 Q8 S3
G1 X125 Y102.415 E-.18672
G1 X125.798 Y102.542 E-.18654
;WIPE_END
G1 E-.04 F2100
G1 Z.6 F720
G1 X125.518 Y103.375 F10800
G1 Z.2 F720
G1 E.8 F2100
M204 S800
;TYPE:Solid infill
;WIDTH:0.421666
G1 F945
M73 P8 R3
G1 X126.243 Y104.101 E.0323
G1 X126.46 Y104.526 E.01503
G1 X126.521 Y104.915 E.0124
G1 X125.085 Y103.479 E.06396
G1 X125 Y103.465 E.00272
G1 X124.6 Y103.529 E.01276
G1 X126.471 Y105.4 E.08336
G1 X126.46 Y105.474 E.00235
G1 X126.308 Y105.772 E.01054
G1 X124.228 Y103.692 E.09264
G1 X124.098 Y103.758 E.00458
G1 X123.928 Y103.928 E.00757
G1 X126.072 Y106.072 E.09548
G1 X125.902 Y106.242 E.00757
G1 X125.772 Y106.308 E.00458
G1 X123.692 Y104.228 E.09264
G1 X123.54 Y104.526 E.01054
G1 X123.528 Y104.6 E.00236
G1 X125.4 Y106.472 E.08336
G1 X125 Y106.535 E.01276
G1 X124.914 Y106.521 E.00273
G1 X123.479 Y105.086 E.06395
G1 X123.54 Y105.474 E.01239
G1 X123.757 Y105.9 E.01504
G1 X124.482 Y106.625 E.03229
M204 S1000
; stop printing object stifte.stl id:0 copy 0
M106 S84.15
;LAYER_CHANGE
;Z:0.3
;HEIGHT:0.1
;BEFORE_LAYER_CHANGE
G92 E0.0
;0.3


;WIPE_START
G1 F8640
G1 X123.757 Y105.9 E-.23676
G1 X123.54 Y105.474 E-.11026
G1 X123.479 Y105.086 E-.09085
G1 X124.465 Y106.072 E-.32214
;WIPE_END
G1 E-.04 F2100
G1 Z.6 F720
;AFTER_LAYER_CHANGE
;0.3
M104 S210 ; set temperature
G1 X122.071 Y110.77 F10800
G1 Z.3 F720
G1 E.8 F2100
;TYPE:Skirt/Brim
;WIDTH:0.42
G1 F900
G1 X121.644 Y110.553 E.00794
G1 X120.756 Y109.908 E.01819
G1 X120.092 Y109.244 E.01556
G1 X119.447 Y108.356 E.01818
M73 Q9 S3
G1 X119.021 Y107.52 E.01555
G1 X118.682 Y106.476 E.01818
G1 X118.535 Y105.549 E.01555
G1 X118.535 Y104.451 E.01821
G1 X118.682 Y103.524 E.01555
M73 P9 R3
G1 X119.021 Y102.48 E.01818
G1 X119.447 Y101.644 E.01555
G1 X120.092 Y100.756 E.01818
G1 X120.756 Y100.092 E.01556
G1 X121.644 Y99.447 E.01819
G1 X122.48 Y99.021 E.01555
G1 X123.524 Y98.682 E.01818
G1 X124.451 Y98.535 E.01555
G1 X125.549 Y98.535 E.01821
G1 X126.476 Y98.682 E.01555
G1 X127.52 Y99.021 E.01818
G1 X128.356 Y99.447 E.01555
G1 X129.244 Y100.092 E.01819
G1 X129.908 Y100.756 E.01556
G1 X130.553 Y101.644 E.01819
G1 X130.979 Y102.48 E.01555
G1 X131.318 Y103.524 E.01818
G1 X131.465 Y104.451 E.01555
G1 X131.465 Y105.549 E.01821
G1 X131.318 Y106.476 E.01555
G1 X130.979 Y107.52 E.01818
G1 X130.553 Y108.356 E.01555
G1 X129.908 Y109.244 E.01819
G1 X129.244 Y109.908 E.01556
G1 X128.356 Y110.553 E.01818
G1 X127.52 Y110.979 E.01555
G1 X126.476 Y111.318 E.01818
G1 X125.549 Y111.465 E.01555
G1 X124.451 Y111.465 E.01821
G1 X123.524 Y111.318 E.01555
G1 X122.48 Y110.979 E.01818
G1 X122.124 Y110.798 E.00662
M73 Q10 S3
G1 X122.296 Y110.462 F10800
G1 F900
G1 X121.815 Y110.217 E.00893
G1 X121.023 Y109.641 E.01623
G1 X120.359 Y108.977 E.01556
G1 X119.783 Y108.185 E.01623
G1 X119.357 Y107.349 E.01555
G1 X119.054 Y106.417 E.01622
M73 P10 R3
G1 X118.907 Y105.49 E.01555
G1 X118.907 Y104.51 E.01625
G1 X119.054 Y103.583 E.01555
G1 X119.357 Y102.651 E.01622
G1 X119.783 Y101.815 E.01555
G1 X120.359 Y101.023 E.01623
G1 X121.023 Y100.359 E.01556
G1 X121.815 Y99.783 E.01623
G1 X122.651 Y99.357 E.01555
G1 X123.583 Y99.054 E.01622
G1 X124.51 Y98.907 E.01555
G1 X125.49 Y98.907 E.01625
G1 X126.417 Y99.054 E.01555
G1 X127.349 Y99.357 E.01622
G1 X128.185 Y99.783 E.01555
G1 X128.977 Y100.359 E.01623
G1 X129.641 Y101.023 E.01556
G1 X130.217 Y101.815 E.01623
G1 X130.643 Y102.651 E.01555
G1 X130.946 Y103.583 E.01622
G1 X131.093 Y104.51 E.01555
G1 X131.093 Y105.49 E.01625
G1 X130.946 Y106.417 E.01555
G1 X130.643 Y107.349 E.01622
G1 X130.217 Y108.185 E.01555
G1 X129.641 Y108.977 E.01623
G1 X128.977 Y109.641 E.01556
G1 X128.185 Y110.217 E.01623
G1 X127.349 Y110.643 E.01555
G1 X126.417 Y110.946 E.01622
G1 X125.49 Y111.093 E.01555
G1 X124.51 Y111.093 E.01625
G1 X123.583 Y110.946 E.01555
G1 X122.651 Y110.643 E.01622
M73 Q11 S3
G1 X122.349 Y110.489 E.00562
G1 X122.52 Y110.153 F10800
G1 F900
G1 X121.987 Y109.881 E.00993
G1 X121.29 Y109.374 E.01428
G1 X120.626 Y108.71 E.01556
G1 X120.119 Y108.013 E.01428
G1 X119.693 Y107.177 E.01555
M73 P11 R3
G1 X119.427 Y106.358 E.01427
G1 X119.28 Y105.431 E.01555
G1 X119.28 Y104.569 E.01429
G1 X119.427 Y103.642 E.01555
G1 X119.693 Y102.823 E.01427
G1 X120.119 Y101.987 E.01555
G1 X120.626 Y101.29 E.01428
G1 X121.29 Y100.626 E.01556
G1 X121.987 Y100.119 E.01428
G1 X122.823 Y99.693 E.01555
G1 X123.642 Y99.427 E.01427
G1 X124.569 Y99.28 E.01555
G1 X125.431 Y99.28 E.01429
G1 X126.358 Y99.427 E.01555
G1 X127.177 Y99.693 E.01427
G1 X128.013 Y100.119 E.01555
G1 X128.71 Y100.626 E.01428
G1 X129.374 Y101.29 E.01556
G1 X129.881 Y101.987 E.01428
G1 X130.307 Y102.823 E.01555
G1 X130.573 Y103.642 E.01427
G1 X130.72 Y104.569 E.01555
G1 X130.72 Y105.431 E.01429
G1 X130.573 Y106.358 E.01555
G1 X130.307 Y107.177 E.01427
G1 X129.881 Y108.013 E.01555
G1 X129.374 Y108.71 E.01428
G1 X128.71 Y109.374 E.01556
G1 X128.013 Y109.881 E.01428
G1 X127.177 Y110.307 E.01555
G1 X126.358 Y110.573 E.01427
G1 X125.431 Y110.72 E.01555
G1 X124.569 Y110.72 E.01429
G1 X123.642 Y110.573 E.01555
G1 X122.823 Y110.307 E.01427
G1 X122.574 Y110.18 E.00463
G1 X122.745 Y109.844 F10800
G1 F900
M73 Q12 S3
G1 X122.158 Y109.545 E.01092
G1 X121.556 Y109.108 E.01232
G1 X120.892 Y108.444 E.01556
G1 X120.455 Y107.842 E.01232
G1 X120.029 Y107.006 E.01555
G1 X119.799 Y106.299 E.01232
G1 X119.652 Y105.372 E.01555
M73 P12 R3
G1 X119.652 Y104.628 E.01234
G1 X119.799 Y103.701 E.01555
G1 X120.029 Y102.994 E.01232
G1 X120.455 Y102.158 E.01555
G1 X120.892 Y101.556 E.01232
G1 X121.556 Y100.892 E.01556
G1 X122.158 Y100.455 E.01232
G1 X122.994 Y100.029 E.01555
G1 X123.701 Y99.799 E.01232
G1 X124.628 Y99.652 E.01555
G1 X125.372 Y99.652 E.01234
G1 X126.299 Y99.799 E.01555
G1 X127.006 Y100.029 E.01232
G1 X127.842 Y100.455 E.01555
G1 X128.444 Y100.892 E.01232
G1 X129.108 Y101.556 E.01556
G1 X129.545 Y102.158 E.01232
G1 X129.971 Y102.994 E.01555
G1 X130.201 Y103.701 E.01232
G1 X130.348 Y104.628 E.01555
G1 X130.348 Y105.372 E.01234
G1 X130.201 Y106.299 E.01555
G1 X129.971 Y107.006 E.01232
G1 X129.545 Y107.842 E.01555
G1 X129.108 Y108.444 E.01232
G1 X128.444 Y109.108 E.01556
G1 X127.842 Y109.545 E.01232
G1 X127.006 Y109.971 E.01555
G1 X126.299 Y110.201 E.01232
G1 X125.372 Y110.348 E.01555
G1 X124.628 Y110.348 E.01234
G1 X123.701 Y110.201 E.01555
G1 X122.994 Y109.971 E.01232
G1 X122.798 Y109.871 E.00363
; printing object stifte.stl id:0 copy 0
;WIPE_START
G1 F8640
G1 X122.158 Y109.545 E-.16603
G1 X121.556 Y109.108 E-.17171
G1 X120.892 Y108.444 E-.21683
G1 X120.455 Y107.842 E-.1717
G1 X120.389 Y107.712 E-.03374
;WIPE_END
G1 E-.04 F2100
G1 Z.7 F720
G1 X124.412 Y106.811 F10800
G1 Z.3 F720
M73 Q13 S3
G1 E.8 F2100
M204 S600
;TYPE:Perimeter
;WIDTH:0.45
G1 F900
G1 X123.881 Y106.541 E.01061
G1 X123.459 Y106.119 E.01062
G1 X123.189 Y105.588 E.01061
G1 X123.096 Y105 E.01061
G1 X123.189 Y104.412 E.01061
M73 P13 R3
G1 X123.459 Y103.881 E.01061
G1 X123.881 Y103.459 E.01062
G1 X124.412 Y103.189 E.01061
G1 X125 Y103.096 E.01061
G1 X125.588 Y103.189 E.01061
G1 X126.119 Y103.459 E.01061
G1 X126.541 Y103.881 E.01062
G1 X126.811 Y104.412 E.01061
G1 X126.904 Y105 E.01061
G1 X126.811 Y105.588 E.01061
G1 X126.541 Y106.119 E.01061
G1 X126.119 Y106.541 E.01062
G1 X125.588 Y106.811 E.01061
