; generated by PrusaSlicer 2.4.1+win64 on 2024-01-18 at 13:06:05 UTC


;
;
; 

; external perimeters extrusion width = 0.60mm
; perimeters extrusion width = 0.50mm
; infill extrusion width = 0.50mm
; solid infill extrusion width = 0.50mm
; top infill extrusion width = 0.45mm
; first layer extrusion width = 0.42mm

M73 P0 R94
M73 Q0 S94
M201 X1000 Y1000 Z200 E5000 ; sets maximum accelerations, mm/sec^2
M203 X200 Y200 Z12 E120 ; sets maximum feedrates, mm / sec
M204 P1250 R1250 T1250 ; sets acceleration (P, T) and retract acceleration (R), mm/sec^2
M205 X8.00 Y8.00 Z0.40 E4.50 ; sets the jerk limits, mm/sec
M205 S0 T0 ; sets the minimum extruding and travel feed rate, mm/sec
M107
;TYPE:Custom
M862.3 P "MK3S" ; printer model check
M862.1 P0.4 ; nozzle diameter check
M115 U3.11.0 ; tell printer latest fw version
G90 ; use absolute coordinates
M83 ; extruder relative mode
M104 S215 ; set extruder temp
M140 S60 ; set bed temp
M190 S60 ; wait for bed temp
M109 S215 ; wait for extruder temp
G28 W ; home all without mesh bed level
G80 ; mesh bed leveling

G1 Z0.2 F720
G1 Y-3 F1000 ; go outside print area
G92 E0
G1 X60 E9 F1000 ; intro line
G1 X100 E12.5 F1000 ; intro line

G92 E0
M221 S95

; Don't change E values below. Excessive value can damage the printer.

M907 E538 ; set extruder motor current
G21 ; set units to millimeters
G90 ; use absolute coordinates
M83 ; use relative distances for extrusion
M900 K0.05 ; Filament gcode LA 1.5
M900 K30 ; Filament gcode LA 1.0
M107
;LAYER_CHANGE
;Z:0.2
;HEIGHT:0.2
;BEFORE_LAYER_CHANGE
G92 E0.0
;0.2


M73 P0 R93
G1 E-.8 F2100
G1 Z.4 F720
;AFTER_LAYER_CHANGE
;0.2
G1 X114.558 Y96.881 F10800
G1 Z.2 F720
G1 E.8 F2100
M204 S800
;TYPE:Skirt/Brim
;WIDTH:0.42
G1 F1200
G1 X116.881 Y94.558 E.10301
G1 X117.578 Y94.051 E.02703
G1 X120.505 Y92.56 E.10299
G1 X121.324 Y92.294 E.02701
G1 X124.569 Y91.78 E.10301
G1 X125.431 Y91.78 E.02702
G1 X128.676 Y92.294 E.10301
G1 X129.495 Y92.56 E.02701
G1 X132.422 Y94.051 E.103
G1 X133.119 Y94.558 E.02703
G1 X135.443 Y96.881 E.10301
G1 X135.949 Y97.578 E.02702
G1 X137.44 Y100.505 E.103
G1 X137.706 Y101.324 E.02701
G1 X138.22 Y104.569 E.10301
G1 X138.22 Y105.431 E.02702
M73 Q0 S93
G1 X137.708 Y108.665 E.10265
G1 X137.443 Y109.481 E.02692
G1 X135.95 Y112.419 E.10334
G1 X135.442 Y113.119 E.02712
G1 X133.119 Y115.442 E.10301
G1 X132.422 Y115.949 E.02703
G1 X129.495 Y117.44 E.103
G1 X128.676 Y117.706 E.02701
G1 X125.431 Y118.22 E.10301
G1 X124.569 Y118.22 E.02702
G1 X121.324 Y117.706 E.10301
G1 X120.505 Y117.44 E.02701
G1 X117.578 Y115.949 E.103
G1 X116.881 Y115.442 E.02703
G1 X114.558 Y113.119 E.10301
G1 X114.051 Y112.422 E.02702
G1 X112.56 Y109.495 E.103
G1 X112.294 Y108.676 E.02701
G1 X111.78 Y105.431 E.10301
G1 X111.78 Y104.569 E.02702
G1 X112.294 Y101.324 E.10301
G1 X112.56 Y100.505 E.02701
G1 X114.051 Y97.578 E.103
G1 X114.522 Y96.929 E.02515
M204 S1000
G1 X114.824 Y97.148 F10800
M204 S800
G1 F1200
G1 X117.147 Y94.824 E.10304
G1 X117.749 Y94.387 E.02333
G1 X120.676 Y92.896 E.10299
G1 X121.383 Y92.666 E.02331
G1 X124.628 Y92.152 E.10301
G1 X125.372 Y92.152 E.02332
G1 X128.617 Y92.666 E.10301
G1 X129.324 Y92.896 E.02331
G1 X132.251 Y94.387 E.103
G1 X132.853 Y94.824 E.02333
G1 X135.176 Y97.147 E.10301
G1 X135.613 Y97.749 E.02332
G1 X137.104 Y100.676 E.103
G1 X137.334 Y101.383 E.02331
G1 X137.848 Y104.628 E.10301
G1 X137.848 Y105.372 E.02332
G1 X137.336 Y108.606 E.10265
G1 X137.107 Y109.31 E.02323
G1 X135.614 Y112.249 E.10334
G1 X135.176 Y112.853 E.02341
G1 X132.853 Y115.176 E.10301
G1 X132.251 Y115.613 E.02333
G1 X129.324 Y117.104 E.103
G1 X128.617 Y117.334 E.02331
G1 X125.372 Y117.848 E.10301
G1 X124.628 Y117.848 E.02332
G1 X121.383 Y117.334 E.10301
G1 X120.676 Y117.104 E.02331
G1 X117.749 Y115.613 E.103
G1 X117.147 Y115.176 E.02333
G1 X114.824 Y112.853 E.10301
G1 X114.387 Y112.251 E.02332
G1 X112.896 Y109.324 E.103
G1 X112.666 Y108.617 E.02331
G1 X112.152 Y105.372 E.10301
G1 X112.152 Y104.628 E.02332
G1 X112.666 Y101.383 E.10301
G1 X112.896 Y100.676 E.02331
G1 X114.387 Y97.749 E.103
G1 X114.788 Y97.196 E.02141
M204 S1000
; printing object TeleskopRM.stl id:0 copy 0
;WIPE_START
G1 F8640
G1 X117.109 Y94.862 E-.76
;WIPE_END
G1 E-.04 F2100
G1 Z.6 F720
G1 X117.15 Y99.296 F10800
G1 Z.2 F720
G1 E.8 F2100
M204 S800
;TYPE:Perimeter
G1 F1200
G1 X119.296 Y97.15 E.09519
G1 X122.001 Y95.772 E.09518
G1 X125 Y95.297 E.0952
G1 X127.999 Y95.772 E.0952
G1 X130.704 Y97.15 E.09518
G1 X132.85 Y99.296 E.09519
G1 X134.228 Y102.001 E.09518
G1 X134.703 Y105 E.0952
G1 X134.228 Y107.999 E.0952
G1 X132.85 Y110.704 E.09518
G1 X130.704 Y112.85 E.09519
G1 X127.999 Y114.228 E.09518
G1 X125 Y114.703 E.0952
G1 X122.001 Y114.228 E.0952
G1 X119.296 Y112.85 E.09518
G1 X117.15 Y110.704 E.09519
G1 X115.772 Y107.999 E.09518
G1 X115.297 Y105 E.0952
G1 X115.772 Y102.001 E.0952
G1 X117.122 Y99.35 E.0933
M204 S1000
G1 X116.841 Y99.072 F10800
M204 S800
;TYPE:External perimeter
G1 F1200
G1 X119.072 Y96.841 E.09893
G1 X121.883 Y95.409 E.09892
G1 X125 Y94.915 E.09894
G1 X128.117 Y95.409 E.09894
G1 X130.928 Y96.841 E.09892
G1 X133.159 Y99.072 E.09893
G1 X134.591 Y101.883 E.09892
G1 X135.085 Y105 E.09894
G1 X134.591 Y108.117 E.09894
G1 X133.159 Y110.928 E.09892
G1 X130.928 Y113.159 E.09893
G1 X128.117 Y114.591 E.09892
G1 X125 Y115.085 E.09894
G1 X121.883 Y114.591 E.09894
G1 X119.072 Y113.159 E.09892
G1 X116.841 Y110.928 E.09893
G1 X115.409 Y108.117 E.09892
G1 X114.915 Y105 E.09894
G1 X115.409 Y101.883 E.09894
G1 X116.814 Y99.125 E.09704
M204 S1000
G1 X117.239 Y99.114 F10800
;WIPE_START
G1 F8640
G1 X119.072 Y96.841 E-.74175
G1 X119.142 Y96.805 E-.01825
;WIPE_END
G1 E-.04 F2100
G1 Z.6 F720
G1 X130.143 Y96.991 F10800
G1 Z.2 F720
G1 E.8 F2100
M204 S800
;TYPE:Solid infill
;WIDTH:0.422511
G1 F1200
G1 X132.621 Y99.468 E.11057
G1 X133.178 Y100.563 E.03876
G1 X129.437 Y96.822 E.16697
G1 X128.343 Y96.265 E.03876
G1 X133.735 Y101.657 E.24069
G1 X133.956 Y102.09 E.01533
G1 X134.017 Y102.475 E.01232
G1 X127.525 Y95.983 E.28979
G1 X126.887 Y95.882 E.02038
G1 X134.118 Y103.113 E.32277
G1 X134.219 Y103.751 E.02038
G1 X126.249 Y95.781 E.35575
G1 X125.611 Y95.68 E.02038
G1 X134.32 Y104.389 E.38873
G1 X134.414 Y105.019 E.02012
G1 X124.981 Y95.586 E.42106
G1 X124.517 Y95.66 E.01481
G1 X134.34 Y105.483 E.43847
G1 X134.267 Y105.946 E.01481
G1 X124.054 Y95.733 E.45588
G1 X123.59 Y95.806 E.01481
G1 X134.194 Y106.41 E.47329
G1 X134.12 Y106.873 E.01481
G1 X123.127 Y95.88 E.4907
G1 X122.664 Y95.953 E.01481
G1 X134.047 Y107.336 E.50811
G1 X133.973 Y107.8 E.01481
G1 X122.2 Y96.027 E.52552
G1 X122.09 Y96.044 E.00353
G1 X121.819 Y96.182 E.0096
G1 X133.818 Y108.181 E.5356
G1 X133.637 Y108.537 E.0126
G1 X121.463 Y96.363 E.54339
G1 X121.107 Y96.545 E.0126
G1 X133.455 Y108.893 E.55118
G1 X133.274 Y109.248 E.0126
G1 X120.752 Y96.726 E.55897
G1 X120.396 Y96.907 E.0126
G1 X133.093 Y109.604 E.56675
G1 X132.912 Y109.959 E.0126
G1 X120.041 Y97.088 E.57454
G1 X119.685 Y97.269 E.0126
G1 X132.731 Y110.315 E.58233
G1 X132.619 Y110.535 E.0078
G1 X132.516 Y110.638 E.00456
G1 X119.362 Y97.484 E.58715
G1 X119.094 Y97.752 E.01198
G1 X132.248 Y110.906 E.58715
G1 X131.98 Y111.174 E.01198
G1 X118.826 Y98.02 E.58715
G1 X118.557 Y98.289 E.01198
G1 X131.711 Y111.443 E.58715
G1 X131.443 Y111.711 E.01198
G1 X118.289 Y98.557 E.58715
G1 X118.02 Y98.826 E.01198
G1 X131.174 Y111.98 E.58715
G1 X130.906 Y112.248 E.01198
G1 X117.752 Y99.094 E.58715
G1 X117.484 Y99.362 E.01198
G1 X130.638 Y112.516 E.58715
G1 X130.535 Y112.619 E.00456
G1 X130.315 Y112.731 E.0078
G1 X117.269 Y99.685 E.58233
G1 X117.088 Y100.041 E.0126
G1 X129.959 Y112.912 E.57454
G1 X129.604 Y113.093 E.0126
G1 X116.907 Y100.396 E.56675
G1 X116.726 Y100.752 E.0126
G1 X129.248 Y113.274 E.55896
G1 X128.892 Y113.455 E.0126
G1 X116.545 Y101.108 E.55118
G1 X116.363 Y101.463 E.0126
G1 X128.537 Y113.637 E.54339
G1 X128.181 Y113.818 E.0126
G1 X116.182 Y101.819 E.5356
G1 X116.044 Y102.09 E.00959
G1 X116.027 Y102.2 E.00353
G1 X127.8 Y113.973 E.52552
G1 X127.336 Y114.047 E.01481
G1 X115.953 Y102.664 E.50811
G1 X115.88 Y103.127 E.01481
G1 X126.873 Y114.12 E.4907
G1 X126.41 Y114.194 E.01481
G1 X115.806 Y103.59 E.47329
G1 X115.733 Y104.054 E.01481
G1 X125.946 Y114.267 E.45588
G1 X125.483 Y114.34 E.01481
G1 X115.66 Y104.517 E.43847
G1 X115.586 Y104.981 E.01481
M73 P1 R93
M73 Q1 S93
G1 X125.019 Y114.414 E.42106
G1 X124.389 Y114.32 E.02012
G1 X115.68 Y105.611 E.38873
G1 X115.781 Y106.249 E.02038
G1 X123.751 Y114.219 E.35575
G1 X123.113 Y114.118 E.02038
G1 X115.882 Y106.887 E.32276
G1 X115.983 Y107.525 E.02038
G1 X122.475 Y114.017 E.28978
G1 X122.09 Y113.956 E.01232
G1 X121.657 Y113.735 E.01534
G1 X116.265 Y108.343 E.24068
G1 X116.822 Y109.438 E.03876
G1 X120.562 Y113.178 E.16696
G1 X119.468 Y112.62 E.03876
G1 X116.991 Y110.144 E.11056
M204 S1000
; stop printing object TeleskopRM.stl id:0 copy 0
M106 S84.15
;LAYER_CHANGE
;Z:0.5
;HEIGHT:0.3
;BEFORE_LAYER_CHANGE
G92 E0.0
;0.5


;WIPE_START
G1 F8640
G1 X119.319 Y112.471 E-.76
;WIPE_END
G1 E-.04 F2100
G1 Z.6 F720
;AFTER_LAYER_CHANGE
;0.5
M104 S210 ; set temperature
G1 X116.614 Y115.176 F10800
G1 Z.5 F720
G1 E.8 F2100
;TYPE:Skirt/Brim
;WIDTH:0.42
G1 F2700
G1 X114.558 Y113.119 E.12899
G1 X114.051 Y112.422 E.03823
G1 X112.56 Y109.495 E.1457
G1 X112.294 Y108.676 E.03821
G1 X111.78 Y105.431 E.14573
G1 X111.78 Y104.569 E.03822
G1 X112.294 Y101.324 E.14573
G1 X112.56 Y100.505 E.0382
G1 X114.051 Y97.578 E.1457
G1 X114.558 Y96.881 E.03823
G1 X116.881 Y94.558 E.14572
G1 X117.578 Y94.051 E.03823
G1 X120.505 Y92.56 E.1457
G1 X121.324 Y92.294 E.03821
G1 X124.569 Y91.78 E.14573
G1 X125.431 Y91.78 E.03822
G1 X128.676 Y92.294 E.14573
G1 X129.495 Y92.56 E.03821
G1 X132.422 Y94.051 E.1457
G1 X133.119 Y94.558 E.03823
G1 X135.443 Y96.881 E.14572
G1 X135.949 Y97.578 E.03823
M73 P1 R92
G1 X137.44 Y100.505 E.1457
G1 X137.706 Y101.324 E.03821
G1 X138.22 Y104.569 E.14573
G1 X138.22 Y105.431 E.03822
G1 X137.708 Y108.665 E.14522
G1 X137.443 Y109.481 E.03808
G1 X135.95 Y112.419 E.14619
G1 X135.442 Y113.119 E.03836
G1 X133.119 Y115.442 E.14572
G1 X132.422 Y115.949 E.03823
G1 X129.495 Y117.44 E.1457
G1 X128.676 Y117.706 E.0382
G1 X125.431 Y118.22 E.14573
G1 X124.569 Y118.22 E.03822
G1 X121.324 Y117.706 E.14573
G1 X120.505 Y117.44 E.0382
G1 X117.578 Y115.949 E.1457
G1 X116.881 Y115.442 E.03823
G1 X116.656 Y115.218 E.01406
G1 X116.923 Y114.952 F10800
G1 F2700
G1 X114.824 Y112.853 E.13165
G1 X114.387 Y112.251 E.03299
G1 X112.896 Y109.324 E.1457
G1 X112.666 Y108.617 E.03298
G1 X112.152 Y105.372 E.14573
G1 X112.152 Y104.628 E.03299
G1 X112.666 Y101.383 E.14573
G1 X112.896 Y100.676 E.03297
G1 X114.387 Y97.749 E.1457
G1 X114.824 Y97.147 E.033
G1 X117.147 Y94.824 E.14572
G1 X117.749 Y94.387 E.033
G1 X120.676 Y92.896 E.1457
G1 X121.383 Y92.666 E.03298
G1 X124.628 Y92.152 E.14573
G1 X125.372 Y92.152 E.03299
G1 X128.617 Y92.666 E.14573
G1 X129.324 Y92.896 E.03298
G1 X132.251 Y94.387 E.1457
G1 X132.853 Y94.824 E.033
G1 X135.176 Y97.147 E.14572
G1 X135.613 Y97.749 E.03299
G1 X137.104 Y100.676 E.1457
G1 X137.334 Y101.383 E.03298
G1 X137.848 Y104.628 E.14573
G1 X137.848 Y105.372 E.03299
G1 X137.336 Y108.606 E.14522
G1 X137.107 Y109.31 E.03286
G1 X135.614 Y112.249 E.14619
G1 X135.176 Y112.853 E.03311
G1 X132.853 Y115.176 E.14572
G1 X132.251 Y115.613 E.033
G1 X129.324 Y117.104 E.1457
G1 X128.617 Y117.334 E.03297
G1 X125.372 Y117.848 E.14573
G1 X124.628 Y117.848 E.03299
G1 X121.383 Y117.334 E.14573
G1 X120.676 Y117.104 E.03297
G1 X117.749 Y115.613 E.1457
G1 X117.147 Y115.176 E.033
G1 X116.965 Y114.994 E.0114
; printing object TeleskopRM.stl id:0 copy 0
;WIPE_START
G1 F8640
G1 X114.824 Y112.853 E-.69921
G1 X114.669 Y112.64 E-.06079
;WIPE_END
G1 E-.04 F2100
G1 Z.9 F720
G1 X119.295 Y112.851 F10800
G1 Z.5 F720
G1 E.8 F2100
M204 S800
;TYPE:Perimeter
;WIDTH:0.5
G1 F3000
G1 X117.149 Y110.705 E.16497
G1 X115.77 Y107.999 E.16496
G1 X115.295 Y105 E.16499
G1 X115.77 Y102.001 E.16499
G1 X117.149 Y99.295 E.16496
G1 X119.296 Y97.149 E.16497
G1 X122 Y95.771 E.16493
G1 X125.011 Y95.297 E.16558
G1 X127.999 Y95.77 E.16439
G1 X130.705 Y97.149 E.16496
G1 X132.851 Y99.296 E.16497
G1 X134.23 Y102.001 E.16496
G1 X134.705 Y105 E.16499
G1 X134.23 Y107.999 E.16499
G1 X132.851 Y110.704 E.16496
G1 X130.705 Y112.851 E.16497
G1 X127.999 Y114.23 E.16496
G1 X125 Y114.705 E.16499
G1 X122.001 Y114.23 E.16499
G1 X119.349 Y112.879 E.1617
M204 S1000
G1 X119.007 Y113.249 F10800
M204 S800
;TYPE:External perimeter
;WIDTH:0.6
G1 F2100
G1 X116.751 Y110.993 E.21312
G1 X115.303 Y108.151 E.2131
G1 X114.804 Y105 E.21314
G1 X115.303 Y101.849 E.21314
G1 X116.751 Y99.007 E.2131
G1 X119.007 Y96.751 E.21312
G1 X121.849 Y95.303 E.21309
G1 X125.011 Y94.806 E.21387
G1 X128.151 Y95.303 E.21238
G1 X130.993 Y96.751 E.2131
G1 X133.249 Y99.007 E.21312
G1 X134.697 Y101.849 E.2131
G1 X135.196 Y105 E.21314
G1 X134.697 Y108.151 E.21314
G1 X133.249 Y110.993 E.2131
G1 X130.993 Y113.249 E.21312
G1 X128.151 Y114.697 E.2131
G1 X125 Y115.196 E.21314
G1 X121.849 Y114.697 E.21314
G1 X119.06 Y113.276 E.20909
M204 S1000
G1 X119.048 Y112.851 F10800
;WIPE_START
G1 F8640
G1 X116.751 Y110.993 E-.7498
G1 X116.731 Y110.954 E-.0102
;WIPE_END
G1 E-.04 F2100
G1 Z.9 F720
G1 X133.036 Y110.054 F10800
G1 Z.5 F720
M73 Q1 S92
G1 E.8 F2100
;TYPE:Solid infill
;WIDTH:0.505153
G1 F4800
G1 X130.503 Y112.588 E.19698
G1 X129.232 Y113.235 E.07839
G1 X133.235 Y109.232 E.31122
G1 X133.882 Y107.961 E.07839
G1 X127.961 Y113.882 E.46032
G1 X127.897 Y113.915 E.00397
G1 X127.194 Y114.026 E.03914
G1 X134.026 Y107.194 E.5312
G1 X134.144 Y106.453 E.04123
G1 X126.453 Y114.144 E.59791
G1 X125.713 Y114.261 E.04123
G1 X134.261 Y105.713 E.66461
G1 X134.371 Y104.98 E.04074
G1 X124.98 Y114.371 E.73012
G1 X124.441 Y114.285 E.02995
G1 X134.285 Y104.441 E.76533
G1 X134.2 Y103.903 E.02995
G1 X123.903 Y114.2 E.80054
G1 X123.365 Y114.115 E.02995
G1 X134.115 Y103.365 E.83575
G1 X134.03 Y102.827 E.02995
G1 X122.827 Y114.03 E.87096
G1 X122.289 Y113.944 E.02995
G1 X133.944 Y102.289 E.90617
G1 X133.915 Y102.103 E.01036
G1 X133.777 Y101.833 E.01667
G1 X121.833 Y113.777 E.92865
G1 X121.42 Y113.567 E.02548
G1 X133.567 Y101.42 E.9444
G1 X133.357 Y101.007 E.02548
G1 X121.007 Y113.357 E.96016
G1 X120.594 Y113.146 E.02548
G1 X133.146 Y100.594 E.97591
G1 X132.936 Y100.181 E.02548
G1 X120.181 Y112.936 E.99166
G1 X119.768 Y112.725 E.02548
G1 X132.725 Y99.768 E1.00741
G1 X132.584 Y99.49 E.01715
G1 X132.482 Y99.388 E.00792
G1 X119.388 Y112.482 E1.01801
G1 X119.076 Y112.17 E.02423
G1 X132.17 Y99.076 E1.01801
G1 X131.859 Y98.765 E.02423
G1 X118.765 Y111.859 E1.01801
G1 X118.453 Y111.547 E.02423
G1 X131.547 Y98.453 E1.01802
G1 X131.235 Y98.141 E.02423
G1 X118.141 Y111.235 E1.01802
G1 X117.83 Y110.924 E.02423
G1 X130.924 Y97.83 E1.01802
G1 X130.612 Y97.518 E.02423
G1 X117.518 Y110.612 E1.01802
G1 X117.416 Y110.51 E.00792
G1 X117.275 Y110.232 E.01715
G1 X130.232 Y97.275 E1.00741
G1 X129.819 Y97.064 E.02548
G1 X117.064 Y109.819 E.99166
G1 X116.854 Y109.406 E.02548
G1 X129.406 Y96.854 E.97591
G1 X128.993 Y96.643 E.02548
G1 X116.643 Y108.993 E.96015
G1 X116.433 Y108.58 E.02548
G1 X128.58 Y96.433 E.9444
G1 X128.167 Y96.223 E.02548
G1 X116.223 Y108.167 E.92865
G1 X116.085 Y107.897 E.01667
G1 X116.056 Y107.711 E.01036
G1 X127.711 Y96.056 E.90617
G1 X127.173 Y95.97 E.02995
G1 X115.97 Y107.173 E.87096
G1 X115.885 Y106.635 E.02995
G1 X126.635 Y95.885 E.83575
G1 X126.097 Y95.8 E.02995
G1 X115.8 Y106.097 E.80054
G1 X115.715 Y105.558 E.02995
G1 X125.558 Y95.715 E.76533
G1 X125.02 Y95.629 E.02995
G1 X115.629 Y105.02 E.73012
G1 X115.739 Y104.287 E.04075
G1 X124.284 Y95.742 E.66436
G1 X123.545 Y95.859 E.04117
G1 X115.856 Y103.547 E.59773
G1 X115.974 Y102.806 E.04123
G1 X122.805 Y95.975 E.5311
G1 X122.102 Y96.085 E.03909
G1 X122.038 Y96.118 E.00395
G1 X116.118 Y102.038 E.4603
G1 X116.765 Y100.768 E.07839
G1 X120.768 Y96.765 E.3112
G1 X119.497 Y97.412 E.07839
G1 X116.964 Y99.946 E.19696
; stop printing object TeleskopRM.stl id:0 copy 0
M106 S170.85
;LAYER_CHANGE
;Z:0.8
;HEIGHT:0.3
;BEFORE_LAYER_CHANGE
G92 E0.0
;0.8


;WIPE_START
G1 F8640
G1 X119.291 Y97.618 E-.76
;WIPE_END
G1 E-.04 F2100
G1 Z.9 F720
;AFTER_LAYER_CHANGE
;0.8
G1 X116.556 Y94.882 F10800
