; generated by PrusaSlicer 2.6.0+win64 on 2023-12-13 at 15:27:37 UTC


;
;
; 

; external perimeters extrusion width = 0.60mm
; perimeters extrusion width = 0.50mm
; infill extrusion width = 0.50mm
; solid infill extrusion width = 0.50mm
; top infill extrusion width = 0.45mm
; first layer extrusion width = 0.42mm

M73 P0 R80
M73 Q0 S81
M201 X1000 Y1000 Z200 E5000 ; sets maximum accelerations, mm/sec^2
M203 X200 Y200 Z12 E120 ; sets maximum feedrates, mm / sec
M204 S1250 T1250 ; sets acceleration (S) and retract acceleration (R), mm/sec^2
M205 X8.00 Y8.00 Z0.40 E4.50 ; sets the jerk limits, mm/sec
M205 S0 T0 ; sets the minimum extruding and travel feed rate, mm/sec
;TYPE:Custom
M862.3 P "MK3S" ; printer model check
M862.1 P0.4 ; nozzle diameter check
M115 U3.12.2 ; tell printer latest fw version
G90 ; use absolute coordinates
M83 ; extruder relative mode
M104 S215 ; set extruder temp
M140 S60 ; set bed temp
M190 S60 ; wait for bed temp
M109 S215 ; wait for extruder temp
G28 W ; home all without mesh bed level
G80 ; mesh bed leveling

G1 Z0.2 F720
G1 Y-3 F1000 ; go outside print area
G92 E0
M73 P0 R79
G1 X60 E9 F1000 ; intro line
G1 X100 E12.5 F1000 ; intro line

G92 E0
M221 S95

; Don't change E values below. Excessive value can damage the printer.

M907 E538 ; set extruder motor current
G21 ; set units to millimeters
G90 ; use absolute coordinates
M83 ; use relative distances for extrusion
M900 K0.05 ; Filament gcode LA 1.5
M900 K30 ; Filament gcode LA 1.0
M107
;LAYER_CHANGE
;Z:0.2
;HEIGHT:0.2
;BEFORE_LAYER_CHANGE
G92 E0.0
;0.2


G1 E-.8 F2100
G1 Z.4 F720
;AFTER_LAYER_CHANGE
;0.2
G1 X96.869 Y97.78 F10800
G1 Z.2 F720
G1 E.8 F2100
M204 S800
;TYPE:Skirt/Brim
;WIDTH:0.42
G1 F1200
G1 X97.956 Y96.954 E.04281
G1 X98.664 Y96.806 E.02268
G1 X126.844 Y95.3 E.88482
G1 X133.929 Y95.554 E.22229
G1 X140.737 Y96.547 E.21572
G1 X147.388 Y98.263 E.21537
G1 X153.113 Y100.418 E.1918
G1 X154.197 Y101.248 E.04281
G1 X154.647 Y102.628 E.04551
G1 X154.659 Y111.498 E.27811
G1 X154.235 Y112.809 E.0432
G1 X153.919 Y113.263 E.01734
G1 X153.15 Y113.969 E.03273
G1 X152.221 Y114.405 E.03218
G1 X151.242 Y114.605 E.03133
G1 X150.338 Y114.643 E.02837
G1 X103.96 Y114.69 E1.45415
G1 X99.241 Y114.645 E.14797
G1 X97.761 Y114.53 E.04654
G1 X97.279 Y114.405 E.01561
G1 X96.35 Y113.969 E.03218
G1 X95.581 Y113.263 E.03273
G1 X95.265 Y112.809 E.01734
G1 X94.841 Y111.492 E.04338
G1 X94.84 Y104.367 E.2234
G1 X94.932 Y103.708 E.02086
G1 X96.352 Y98.737 E.1621
G1 X96.841 Y97.833 E.03223
M204 S1000
; printing object Wallet_03.stl id:0 copy 0
;WIPE_START
G1 F8640
G1 X97.956 Y96.954 E-.32784
G1 X98.664 Y96.806 E-.16701
G1 X99.984 Y96.735 E-.30515
;WIPE_END
G1 Z.6 F720
G1 X105.614 Y104.818 F10800
G1 Z.2 F720
G1 E.8 F2100
M204 S800
;TYPE:Perimeter
;WIDTH:0.419999
G1 F1200
G1 X105.614 Y110.996 E.19371
G1 X104.269 Y111.007 E.04217
G1 X99.702 Y110.902 E.14323
G1 X99.702 Y104.912 E.18781
G1 X104.269 Y104.806 E.14323
G1 X105.554 Y104.817 E.04029
M204 S1000
G1 X105.991 Y104.695 F10800
M204 S800
;TYPE:External perimeter
G1 F1200
G1 X105.991 Y111.229 E.20487
G1 X105.838 Y111.371 E.00654
G1 X104.266 Y111.385 E.04929
G1 X99.325 Y111.268 E.15496
G1 X99.332 Y104.544 E.21083
G1 X104.266 Y104.429 E.15474
G1 X105.838 Y104.442 E.04929
G1 X105.991 Y104.585 E.00657
G1 X105.991 Y104.635 E.00157
M204 S1000
G1 X105.687 Y104.955 F10800
;WIPE_START
G1 F8640
G1 X105.991 Y108.1 E-.8
;WIPE_END
G1 Z.6 F720
G1 X104.661 Y104.979 F10800
G1 Z.2 F720
G1 E.8 F2100
M204 S800
;TYPE:Solid infill
;WIDTH:0.426712
G1 F1200
G1 X105.275 Y105.593 E.02771
G1 X105.275 Y106.136 E.01733
G1 X104.285 Y105.146 E.04468
G1 X103.755 Y105.158 E.01692
G1 X105.275 Y106.678 E.0686
G1 X105.275 Y107.221 E.01733
G1 X103.224 Y105.17 E.09256
G1 X102.694 Y105.183 E.01692
G1 X105.275 Y107.764 E.11648
G1 X105.275 Y108.307 E.01733
G1 X102.163 Y105.195 E.14045
G1 X101.633 Y105.207 E.01692
G1 X105.275 Y108.849 E.16437
G1 X105.275 Y109.392 E.01733
G1 X101.102 Y105.219 E.18833
G1 X100.572 Y105.232 E.01692
G1 X105.275 Y109.935 E.21225
G1 X105.275 Y110.478 E.01733
G1 X100.041 Y105.244 E.23622
G1 X100.041 Y105.787 E.01733
G1 X104.917 Y110.663 E.22006
G1 X104.379 Y110.667 E.01717
G1 X100.041 Y106.329 E.19578
G1 X100.041 Y106.872 E.01733
G1 X103.827 Y110.658 E.17087
G1 X103.271 Y110.645 E.01775
G1 X100.041 Y107.415 E.14577
G1 X100.041 Y107.958 E.01733
G1 X102.715 Y110.632 E.12068
G1 X102.16 Y110.619 E.01772
G1 X100.041 Y108.5 E.09563
G1 X100.041 Y109.043 E.01733
G1 X101.604 Y110.606 E.07054
G1 X101.048 Y110.593 E.01775
G1 X100.041 Y109.586 E.04545
G1 X100.041 Y110.129 E.01733
G1 X100.667 Y110.754 E.02823
M204 S1000
;WIPE_START
G1 F8640
G1 X100.041 Y110.129 E-.20425
G1 X100.041 Y109.586 E-.12538
G1 X101.048 Y110.593 E-.32883
G1 X101.604 Y110.606 E-.12842
G1 X101.564 Y110.566 E-.01312
;WIPE_END
G1 Z.6 F720
G1 X150.244 Y104.6 F10800
G1 Z.2 F720
G1 E.8 F2100
M204 S800
;TYPE:Perimeter
;WIDTH:0.419999
G1 F1200
G1 X150.168 Y104.931 E.01065
G1 X150.104 Y105.452 E.01646
G1 X149.824 Y110.902 E.17111
G1 X145.707 Y111.007 E.12913
G1 X144.527 Y110.997 E.037
G1 X144.527 Y104.942 E.18985
G1 X149.01 Y104.811 E.14062
G1 X149.872 Y104.708 E.02722
G1 X150.186 Y104.617 E.01025
M204 S1000
;WIPE_START
G1 F8640
G1 X150.168 Y104.931 E-.07262
G1 X150.104 Y105.452 E-.1212
G1 X149.969 Y108.074 E-.60618
;WIPE_END
G1 Z.6 F720
G1 X114.888 Y100.475 F10800
G1 Z.2 F720
G1 E.8 F2100
M204 S800
;WIDTH:0.436067
G1 F1200
G1 X114.006 Y101.06 E.0346
G1 X112.091 Y101.153 E.06268
G1 X114.137 Y100.613 E.06917
G1 X114.829 Y100.486 E.023
M204 S1000
;WIPE_START
G1 F8640
G1 X114.006 Y101.06 E-.23169
G1 X112.091 Y101.153 E-.4427
G1 X112.617 Y101.014 E-.12561
;WIPE_END
G1 Z.6 F720
G1 X102.026 Y102.109 F10800
G1 Z.2 F720
G1 E.8 F2100
M204 S800
;TYPE:External perimeter
;WIDTH:0.494572
G1 F1200
G1 X102.047 Y102.108 E.00079
;WIDTH:0.542856
G1 X102.57 Y102.065 E.02181
;WIDTH:0.59114
G1 X103.094 Y102.023 E.02396
;WIDTH:0.639424
G1 X103.617 Y101.98 E.02603
M204 S1000
;WIPE_START
G1 F8640
G1 X103.094 Y102.023 E-.12117
G1 X102.57 Y102.065 E-.12138
G1 X102.047 Y102.108 E-.12117
G1 X102.026 Y102.109 E-.00485
;WIPE_END
G1 E-.43143 F2100
G1 Z.6 F720
G1 X102.026 Y102.109 F10800
G1 Z.2 F720
G1 E.8 F2100
M204 S800
;WIDTH:0.493622
G1 F1200
G1 X101.769 Y102.143 E.00972
;WIDTH:0.444818
G1 X101.513 Y102.177 E.00863
;WIDTH:0.398113
G1 X101.382 Y102.135 E.00406
G1 X100.877 Y101.905 E.01639
;WIDTH:0.422937
G1 X100.586 Y101.69 E.01143
;WIDTH:0.463499
G1 X100.295 Y101.475 E.01265
;WIDTH:0.504061
G1 X100.003 Y101.26 E.0139
G1 X100.347 Y101.375 E.01391
;WIDTH:0.463499
G1 X100.69 Y101.49 E.01265
;WIDTH:0.422937
G1 X101.033 Y101.605 E.01143
;WIDTH:0.396014
G1 X101.594 Y101.847 E.01794
;WIDTH:0.444818
G1 X101.81 Y101.978 E.00844
;WIDTH:0.493622
G1 X101.975 Y102.078 E.00723
M204 S1000
;WIPE_START
G1 F8640
G1 X101.769 Y102.143 E-.04988
G1 X101.513 Y102.177 E-.05963
G1 X101.382 Y102.135 E-.03176
G1 X100.877 Y101.905 E-.12813
G1 X100.586 Y101.69 E-.08354
G1 X100.295 Y101.475 E-.08354
G1 X100.003 Y101.26 E-.08373
G1 X100.347 Y101.375 E-.08375
G1 X100.69 Y101.49 E-.08353
G1 X101.033 Y101.605 E-.08353
G1 X101.148 Y101.655 E-.02898
;WIPE_END
G1 Z.6 F720
G1 X99.32 Y100.604 F10800
G1 Z.2 F720
G1 E.8 F2100
M204 S800
;WIDTH:0.631828
G1 F1200
G1 X99.515 Y100.799 E.0135
;WIDTH:0.59271
G1 X99.709 Y100.995 E.01261
;WIDTH:0.553592
G1 X99.904 Y101.191 E.01174
;WIDTH:0.514474
G1 X99.998 Y101.257 E.0045
M204 S1000
G1 X99.32 Y100.604 F10800
M204 S800
;WIDTH:0.631828
G1 F1200
G1 X99.25 Y100.574 E.00373
;WIDTH:0.584441
G1 X99.181 Y100.545 E.00337
;WIDTH:0.537054
G1 X99.111 Y100.516 E.00311
;WIDTH:0.489667
G1 X99.041 Y100.486 E.00283
;WIDTH:0.44228
G1 X98.972 Y100.457 E.00249
;WIDTH:0.394892
G1 X98.771 Y100.206 E.00941
;WIDTH:0.348739
G1 X98.826 Y99.87 E.00866
G1 X98.879 Y99.903 E.00159
;WIDTH:0.360381
G1 X99.162 Y100.213 E.01108
;WIDTH:0.405623
G1 X99.188 Y100.278 E.00211
;WIDTH:0.450864
G1 X99.215 Y100.343 E.00239
;WIDTH:0.496105
G1 X99.241 Y100.408 E.00264
;WIDTH:0.541346
G1 X99.267 Y100.473 E.0029
;WIDTH:0.586587
G1 X99.294 Y100.538 E.00318
;WIDTH:0.631828
G1 X99.298 Y100.548 E.00053
M204 S1000
;WIPE_START
G1 F8640
G1 X99.25 Y100.574 E-.0126
G1 X99.181 Y100.545 E-.01728
G1 X99.111 Y100.516 E-.0175
G1 X99.041 Y100.486 E-.01759
G1 X98.972 Y100.457 E-.01728
G1 X98.771 Y100.206 E-.07425
G1 X98.826 Y99.87 E-.07862
G1 X98.879 Y99.903 E-.01442
G1 X99.162 Y100.213 E-.09692
G1 X99.188 Y100.278 E-.01616
G1 X99.215 Y100.343 E-.01625
G1 X99.241 Y100.408 E-.01616
G1 X99.267 Y100.473 E-.01616
G1 X99.294 Y100.538 E-.01625
G1 X99.298 Y100.548 E-.00249
;WIPE_END
G1 E-.37007 F2100
G1 Z.6 F720
G1 X150.419 Y103.857 F10800
G1 Z.2 F720
G1 E.8 F2100
M204 S800
;WIDTH:0.419999
G1 F1200
G1 X150.259 Y103.682 E.00743
G1 X149.772 Y103.37 E.01813
G1 X149.296 Y103.152 E.01642
G1 X146.238 Y102.089 E.10151
;WIDTH:0.469808
G1 X146.121 Y102.022 E.00479
;WIDTH:0.519617
G1 X146.003 Y101.955 E.00538
;WIDTH:0.569426
G1 X145.885 Y101.887 E.00596
G1 X144.87 Y101.558 E.04671
;WIDTH:0.524557
G1 X143.856 Y101.229 E.04269
;WIDTH:0.479687
G1 X143.831 Y101.223 E.00093
;WIDTH:0.512411
G1 X141.841 Y100.765 E.07972
;WIDTH:0.54579
G1 X139.851 Y100.307 E.08538
G1 X138.924 Y100.12 E.03954
;WIDTH:0.510329
G1 X137.997 Y99.933 E.03675
;WIDTH:0.474868
G1 X137.07 Y99.746 E.03397
;WIDTH:0.439406
G1 X137.048 Y99.743 E.00073
;WIDTH:0.47696
G1 X135.254 Y99.542 E.06515
;WIDTH:0.514897
G1 X133.46 Y99.342 E.07084
G1 X132.277 Y99.242 E.04659
;WIDTH:0.475949
G1 X131.095 Y99.142 E.04271
;WIDTH:0.437
G1 X130.071 Y99.068 E.03364
;WIDTH:0.41209
G1 X130.053 Y99.068 E.00055
;WIDTH:0.449935
G1 X128.524 Y99.071 E.05175
;WIDTH:0.487779
G1 X126.995 Y99.074 E.05656
G1 X126.044 Y99.101 E.03519
;WIDTH:0.460978
G1 X125.093 Y99.128 E.03307
;WIDTH:0.434177
G1 X124.69 Y99.146 E.01312
;WIDTH:0.427558
G1 X123.282 Y99.204 E.04507
;WIDTH:0.420736
G1 X123.113 Y99.213 E.00532
;WIDTH:0.433555
G1 X121.589 Y99.37 E.04976
;WIDTH:0.458316
G1 X119.647 Y99.627 E.06766
;WIDTH:0.438776
G1 X118.716 Y99.776 E.03103
;WIDTH:0.427572
G1 X116.402 Y100.135 E.0749
;WIDTH:0.420907
G1 X116.107 Y100.197 E.00947
;WIDTH:0.419999
G1 X115.238 Y100.704 E.03155
G1 X114.131 Y101.44 E.04168
G1 X112.55 Y101.516 E.04963
;WIDTH:0.460725
G1 X110.714 Y101.585 E.06383
;WIDTH:0.460422
G1 X109.855 Y101.64 E.02988
;WIDTH:0.432578
G1 X109.254 Y101.694 E.01955
;WIDTH:0.4231
G1 X105.421 Y102.013 E.12159
;WIDTH:0.41659
G1 X105.11 Y102.042 E.0097
;WIDTH:0.409677
G1 X104.566 Y102.074 E.01662
;WIDTH:0.384615
G1 X104.022 Y102.105 E.01548
;WIDTH:0.406198
G1 X103.954 Y102.085 E.00214
;WIDTH:0.452843
G1 X103.887 Y102.064 E.00239
;WIDTH:0.499488
G1 X103.82 Y102.043 E.00267
;WIDTH:0.546134
G1 X103.752 Y102.022 E.00298
;WIDTH:0.592779
G1 X103.685 Y102.001 E.00321
;WIDTH:0.639424
G1 X103.617 Y101.98 E.00353
G1 X103.681 Y101.948 E.00355
;WIDTH:0.592779
G1 X103.744 Y101.917 E.00321
;WIDTH:0.546134
G1 X103.807 Y101.885 E.00296
;WIDTH:0.499488
G1 X103.87 Y101.853 E.00268
;WIDTH:0.452843
G1 X103.933 Y101.822 E.00239
;WIDTH:0.406198
G1 X103.996 Y101.79 E.00213
;WIDTH:0.384615
G1 X104.538 Y101.733 E.01548
;WIDTH:0.409677
G1 X105.08 Y101.677 E.01662
;WIDTH:0.41659
G1 X105.39 Y101.64 E.0097
;WIDTH:0.4231
G1 X109.222 Y101.316 E.12157
;WIDTH:0.432578
G1 X109.824 Y101.252 E.01961
;WIDTH:0.460725
G1 X110.714 Y101.163 E.03107
G1 X112.411 Y100.663 E.06146
;WIDTH:0.419999
G1 X114.072 Y100.234 E.05379
G1 X114.995 Y100.062 E.02944
;WIDTH:0.420907
G1 X116.338 Y99.763 E.04324
;WIDTH:0.427522
G1 X118.65 Y99.397 E.07486
;WIDTH:0.438776
G1 X119.586 Y99.236 E.03126
;WIDTH:0.458316
G1 X120.493 Y99.085 E.03176
G1 X121.547 Y98.981 E.03658
;WIDTH:0.433555
G1 X123.077 Y98.841 E.0499
;WIDTH:0.420736
G1 X123.262 Y98.827 E.00583
;WIDTH:0.427468
G1 X124.665 Y98.762 E.04491
;WIDTH:0.433968
G1 X125.067 Y98.737 E.0131
;WIDTH:0.460874
G1 X126.022 Y98.683 E.03324
;WIDTH:0.487779
G1 X127 Y98.629 E.03623
G1 X128.528 Y98.664 E.05654
;WIDTH:0.449935
G1 X130.057 Y98.699 E.05176
;WIDTH:0.41209
G1 X130.093 Y98.7 E.00111
;WIDTH:0.436805
G1 X131.115 Y98.748 E.03351
;WIDTH:0.475851
G1 X132.303 Y98.81 E.04282
;WIDTH:0.514897
G1 X133.517 Y98.873 E.04771
G1 X135.306 Y99.112 E.07083
;WIDTH:0.47696
G1 X137.096 Y99.35 E.06517
;WIDTH:0.439406
G1 X137.142 Y99.357 E.00153
;WIDTH:0.474868
G1 X138.075 Y99.509 E.03395
;WIDTH:0.510329
G1 X139.008 Y99.661 E.03674
;WIDTH:0.54579
G1 X139.968 Y99.818 E.04067
G1 X141.95 Y100.308 E.08537
;WIDTH:0.512411
G1 X143.932 Y100.798 E.0797
;WIDTH:0.479687
G1 X143.981 Y100.811 E.00184
;WIDTH:0.524557
G1 X145.009 Y101.098 E.04274
;WIDTH:0.569426
G1 X146.037 Y101.384 E.04671
G1 X146.181 Y101.401 E.00635
;WIDTH:0.519617
G1 X146.324 Y101.417 E.0057
;WIDTH:0.469808
G1 X146.468 Y101.434 E.00515
;WIDTH:0.419999
G1 X150.622 Y102.907 E.13819
G1 X150.756 Y103.818 E.02887
;WIDTH:0.395364
G1 X150.732 Y104.214 E.01163
;WIDTH:0.419999
G1 X150.552 Y104.944 E.02357
G1 X150.481 Y105.471 E.01667
G1 X150.183 Y111.252 E.1815
G1 X150.168 Y111.27 E.00073
G1 X145.71 Y111.385 E.13982
G1 X144.303 Y111.372 E.04412
G1 X144.15 Y111.229 E.00657
G1 X144.15 Y104.575 E.20863
G1 X149.016 Y104.432 E.15264
G1 X149.826 Y104.334 E.02558
G1 X150.293 Y104.187 E.01535
G1 X150.391 Y104.089 E.00435
;WIDTH:0.395364
G1 X150.412 Y103.916 E.00511
M204 S1000
;WIPE_START
G1 F8640
G1 X150.259 Y103.682 E-.06456
G1 X149.772 Y103.37 E-.13355
G1 X149.296 Y103.152 E-.12089
G1 X147.328 Y102.468 E-.481
;WIPE_END
G1 Z.6 F720
G1 X146.352 Y101.762 F10800
G1 Z.2 F720
M73 Q0 S80
G1 E.8 F2100
M204 S800
;TYPE:Perimeter
;WIDTH:0.360008
G1 F1200
G1 X149.408 Y102.834 E.08539
;WIDTH:0.383384
G1 X149.896 Y103.03 E.01489
;WIDTH:0.427077
G1 X150.079 Y103.118 E.00649
;WIDTH:0.47077
G1 X150.262 Y103.206 E.00722
M204 S1000
;WIPE_START
G1 F8640
G1 X150.079 Y103.118 E-.04689
G1 X149.896 Y103.03 E-.04689
G1 X149.408 Y102.834 E-.12143
G1 X147.018 Y101.996 E-.58479
;WIPE_END
G1 Z.6 F720
G1 X149.929 Y105.559 F10800
G1 Z.2 F720
G1 E.8 F2100
M204 S800
;TYPE:Solid infill
;WIDTH:0.425096
G1 F1200
G1 X149.47 Y105.099 E.02065
G1 X148.981 Y105.151 E.01563
G1 X149.741 Y105.911 E.03416
G1 X149.714 Y106.425 E.01636
G1 X148.456 Y105.166 E.05656
G1 X147.931 Y105.182 E.01669
G1 X149.688 Y106.939 E.07896
G1 X149.662 Y107.453 E.01635
G1 X147.406 Y105.197 E.10139
G1 X146.88 Y105.212 E.01672
G1 X149.635 Y107.967 E.12381
G1 X149.609 Y108.481 E.01635
G1 X146.355 Y105.228 E.14622
G1 X145.83 Y105.243 E.01669
G1 X149.582 Y108.995 E.16862
G1 X149.556 Y109.509 E.01635
G1 X145.305 Y105.258 E.19104
G1 X144.867 Y105.271 E.01392
G1 X144.867 Y105.361 E.00286
G1 X149.529 Y110.023 E.20951
G1 X149.503 Y110.537 E.01635
G1 X144.867 Y105.901 E.20835
G1 X144.867 Y106.442 E.01719
G1 X149.009 Y110.583 E.18612
G1 X148.482 Y110.597 E.01675
G1 X144.867 Y106.982 E.16246
G1 X144.867 Y107.523 E.01719
G1 X147.955 Y110.61 E.13876
G1 X147.428 Y110.624 E.01675
G1 X144.867 Y108.063 E.11509
G1 X144.867 Y108.604 E.01719
G1 X146.901 Y110.637 E.09139
G1 X146.374 Y110.651 E.01675
G1 X144.867 Y109.144 E.06773
G1 X144.867 Y109.684 E.01716
G1 X145.847 Y110.664 E.04404
G1 X145.306 Y110.664 E.01719
G1 X144.697 Y110.055 E.02737
M204 S1000
; stop printing object Wallet_03.stl id:0 copy 0
M106 S84.15
;LAYER_CHANGE
;Z:0.5
;HEIGHT:0.3
;BEFORE_LAYER_CHANGE
G92 E0.0
;0.5


;WIPE_START
G1 F8640
G1 X145.306 Y110.664 E-.19887
G1 X145.847 Y110.664 E-.12492
G1 X144.867 Y109.684 E-.32001
G1 X144.867 Y109.144 E-.12469
G1 X144.963 Y109.24 E-.03151
;WIPE_END
G1 Z.6 F720
;AFTER_LAYER_CHANGE
;0.5
G1 X144.969 Y114.649 F10800
G1 Z.5 F720
G1 E.8 F2100
;TYPE:Skirt/Brim
;WIDTH:0.42
G1 F2700
G1 X103.96 Y114.69 E1.81895
G1 X99.241 Y114.645 E.20932
G1 X97.761 Y114.53 E.06584
G1 X97.279 Y114.405 E.02209
G1 X96.35 Y113.969 E.04552
G1 X95.581 Y113.263 E.0463
G1 X95.265 Y112.809 E.02453
G1 X94.841 Y111.492 E.06137
G1 X94.84 Y104.367 E.31603
G1 X94.932 Y103.708 E.02951
G1 X96.352 Y98.737 E.22931
G1 X96.869 Y97.78 E.04825
G1 X97.956 Y96.954 E.06055
G1 X98.664 Y96.806 E.03208
G1 X126.844 Y95.3 E1.2517
G1 X133.929 Y95.554 E.31446
G1 X140.737 Y96.547 E.30516
G1 X147.388 Y98.263 E.30466
G1 X153.113 Y100.418 E.27133
G1 X154.197 Y101.248 E.06056
G1 X154.647 Y102.628 E.06438
G1 X154.659 Y111.498 E.39343
G1 X154.235 Y112.809 E.06111
