; generated by PrusaSlicer 2.4.1+win64 on 2023-04-17 at 15:23:46 UTC


;
;
; 

; external perimeters extrusion width = 0.60mm
; perimeters extrusion width = 0.50mm
; infill extrusion width = 0.50mm
; solid infill extrusion width = 0.50mm
; top infill extrusion width = 0.45mm
; first layer extrusion width = 0.42mm

M73 P0 R14
M73 Q0 S14
M201 X1000 Y1000 Z200 E5000 ; sets maximum accelerations, mm/sec^2
M203 X200 Y200 Z12 E120 ; sets maximum feedrates, mm / sec
M204 P1250 R1250 T1250 ; sets acceleration (P, T) and retract acceleration (R), mm/sec^2
M205 X8.00 Y8.00 Z0.40 E4.50 ; sets the jerk limits, mm/sec
M205 S0 T0 ; sets the minimum extruding and travel feed rate, mm/sec
M107
;TYPE:Custom
M862.3 P "MK3S" ; printer model check
M862.1 P0.4 ; nozzle diameter check
M115 U3.11.0 ; tell printer latest fw version
G90 ; use absolute coordinates
M83 ; extruder relative mode
M104 S215 ; set extruder temp
M140 S60 ; set bed temp
M190 S60 ; wait for bed temp
M109 S215 ; wait for extruder temp
G28 W ; home all without mesh bed level
G80 ; mesh bed leveling

G1 Z0.2 F720
G1 Y-3 F1000 ; go outside print area
G92 E0
G1 X60 E9 F1000 ; intro line
G1 X100 E12.5 F1000 ; intro line

G92 E0
M221 S95

; Don't change E values below. Excessive value can damage the printer.

M907 E538 ; set extruder motor current
G21 ; set units to millimeters
G90 ; use absolute coordinates
M83 ; use relative distances for extrusion
M900 K0.05 ; Filament gcode LA 1.5
M900 K30 ; Filament gcode LA 1.0
M107
;LAYER_CHANGE
;Z:0.2
;HEIGHT:0.2
;BEFORE_LAYER_CHANGE
G92 E0.0
;0.2


G1 E-.8 F2100
G1 Z.4 F720
;AFTER_LAYER_CHANGE
;0.2
G1 X105.515 Y73.693 F10800
G1 Z.2 F720
M73 P0 R13
G1 E.8 F2100
M204 S800
;TYPE:Skirt/Brim
;WIDTH:0.42
G1 F1200
G1 X106.56 Y72.817 E.04278
G1 X107.5 Y72.623 E.03008
G1 X142.5 Y72.623 E1.0974
G1 X143.807 Y73.015 E.04278
M73 P1 R13
M73 Q1 S13
G1 X144.683 Y74.06 E.04278
G1 X144.877 Y75 E.03008
G1 X144.877 Y135 E1.88126
G1 X144.485 Y136.307 E.04278
G1 X143.44 Y137.183 E.04278
G1 X142.5 Y137.377 E.03008
G1 X107.5 Y137.377 E1.0974
G1 X106.193 Y136.985 E.04278
G1 X105.317 Y135.94 E.04278
G1 X105.123 Y135 E.03008
G1 X105.123 Y75 E1.88126
G1 X105.497 Y73.75 E.0409
M204 S1000
; printing object wetterstationsplatte.stl id:0 copy 0
;WIPE_START
M73 P2 R13
M73 Q2 S13
G1 F8640
G1 X106.56 Y72.817 E-.32671
G1 X107.5 Y72.623 E-.22155
G1 X108.417 Y72.623 E-.21174
;WIPE_END
G1 E-.04 F2100
G1 Z.6 F720
G1 X108.287 Y75.787 F10800
G1 Z.2 F720
G1 E.8 F2100
M204 S800
;TYPE:Perimeter
G1 F1200
G1 X141.713 Y75.787 E1.04804
G1 X141.713 Y134.213 E1.8319
G1 X108.287 Y134.213 E1.04804
G1 X108.287 Y75.847 E1.83002
M204 S1000
G1 X107.91 Y75.41 F10800
M204 S800
;TYPE:External perimeter
M73 P3 R13
M73 Q3 S13
G1 F1200
G1 X142.09 Y75.41 E1.07169
G1 X142.09 Y134.59 E1.85555
G1 X107.91 Y134.59 E1.07169
G1 X107.91 Y75.47 E1.85367
M204 S1000
G1 X108.286 Y75.547 F10800
;WIPE_START
M73 P4 R13
M73 Q4 S13
G1 F8640
G1 X111.201 Y75.464 E-.76
;WIPE_END
G1 E-.04 F2100
G1 Z.6 F720
G1 X140.835 Y75.9 F10800
G1 Z.2 F720
G1 E.8 F2100
M204 S800
;TYPE:Solid infill
;WIDTH:0.421179
G1 F1200
G1 X141.43 Y76.495 E.02647
G1 X141.43 Y77.03 E.01683
G1 X140.47 Y76.07 E.04272
G1 X139.935 Y76.07 E.01683
G1 X141.43 Y77.565 E.06651
G1 X141.43 Y78.1 E.01683
G1 X139.4 Y76.07 E.0903
G1 X138.865 Y76.07 E.01683
G1 X141.43 Y78.635 E.1141
G1 X141.43 Y79.17 E.01683
G1 X138.33 Y76.07 E.13789
G1 X137.795 Y76.07 E.01683
G1 X141.43 Y79.705 E.16169
G1 X141.43 Y80.24 E.01683
G1 X137.26 Y76.07 E.18548
G1 X136.725 Y76.07 E.01683
G1 X141.43 Y80.775 E.20928
G1 X141.43 Y81.31 E.01683
G1 X136.19 Y76.07 E.23307
G1 X135.655 Y76.07 E.01683
G1 X141.43 Y81.845 E.25686
G1 X141.43 Y82.38 E.01683
G1 X135.12 Y76.07 E.28066
G1 X134.585 Y76.07 E.01683
G1 X141.43 Y82.915 E.30445
G1 X141.43 Y83.449 E.01683
G1 X134.051 Y76.07 E.32825
G1 X133.516 Y76.07 E.01683
G1 X141.43 Y83.984 E.35204
G1 X141.43 Y84.519 E.01683
G1 X132.981 Y76.07 E.37584
G1 X132.446 Y76.07 E.01683
M73 P5 R13
M73 Q5 S13
G1 X141.43 Y85.054 E.39963
G1 X141.43 Y85.589 E.01683
G1 X131.911 Y76.07 E.42342
G1 X131.376 Y76.07 E.01683
G1 X141.43 Y86.124 E.44722
G1 X141.43 Y86.659 E.01683
G1 X130.841 Y76.07 E.47101
G1 X130.306 Y76.07 E.01683
G1 X141.43 Y87.194 E.49481
G1 X141.43 Y87.729 E.01683
G1 X129.771 Y76.07 E.5186
G1 X129.236 Y76.07 E.01683
G1 X141.43 Y88.264 E.5424
G1 X141.43 Y88.799 E.01683
G1 X128.701 Y76.07 E.56619
G1 X128.166 Y76.07 E.01683
G1 X141.43 Y89.334 E.58998
G1 X141.43 Y89.869 E.01683
G1 X127.631 Y76.07 E.61378
G1 X127.096 Y76.07 E.01683
M73 P6 R13
M73 Q6 S13
G1 X141.43 Y90.404 E.63757
G1 X141.43 Y90.939 E.01683
G1 X126.561 Y76.07 E.66137
G1 X126.026 Y76.07 E.01683
G1 X141.43 Y91.474 E.68516
G1 X141.43 Y92.009 E.01683
G1 X125.491 Y76.07 E.70896
G1 X124.957 Y76.07 E.01683
G1 X141.43 Y92.543 E.73275
G1 X141.43 Y93.078 E.01683
G1 X124.422 Y76.07 E.75654
G1 X123.887 Y76.07 E.01683
G1 X141.43 Y93.613 E.78034
G1 X141.43 Y94.148 E.01683
M73 Q7 S13
G1 X123.352 Y76.07 E.80413
M73 P7 R13
G1 X122.817 Y76.07 E.01683
G1 X141.43 Y94.683 E.82793
G1 X141.43 Y95.218 E.01683
G1 X122.282 Y76.07 E.85172
G1 X121.747 Y76.07 E.01683
G1 X141.43 Y95.753 E.87552
G1 X141.43 Y96.288 E.01683
G1 X121.212 Y76.07 E.89931
G1 X120.677 Y76.07 E.01683
G1 X141.43 Y96.823 E.9231
G1 X141.43 Y97.358 E.01683
M73 P8 R12
M73 Q8 S12
G1 X120.142 Y76.07 E.9469
G1 X119.607 Y76.07 E.01683
G1 X141.43 Y97.893 E.97069
G1 X141.43 Y98.428 E.01683
G1 X119.072 Y76.07 E.99449
G1 X118.537 Y76.07 E.01683
G1 X141.43 Y98.963 E1.01828
G1 X141.43 Y99.498 E.01683
G1 X118.002 Y76.07 E1.04208
G1 X117.467 Y76.07 E.01683
G1 X141.43 Y100.033 E1.06587
G1 X141.43 Y100.568 E.01683
M73 P9 R12
M73 Q9 S12
G1 X116.932 Y76.07 E1.08966
G1 X116.398 Y76.07 E.01683
G1 X141.43 Y101.102 E1.11346
G1 X141.43 Y101.637 E.01683
G1 X115.863 Y76.07 E1.13725
G1 X115.328 Y76.07 E.01683
G1 X141.43 Y102.172 E1.16105
G1 X141.43 Y102.707 E.01683
M73 P10 R12
M73 Q10 S12
G1 X114.793 Y76.07 E1.18484
G1 X114.258 Y76.07 E.01683
G1 X141.43 Y103.242 E1.20864
G1 X141.43 Y103.777 E.01683
G1 X113.723 Y76.07 E1.23243
G1 X113.188 Y76.07 E.01683
G1 X141.43 Y104.312 E1.25622
G1 X141.43 Y104.847 E.01683
G1 X112.653 Y76.07 E1.28002
G1 X112.118 Y76.07 E.01683
M73 P11 R12
M73 Q11 S12
G1 X141.43 Y105.382 E1.30381
G1 X141.43 Y105.917 E.01683
G1 X111.583 Y76.07 E1.32761
G1 X111.048 Y76.07 E.01683
G1 X141.43 Y106.452 E1.3514
G1 X141.43 Y106.987 E.01683
G1 X110.513 Y76.07 E1.3752
M73 Q12 S12
G1 X109.978 Y76.07 E.01683
M73 P12 R12
G1 X141.43 Y107.522 E1.39899
G1 X141.43 Y108.057 E.01683
G1 X109.443 Y76.07 E1.42278
G1 X108.908 Y76.07 E.01683
G1 X141.43 Y108.592 E1.44658
G1 X141.43 Y109.127 E.01683
M73 P13 R12
M73 Q13 S12
G1 X108.57 Y76.266 E1.46164
G1 X108.57 Y76.801 E.01683
G1 X141.43 Y109.661 E1.46164
G1 X141.43 Y110.196 E.01683
G1 X108.57 Y77.336 E1.46164
G1 X108.57 Y77.871 E.01683
G1 X141.43 Y110.731 E1.46164
G1 X141.43 Y111.266 E.01683
M73 P14 R12
M73 Q14 S12
G1 X108.57 Y78.406 E1.46164
G1 X108.57 Y78.941 E.01683
G1 X141.43 Y111.801 E1.46164
G1 X141.43 Y112.336 E.01683
G1 X108.57 Y79.476 E1.46164
G1 X108.57 Y80.011 E.01683
M73 P15 R11
M73 Q15 S12
G1 X141.43 Y112.871 E1.46164
G1 X141.43 Y113.406 E.01683
M73 Q15 S11
G1 X108.57 Y80.546 E1.46164
G1 X108.57 Y81.081 E.01683
G1 X141.43 Y113.941 E1.46164
G1 X141.43 Y114.476 E.01683
G1 X108.57 Y81.616 E1.46164
G1 X108.57 Y82.151 E.01683
M73 P16 R11
M73 Q16 S11
G1 X141.43 Y115.011 E1.46164
G1 X141.43 Y115.546 E.01683
G1 X108.57 Y82.686 E1.46164
G1 X108.57 Y83.221 E.01683
G1 X141.43 Y116.081 E1.46164
G1 X141.43 Y116.616 E.01683
G1 X108.57 Y83.755 E1.46164
G1 X108.57 Y84.29 E.01683
M73 P17 R11
M73 Q17 S11
G1 X141.43 Y117.151 E1.46164
G1 X141.43 Y117.686 E.01683
G1 X108.57 Y84.825 E1.46164
G1 X108.57 Y85.36 E.01683
G1 X141.43 Y118.221 E1.46164
G1 X141.43 Y118.755 E.01683
M73 P18 R11
M73 Q18 S11
G1 X108.57 Y85.895 E1.46164
G1 X108.57 Y86.43 E.01683
G1 X141.43 Y119.29 E1.46164
G1 X141.43 Y119.825 E.01683
G1 X108.57 Y86.965 E1.46164
G1 X108.57 Y87.5 E.01683
G1 X141.43 Y120.36 E1.46164
G1 X141.43 Y120.895 E.01683
M73 P19 R11
M73 Q19 S11
G1 X108.57 Y88.035 E1.46164
G1 X108.57 Y88.57 E.01683
G1 X141.43 Y121.43 E1.46164
G1 X141.43 Y121.965 E.01683
G1 X108.57 Y89.105 E1.46164
G1 X108.57 Y89.64 E.01683
M73 P20 R11
M73 Q20 S11
G1 X141.43 Y122.5 E1.46164
G1 X141.43 Y123.035 E.01683
G1 X108.57 Y90.175 E1.46164
G1 X108.57 Y90.71 E.01683
G1 X141.43 Y123.57 E1.46164
G1 X141.43 Y124.105 E.01683
G1 X108.57 Y91.245 E1.46164
G1 X108.57 Y91.78 E.01683
M73 P21 R11
M73 Q21 S11
G1 X141.43 Y124.64 E1.46164
G1 X141.43 Y125.175 E.01683
G1 X108.57 Y92.314 E1.46164
G1 X108.57 Y92.849 E.01683
G1 X141.43 Y125.71 E1.46164
G1 X141.43 Y126.245 E.01683
M73 Q22 S11
G1 X108.57 Y93.384 E1.46164
G1 X108.57 Y93.919 E.01683
M73 P22 R10
M73 Q22 S10
G1 X141.43 Y126.78 E1.46164
G1 X141.43 Y127.314 E.01683
G1 X108.57 Y94.454 E1.46164
G1 X108.57 Y94.989 E.01683
G1 X141.43 Y127.849 E1.46164
G1 X141.43 Y128.384 E.01683
M73 P23 R10
M73 Q23 S10
G1 X108.57 Y95.524 E1.46164
G1 X108.57 Y96.059 E.01683
G1 X141.43 Y128.919 E1.46164
G1 X141.43 Y129.454 E.01683
G1 X108.57 Y96.594 E1.46164
G1 X108.57 Y97.129 E.01683
G1 X141.43 Y129.989 E1.46164
G1 X141.43 Y130.524 E.01683
M73 P24 R10
M73 Q24 S10
G1 X108.57 Y97.664 E1.46164
G1 X108.57 Y98.199 E.01683
G1 X141.43 Y131.059 E1.46164
G1 X141.43 Y131.594 E.01683
G1 X108.57 Y98.734 E1.46164
G1 X108.57 Y99.269 E.01683
M73 P25 R10
M73 Q25 S10
G1 X141.43 Y132.129 E1.46164
G1 X141.43 Y132.664 E.01683
G1 X108.57 Y99.804 E1.46164
G1 X108.57 Y100.339 E.01683
G1 X141.43 Y133.199 E1.46164
G1 X141.43 Y133.734 E.01683
G1 X108.57 Y100.874 E1.46164
G1 X108.57 Y101.408 E.01683
M73 P26 R10
M73 Q26 S10
G1 X141.092 Y133.93 E1.44658
G1 X140.557 Y133.93 E.01683
G1 X108.57 Y101.943 E1.42278
G1 X108.57 Y102.478 E.01683
G1 X140.022 Y133.93 E1.39899
G1 X139.487 Y133.93 E.01683
M73 P27 R10
M73 Q27 S10
G1 X108.57 Y103.013 E1.37519
G1 X108.57 Y103.548 E.01683
G1 X138.952 Y133.93 E1.3514
G1 X138.417 Y133.93 E.01683
G1 X108.57 Y104.083 E1.3276
G1 X108.57 Y104.618 E.01683
G1 X137.882 Y133.93 E1.30381
G1 X137.347 Y133.93 E.01683
M73 P28 R10
M73 Q28 S10
G1 X108.57 Y105.153 E1.28002
G1 X108.57 Y105.688 E.01683
G1 X136.812 Y133.93 E1.25622
G1 X136.277 Y133.93 E.01683
G1 X108.57 Y106.223 E1.23243
G1 X108.57 Y106.758 E.01683
G1 X135.742 Y133.93 E1.20863
G1 X135.207 Y133.93 E.01683
G1 X108.57 Y107.293 E1.18484
G1 X108.57 Y107.828 E.01683
M73 P29 R9
M73 Q29 S10
G1 X134.672 Y133.93 E1.16104
G1 X134.137 Y133.93 E.01683
M73 Q29 S9
G1 X108.57 Y108.363 E1.13725
G1 X108.57 Y108.898 E.01683
G1 X133.602 Y133.93 E1.11346
G1 X133.067 Y133.93 E.01683
G1 X108.57 Y109.433 E1.08966
G1 X108.57 Y109.967 E.01683
M73 P30 R9
M73 Q30 S9
G1 X132.533 Y133.93 E1.06587
G1 X131.998 Y133.93 E.01683
G1 X108.57 Y110.502 E1.04207
G1 X108.57 Y111.037 E.01683
G1 X131.463 Y133.93 E1.01828
G1 X130.928 Y133.93 E.01683
G1 X108.57 Y111.572 E.99448
G1 X108.57 Y112.107 E.01683
G1 X130.393 Y133.93 E.97069
G1 X129.858 Y133.93 E.01683
M73 P31 R9
M73 Q31 S9
G1 X108.57 Y112.642 E.9469
G1 X108.57 Y113.177 E.01683
G1 X129.323 Y133.93 E.9231
G1 X128.788 Y133.93 E.01683
G1 X108.57 Y113.712 E.89931
G1 X108.57 Y114.247 E.01683
G1 X128.253 Y133.93 E.87551
G1 X127.718 Y133.93 E.01683
G1 X108.57 Y114.782 E.85172
G1 X108.57 Y115.317 E.01683
G1 X127.183 Y133.93 E.82792
G1 X126.648 Y133.93 E.01683
M73 P32 R9
M73 Q32 S9
G1 X108.57 Y115.852 E.80413
G1 X108.57 Y116.387 E.01683
G1 X126.113 Y133.93 E.78034
G1 X125.578 Y133.93 E.01683
G1 X108.57 Y116.922 E.75654
G1 X108.57 Y117.457 E.01683
G1 X125.043 Y133.93 E.73275
G1 X124.508 Y133.93 E.01683
G1 X108.57 Y117.992 E.70895
G1 X108.57 Y118.526 E.01683
G1 X123.974 Y133.93 E.68516
G1 X123.439 Y133.93 E.01683
G1 X108.57 Y119.061 E.66136
G1 X108.57 Y119.596 E.01683
M73 P33 R9
M73 Q33 S9
G1 X122.904 Y133.93 E.63757
G1 X122.369 Y133.93 E.01683
G1 X108.57 Y120.131 E.61378
G1 X108.57 Y120.666 E.01683
G1 X121.834 Y133.93 E.58998
G1 X121.299 Y133.93 E.01683
G1 X108.57 Y121.201 E.56619
G1 X108.57 Y121.736 E.01683
G1 X120.764 Y133.93 E.54239
G1 X120.229 Y133.93 E.01683
G1 X108.57 Y122.271 E.5186
G1 X108.57 Y122.806 E.01683
G1 X119.694 Y133.93 E.4948
G1 X119.159 Y133.93 E.01683
G1 X108.57 Y123.341 E.47101
G1 X108.57 Y123.876 E.01683
G1 X118.624 Y133.93 E.44722
G1 X118.089 Y133.93 E.01683
M73 P34 R9
M73 Q34 S9
G1 X108.57 Y124.411 E.42342
G1 X108.57 Y124.946 E.01683
G1 X117.554 Y133.93 E.39963
G1 X117.019 Y133.93 E.01683
G1 X108.57 Y125.481 E.37583
G1 X108.57 Y126.016 E.01683
G1 X116.484 Y133.93 E.35204
G1 X115.949 Y133.93 E.01683
G1 X108.57 Y126.551 E.32824
G1 X108.57 Y127.086 E.01683
G1 X115.414 Y133.93 E.30445
G1 X114.88 Y133.93 E.01683
G1 X108.57 Y127.62 E.28066
G1 X108.57 Y128.155 E.01683
G1 X114.345 Y133.93 E.25686
G1 X113.81 Y133.93 E.01683
G1 X108.57 Y128.69 E.23307
G1 X108.57 Y129.225 E.01683
G1 X113.275 Y133.93 E.20927
G1 X112.74 Y133.93 E.01683
G1 X108.57 Y129.76 E.18548
G1 X108.57 Y130.295 E.01683
G1 X112.205 Y133.93 E.16169
G1 X111.67 Y133.93 E.01683
G1 X108.57 Y130.83 E.13789
G1 X108.57 Y131.365 E.01683
G1 X111.135 Y133.93 E.1141
G1 X110.6 Y133.93 E.01683
G1 X108.57 Y131.9 E.0903
G1 X108.57 Y132.435 E.01683
G1 X110.065 Y133.93 E.06651
G1 X109.53 Y133.93 E.01683
G1 X108.57 Y132.97 E.04271
G1 X108.57 Y133.505 E.01683
G1 X109.165 Y134.1 E.02647
M204 S1000
; stop printing object wetterstationsplatte.stl id:0 copy 0
M106 S84.15
;LAYER_CHANGE
;Z:0.5
;HEIGHT:0.3
;BEFORE_LAYER_CHANGE
G92 E0.0
;0.5


;WIPE_START
G1 F8640
G1 X108.57 Y133.505 E-.1943
G1 X108.57 Y132.97 E-.12352
G1 X109.53 Y133.93 E-.31358
G1 X110.065 Y133.93 E-.12352
G1 X110.05 Y133.915 E-.00508
;WIPE_END
G1 E-.04 F2100
G1 Z.6 F720
;AFTER_LAYER_CHANGE
;0.5
M104 S210 ; set temperature
G1 X110.05 Y137.377 F10800
G1 Z.5 F720
G1 E.8 F2100
;TYPE:Skirt/Brim
;WIDTH:0.42
G1 F2700
G1 X107.5 Y137.377 E.11308
G1 X106.193 Y136.985 E.06052
G1 X105.317 Y135.94 E.06052
G1 X105.123 Y135 E.04256
G1 X105.123 Y75 E2.66129
G1 X105.515 Y73.693 E.06052
M73 P35 R9
M73 Q35 S9
G1 X106.56 Y72.817 E.06052
G1 X107.5 Y72.623 E.04256
G1 X142.5 Y72.623 E1.55242
G1 X143.807 Y73.015 E.06052
G1 X144.683 Y74.06 E.06052
G1 X144.877 Y75 E.04256
G1 X144.877 Y135 E2.66129
G1 X144.485 Y136.307 E.06052
G1 X143.44 Y137.183 E.06052
G1 X142.5 Y137.377 E.04256
G1 X110.11 Y137.377 E1.43667
; printing object wetterstationsplatte.stl id:0 copy 0
;WIPE_START
G1 F8640
G1 X107.5 Y137.377 E-.60255
G1 X106.847 Y137.181 E-.15745
;WIPE_END
G1 E-.04 F2100
G1 Z.9 F720
G1 X108.286 Y134.214 F10800
G1 Z.5 F720
G1 E.8 F2100
M204 S800
;TYPE:Perimeter
;WIDTH:0.5
G1 F3000
G1 X108.286 Y75.786 E3.1746
G1 X141.714 Y75.786 E1.81628
G1 X141.714 Y134.214 E3.1746
G1 X108.346 Y134.214 E1.81302
M204 S1000
G1 X107.8 Y134.7 F10800
M204 S800
;TYPE:External perimeter
;WIDTH:0.6
G1 F2100
G1 X107.8 Y75.3 E3.96824
G1 X142.2 Y75.3 E2.29811
M73 P36 R9
M73 Q36 S9
G1 X142.2 Y134.7 E3.96824
M73 P36 R8
G1 X107.86 Y134.7 E2.2941
M204 S1000
M73 Q36 S8
G1 X107.87 Y134.306 F10800
;WIPE_START
G1 F8640
G1 X107.857 Y131.409 E-.76
;WIPE_END
G1 E-.04 F2100
G1 Z.9 F720
G1 X141.584 Y133.201 F10800
G1 Z.5 F720
G1 E.8 F2100
;TYPE:Solid infill
;WIDTH:0.501171
G1 F4800
G1 X140.897 Y133.888 E.05293
G1 X140.279 Y133.888 E.03365
G1 X141.388 Y132.779 E.08542
G1 X141.388 Y132.161 E.03365
G1 X139.661 Y133.888 E.13301
G1 X139.044 Y133.888 E.03365
G1 X141.388 Y131.544 E.18061
G1 X141.388 Y130.926 E.03365
G1 X138.426 Y133.888 E.2282
G1 X137.808 Y133.888 E.03365
G1 X141.388 Y130.308 E.27579
G1 X141.388 Y129.69 E.03365
G1 X137.19 Y133.888 E.32338
G1 X136.573 Y133.888 E.03365
G1 X141.388 Y129.073 E.37097
G1 X141.388 Y128.455 E.03365
G1 X135.955 Y133.888 E.41856
G1 X135.337 Y133.888 E.03365
G1 X141.388 Y127.837 E.46616
G1 X141.388 Y127.22 E.03365
G1 X134.719 Y133.888 E.51375
G1 X134.102 Y133.888 E.03365
G1 X141.388 Y126.602 E.56134
G1 X141.388 Y125.984 E.03365
G1 X133.484 Y133.888 E.60893
G1 X132.866 Y133.888 E.03365
G1 X141.388 Y125.366 E.65652
G1 X141.388 Y124.749 E.03365
G1 X132.249 Y133.888 E.70411
M73 P37 R8
G1 X131.631 Y133.888 E.03365
M73 Q37 S8
G1 X141.388 Y124.131 E.75171
G1 X141.388 Y123.513 E.03365
G1 X131.013 Y133.888 E.7993
G1 X130.395 Y133.888 E.03365
G1 X141.388 Y122.896 E.84689
G1 X141.388 Y122.278 E.03365
