; generated by PrusaSlicer 2.4.1+win64 on 2023-04-28 at 13:22:06 UTC


;
;
; 

; external perimeters extrusion width = 0.60mm
; perimeters extrusion width = 0.50mm
; infill extrusion width = 0.50mm
; solid infill extrusion width = 0.50mm
; top infill extrusion width = 0.45mm
; first layer extrusion width = 0.42mm

M73 P0 R15
M73 Q0 S16
M201 X1000 Y1000 Z200 E5000 ; sets maximum accelerations, mm/sec^2
M203 X200 Y200 Z12 E120 ; sets maximum feedrates, mm / sec
M204 P1250 R1250 T1250 ; sets acceleration (P, T) and retract acceleration (R), mm/sec^2
M205 X8.00 Y8.00 Z0.40 E4.50 ; sets the jerk limits, mm/sec
M205 S0 T0 ; sets the minimum extruding and travel feed rate, mm/sec
M107
;TYPE:Custom
M862.3 P "MK3S" ; printer model check
M862.1 P0.4 ; nozzle diameter check
M115 U3.11.0 ; tell printer latest fw version
G90 ; use absolute coordinates
M83 ; extruder relative mode
M104 S215 ; set extruder temp
M140 S60 ; set bed temp
M190 S60 ; wait for bed temp
M109 S215 ; wait for extruder temp
G28 W ; home all without mesh bed level
G80 ; mesh bed leveling

G1 Z0.2 F720
G1 Y-3 F1000 ; go outside print area
G92 E0
G1 X60 E9 F1000 ; intro line
G1 X100 E12.5 F1000 ; intro line

G92 E0
M221 S95

; Don't change E values below. Excessive value can damage the printer.

M907 E538 ; set extruder motor current
G21 ; set units to millimeters
G90 ; use absolute coordinates
M83 ; use relative distances for extrusion
M900 K0.05 ; Filament gcode LA 1.5
M900 K30 ; Filament gcode LA 1.0
M107
;LAYER_CHANGE
;Z:0.2
;HEIGHT:0.2
;BEFORE_LAYER_CHANGE
G92 E0.0
;0.2


M73 Q0 S15
G1 E-.8 F2100
G1 Z.4 F720
;AFTER_LAYER_CHANGE
;0.2
G1 X104.622 Y83.841 F10800
G1 Z.2 F720
G1 E.8 F2100
M204 S800
;TYPE:Skirt/Brim
;WIDTH:0.42
G1 F1200
G1 X105.658 Y82.57 E.05141
G1 X106.188 Y82.09 E.02241
G1 X107.78 Y81.084 E.05905
G1 X116.985 Y77.213 E.3131
G1 X117.585 Y77.052 E.01946
G1 X120.587 Y76.657 E.09495
G1 X121.311 Y76.643 E.02271
G1 X124.919 Y77.175 E.11433
G1 X145.811 Y84.765 E.69695
G1 X146.905 Y85.58 E.04278
M73 Q1 S15
G1 X147.376 Y86.999 E.0469
G1 X147.376 Y123.001 E1.1288
G1 X146.984 Y124.308 E.04278
M73 P1 R15
G1 X145.811 Y125.235 E.0469
G1 X124.919 Y132.825 E.69695
G1 X121.311 Y133.357 E.11433
G1 X120.691 Y133.357 E.01946
G1 X117.585 Y132.948 E.09823
G1 X116.985 Y132.787 E.01946
G1 X107.394 Y128.709 E.32678
G1 X106.188 Y127.91 E.04536
G1 X105.658 Y127.43 E.02241
G1 X104.321 Y125.684 E.06895
G1 X103.527 Y124.027 E.05761
G1 X102.87 Y121.667 E.07681
G1 X102.624 Y119 E.08399
G1 X102.624 Y91 E.87792
G1 X102.87 Y88.333 E.08399
G1 X103.527 Y85.973 E.07681
G1 X104.321 Y84.316 E.05761
G1 X104.59 Y83.892 E.01574
M204 S1000
; printing object led5mm_v1_t2.stl id:0 copy 0
;WIPE_START
G1 F8640
G1 X105.658 Y82.57 E-.39238
G1 X106.188 Y82.09 E-.16502
G1 X106.93 Y81.622 E-.2026
;WIPE_END
G1 E-.04 F2100
G1 Z.6 F720
G1 X108.001 Y115.15 F10800
G1 Z.2 F720
G1 E.8 F2100
M204 S800
;TYPE:Perimeter
G1 F1200
G1 X108.743 Y115.445 E.02503
G1 X109.181 Y115.988 E.02189
G1 X109.457 Y116.621 E.02163
G1 X109.643 Y117.347 E.02352
G1 X109.754 Y118.151 E.02545
G1 X109.792 Y119 E.02664
G1 X109.754 Y119.849 E.02664
G1 X109.643 Y120.653 E.02545
G1 X109.457 Y121.379 E.02352
G1 X109.181 Y122.012 E.02163
G1 X108.743 Y122.555 E.02189
G1 X108.001 Y122.85 E.02503
G1 X107.259 Y122.555 E.02503
G1 X106.821 Y122.012 E.02189
G1 X106.545 Y121.379 E.02163
G1 X106.359 Y120.653 E.02352
G1 X106.248 Y119.849 E.02545
G1 X106.21 Y119 E.02664
G1 X106.248 Y118.151 E.02664
G1 X106.359 Y117.347 E.02545
G1 X106.545 Y116.621 E.02352
G1 X106.821 Y115.988 E.02163
G1 X107.259 Y115.445 E.02189
G1 X107.945 Y115.172 E.02315
M204 S1000
G1 X108.001 Y115.556 F10800
M204 S800
;TYPE:External perimeter
G1 F1200
G1 X108.512 Y115.759 E.01723
G1 X108.856 Y116.186 E.01719
G1 X109.099 Y116.743 E.01908
G1 X109.272 Y117.42 E.02189
G1 X109.378 Y118.186 E.02424
G1 X109.414 Y119 E.02556
G1 X109.378 Y119.814 E.02556
G1 X109.272 Y120.58 E.02424
G1 X109.099 Y121.257 E.02189
G1 X108.856 Y121.814 E.01908
G1 X108.512 Y122.241 E.01719
G1 X108.001 Y122.444 E.01723
G1 X107.49 Y122.241 E.01723
G1 X107.146 Y121.814 E.01719
G1 X106.903 Y121.257 E.01908
G1 X106.73 Y120.58 E.02189
G1 X106.624 Y119.814 E.02424
G1 X106.588 Y119 E.02556
G1 X106.624 Y118.186 E.02556
G1 X106.73 Y117.42 E.02424
G1 X106.903 Y116.743 E.02189
G1 X107.146 Y116.186 E.01908
G1 X107.49 Y115.759 E.01719
G1 X107.945 Y115.578 E.01535
M204 S1000
G1 X108.215 Y115.218 F10800
;WIPE_START
G1 F8640
G1 X108.512 Y115.759 E-.13726
G1 X108.856 Y116.186 E-.1266
G1 X109.099 Y116.743 E-.14053
G1 X109.272 Y117.42 E-.16123
G1 X109.378 Y118.186 E-.17849
G1 X109.381 Y118.254 E-.01589
;WIPE_END
G1 E-.04 F2100
G1 Z.6 F720
G1 X111.896 Y125.385 F10800
G1 Z.2 F720
G1 E.8 F2100
M204 S800
;TYPE:Perimeter
G1 F1200
G1 X110.986 Y125.988 E.03425
G1 X110.001 Y126.196 E.03155
G1 X109.016 Y125.988 E.03155
G1 X108.035 Y125.338 E.0369
M73 Q2 S15
G1 X107.134 Y124.232 E.04472
G1 X106.414 Y122.729 E.05228
G1 X105.95 Y120.939 E.05797
G1 X105.791 Y119 E.061
M73 P2 R15
G1 X105.95 Y117.061 E.061
G1 X106.414 Y115.271 E.05797
G1 X107.134 Y113.768 E.05228
G1 X108.035 Y112.662 E.04472
G1 X109.016 Y112.012 E.0369
G1 X110.001 Y111.804 E.03155
G1 X110.986 Y112.012 E.03155
G1 X111.896 Y112.615 E.03425
G1 X113.077 Y111.076 E.06083
G1 X115.398 Y109.295 E.09172
G1 X118.101 Y108.176 E.09172
G1 X121.001 Y107.794 E.09173
G1 X123.901 Y108.176 E.09173
G1 X126.604 Y109.295 E.09172
G1 X127.53 Y110.006 E.03659
G1 X144.212 Y115.567 E.55135
G1 X144.212 Y122.433 E.2153
G1 X127.53 Y127.994 E.55135
G1 X126.604 Y128.705 E.03659
G1 X123.901 Y129.824 E.09172
G1 X121.001 Y130.206 E.09173
G1 X118.101 Y129.824 E.09173
G1 X115.398 Y128.705 E.09172
G1 X113.077 Y126.924 E.09172
G1 X111.933 Y125.432 E.05895
M204 S1000
G1 X111.811 Y125.893 F10800
M204 S800
;TYPE:External perimeter
G1 F1200
G1 X111.134 Y126.342 E.02548
G1 X110.001 Y126.581 E.0363
G1 X108.868 Y126.342 E.0363
G1 X107.779 Y125.621 E.04095
G1 X106.814 Y124.436 E.04793
G1 X106.058 Y122.859 E.05483
G1 X105.577 Y121.002 E.06013
G1 X105.412 Y119 E.06299
G1 X105.577 Y116.998 E.06299
G1 X106.058 Y115.141 E.06013
G1 X106.814 Y113.564 E.05483
G1 X107.779 Y112.379 E.04793
G1 X108.868 Y111.658 E.04095
G1 X110.001 Y111.419 E.0363
G1 X111.134 Y111.658 E.0363
G1 X111.811 Y112.107 E.02548
G1 X112.808 Y110.807 E.05136
G1 X115.208 Y108.966 E.09483
G1 X118.002 Y107.808 E.09483
G1 X121.001 Y107.414 E.09484
G1 X124 Y107.808 E.09484
G1 X126.794 Y108.966 E.09483
G1 X127.709 Y109.668 E.03616
G1 X144.589 Y115.295 E.55789
G1 X144.589 Y122.705 E.23235
G1 X127.709 Y128.332 E.55789
G1 X126.794 Y129.034 E.03616
G1 X124 Y130.192 E.09483
G1 X121.001 Y130.586 E.09484
G1 X118.002 Y130.192 E.09484
G1 X115.208 Y129.034 E.09483
M73 Q3 S15
G1 X112.808 Y127.193 E.09483
G1 X111.848 Y125.941 E.04948
M204 S1000
M73 P3 R15
G1 X111.564 Y125.578 F10800
;WIPE_START
G1 F8640
G1 X111.134 Y126.342 E-.1891
G1 X110.001 Y126.581 E-.26732
G1 X108.868 Y126.342 E-.26732
G1 X108.737 Y126.255 E-.03625
;WIPE_END
G1 E-.04 F2100
G1 Z.6 F720
G1 X106.654 Y122.363 F10800
G1 Z.2 F720
G1 E.8 F2100
M204 S800
;TYPE:Gap fill
;WIDTH:0.255613
G1 F1200
G1 X106.564 Y122.151 E.00406
M204 S1000
M204 S800
;WIDTH:0.247412
G1 X106.485 Y121.92 E.00415
M204 S1000
M204 S800
;WIDTH:0.208967
G1 X106.405 Y121.69 E.00337
M204 S1000
M204 S800
;WIDTH:0.170523
G1 X106.325 Y121.459 E.00259
M204 S1000
M204 S800
;WIDTH:0.132079
G1 X106.323 Y121.452 E.00005
M204 S1000
M204 S800
;WIDTH:0.133439
G1 X106.181 Y120.9 E.00429
M204 S1000
M204 S800
;WIDTH:0.133439
G1 X106.147 Y120.696 E.00156
M204 S1000
M204 S800
;WIDTH:0.0986806
G1 X106.147 Y120.693 E.00001
M204 S1000
M204 S800
;WIDTH:0.098329
G1 X106.134 Y120.578 E.00053
M204 S1000
;WIPE_START
G1 F8640
G1 X106.147 Y120.693 E-.02672
;WIPE_END
G1 E-.77328 F2100
G1 Z.6 F720
G1 X106.134 Y117.422 F10800
G1 Z.2 F720
G1 E.8 F2100
M204 S800
;WIDTH:0.0983296
G1 F1200
G1 X106.147 Y117.307 E.00053
M204 S1000
M204 S800
;WIDTH:0.0986815
G1 X106.147 Y117.304 E.00001
M204 S1000
M204 S800
;WIDTH:0.133439
G1 X106.181 Y117.1 E.00156
M204 S1000
M204 S800
;WIDTH:0.133437
G1 X106.323 Y116.548 E.00429
M204 S1000
M204 S800
;WIDTH:0.132079
G1 X106.325 Y116.541 E.00005
M204 S1000
M204 S800
;WIDTH:0.170521
G1 X106.405 Y116.31 E.00259
M204 S1000
M204 S800
;WIDTH:0.208965
G1 X106.485 Y116.08 E.00337
M204 S1000
M204 S800
;WIDTH:0.247408
G1 X106.564 Y115.849 E.00415
M204 S1000
M204 S800
;WIDTH:0.25561
G1 X106.654 Y115.637 E.00406
M204 S1000
;WIPE_START
G1 F8640
G1 X106.564 Y115.849 E-.05301
;WIPE_END
G1 E-.74699 F2100
G1 Z.6 F720
G1 X144.099 Y116.421 F10800
G1 Z.2 F720
G1 E.8 F2100
M204 S800
;TYPE:Solid infill
;WIDTH:0.422685
G1 F1200
G1 X143.207 Y115.53 E.03981
G1 X142.402 Y115.261 E.02682
G1 X143.929 Y116.789 E.06821
G1 X143.929 Y117.326 E.01696
G1 X141.596 Y114.993 E.10419
G1 X140.79 Y114.724 E.02682
G1 X143.929 Y117.863 E.14017
G1 X143.929 Y118.4 E.01696
G1 X139.985 Y114.456 E.17614
G1 X139.179 Y114.187 E.02682
G1 X143.929 Y118.937 E.21212
G1 X143.929 Y119.474 E.01696
G1 X138.374 Y113.919 E.24809
G1 X137.568 Y113.65 E.02682
G1 X143.929 Y120.011 E.28407
G1 X143.929 Y120.548 E.01696
G1 X136.762 Y113.382 E.32005
G1 X135.957 Y113.113 E.02682
G1 X143.929 Y121.085 E.35602
G1 X143.929 Y121.622 E.01696
G1 X135.151 Y112.844 E.392
G1 X134.346 Y112.576 E.02682
G1 X143.929 Y122.159 E.42797
G1 X143.929 Y122.23 E.00221
G1 X143.579 Y122.346 E.01166
G1 X133.54 Y112.307 E.44831
G1 X132.734 Y112.039 E.02682
G1 X143.176 Y122.481 E.4663
G1 X142.773 Y122.615 E.01341
G1 X131.929 Y111.77 E.48429
G1 X131.123 Y111.502 E.02682
G1 X142.371 Y122.749 E.50227
G1 X141.968 Y122.883 E.01341
M73 P4 R15
M73 Q4 S15
G1 X130.318 Y111.233 E.52026
G1 X129.512 Y110.965 E.02682
G1 X141.565 Y123.018 E.53825
G1 X141.162 Y123.152 E.01341
G1 X128.706 Y110.696 E.55624
G1 X127.901 Y110.428 E.02682
G1 X140.759 Y123.286 E.57423
G1 X140.356 Y123.42 E.01341
G1 X126.535 Y109.599 E.61722
G1 X126.461 Y109.542 E.00294
G1 X125.574 Y109.175 E.03034
G1 X139.954 Y123.555 E.64217
G1 X139.551 Y123.689 E.01341
G1 X124.657 Y108.795 E.66513
G1 X123.828 Y108.451 E.02834
G1 X123.768 Y108.444 E.00189
G1 X139.148 Y123.823 E.68682
G1 X138.745 Y123.957 E.01341
G1 X123.15 Y108.362 E.69645
G1 X122.531 Y108.281 E.0197
M73 Q5 S15
G1 X138.342 Y124.092 E.70609
M73 P5 R15
G1 X137.94 Y124.226 E.01341
G1 X121.913 Y108.199 E.71572
G1 X121.294 Y108.118 E.0197
G1 X137.537 Y124.36 E.72535
G1 X137.134 Y124.495 E.01341
G1 X120.751 Y108.112 E.73161
G1 X120.277 Y108.174 E.01512
G1 X136.731 Y124.629 E.73481
G1 X136.328 Y124.763 E.01341
G1 X119.802 Y108.237 E.73802
G1 X119.328 Y108.299 E.01512
M73 P5 R14
G1 X135.926 Y124.897 E.74122
G1 X135.523 Y125.032 E.01341
G1 X118.853 Y108.362 E.74443
G1 X118.379 Y108.424 E.01512
M73 Q6 S15
G1 X135.12 Y125.166 E.74763
M73 P6 R14
G1 X134.717 Y125.3 E.01341
G1 X117.958 Y108.541 E.74842
G1 X117.578 Y108.698 E.01298
G1 X134.314 Y125.434 E.74739
G1 X133.912 Y125.569 E.01341
M73 Q6 S14
G1 X117.199 Y108.856 E.74636
G1 X116.819 Y109.013 E.01298
G1 X133.509 Y125.703 E.74534
G1 X133.106 Y125.837 E.01341
G1 X116.439 Y109.17 E.74431
G1 X116.059 Y109.328 E.01298
G1 X132.703 Y125.972 E.74328
G1 X132.3 Y126.106 E.01341
G1 X115.68 Y109.485 E.74225
G1 X115.541 Y109.542 E.00475
M73 P7 R14
M73 Q7 S14
G1 X115.348 Y109.69 E.00767
G1 X131.898 Y126.24 E.73907
G1 X131.495 Y126.374 E.01341
G1 X115.044 Y109.924 E.73465
G1 X114.74 Y110.157 E.0121
G1 X131.092 Y126.509 E.73023
G1 X130.689 Y126.643 E.01341
G1 X114.436 Y110.39 E.72581
G1 X114.132 Y110.623 E.0121
G1 X130.286 Y126.777 E.7214
G1 X129.884 Y126.911 E.01341
G1 X113.829 Y110.856 E.71698
G1 X113.525 Y111.09 E.0121
G1 X129.481 Y127.046 E.71256
G1 X129.078 Y127.18 E.01341
G1 X113.234 Y111.336 E.70754
G1 X113.001 Y111.64 E.0121
M73 P8 R14
M73 Q8 S14
G1 X128.675 Y127.314 E.69996
G1 X128.272 Y127.448 E.01341
G1 X112.768 Y111.944 E.69239
G1 X112.535 Y112.248 E.0121
G1 X127.87 Y127.583 E.68482
G1 X127.467 Y127.717 E.01341
G1 X112.302 Y112.552 E.67724
G1 X112.068 Y112.856 E.0121
G1 X127.145 Y127.933 E.6733
G1 X126.842 Y128.166 E.0121
G1 X111.109 Y112.433 E.70259
G1 X110.874 Y112.278 E.00887
G1 X110.294 Y112.155 E.01873
G1 X126.538 Y128.399 E.72541
G1 X126.461 Y128.458 E.00304
G1 X126.177 Y128.575 E.00972
G1 X109.748 Y112.147 E.73366
G1 X109.305 Y112.24 E.01431
G1 X125.797 Y128.733 E.73651
G1 X125.417 Y128.89 E.01298
M73 P9 R14
M73 Q9 S14
G1 X108.934 Y112.406 E.73613
G1 X108.611 Y112.62 E.01224
G1 X125.038 Y129.047 E.73359
G1 X124.658 Y129.205 E.01298
G1 X108.288 Y112.834 E.73106
G1 X108.228 Y112.874 E.00228
G1 X108.031 Y113.115 E.00981
G1 X124.278 Y129.362 E.72555
G1 X123.899 Y129.519 E.01298
G1 X107.79 Y113.411 E.71937
G1 X107.549 Y113.707 E.01205
G1 X123.442 Y129.6 E.70973
G1 X122.967 Y129.662 E.01512
G1 X109.641 Y116.336 E.59509
G1 X109.425 Y115.84 E.01709
G1 X108.916 Y115.21 E.02559
G1 X108.249 Y114.944 E.02266
G1 X107.326 Y114.021 E.04123
G1 X107.152 Y114.384 E.01271
G1 X107.724 Y114.956 E.02552
G1 X107.34 Y115.109 E.01306
G1 X106.978 Y114.747 E.01613
G1 X106.804 Y115.111 E.01271
G1 X107.125 Y115.431 E.01432
M204 S1000
;WIPE_START
G1 F8640
G1 X106.804 Y115.111 E-.10469
G1 X106.978 Y114.747 E-.09297
G1 X107.34 Y115.109 E-.11795
G1 X107.724 Y114.956 E-.09548
G1 X107.152 Y114.384 E-.18661
G1 X107.326 Y114.021 E-.09297
G1 X107.539 Y114.234 E-.06933
;WIPE_END
G1 E-.04 F2100
G1 Z.6 F720
G1 X109.637 Y116.869 F10800
G1 Z.2 F720
M73 P10 R14
G1 E.8 F2100
M204 S800
M73 Q10 S14
G1 F1200
G1 X122.492 Y129.725 E.57409
G1 X122.018 Y129.787 E.01512
G1 X109.984 Y117.753 E.5374
G1 X110.036 Y118.126 E.01187
G1 X110.046 Y118.352 E.00716
G1 X121.543 Y129.849 E.51345
G1 X121.069 Y129.912 E.01512
G1 X110.071 Y118.914 E.49113
G1 X110.055 Y119.436 E.01647
G1 X120.471 Y129.851 E.46513
G1 X119.852 Y129.77 E.0197
G1 X110.026 Y119.943 E.43881
G1 X109.961 Y120.415 E.01504
G1 X119.234 Y129.688 E.4141
G1 X118.615 Y129.607 E.0197
G1 X109.879 Y120.87 E.39014
G1 X109.77 Y121.298 E.01394
G1 X117.911 Y129.44 E.36358
G1 X116.994 Y129.06 E.03134
G1 X109.628 Y121.694 E.32894
G1 X109.465 Y122.068 E.01288
G1 X116.077 Y128.68 E.29527
G1 X115.541 Y128.458 E.01834
G1 X114.582 Y127.722 E.03814
G1 X109.244 Y122.384 E.23839
G1 X109.004 Y122.681 E.01206
G1 X111.579 Y125.256 E.11497
G1 X111.256 Y125.47 E.01224
G1 X108.673 Y122.887 E.11533
G1 X108.289 Y123.04 E.01306
G1 X110.933 Y125.684 E.11807
G1 X110.874 Y125.722 E.00221
G1 X110.511 Y125.799 E.01173
G1 X107.777 Y123.065 E.12207
G1 X107.086 Y122.79 E.02351
M73 P11 R14
G1 X106.903 Y122.564 E.00917
G1 X106.788 Y122.613 E.00396
G1 X110.067 Y125.893 E.14646
G1 X110.001 Y125.907 E.00214
M73 Q11 S14
G1 X109.422 Y125.784 E.01868
G1 X106.698 Y123.06 E.12166
M204 S1000
;WIPE_START
G1 F8640
G1 X109.025 Y125.388 E-.76
;WIPE_END
G1 E-.04 F2100
G1 Z.6 F720
G1 X126.791 Y87.712 F10800
G1 Z.2 F720
G1 E.8 F2100
M204 S800
;TYPE:Perimeter
;WIDTH:0.42
G1 F1200
G1 X126.791 Y89.783 E.06494
G1 X121.479 Y89.783 E.16657
G1 X121.214 Y89.145 E.02167
G1 X120.625 Y88.375 E.03038
G1 X119.855 Y87.787 E.03037
G1 X118.961 Y87.416 E.03037
G1 X118 Y87.29 E.03038
G1 X117.04 Y87.416 E.03035
G1 X116.146 Y87.787 E.03037
G1 X115.376 Y88.375 E.03037
G1 X114.788 Y89.145 E.03037
G1 X114.417 Y90.039 E.03037
G1 X114.291 Y91 E.03038
G1 X114.417 Y91.961 E.03038
G1 X114.788 Y92.855 E.03037
G1 X115.376 Y93.625 E.03037
G1 X116.146 Y94.213 E.03037
G1 X117.041 Y94.584 E.03038
G1 X118 Y94.711 E.03034
G1 X118.96 Y94.584 E.03037
G1 X119.855 Y94.213 E.03038
G1 X120.625 Y93.625 E.03037
G1 X121.214 Y92.855 E.03038
G1 X121.479 Y92.217 E.02167
G1 X126.791 Y92.217 E.16657
G1 X126.791 Y94.288 E.06494
G1 X122.721 Y94.288 E.12763
G1 X122.099 Y95.099 E.03204
G1 X120.898 Y96.02 E.04746
G1 X119.5 Y96.599 E.04742
G1 X118 Y96.796 E.04745
G1 X116.501 Y96.599 E.04741
G1 X115.102 Y96.02 E.04746
G1 X113.901 Y95.099 E.04744
G1 X112.981 Y93.898 E.04745
G1 X112.402 Y92.501 E.04741
G1 X112.204 Y91 E.04746
G1 X112.402 Y89.499 E.04746
G1 X112.981 Y88.102 E.04741
G1 X113.901 Y86.901 E.04745
G1 X115.102 Y85.98 E.04744
G1 X116.501 Y85.401 E.04746
G1 X118 Y85.204 E.04741
G1 X119.5 Y85.401 E.04745
G1 X120.898 Y85.98 E.04742
G1 X122.099 Y86.901 E.04746
G1 X122.721 Y87.712 E.03204
G1 X126.731 Y87.712 E.12574
M204 S1000
G1 X126.414 Y88.089 F10800
