; generated by PrusaSlicer 2.4.1+win64 on 2023-05-19 at 13:21:34 UTC


;
;
; 

; external perimeters extrusion width = 0.60mm
; perimeters extrusion width = 0.50mm
; infill extrusion width = 0.50mm
; solid infill extrusion width = 0.50mm
; top infill extrusion width = 0.45mm
; first layer extrusion width = 0.42mm

M73 P0 R134
M73 Q0 S135
M201 X1000 Y1000 Z200 E5000 ; sets maximum accelerations, mm/sec^2
M203 X200 Y200 Z12 E120 ; sets maximum feedrates, mm / sec
M204 P1250 R1250 T1250 ; sets acceleration (P, T) and retract acceleration (R), mm/sec^2
M205 X8.00 Y8.00 Z0.40 E4.50 ; sets the jerk limits, mm/sec
M205 S0 T0 ; sets the minimum extruding and travel feed rate, mm/sec
M107
;TYPE:Custom
M862.3 P "MK3S" ; printer model check
M862.1 P0.4 ; nozzle diameter check
M115 U3.11.0 ; tell printer latest fw version
G90 ; use absolute coordinates
M83 ; extruder relative mode
M104 S215 ; set extruder temp
M140 S60 ; set bed temp
M190 S60 ; wait for bed temp
M109 S215 ; wait for extruder temp
G28 W ; home all without mesh bed level
G80 ; mesh bed leveling

G1 Z0.2 F720
G1 Y-3 F1000 ; go outside print area
G92 E0
G1 X60 E9 F1000 ; intro line
G1 X100 E12.5 F1000 ; intro line

G92 E0
M221 S95

; Don't change E values below. Excessive value can damage the printer.

M907 E538 ; set extruder motor current
G21 ; set units to millimeters
G90 ; use absolute coordinates
M83 ; use relative distances for extrusion
M900 K0.05 ; Filament gcode LA 1.5
M900 K30 ; Filament gcode LA 1.0
M107
;LAYER_CHANGE
;Z:0.2
;HEIGHT:0.2
;BEFORE_LAYER_CHANGE
G92 E0.0
;0.2


G1 E-.8 F2100
M73 Q0 S134
G1 Z.4 F720
;AFTER_LAYER_CHANGE
;0.2
G1 X102.407 Y69.081 F10800
G1 Z.2 F720
G1 E.8 F2100
M204 S800
;TYPE:Skirt/Brim
;WIDTH:0.42
G1 F1200
G1 X102.828 Y68.456 E.02362
G1 X103.335 Y67.912 E.02331
G1 X108.266 Y64.059 E.19621
G1 X108.917 Y63.699 E.02332
G1 X114.797 Y61.559 E.19619
G1 X115.527 Y61.417 E.02332
G1 X121.78 Y61.199 E.19618
G1 X122.518 Y61.29 E.02332
G1 X128.533 Y63.015 E.1962
G1 X129.207 Y63.329 E.02331
G1 X134.395 Y66.828 E.1962
G1 X134.939 Y67.335 E.02333
G1 X138.791 Y72.266 E.19619
G1 X139.151 Y72.917 E.02332
G1 X141.376 Y79.087 E.20566
G1 X152.01 Y126.267 E1.51641
G1 X152.773 Y131.054 E.15199
G1 X152.773 Y131.797 E.02331
G1 X152.039 Y136.432 E.14714
G1 X151.809 Y137.14 E.02332
G1 X149.678 Y141.322 E.14717
G1 X149.241 Y141.923 E.02332
G1 X145.923 Y145.241 E.14713
G1 X145.322 Y145.678 E.02332
G1 X141.14 Y147.809 E.14717
G1 X140.432 Y148.039 E.02332
G1 X135.797 Y148.773 E.14714
G1 X135.054 Y148.773 E.02331
G1 X130.418 Y148.039 E.14717
G1 X129.71 Y147.809 E.02333
G1 X125.529 Y145.678 E.14714
G1 X124.928 Y145.242 E.0233
G1 X121.609 Y141.924 E.14715
G1 X121.171 Y141.321 E.02334
G1 X118.99 Y137.032 E.15088
G1 X99.763 Y94.093 E1.47513
G1 X97.559 Y88.054 E.20155
G1 X97.417 Y87.324 E.02332
G1 X97.199 Y81.07 E.19621
G1 X97.29 Y80.332 E.02332
G1 X99.015 Y74.317 E.1962
G1 X99.329 Y73.643 E.02332
G1 X102.373 Y69.13 E.17068
M204 S1000
; printing object StabTaschenlampe Michael.stl id:0 copy 0
;WIPE_START
G1 F8640
G1 X102.828 Y68.456 E-.18777
G1 X103.335 Y67.912 E-.17167
G1 X104.702 Y66.844 E-.40056
;WIPE_END
G1 E-.04 F2100
G1 Z.6 F720
G1 X127.077 Y119.934 F10800
G1 Z.2 F720
G1 E.8 F2100
M204 S800
;TYPE:Perimeter
G1 F1200
G1 X131.036 Y117.917 E.13931
G1 X135.425 Y117.222 E.13935
G1 X139.814 Y117.917 E.13932
G1 X143.774 Y119.934 E.13933
G1 X146.916 Y123.077 E.13933
G1 X148.934 Y127.036 E.13932
G1 X149.629 Y131.425 E.13935
G1 X148.934 Y135.814 E.13932
G1 X146.916 Y139.774 E.13935
G1 X143.774 Y142.916 E.13931
G1 X139.814 Y144.934 E.13935
G1 X135.425 Y145.629 E.13932
G1 X131.036 Y144.934 E.13935
G1 X127.077 Y142.916 E.13932
G1 X123.934 Y139.774 E.13933
G1 X121.917 Y135.814 E.13933
G1 X121.222 Y131.425 E.13932
G1 X121.917 Y127.036 E.13935
G1 X123.934 Y123.077 E.13931
G1 X127.034 Y119.977 E.13747
M204 S1000
G1 X126.852 Y119.625 F10800
M204 S800
;TYPE:External perimeter
G1 F1200
G1 X130.918 Y117.554 E.14305
G1 X135.425 Y116.841 E.1431
G1 X139.932 Y117.554 E.14307
G1 X143.998 Y119.625 E.14308
G1 X147.225 Y122.852 E.14308
G1 X149.297 Y126.918 E.14307
G1 X150.01 Y131.425 E.1431
G1 X149.297 Y135.932 E.14307
G1 X147.225 Y139.999 E.14309
G1 X143.999 Y143.225 E.14305
G1 X139.932 Y145.297 E.14309
G1 X135.425 Y146.01 E.14307
G1 X130.918 Y145.297 E.1431
G1 X126.852 Y143.225 E.14307
G1 X123.625 Y139.998 E.14308
G1 X121.554 Y135.932 E.14308
G1 X120.841 Y131.425 E.14307
G1 X121.554 Y126.918 E.1431
G1 X123.625 Y122.852 E.14305
G1 X126.81 Y119.668 E.14122
M204 S1000
G1 X127.218 Y119.788 F10800
;WIPE_START
G1 F8640
G1 X129.737 Y118.162 E-.76
;WIPE_END
G1 E-.04 F2100
G1 Z.6 F720
G1 X143.211 Y119.774 F10800
G1 Z.2 F720
G1 E.8 F2100
M204 S800
;TYPE:Solid infill
;WIDTH:0.424691
G1 F1200
G1 X146.687 Y123.25 E.15605
G1 X147.248 Y124.351 E.03923
G1 X142.499 Y119.602 E.21322
G1 X141.398 Y119.041 E.0392
G1 X147.809 Y125.452 E.28781
G1 X148.37 Y126.554 E.03923
G1 X140.298 Y118.481 E.3624
G1 X139.726 Y118.19 E.02038
G1 X139.418 Y118.141 E.0099
G1 X148.71 Y127.433 E.41717
G1 X148.812 Y128.075 E.02062
G1 X138.776 Y118.039 E.45052
G1 X138.135 Y117.938 E.02062
G1 X148.913 Y128.716 E.48388
G1 X149.015 Y129.358 E.02062
G1 X137.493 Y117.836 E.51724
G1 X136.852 Y117.735 E.02062
G1 X149.116 Y129.999 E.5506
G1 X149.218 Y130.641 E.02062
G1 X136.21 Y117.633 E.58396
G1 X135.569 Y117.531 E.02062
G1 X149.32 Y131.282 E.61731
G1 X149.342 Y131.425 E.00461
G1 X149.285 Y131.787 E.01163
G1 X135.064 Y117.566 E.63845
G1 X134.597 Y117.64 E.01498
G1 X149.211 Y132.253 E.65606
G1 X149.137 Y132.72 E.01498
G1 X134.131 Y117.714 E.67367
G1 X133.665 Y117.787 E.01498
G1 X149.064 Y133.186 E.69128
G1 X148.99 Y133.652 E.01498
G1 X133.199 Y117.861 E.70889
G1 X132.733 Y117.935 E.01498
G1 X148.916 Y134.118 E.7265
G1 X148.842 Y134.584 E.01498
G1 X132.267 Y118.009 E.74412
G1 X131.801 Y118.083 E.01498
M73 P0 R133
G1 X148.768 Y135.05 E.76173
G1 X148.695 Y135.516 E.01498
G1 X131.335 Y118.156 E.77934
G1 X131.124 Y118.19 E.00677
G1 X130.928 Y118.29 E.00699
G1 X148.561 Y135.923 E.7916
G1 X148.379 Y136.28 E.01274
G1 X130.57 Y118.472 E.79948
G1 X130.213 Y118.654 E.01274
G1 X148.197 Y136.638 E.80735
G1 X148.014 Y136.996 E.01274
G1 X129.855 Y118.836 E.81523
G1 X129.497 Y119.018 E.01274
G1 X147.832 Y137.353 E.82311
G1 X147.65 Y137.711 E.01274
G1 X129.14 Y119.201 E.83098
G1 X128.782 Y119.383 E.01274
G1 X147.468 Y138.069 E.83886
G1 X147.285 Y138.426 E.01274
G1 X128.424 Y119.565 E.84673
G1 X128.067 Y119.747 E.01274
G1 X147.103 Y138.784 E.85461
G1 X146.921 Y139.141 E.01274
G1 X127.709 Y119.93 E.86249
G1 X127.351 Y120.112 E.01274
G1 X146.739 Y139.499 E.87036
G1 X146.684 Y139.606 E.0038
G1 X146.495 Y139.795 E.00851
G1 X127.055 Y120.356 E.8727
G1 X126.785 Y120.626 E.01212
G1 X146.225 Y140.065 E.8727
G1 X145.955 Y140.335 E.01212
G1 X126.515 Y120.896 E.8727
G1 X126.245 Y121.166 E.01212
M73 Q0 S133
G1 X145.685 Y140.605 E.8727
G1 X145.415 Y140.875 E.01212
G1 X125.975 Y121.436 E.8727
G1 X125.705 Y121.706 E.01212
G1 X145.145 Y141.145 E.8727
G1 X144.875 Y141.415 E.01212
G1 X125.436 Y121.975 E.8727
G1 X125.166 Y122.245 E.01212
G1 X144.605 Y141.685 E.8727
G1 X144.335 Y141.955 E.01212
G1 X124.896 Y122.515 E.8727
G1 X124.626 Y122.785 E.01212
G1 X144.065 Y142.225 E.8727
G1 X143.795 Y142.495 E.01212
G1 X124.356 Y123.055 E.8727
G1 X124.166 Y123.245 E.00852
G1 X124.112 Y123.351 E.00378
G1 X143.499 Y142.739 E.87036
G1 X143.141 Y142.921 E.01274
G1 X123.93 Y123.709 E.86248
G1 X123.747 Y124.067 E.01274
G1 X142.784 Y143.103 E.85461
G1 X142.426 Y143.285 E.01274
M73 P1 R133
M73 Q1 S133
G1 X123.565 Y124.424 E.84673
G1 X123.383 Y124.782 E.01274
G1 X142.068 Y143.468 E.83886
G1 X141.711 Y143.65 E.01274
G1 X123.201 Y125.14 E.83098
G1 X123.018 Y125.497 E.01274
G1 X141.353 Y143.832 E.8231
G1 X140.995 Y144.014 E.01274
G1 X122.836 Y125.855 E.81523
G1 X122.654 Y126.213 E.01274
G1 X140.638 Y144.197 E.80735
G1 X140.28 Y144.379 E.01274
G1 X122.472 Y126.57 E.79948
G1 X122.29 Y126.928 E.01274
G1 X139.923 Y144.561 E.7916
G1 X139.726 Y144.661 E.00701
G1 X139.516 Y144.695 E.00674
G1 X122.156 Y127.335 E.77934
G1 X122.083 Y127.801 E.01498
G1 X139.05 Y144.768 E.76172
G1 X138.584 Y144.842 E.01498
G1 X122.009 Y128.267 E.74411
G1 X121.935 Y128.733 E.01498
G1 X138.118 Y144.916 E.7265
G1 X137.652 Y144.99 E.01498
G1 X121.861 Y129.199 E.70889
G1 X121.787 Y129.665 E.01498
G1 X137.186 Y145.064 E.69128
G1 X136.72 Y145.137 E.01498
G1 X121.714 Y130.131 E.67367
G1 X121.64 Y130.598 E.01498
G1 X136.253 Y145.211 E.65605
G1 X135.787 Y145.285 E.01498
G1 X121.566 Y131.064 E.63844
G1 X121.509 Y131.425 E.01163
G1 X121.531 Y131.569 E.00461
G1 X135.282 Y145.32 E.61731
G1 X134.641 Y145.218 E.02062
G1 X121.633 Y132.211 E.58395
G1 X121.735 Y132.852 E.02062
M73 P1 R132
G1 X133.999 Y145.116 E.55059
G1 X133.358 Y145.015 E.02062
G1 X121.836 Y133.494 E.51723
G1 X121.938 Y134.135 E.02062
G1 X132.716 Y144.913 E.48388
G1 X132.075 Y144.812 E.02062
G1 X122.039 Y134.776 E.45052
G1 X122.141 Y135.418 E.02062
G1 X131.433 Y144.71 E.41716
G1 X131.124 Y144.661 E.00993
G1 X130.553 Y144.37 E.02034
G1 X122.481 Y136.298 E.36239
G1 X123.042 Y137.398 E.0392
G1 X129.452 Y143.809 E.2878
G1 X128.351 Y143.248 E.03923
G1 X123.602 Y138.499 E.2132
G1 X124.162 Y139.599 E.0392
G1 X127.638 Y143.075 E.15605
M204 S1000
;WIPE_START
G1 F8640
G1 X125.311 Y140.748 E-.76
;WIPE_END
G1 E-.04 F2100
G1 Z.6 F720
G1 X123.089 Y102.275 F10800
G1 Z.2 F720
G1 E.8 F2100
M204 S800
;TYPE:Perimeter
;WIDTH:0.42
G1 F1200
G1 X117.085 Y102.486 E.18839
G1 X111.309 Y100.829 E.18838
G1 X106.329 Y97.47 E.18836
G1 X102.629 Y92.735 E.18839
G1 X100.575 Y87.089 E.18837
G1 X100.365 Y81.085 E.18839
G1 X102.022 Y75.309 E.18838
G1 X105.381 Y70.329 E.18836
G1 X110.116 Y66.629 E.18839
G1 X115.762 Y64.575 E.18837
G1 X121.765 Y64.365 E.18836
G1 X127.541 Y66.022 E.18838
G1 X132.522 Y69.381 E.18839
G1 X136.221 Y74.116 E.18837
G1 X138.275 Y79.762 E.18838
G1 X138.486 Y85.765 E.18836
G1 X136.829 Y91.541 E.18838
G1 X133.47 Y96.522 E.18839
G1 X128.735 Y100.221 E.18837
G1 X123.146 Y102.255 E.1865
M204 S1000
G1 X123.162 Y102.65 F10800
M204 S800
;TYPE:External perimeter
G1 F1200
G1 X117.038 Y102.864 E.19214
G1 X111.148 Y101.175 E.19213
G1 X106.069 Y97.749 E.19211
G1 X102.296 Y92.92 E.19214
G1 X100.2 Y87.162 E.19212
G1 X99.987 Y81.038 E.19214
G1 X101.676 Y75.148 E.19213
G1 X105.102 Y70.069 E.19211
G1 X109.931 Y66.296 E.19214
G1 X115.689 Y64.2 E.19212
G1 X121.812 Y63.987 E.19211
G1 X127.702 Y65.676 E.19213
G1 X132.782 Y69.102 E.19213
G1 X136.554 Y73.931 E.19212
G1 X138.65 Y79.689 E.19212
G1 X138.864 Y85.812 E.19211
G1 X137.175 Y91.702 E.19213
G1 X133.749 Y96.782 E.19213
G1 X128.92 Y100.554 E.19212
G1 X123.219 Y102.63 E.19024
M204 S1000
G1 X122.9 Y102.348 F10800
;WIPE_START
G1 F8640
G1 X119.93 Y102.755 E-.76
;WIPE_END
G1 E-.04 F2100
G1 Z.6 F720
G1 X135.212 Y73.008 F10800
G1 Z.2 F720
G1 E.8 F2100
M204 S800
;TYPE:Solid infill
;WIDTH:0.421058
G1 F1200
G1 X130.691 Y68.488 E.201
G1 X129.049 Y67.38 E.0623
G1 X135.997 Y74.328 E.30895
G1 X136.303 Y75.169 E.02813
G1 X127.414 Y66.279 E.39527
G1 X126.664 Y66.064 E.02453
M73 Q1 S132
G1 X136.609 Y76.009 E.44222
G1 X136.915 Y76.85 E.02813
G1 X125.914 Y65.849 E.48916
G1 X125.164 Y65.634 E.02453
G1 X137.221 Y77.691 E.53611
G1 X137.527 Y78.532 E.02813
G1 X124.414 Y65.419 E.58306
G1 X123.665 Y65.204 E.02453
G1 X137.833 Y79.372 E.63001
G1 X137.994 Y79.816 E.01485
G1 X138.003 Y80.078 E.00823
G1 X122.915 Y64.989 E.67093
G1 X122.165 Y64.774 E.02453
G1 X138.023 Y80.632 E.70514
G1 X138.042 Y81.186 E.01744
G1 X121.513 Y64.657 E.73498
G1 X120.996 Y64.675 E.01626
G1 X138.062 Y81.74 E.75882
G1 X138.081 Y82.295 E.01744
G1 X120.48 Y64.693 E.78267
G1 X119.963 Y64.711 E.01626
G1 X138.1 Y82.849 E.80651
G1 X138.12 Y83.403 E.01744
G1 X119.446 Y64.729 E.83035
G1 X118.929 Y64.747 E.01626
G1 X138.139 Y83.957 E.85419
G1 X138.159 Y84.511 E.01744
G1 X118.413 Y64.765 E.87803
G1 X117.896 Y64.783 E.01626
G1 X138.178 Y85.066 E.90187
G1 X138.197 Y85.62 E.01744
G1 X117.379 Y64.801 E.92571
G1 X116.862 Y64.819 E.01626
G1 X138.106 Y86.063 E.94462
G1 X137.987 Y86.479 E.01359
G1 X116.346 Y64.837 E.9623
G1 X115.829 Y64.855 E.01626
G1 X137.868 Y86.894 E.97998
G1 X137.748 Y87.31 E.01359
G1 X115.434 Y64.995 E.99225
G1 X115.042 Y65.138 E.01312
G1 X137.629 Y87.725 E1.00438
G1 X137.51 Y88.141 E.01359
G1 X114.65 Y65.28 E1.01652
G1 X114.257 Y65.423 E.01312
G1 X137.391 Y88.557 E1.02865
G1 X137.272 Y88.972 E.01359
G1 X113.865 Y65.566 E1.04079
G1 X113.473 Y65.708 E.01312
G1 X137.153 Y89.388 E1.05292
G1 X137.033 Y89.803 E.01359
G1 X113.081 Y65.851 E1.06506
G1 X112.689 Y65.994 E.01312
G1 X136.914 Y90.219 E1.07719
G1 X136.795 Y90.634 E.01359
M73 P2 R132
M73 Q2 S132
G1 X112.297 Y66.137 E1.08933
G1 X111.905 Y66.279 E.01312
M73 P2 R131
G1 X136.676 Y91.05 E1.10146
G1 X136.546 Y91.455 E.01337
G1 X111.513 Y66.422 E1.11312
G1 X111.121 Y66.565 E.01312
G1 X136.331 Y91.774 E1.12098
G1 X136.115 Y92.094 E.01211
G1 X110.729 Y66.707 E1.12883
G1 X110.337 Y66.85 E.01312
G1 X135.9 Y92.413 E1.13669
G1 X135.684 Y92.732 E.01211
G1 X110.017 Y67.065 E1.14132
G1 X109.717 Y67.3 E.01198
G1 X135.469 Y93.052 E1.14509
G1 X135.254 Y93.371 E.01211
G1 X109.417 Y67.534 E1.14886
G1 X109.117 Y67.769 E.01198
G1 X135.038 Y93.691 E1.15263
G1 X134.823 Y94.01 E.01211
G1 X108.817 Y68.004 E1.1564
G1 X108.516 Y68.238 E.01198
G1 X134.607 Y94.329 E1.16017
G1 X134.392 Y94.649 E.01211
G1 X108.216 Y68.473 E1.16394
G1 X107.916 Y68.707 E.01198
M73 Q2 S131
G1 X134.177 Y94.968 E1.16771
G1 X133.961 Y95.287 E.01211
G1 X107.616 Y68.942 E1.17148
G1 X107.316 Y69.176 E.01198
G1 X133.746 Y95.607 E1.17525
G1 X133.53 Y95.926 E.01211
G1 X107.015 Y69.411 E1.17902
G1 X106.715 Y69.646 E.01198
G1 X133.315 Y96.246 E1.1828
G1 X133.26 Y96.327 E.00308
G1 X133.036 Y96.502 E.00893
G1 X106.415 Y69.88 E1.18375
G1 X106.115 Y70.115 E.01198
G1 X132.736 Y96.736 E1.18375
G1 X132.436 Y96.971 E.01198
G1 X105.815 Y70.349 E1.18375
G1 X105.591 Y70.524 E.00893
G1 X105.536 Y70.605 E.00308
G1 X132.136 Y97.205 E1.18279
G1 X131.835 Y97.44 E.01198
G1 X105.32 Y70.925 E1.17902
G1 X105.105 Y71.244 E.01211
G1 X131.535 Y97.674 E1.17525
G1 X131.235 Y97.909 E.01198
G1 X104.89 Y71.564 E1.17148
G1 X104.674 Y71.883 E.01211
G1 X130.935 Y98.143 E1.16771
G1 X130.635 Y98.378 E.01198
G1 X104.459 Y72.202 E1.16393
G1 X104.243 Y72.522 E.01211
G1 X130.334 Y98.612 E1.16016
G1 X130.034 Y98.847 E.01198
G1 X104.028 Y72.841 E1.15639
G1 X103.813 Y73.16 E.01211
G1 X129.734 Y99.082 E1.15262
G1 X129.434 Y99.316 E.01198
G1 X103.597 Y73.48 E1.14885
G1 X103.382 Y73.799 E.01211
G1 X129.133 Y99.551 E1.14508
G1 X128.833 Y99.785 E.01198
G1 X103.166 Y74.118 E1.14131
G1 X102.951 Y74.438 E.01211
M73 P2 R130
G1 X128.513 Y100 E1.13667
G1 X128.121 Y100.143 E.01312
G1 X102.735 Y74.757 E1.12882
G1 X102.52 Y75.076 E.01211
G1 X127.729 Y100.286 E1.12096
G1 X127.337 Y100.428 E.01312
G1 X102.305 Y75.396 E1.11311
G1 X102.175 Y75.801 E.01337
G1 X126.945 Y100.571 E1.10144
G1 X126.553 Y100.714 E.01312
G1 X102.056 Y76.216 E1.0893
G1 X101.937 Y76.632 E.01359
G1 X126.161 Y100.856 E1.07717
G1 X125.769 Y100.999 E.01312
G1 X101.817 Y77.048 E1.06503
G1 X101.698 Y77.463 E.01359
G1 X125.377 Y101.142 E1.0529
G1 X124.985 Y101.285 E.01312
G1 X101.579 Y77.879 E1.04076
G1 X101.46 Y78.294 E.01359
G1 X124.593 Y101.427 E1.02863
G1 X124.201 Y101.57 E.01312
M73 P3 R130
M73 Q3 S131
G1 X101.341 Y78.71 E1.0165
G1 X101.221 Y79.125 E.01359
M73 Q3 S130
G1 X123.809 Y101.713 E1.00436
G1 X123.417 Y101.855 E.01312
G1 X101.102 Y79.541 E.99223
G1 X100.983 Y79.957 E.01359
G1 X123.021 Y101.995 E.97995
G1 X122.505 Y102.013 E.01626
G1 X100.864 Y80.372 E.96227
G1 X100.745 Y80.788 E.01359
G1 X121.988 Y102.031 E.9446
G1 X121.471 Y102.049 E.01626
G1 X100.654 Y81.231 E.92568
G1 X100.673 Y81.785 E.01743
G1 X120.954 Y102.067 E.90185
G1 X120.438 Y102.085 E.01626
G1 X100.692 Y82.34 E.87801
G1 X100.711 Y82.894 E.01743
G1 X119.921 Y102.103 E.85418
G1 X119.404 Y102.121 E.01626
G1 X100.731 Y83.448 E.83035
G1 X100.75 Y84.002 E.01743
G1 X118.888 Y102.139 E.80651
G1 X118.371 Y102.158 E.01626
G1 X100.769 Y84.556 E.78268
G1 X100.789 Y85.11 E.01743
G1 X117.854 Y102.176 E.75885
G1 X117.338 Y102.194 E.01626
G1 X100.808 Y85.664 E.73501
G1 X100.827 Y86.218 E.01743
G1 X116.686 Y102.077 E.70519
