; generated by PrusaSlicer 2.4.1+win64 on 2023-05-17 at 13:53:44 UTC


;
;
; 

; external perimeters extrusion width = 0.60mm
; perimeters extrusion width = 0.50mm
; infill extrusion width = 0.50mm
; solid infill extrusion width = 0.50mm
; top infill extrusion width = 0.45mm
; first layer extrusion width = 0.42mm

M73 P0 R143
M73 Q0 S144
M201 X1000 Y1000 Z200 E5000 ; sets maximum accelerations, mm/sec^2
M203 X200 Y200 Z12 E120 ; sets maximum feedrates, mm / sec
M204 P1250 R1250 T1250 ; sets acceleration (P, T) and retract acceleration (R), mm/sec^2
M205 X8.00 Y8.00 Z0.40 E4.50 ; sets the jerk limits, mm/sec
M205 S0 T0 ; sets the minimum extruding and travel feed rate, mm/sec
M107
;TYPE:Custom
M862.3 P "MK3S" ; printer model check
M862.1 P0.4 ; nozzle diameter check
M115 U3.11.0 ; tell printer latest fw version
G90 ; use absolute coordinates
M83 ; extruder relative mode
M104 S215 ; set extruder temp
M140 S60 ; set bed temp
M190 S60 ; wait for bed temp
M109 S215 ; wait for extruder temp
G28 W ; home all without mesh bed level
G80 ; mesh bed leveling

G1 Z0.2 F720
G1 Y-3 F1000 ; go outside print area
G92 E0
G1 X60 E9 F1000 ; intro line
G1 X100 E12.5 F1000 ; intro line

G92 E0
M221 S95

; Don't change E values below. Excessive value can damage the printer.

M907 E538 ; set extruder motor current
G21 ; set units to millimeters
G90 ; use absolute coordinates
M83 ; use relative distances for extrusion
M900 K0.05 ; Filament gcode LA 1.5
M900 K30 ; Filament gcode LA 1.0
M107
;LAYER_CHANGE
;Z:0.2
;HEIGHT:0.2
;BEFORE_LAYER_CHANGE
G92 E0.0
;0.2


G1 E-.8 F2100
M73 Q0 S143
G1 Z.4 F720
;AFTER_LAYER_CHANGE
;0.2
G1 X87.978 Y89.078 F10800
G1 Z.2 F720
G1 E.8 F2100
M204 S800
;TYPE:Skirt/Brim
;WIDTH:0.42
G1 F1200
G1 X88.564 Y88.62 E.02332
G1 X93.352 Y85.966 E.17164
G1 X94.05 Y85.712 E.02332
G1 X99.425 Y84.667 E.17168
G1 X100.151 Y84.639 E.02276
G1 X152.272 Y90.639 E1.64501
G1 X157.007 Y91.386 E.1503
G1 X157.714 Y91.616 E.02332
G1 X161.896 Y93.747 E.14717
G1 X162.498 Y94.184 E.02332
G1 X165.813 Y97.499 E.14699
G1 X166.249 Y98.1 E.02329
G1 X168.377 Y102.272 E.14683
G1 X168.614 Y102.993 E.0238
G1 X169.348 Y107.628 E.14715
G1 X169.348 Y108.372 E.02331
G1 X168.614 Y113.007 E.14714
G1 X168.384 Y113.714 E.02332
G1 X166.253 Y117.896 E.14717
G1 X165.795 Y118.519 E.02424
G1 X162.498 Y121.816 E.14619
G1 X161.896 Y122.253 E.02332
G1 X157.714 Y124.384 E.14717
G1 X157.007 Y124.614 E.02332
G1 X151.952 Y125.377 E.16027
G1 X101.052 Y124.356 E1.59625
G1 X95.376 Y123.671 E.17925
G1 X94.661 Y123.466 E.02332
G1 X89.699 Y121.152 E.17167
G1 X89.083 Y120.737 E.02331
G1 X85.078 Y117.003 E.17169
G1 X84.62 Y116.416 E.02333
G1 X81.966 Y111.627 E.17167
G1 X81.712 Y110.929 E.02331
G1 X80.667 Y105.554 E.17168
G1 X80.641 Y104.81 E.02333
G1 X81.309 Y99.376 E.17166
G1 X81.513 Y98.662 E.0233
G1 X83.826 Y93.7 E.17165
G1 X84.243 Y93.083 E.02333
G1 X87.937 Y89.122 E.16983
M204 S1000
; printing object Taschenlampe1.Michael.stl id:0 copy 0
;WIPE_START
G1 F8640
G1 X88.564 Y88.62 E-.18541
G1 X90.74 Y87.414 E-.57459
;WIPE_END
G1 E-.04 F2100
G1 Z.6 F720
G1 X138.492 Y103.611 F10800
G1 Z.2 F720
G1 E.8 F2100
M204 S800
;TYPE:Perimeter
G1 F1200
G1 X140.51 Y99.651 E.13935
G1 X143.651 Y96.51 E.13931
G1 X147.611 Y94.492 E.13935
G1 X152 Y93.797 E.13932
G1 X156.389 Y94.492 E.13932
G1 X160.349 Y96.51 E.13935
G1 X163.49 Y99.651 E.13931
G1 X165.508 Y103.611 E.13935
G1 X166.203 Y108 E.13932
G1 X165.508 Y112.389 E.13932
G1 X163.49 Y116.349 E.13935
G1 X160.349 Y119.49 E.13931
G1 X156.389 Y121.508 E.13935
G1 X152 Y122.203 E.13932
G1 X147.611 Y121.508 E.13932
G1 X143.651 Y119.49 E.13935
M73 P0 R142
G1 X140.51 Y116.349 E.13931
G1 X138.492 Y112.389 E.13935
G1 X137.797 Y108 E.13932
G1 X138.483 Y103.671 E.13744
M204 S1000
G1 X138.129 Y103.493 F10800
M204 S800
;TYPE:External perimeter
G1 F1200
G1 X140.201 Y99.427 E.14309
G1 X143.427 Y96.201 E.14305
G1 X147.493 Y94.129 E.14309
G1 X152 Y93.415 E.14307
G1 X156.507 Y94.129 E.14307
G1 X160.573 Y96.201 E.14309
G1 X163.799 Y99.427 E.14305
G1 X165.871 Y103.493 E.14309
G1 X166.585 Y108 E.14307
G1 X165.871 Y112.507 E.14307
G1 X163.799 Y116.573 E.14309
G1 X160.573 Y119.799 E.14305
G1 X156.507 Y121.871 E.14309
G1 X152 Y122.585 E.14307
G1 X147.493 Y121.871 E.14307
G1 X143.427 Y119.799 E.14309
G1 X140.201 Y116.573 E.14305
G1 X138.129 Y112.507 E.14309
G1 X137.415 Y108 E.14307
G1 X138.119 Y103.553 E.14118
M204 S1000
G1 X138.52 Y103.41 F10800
;WIPE_START
G1 F8640
G1 X139.602 Y100.614 E-.76
;WIPE_END
G1 E-.04 F2100
G1 Z.6 F720
G1 X163.651 Y100.215 F10800
G1 Z.2 F720
G1 E.8 F2100
M204 S800
;TYPE:Solid infill
;WIDTH:0.424672
G1 F1200
G1 X160.173 Y96.738 E.15609
G1 X159.073 Y96.177 E.03922
G1 X163.823 Y100.927 E.21326
G1 X164.384 Y102.028 E.03922
G1 X157.972 Y95.616 E.28785
G1 X156.871 Y95.055 E.03922
G1 X164.945 Y103.129 E.36245
G1 X165.236 Y103.7 E.02033
G1 X165.285 Y104.009 E.00993
G1 X155.991 Y94.715 E.41719
G1 X155.35 Y94.614 E.02062
G1 X165.386 Y104.65 E.45055
G1 X165.488 Y105.292 E.02062
G1 X154.708 Y94.512 E.4839
G1 X154.067 Y94.411 E.02062
G1 X165.589 Y105.933 E.51726
G1 X165.691 Y106.574 E.02062
G1 X153.426 Y94.309 E.55061
G1 X152.784 Y94.207 E.02062
G1 X165.793 Y107.216 E.58397
G1 X165.894 Y107.857 E.02062
G1 X152.143 Y94.106 E.61733
G1 X152 Y94.083 E.00458
G1 X151.638 Y94.141 E.01165
G1 X165.859 Y108.362 E.63844
G1 X165.786 Y108.829 E.01498
G1 X151.171 Y94.214 E.65604
G1 X150.705 Y94.288 E.01498
G1 X165.712 Y109.295 E.67365
G1 X165.638 Y109.761 E.01498
G1 X150.239 Y94.362 E.69126
G1 X149.773 Y94.436 E.01498
G1 X165.564 Y110.227 E.70887
G1 X165.49 Y110.693 E.01498
G1 X149.307 Y94.51 E.72648
G1 X148.841 Y94.583 E.01498
G1 X165.417 Y111.159 E.74409
G1 X165.343 Y111.625 E.01498
G1 X148.375 Y94.657 E.7617
G1 X147.909 Y94.731 E.01498
G1 X165.269 Y112.091 E.77931
G1 X165.236 Y112.3 E.00672
G1 X165.135 Y112.497 E.00702
G1 X147.503 Y94.865 E.79155
G1 X147.145 Y95.047 E.01274
G1 X164.953 Y112.855 E.79943
G1 X164.771 Y113.213 E.01274
G1 X146.787 Y95.229 E.8073
G1 X146.43 Y95.411 E.01274
G1 X164.589 Y113.57 E.81517
G1 X164.406 Y113.928 E.01274
G1 X146.072 Y95.594 E.82305
G1 X145.714 Y95.776 E.01274
G1 X164.224 Y114.286 E.83092
G1 X164.042 Y114.643 E.01274
G1 X145.357 Y95.958 E.8388
G1 X144.999 Y96.14 E.01274
G1 X163.86 Y115.001 E.84667
G1 X163.677 Y115.358 E.01274
G1 X144.642 Y96.323 E.85454
G1 X144.284 Y96.505 E.01274
G1 X163.495 Y115.716 E.86242
G1 X163.313 Y116.074 E.01274
G1 X143.926 Y96.687 E.87029
G1 X143.82 Y96.741 E.0038
G1 X143.63 Y96.931 E.00851
G1 X163.069 Y116.37 E.87264
G1 X162.799 Y116.64 E.01212
G1 X143.36 Y97.201 E.87264
G1 X143.09 Y97.471 E.01212
M73 Q0 S142
G1 X162.529 Y116.91 E.87264
G1 X162.259 Y117.18 E.01212
G1 X142.82 Y97.741 E.87264
G1 X142.55 Y98.011 E.01212
G1 X161.989 Y117.45 E.87264
G1 X161.719 Y117.72 E.01212
G1 X142.28 Y98.281 E.87264
G1 X142.011 Y98.55 E.01212
G1 X161.45 Y117.989 E.87264
G1 X161.18 Y118.259 E.01212
G1 X141.741 Y98.82 E.87264
G1 X141.471 Y99.09 E.01212
G1 X160.91 Y118.529 E.87264
G1 X160.64 Y118.799 E.01212
G1 X141.201 Y99.36 E.87264
G1 X140.931 Y99.63 E.01212
G1 X160.37 Y119.069 E.87264
G1 X160.18 Y119.259 E.00851
G1 X160.074 Y119.313 E.0038
G1 X140.687 Y99.926 E.87029
G1 X140.505 Y100.284 E.01274
G1 X159.716 Y119.495 E.86242
G1 X159.358 Y119.677 E.01274
G1 X140.323 Y100.642 E.85454
G1 X140.14 Y100.999 E.01274
G1 X159.001 Y119.86 E.84667
G1 X158.643 Y120.042 E.01274
M73 P0 R141
G1 X139.958 Y101.357 E.83879
G1 X139.776 Y101.714 E.01274
G1 X158.286 Y120.224 E.83092
G1 X157.928 Y120.406 E.01274
G1 X139.594 Y102.072 E.82305
G1 X139.411 Y102.43 E.01274
M73 P1 R141
M73 Q1 S142
G1 X157.57 Y120.589 E.81517
G1 X157.213 Y120.771 E.01274
G1 X139.229 Y102.787 E.8073
G1 X139.047 Y103.145 E.01274
G1 X156.855 Y120.953 E.79943
G1 X156.497 Y121.135 E.01274
G1 X138.865 Y103.503 E.79155
G1 X138.764 Y103.7 E.00702
G1 X138.731 Y103.909 E.00673
G1 X156.091 Y121.269 E.77931
G1 X155.625 Y121.343 E.01498
G1 X138.657 Y104.375 E.7617
G1 X138.583 Y104.841 E.01498
G1 X155.159 Y121.417 E.74409
G1 X154.693 Y121.49 E.01498
G1 X138.51 Y105.307 E.72648
G1 X138.436 Y105.773 E.01498
G1 X154.227 Y121.564 E.70887
G1 X153.761 Y121.638 E.01498
G1 X138.362 Y106.239 E.69126
G1 X138.288 Y106.705 E.01498
G1 X153.295 Y121.712 E.67365
G1 X152.828 Y121.786 E.01498
G1 X138.214 Y107.172 E.65604
G1 X138.141 Y107.638 E.01498
G1 X152.362 Y121.859 E.63843
G1 X152 Y121.917 E.01165
G1 X151.857 Y121.894 E.00459
G1 X138.106 Y108.143 E.61732
G1 X138.207 Y108.784 E.02062
G1 X151.216 Y121.793 E.58397
G1 X150.574 Y121.691 E.02062
G1 X138.309 Y109.426 E.55061
G1 X138.411 Y110.067 E.02062
G1 X149.933 Y121.589 E.51725
G1 X149.291 Y121.488 E.02062
G1 X138.512 Y110.709 E.4839
G1 X138.614 Y111.35 E.02062
G1 X148.65 Y121.386 E.45054
G1 X148.009 Y121.285 E.02062
G1 X138.715 Y111.991 E.41719
G1 X138.764 Y112.3 E.00992
G1 X139.055 Y112.871 E.02034
G1 X147.129 Y120.945 E.36244
G1 X146.028 Y120.384 E.03922
G1 X139.616 Y113.972 E.28784
G1 X140.177 Y115.073 E.03922
G1 X144.927 Y119.823 E.21325
G1 X143.826 Y119.262 E.03922
G1 X140.35 Y115.785 E.15608
M204 S1000
;WIPE_START
G1 F8640
G1 X142.677 Y118.113 E-.76
;WIPE_END
G1 E-.04 F2100
G1 Z.6 F720
G1 X103.661 Y105.398 F10800
G1 Z.2 F720
G1 E.8 F2100
M204 S800
;TYPE:Perimeter
;WIDTH:0.42
G1 F1200
G1 X103.225 Y106.335 E.03239
G1 X102.521 Y107.089 E.03235
G1 X101.618 Y107.59 E.03238
G1 X100.605 Y107.786 E.03234
G1 X99.58 Y107.661 E.03236
G1 X98.645 Y107.225 E.03235
G1 X97.89 Y106.521 E.03238
G1 X97.39 Y105.618 E.03236
G1 X97.192 Y104.605 E.03235
G1 X97.319 Y103.58 E.03238
G1 X97.755 Y102.646 E.03233
G1 X98.458 Y101.89 E.03236
G1 X99.361 Y101.39 E.03237
G1 X100.374 Y101.192 E.03235
G1 X101.399 Y101.319 E.03238
G1 X102.334 Y101.755 E.03236
G1 X103.089 Y102.458 E.03233
G1 X103.59 Y103.361 E.03239
G1 X103.786 Y104.374 E.03234
G1 X103.668 Y105.339 E.03047
M204 S1000
G1 X103.294 Y105.293 F10800
M204 S800
;TYPE:External perimeter
G1 F1200
G1 X102.908 Y106.121 E.02864
G1 X102.286 Y106.788 E.02861
G1 X101.487 Y107.231 E.02863
G1 X100.592 Y107.405 E.0286
G1 X99.686 Y107.294 E.02862
G1 X98.859 Y106.908 E.02861
G1 X98.191 Y106.286 E.02863
G1 X97.749 Y105.487 E.02861
G1 X97.574 Y104.592 E.02861
G1 X97.686 Y103.685 E.02863
G1 X98.072 Y102.859 E.02859
G1 X98.693 Y102.191 E.02861
G1 X99.492 Y101.749 E.02862
G1 X100.387 Y101.574 E.02861
G1 X101.294 Y101.686 E.02863
G1 X102.121 Y102.072 E.02863
G1 X102.788 Y102.693 E.02858
G1 X103.231 Y103.492 E.02864
G1 X103.405 Y104.387 E.0286
G1 X103.301 Y105.234 E.02673
M204 S1000
G1 X103.572 Y105.581 F10800
;WIPE_START
G1 F8640
G1 X102.908 Y106.121 E-.22414
G1 X102.286 Y106.788 E-.21066
G1 X101.487 Y107.231 E-.21085
G1 X101.001 Y107.325 E-.11435
;WIPE_END
G1 E-.04 F2100
G1 Z.6 F720
G1 X116.546 Y109.093 F10800
G1 Z.2 F720
G1 E.8 F2100
M204 S800
;TYPE:Perimeter
G1 F1200
G1 X114.337 Y113.83 E.16388
G1 X110.773 Y117.652 E.16384
G1 X106.202 Y120.185 E.16386
G1 X101.072 Y121.183 E.16387
G1 X95.886 Y120.546 E.16384
G1 X91.15 Y118.337 E.16385
G1 X87.327 Y114.773 E.16387
G1 X84.794 Y110.202 E.16385
G1 X83.796 Y105.072 E.16387
G1 X84.434 Y99.886 E.16385
G1 X86.642 Y95.15 E.16384
G1 X90.207 Y91.327 E.16389
G1 X94.777 Y88.794 E.16383
G1 X99.907 Y87.796 E.16387
G1 X105.093 Y88.434 E.16385
G1 X109.83 Y90.642 E.16386
G1 X113.652 Y94.207 E.16386
G1 X116.185 Y98.777 E.16383
G1 X117.183 Y103.907 E.16387
G1 X116.553 Y109.034 E.16196
M204 S1000
G1 X116.913 Y109.199 F10800
M204 S800
;TYPE:External perimeter
G1 F1200
G1 X114.654 Y114.044 E.16762
G1 X111.008 Y117.953 E.16759
G1 X106.333 Y120.544 E.1676
G1 X101.085 Y121.564 E.16761
G1 X95.78 Y120.913 E.16759
G1 X90.936 Y118.654 E.16759
G1 X87.026 Y115.008 E.16761
G1 X84.435 Y110.333 E.1676
G1 X83.415 Y105.086 E.16761
G1 X84.067 Y99.78 E.16759
G1 X86.325 Y94.936 E.16758
G1 X89.972 Y91.026 E.16763
G1 X94.646 Y88.435 E.16757
G1 X99.893 Y87.415 E.16761
G1 X105.199 Y88.067 E.16759
G1 X110.044 Y90.325 E.16761
G1 X113.953 Y93.972 E.16761
G1 X116.544 Y98.646 E.16757
G1 X117.564 Y103.894 E.16761
G1 X116.92 Y109.139 E.1657
M204 S1000
M73 Q1 S141
G1 X116.525 Y109.295 F10800
;WIPE_START
G1 F8640
G1 X115.54 Y112.127 E-.76
;WIPE_END
G1 E-.04 F2100
G1 Z.6 F720
G1 X109.971 Y90.928 F10800
G1 Z.2 F720
G1 E.8 F2100
M204 S800
;TYPE:Solid infill
;WIDTH:0.421863
G1 F1200
G1 X113.426 Y94.383 E.15397
G1 X114.093 Y95.585 E.04332
G1 X109.139 Y90.631 E.22075
G1 X108.135 Y90.164 E.03489
G1 X114.759 Y96.788 E.29517
G1 X115.426 Y97.99 E.04332
G1 X107.132 Y89.696 E.3696
G1 X106.128 Y89.228 E.03489
G1 X115.95 Y99.05 E.43769
G1 X116.08 Y99.716 E.02135
G1 X105.124 Y88.76 E.48818
G1 X105.014 Y88.709 E.00382
G1 X104.47 Y88.642 E.01727
G1 X116.209 Y100.381 E.52308
G1 X116.338 Y101.046 E.02135
G1 X103.859 Y88.567 E.55607
G1 X103.248 Y88.492 E.0194
G1 X116.468 Y101.711 E.58906
G1 X116.597 Y102.377 E.02135
G1 X102.637 Y88.417 E.62205
G1 X102.026 Y88.342 E.0194
G1 X116.726 Y103.042 E.65505
G1 X116.856 Y103.707 E.02135
G1 X101.415 Y88.267 E.68804
G1 X100.804 Y88.192 E.0194
G1 X116.856 Y104.244 E.71529
G1 X116.798 Y104.721 E.01515
G1 X100.193 Y88.117 E.73991
G1 X99.917 Y88.083 E.00878
G1 X99.671 Y88.13 E.00788
G1 X116.739 Y105.198 E.76057
G1 X116.681 Y105.676 E.01515
G1 X99.222 Y88.218 E.77795
G1 X98.774 Y88.305 E.0144
G1 X116.622 Y106.153 E.79533
G1 X116.563 Y106.63 E.01515
G1 X98.325 Y88.392 E.81271
G1 X97.876 Y88.479 E.0144
G1 X116.505 Y107.108 E.8301
G1 X116.446 Y107.585 E.01515
M73 P1 R140
G1 X97.428 Y88.566 E.84748
G1 X96.979 Y88.654 E.0144
G1 X116.388 Y108.062 E.86486
G1 X116.329 Y108.54 E.01515
G1 X96.53 Y88.741 E.88224
G1 X96.082 Y88.828 E.0144
G1 X116.27 Y109.016 E.8996
G1 X116.099 Y109.382 E.01271
G1 X95.633 Y88.915 E.912
G1 X95.184 Y89.003 E.0144
G1 X115.929 Y109.747 E.9244
G1 X115.759 Y110.113 E.01271
G1 X94.768 Y89.122 E.93537
G1 X94.423 Y89.313 E.01242
G1 X115.588 Y110.478 E.94314
G1 X115.418 Y110.844 E.01271
G1 X94.078 Y89.504 E.95091
G1 X93.733 Y89.695 E.01242
G1 X115.247 Y111.209 E.95868
G1 X115.077 Y111.575 E.01271
G1 X93.389 Y89.886 E.96645
G1 X93.044 Y90.078 E.01242
G1 X114.907 Y111.94 E.97422
G1 X114.736 Y112.306 E.01271
G1 X92.699 Y90.269 E.98199
G1 X92.354 Y90.46 E.01242
G1 X114.566 Y112.671 E.98976
G1 X114.395 Y113.037 E.01271
G1 X92.01 Y90.651 E.99753
G1 X91.665 Y90.842 E.01242
G1 X114.225 Y113.402 E1.0053
G1 X114.1 Y113.67 E.00932
G1 X114.031 Y113.744 E.00319
G1 X103.933 Y103.646 E.44996
G1 X104.062 Y104.311 E.02134
G1 X113.772 Y114.022 E.43269
G1 X113.514 Y114.299 E.01195
G1 X104.019 Y104.804 E.42311
G1 X103.96 Y105.281 E.01516
G1 X113.255 Y114.576 E.41419
G1 X112.997 Y114.853 E.01195
G1 X103.836 Y105.693 E.40821
G1 X103.666 Y106.058 E.01271
G1 X112.738 Y115.131 E.40428
G1 X112.479 Y115.408 E.01195
G1 X103.495 Y106.424 E.40035
G1 X103.462 Y106.495 E.00247
G1 X103.254 Y106.718 E.00962
G1 X112.221 Y115.685 E.39959
G1 X111.962 Y115.963 E.01195
M73 P2 R140
M73 Q2 S141
G1 X102.995 Y106.995 E.39959
G1 X102.736 Y107.272 E.01195
G1 X111.704 Y116.24 E.3996
G1 X111.445 Y116.517 E.01195
G1 X102.404 Y107.477 E.40285
G1 X102.06 Y107.668 E.01242
G1 X111.186 Y116.795 E.40669
G1 X110.928 Y117.072 E.01195
G1 X101.715 Y107.859 E.41053
G1 X101.266 Y107.946 E.01441
G1 X110.669 Y117.349 E.41901
G1 X110.597 Y117.426 E.00333
G1 X110.348 Y117.564 E.00896
G1 X100.817 Y108.033 E.42471
G1 X100.615 Y108.072 E.0065
G1 X100.28 Y108.031 E.01064
G1 X110.004 Y117.755 E.4333
G1 X109.659 Y117.946 E.01242
G1 X99.426 Y107.714 E.45597
M204 S1000
;WIPE_START
G1 F8640
G1 X101.754 Y110.041 E-.76
;WIPE_END
G1 E-.04 F2100
G1 Z.6 F720
G1 X101.553 Y101.266 F10800
G1 Z.2 F720
G1 E.8 F2100
M204 S800
G1 F1200
G1 X91.32 Y91.033 E.45599
G1 X90.975 Y91.224 E.01242
G1 X100.698 Y100.948 E.43328
G1 X100.364 Y100.906 E.01062
G1 X100.161 Y100.946 E.00652
G1 X90.63 Y91.415 E.42469
G1 X90.383 Y91.553 E.00892
G1 X90.31 Y91.631 E.00337
G1 X99.713 Y101.034 E.41899
G1 X99.264 Y101.121 E.01439
G1 X90.051 Y91.908 E.41054
G1 X89.793 Y92.185 E.01195
G1 X98.919 Y101.312 E.40668
G1 X98.574 Y101.503 E.01242
M73 Q2 S140
G1 X89.534 Y92.463 E.40283
G1 X89.275 Y92.74 E.01195
G1 X98.242 Y101.707 E.39957
G1 X97.984 Y101.985 E.01195
G1 X89.017 Y93.017 E.39959
G1 X88.758 Y93.295 E.01195
G1 X97.726 Y102.262 E.3996
G1 X97.518 Y102.486 E.00962
G1 X97.485 Y102.557 E.00248
