; generated by PrusaSlicer 2.4.1+win64 on 2023-04-19 at 14:19:08 UTC


;
;
; 

; external perimeters extrusion width = 0.60mm
; perimeters extrusion width = 0.50mm
; infill extrusion width = 0.50mm
; solid infill extrusion width = 0.50mm
; top infill extrusion width = 0.45mm
; first layer extrusion width = 0.42mm

M73 P0 R41
M73 Q0 S41
M201 X1000 Y1000 Z200 E5000 ; sets maximum accelerations, mm/sec^2
M203 X200 Y200 Z12 E120 ; sets maximum feedrates, mm / sec
M204 P1250 R1250 T1250 ; sets acceleration (P, T) and retract acceleration (R), mm/sec^2
M205 X8.00 Y8.00 Z0.40 E4.50 ; sets the jerk limits, mm/sec
M205 S0 T0 ; sets the minimum extruding and travel feed rate, mm/sec
M107
;TYPE:Custom
M862.3 P "MK3S" ; printer model check
M862.1 P0.4 ; nozzle diameter check
M115 U3.11.0 ; tell printer latest fw version
G90 ; use absolute coordinates
M83 ; extruder relative mode
M104 S215 ; set extruder temp
M140 S60 ; set bed temp
M190 S60 ; wait for bed temp
M109 S215 ; wait for extruder temp
G28 W ; home all without mesh bed level
G80 ; mesh bed leveling

G1 Z0.2 F720
G1 Y-3 F1000 ; go outside print area
G92 E0
G1 X60 E9 F1000 ; intro line
G1 X100 E12.5 F1000 ; intro line

G92 E0
M221 S95

; Don't change E values below. Excessive value can damage the printer.

M907 E538 ; set extruder motor current
G21 ; set units to millimeters
G90 ; use absolute coordinates
M83 ; use relative distances for extrusion
M900 K0.05 ; Filament gcode LA 1.5
M900 K30 ; Filament gcode LA 1.0
M107
;LAYER_CHANGE
;Z:0.2
;HEIGHT:0.2
;BEFORE_LAYER_CHANGE
G92 E0.0
;0.2


G1 E-.8 F2100
G1 Z.4 F720
;AFTER_LAYER_CHANGE
;0.2
G1 X89.287 Y89.785 F10800
G1 Z.2 F720
G1 E.8 F2100
M204 S800
;TYPE:Skirt/Brim
;WIDTH:0.42
G1 F1200
G1 X90.551 Y88.915 E.04812
G1 X91.416 Y88.555 E.02937
G1 X92.017 Y88.393 E.01952
G1 X93.241 Y88.251 E.03863
G1 X99.715 Y88.251 E.20301
G1 X160.322 Y88.623 E1.90033
G1 X161.627 Y89.023 E.04278
G1 X162.497 Y90.074 E.04278
G1 X162.685 Y91 E.02964
G1 X162.685 Y119 E.87792
G1 X162.293 Y120.307 E.04278
G1 X161.247 Y121.183 E.04278
G1 X160.322 Y121.377 E.02964
G1 X93.241 Y121.749 E2.10333
G1 X92.017 Y121.607 E.03863
G1 X90.57 Y121.096 E.04809
G1 X89.291 Y120.219 E.04864
G1 X88.283 Y119.039 E.04865
G1 X87.618 Y117.646 E.04841
G1 X87.336 Y116.124 E.04855
G1 X87.315 Y94.186 E.68784
G1 X87.457 Y92.955 E.03884
G1 X87.618 Y92.354 E.01952
G1 X88.2 Y91.08 E.04392
G1 X88.848 Y90.224 E.03367
G1 X89.244 Y89.827 E.01758
M204 S1000
; printing object Taschenlampe.stl id:0 copy 0
;WIPE_START
G1 F8640
G1 X90.551 Y88.915 E-.36798
G1 X91.416 Y88.555 E-.21628
G1 X92.017 Y88.393 E-.14372
G1 X92.154 Y88.377 E-.03202
;WIPE_END
G1 E-.04 F2100
G1 Z.6 F720
G1 X106.877 Y113.906 F10800
G1 Z.2 F720
G1 E.8 F2100
M204 S800
;TYPE:External perimeter
G1 F1200
G1 X107.265 Y113.76 E.013
G1 X107.581 Y113.718 E.00997
G1 X107.947 Y113.767 E.01158
G1 X108.287 Y113.908 E.01155
G1 X108.58 Y114.131 E.01156
G1 X108.805 Y114.425 E.01161
G1 X108.946 Y114.766 E.01156
G1 X108.994 Y115.132 E.01158
G1 X108.946 Y115.498 E.01158
G1 X108.805 Y115.839 E.01157
G1 X108.58 Y116.131 E.01156
G1 X108.287 Y116.356 E.01156
G1 X107.947 Y116.497 E.01157
G1 X107.581 Y116.546 E.01158
G1 X107.214 Y116.497 E.01158
G1 X106.874 Y116.356 E.01157
G1 X106.581 Y116.131 E.01156
G1 X106.356 Y115.839 E.01156
G1 X106.215 Y115.498 E.01157
G1 X106.167 Y115.132 E.01158
G1 X106.215 Y114.766 E.01158
G1 X106.356 Y114.425 E.01156
G1 X106.581 Y114.131 E.01161
G1 X106.829 Y113.942 E.00979
M204 S1000
G1 X106.886 Y113.506 F10800
;WIPE_START
G1 F8640
G1 X107.265 Y113.76 E-.10905
G1 X107.581 Y113.718 E-.07344
G1 X107.947 Y113.767 E-.08526
G1 X108.287 Y113.908 E-.08507
G1 X108.58 Y114.131 E-.08511
G1 X108.805 Y114.425 E-.08547
G1 X108.946 Y114.766 E-.08511
G1 X108.994 Y115.132 E-.08526
G1 X108.957 Y115.416 E-.06623
;WIPE_END
G1 E-.04 F2100
G1 Z.6 F720
G1 X105.368 Y117.567 F10800
G1 Z.2 F720
G1 E.8 F2100
M204 S800
;TYPE:Perimeter
G1 F1200
G1 X105.368 Y114.304 E.1023
G1 X100.388 Y114.304 E.15614
G1 X100.388 Y113.614 E.02166
G1 X106.638 Y113.614 E.19598
G1 X106.312 Y113.862 E.01285
G1 X106.027 Y114.236 E.01473
G1 X105.848 Y114.667 E.01466
G1 X105.787 Y115.132 E.01469
G1 X105.848 Y115.597 E.01469
G1 X106.027 Y116.029 E.01469
G1 X106.312 Y116.4 E.01467
G1 X106.683 Y116.685 E.01467
G1 X107.116 Y116.865 E.01469
G1 X107.581 Y116.926 E.01469
G1 X108.045 Y116.865 E.01469
G1 X108.478 Y116.685 E.01469
G1 X108.849 Y116.4 E.01467
G1 X109.134 Y116.029 E.01467
G1 X109.313 Y115.597 E.01469
G1 X109.374 Y115.132 E.01469
G1 X109.313 Y114.667 E.01469
G1 X109.134 Y114.236 E.01466
G1 X108.849 Y113.862 E.01473
G1 X108.523 Y113.614 E.01285
G1 X119.811 Y113.614 E.35392
G1 X119.811 Y117.565 E.12389
G1 X105.428 Y117.567 E.45098
M204 S1000
;WIPE_START
G1 F8640
G1 X105.368 Y114.304 E-.75353
G1 X105.34 Y114.304 E-.00647
;WIPE_END
G1 E-.04 F2100
G1 Z.6 F720
G1 X100.211 Y117.747 F10800
G1 Z.2 F720
G1 E.8 F2100
M204 S800
G1 F1200
G1 X100.218 Y117.708 E.00124
G1 X100.361 Y117.712 E.00446
G1 X100.269 Y117.733 E.00293
M204 S1000
;WIPE_START
G1 F8640
G1 X100.218 Y117.708 E-.01316
G1 X100.361 Y117.712 E-.03283
G1 X100.269 Y117.733 E-.02159
;WIPE_END
G1 E-.73243 F2100
G1 Z.6 F720
G1 X104.99 Y117.342 F10800
G1 Z.2 F720
G1 E.8 F2100
M204 S800
;TYPE:External perimeter
G1 F1200
G1 X104.99 Y114.682 E.08343
G1 X100.011 Y114.682 E.15614
G1 X100.011 Y113.237 E.04531
G1 X120.188 Y113.237 E.63265
G1 X120.188 Y117.942 E.14754
G1 X101.687 Y117.945 E.58009
G1 X101.176 Y117.964 E.01603
M73 P1 R41
M73 Q1 S41
G1 X100.659 Y118.03 E.01635
G1 X100.174 Y118.142 E.01559
G1 X99.81 Y118.142 E.0114
G1 X99.811 Y117.832 E.00971
G1 X99.909 Y117.321 E.01633
G1 X100.593 Y117.342 E.02147
G1 X104.931 Y117.342 E.13599
M204 S1000
G1 X105.39 Y117.343 F10800
;WIPE_START
G1 F8640
G1 X104.99 Y114.682 E-.61458
G1 X104.361 Y114.682 E-.14542
;WIPE_END
G1 E-.04 F2100
G1 Z.6 F720
G1 X99.491 Y118.462 F10800
G1 Z.2 F720
G1 E.8 F2100
M204 S800
G1 F1200
G1 X99.48 Y119.033 E.0179
G1 X99.215 Y119.009 E.00835
G1 X98.708 Y119.001 E.01588
G1 X93.264 Y119.002 E.17071
G1 X92.426 Y118.892 E.0265
G1 X91.657 Y118.574 E.02607
G1 X90.997 Y118.067 E.0261
G1 X90.743 Y117.738 E.01303
G1 X90.491 Y117.408 E.01303
G1 X90.172 Y116.639 E.0261
G1 X90.064 Y115.814 E.02608
G1 X90.172 Y114.989 E.02609
G1 X90.491 Y114.221 E.02606
G1 X90.997 Y113.561 E.02609
G1 X91.657 Y113.055 E.02607
G1 X92.419 Y112.742 E.02585
G1 X92.842 Y112.701 E.01332
G1 X92.843 Y113.039 E.0106
G1 X92.517 Y113.104 E.01044
G1 X91.847 Y113.383 E.02276
G1 X91.265 Y113.828 E.02298
G1 X90.819 Y114.41 E.02298
G1 X90.538 Y115.087 E.02299
G1 X90.443 Y115.814 E.02299
G1 X90.538 Y116.541 E.02299
G1 X90.819 Y117.218 E.02299
G1 X91.265 Y117.799 E.02297
G1 X91.847 Y118.246 E.023
G1 X92.524 Y118.526 E.02298
G1 X93.227 Y118.619 E.02222
G1 X98.146 Y118.61 E.15423
G1 X98.655 Y118.56 E.01605
G1 X99.133 Y118.462 E.01531
G1 X99.431 Y118.462 E.00932
M204 S1000
G1 X99.3 Y118.814 F10800
G1 X99.217 Y118.736
M204 S800
;TYPE:Gap fill
;WIDTH:0.212924
G1 F1200
G1 X99.226 Y118.744 E.00018
M204 S1000
M204 S800
;WIDTH:0.19542
G1 X99.302 Y118.825 E.0014
M204 S1000
G1 X99.217 Y118.736 F10800
M204 S800
;WIDTH:0.212924
G1 F1200
G1 X99.161 Y118.735 E.00079
M204 S1000
M204 S800
;WIDTH:0.21204
G1 X98.936 Y118.756 E.00318
M204 S1000
M204 S800
;WIDTH:0.162662
G1 X98.71 Y118.777 E.00225
M204 S1000
M204 S800
;WIDTH:0.113287
G1 X98.71 Y118.777 E0
M204 S1000
M204 S800
;WIDTH:0.113166
G1 X98.69 Y118.779 E.00012
M204 S1000
M204 S800
;WIDTH:0.109151
G1 X98.687 Y118.78 E.00002
M204 S1000
M204 S800
;WIDTH:0.108632
G1 X98.505 Y118.789 E.00099
M204 S1000
;WIPE_START
G1 F8640
G1 X98.687 Y118.78 E-.04198
;WIPE_END
G1 E-.75802 F2100
G1 Z.6 F720
G1 X100.548 Y117.692 F10800
G1 Z.2 F720
G1 E.8 F2100
M204 S800
;WIDTH:0.346139
G1 F1200
G1 X100.846 Y117.673 E.00754
M204 S1000
M204 S800
;WIDTH:0.317813
G1 X101.145 Y117.654 E.00683
M204 S1000
M204 S800
;WIDTH:0.289486
G1 X101.156 Y117.654 E.00022
M204 S1000
M204 S800
;WIDTH:0.288583
G1 X101.679 Y117.644 E.01069
M204 S1000
M204 S800
;WIDTH:0.26868
G1 X101.683 Y117.644 E.00008
M204 S1000
M204 S800
;WIDTH:0.268599
G1 X105.179 Y117.643 E.0656
M204 S1000
;WIPE_START
G1 F8640
G1 X101.888 Y117.644 E-.76
;WIPE_END
G1 E-.04 F2100
G1 Z.6 F720
G1 X106.345 Y116.568 F10800
G1 Z.2 F720
G1 E.8 F2100
M204 S800
;TYPE:Solid infill
;WIDTH:0.495415
G1 F1200
G1 X106.83 Y117.053 E.02579
G1 X106.815 Y117.284 E.00872
G1 X106.421 Y117.284 E.0148
G1 X105.65 Y116.513 E.04102
G1 X105.65 Y117.153 E.02408
G1 X105.951 Y117.454 E.01601
M204 S1000
;WIPE_START
G1 F8640
G1 X105.65 Y117.153 E-.09822
G1 X105.65 Y116.513 E-.14776
G1 X106.421 Y117.284 E-.25175
G1 X106.815 Y117.284 E-.09085
G1 X106.83 Y117.053 E-.05352
G1 X106.469 Y116.692 E-.11789
;WIPE_END
G1 E-.04 F2100
G1 Z.6 F720
G1 X107.103 Y117.217 F10800
G1 Z.2 F720
G1 E.8 F2100
M204 S800
;TYPE:Gap fill
;WIDTH:0.346765
G1 F1200
G1 X107.563 Y117.247 E.01167
M204 S1000
M204 S800
;WIDTH:0.306476
G1 X107.598 Y117.247 E.00075
M204 S1000
M204 S800
;WIDTH:0.346733
G1 X108.059 Y117.216 E.01168
M204 S1000
;WIPE_START
G1 F8640
G1 X107.598 Y117.247 E-.10674
;WIPE_END
G1 E-.69326 F2100
G1 Z.6 F720
G1 X105.67 Y116.107 F10800
G1 Z.2 F720
G1 E.8 F2100
M204 S800
;WIDTH:0.155048
G1 F1200
G1 X105.61 Y115.653 E.00427
M204 S1000
M204 S800
;WIDTH:0.151228
G1 X105.595 Y115.419 E.00211
M204 S1000
M204 S800
;WIDTH:0.122274
G1 X105.58 Y115.185 E.00155
M204 S1000
;WIPE_START
G1 F8640
G1 X105.595 Y115.419 E-.05416
;WIPE_END
G1 E-.74584 F2100
G1 Z.6 F720
G1 X105.708 Y114.116 F10800
G1 Z.2 F720
G1 E.8 F2100
M204 S800
;WIDTH:0.365603
G1 F1200
G1 X105.713 Y114.079 E.00101
M204 S1000
M204 S800
;WIDTH:0.408122
G1 X105.718 Y114.001 E.00237
G1 X105.637 Y113.98 E.00255
M204 S1000
M204 S800
;WIDTH:0.398696
G1 X105.556 Y113.959 E.00248
M204 S1000
M204 S800
;WIDTH:0.356694
G1 X100.576 Y113.959 E.12993
M204 S1000
;WIPE_START
G1 F8640
G1 X103.868 Y113.959 E-.76
;WIPE_END
G1 E-.04 F2100
G1 Z.6 F720
G1 X106.822 Y113.57 F10800
G1 Z.2 F720
G1 E.8 F2100
M204 S800
;WIDTH:0.288381
G1 F1200
G1 X107.007 Y113.536 E.00383
M204 S1000
M204 S800
;WIDTH:0.243475
G1 X107.192 Y113.503 E.00313
M204 S1000
M204 S800
;WIDTH:0.198571
G1 X107.209 Y113.501 E.00023
M204 S1000
M204 S800
;WIDTH:0.194253
G1 X107.574 Y113.477 E.0046
M204 S1000
M204 S800
;WIDTH:0.146612
G1 X107.587 Y113.477 E.00012
M204 S1000
M204 S800
;WIDTH:0.173988
G1 X107.797 Y113.491 E.00229
M204 S1000
M204 S800
;WIDTH:0.201364
G1 X108.006 Y113.504 E.00277
M204 S1000
M204 S800
;WIDTH:0.206953
G1 X108.346 Y113.549 E.00467
M204 S1000
;WIPE_START
G1 F8640
G1 X108.006 Y113.504 E-.0791
;WIPE_END
G1 E-.7209 F2100
G1 Z.6 F720
G1 X118.915 Y113.727 F10800
G1 Z.2 F720
G1 E.8 F2100
M204 S800
;TYPE:Solid infill
;WIDTH:0.429583
G1 F1200
G1 X119.528 Y114.34 E.02787
G1 X119.528 Y114.887 E.01758
G1 X118.538 Y113.896 E.04502
G1 X117.991 Y113.896 E.01758
G1 X119.528 Y115.433 E.06988
G1 X119.528 Y115.98 E.01758
G1 X117.444 Y113.896 E.09474
G1 X116.897 Y113.896 E.01758
G1 X119.528 Y116.527 E.11961
G1 X119.528 Y117.074 E.01758
G1 X116.351 Y113.896 E.14447
G1 X115.804 Y113.896 E.01758
G1 X119.19 Y117.282 E.15395
G1 X118.643 Y117.282 E.01758
G1 X115.257 Y113.896 E.15396
G1 X114.71 Y113.896 E.01758
G1 X118.096 Y117.283 E.15396
G1 X117.55 Y117.283 E.01758
G1 X114.163 Y113.896 E.15396
G1 X113.617 Y113.896 E.01758
G1 X117.003 Y117.283 E.15397
G1 X116.456 Y117.283 E.01758
G1 X113.07 Y113.896 E.15397
G1 X112.523 Y113.896 E.01758
G1 X115.909 Y117.283 E.15398
G1 X115.363 Y117.283 E.01758
G1 X111.976 Y113.896 E.15398
G1 X111.429 Y113.896 E.01758
G1 X114.816 Y117.283 E.15398
G1 X114.269 Y117.283 E.01758
G1 X110.882 Y113.896 E.15399
G1 X110.336 Y113.896 E.01758
G1 X113.722 Y117.283 E.15399
G1 X113.176 Y117.283 E.01758
G1 X109.789 Y113.896 E.154
G1 X109.242 Y113.896 E.01758
G1 X112.629 Y117.283 E.154
G1 X112.082 Y117.283 E.01758
G1 X109.619 Y114.82 E.11201
G1 X109.66 Y115.132 E.01012
G1 X109.628 Y115.376 E.0079
G1 X111.535 Y117.284 E.08675
G1 X110.989 Y117.284 E.01758
G1 X109.526 Y115.821 E.06649
G1 X109.359 Y116.201 E.01333
G1 X110.442 Y117.284 E.04925
G1 X109.895 Y117.284 E.01758
G1 X109.121 Y116.51 E.03519
G1 X109.05 Y116.602 E.00373
G1 X108.833 Y116.769 E.0088
G1 X109.348 Y117.284 E.02342
G1 X108.802 Y117.284 E.01758
G1 X108.37 Y116.852 E.01962
M204 S1000
;WIPE_START
G1 F8640
G1 X108.802 Y117.284 E-.14093
G1 X109.348 Y117.284 E-.12624
G1 X108.833 Y116.769 E-.16821
G1 X109.05 Y116.602 E-.06323
G1 X109.121 Y116.51 E-.02682
G1 X109.84 Y117.228 E-.23458
;WIPE_END
G1 E-.04 F2100
G1 Z.6 F720
G1 X139.269 Y115.132 F10800
G1 Z.2 F720
M73 P1 R40
G1 E.8 F2100
M204 S800
;TYPE:External perimeter
;WIDTH:0.42
G1 F1200
G1 X139.317 Y114.766 E.01158
G1 X139.458 Y114.425 E.01156
G1 X139.683 Y114.131 E.01161
G1 X139.976 Y113.908 E.01156
G1 X140.316 Y113.767 E.01155
G1 X140.632 Y113.725 E.00998
G1 X141.045 Y113.765 E.01302
G1 X141.389 Y113.908 E.01167
G1 X141.682 Y114.131 E.01156
G1 X141.907 Y114.425 E.01161
G1 X142.048 Y114.766 E.01156
G1 X142.096 Y115.132 E.01158
G1 X142.048 Y115.498 E.01158
G1 X141.907 Y115.839 E.01157
G1 X141.682 Y116.131 E.01156
G1 X141.389 Y116.356 E.01156
G1 X141.049 Y116.497 E.01157
G1 X140.683 Y116.546 E.01158
G1 X140.316 Y116.497 E.01158
G1 X139.976 Y116.356 E.01157
G1 X139.683 Y116.131 E.01156
G1 X139.458 Y115.839 E.01156
G1 X139.317 Y115.498 E.01157
G1 X139.277 Y115.191 E.0097
M204 S1000
G1 X138.949 Y114.947 F10800
G1 X138.95 Y115.597
M204 S800
;TYPE:Perimeter
G1 F1200
G1 X139.129 Y116.029 E.01469
G1 X139.414 Y116.4 E.01467
G1 X139.785 Y116.685 E.01467
G1 X140.218 Y116.865 E.01469
G1 X140.683 Y116.926 E.01469
G1 X141.147 Y116.865 E.01469
G1 X141.58 Y116.685 E.01469
G1 X141.951 Y116.4 E.01467
G1 X142.236 Y116.029 E.01467
G1 X142.415 Y115.597 E.01469
G1 X142.476 Y115.132 E.01469
G1 X142.415 Y114.667 E.01469
G1 X142.236 Y114.236 E.01466
G1 X141.951 Y113.862 E.01473
G1 X141.625 Y113.614 E.01285
G1 X145.115 Y113.614 E.10944
G1 X145.115 Y117.787 E.13086
G1 X159.095 Y117.787 E.43831
G1 X159.095 Y92.213 E.80186
G1 X145.115 Y92.213 E.43831
G1 X145.115 Y96.386 E.13086
G1 X141.625 Y96.386 E.10944
G1 X141.951 Y96.138 E.01285
G1 X142.236 Y95.764 E.01473
G1 X142.415 Y95.333 E.01466
G1 X142.476 Y94.868 E.01469
G1 X142.415 Y94.403 E.01469
G1 X142.236 Y93.971 E.01469
G1 X141.951 Y93.6 E.01467
G1 X141.58 Y93.315 E.01467
G1 X141.147 Y93.135 E.01469
G1 X140.682 Y93.074 E.01469
G1 X140.275 Y93.128 E.01288
G1 X139.793 Y93.308 E.01614
G1 X139.414 Y93.6 E.01499
G1 X139.129 Y93.971 E.01467
G1 X138.95 Y94.403 E.01469
G1 X138.889 Y94.868 E.01469
G1 X138.95 Y95.333 E.01469
G1 X139.129 Y95.764 E.01466
G1 X139.414 Y96.138 E.01473
G1 X139.74 Y96.386 E.01285
G1 X123.452 Y96.386 E.51069
G1 X123.452 Y92.435 E.12389
G1 X141.095 Y92.435 E.55317
G1 X141.095 Y91.787 E.02032
G1 X159.52 Y91.787 E.57773
G1 X159.52 Y118.213 E.82856
G1 X141.095 Y118.213 E.57773
G1 X141.095 Y117.565 E.02032
G1 X123.452 Y117.565 E.55317
G1 X123.452 Y113.614 E.12389
G1 X139.74 Y113.614 E.51069
G1 X139.414 Y113.862 E.01285
G1 X139.129 Y114.236 E.01473
G1 X138.95 Y114.667 E.01466
M73 Q2 S41
G1 X138.889 Y115.132 E.01469
G1 X138.942 Y115.537 E.01281
M204 S1000
;WIPE_START
M73 P2 R40
G1 F8640
G1 X139.129 Y116.029 E-.12161
G1 X139.414 Y116.4 E-.10802
G1 X139.785 Y116.685 E-.10802
G1 X140.218 Y116.865 E-.10818
G1 X140.683 Y116.926 E-.10819
G1 X141.147 Y116.865 E-.10819
G1 X141.538 Y116.703 E-.09778
;WIPE_END
G1 E-.04 F2100
G1 Z.6 F720
G1 X140.682 Y96.282 F10800
G1 Z.2 F720
G1 E.8 F2100
M204 S800
;TYPE:External perimeter
G1 F1200
G1 X140.316 Y96.233 E.01158
G1 X139.976 Y96.092 E.01155
G1 X139.683 Y95.869 E.01156
G1 X139.458 Y95.575 E.01161
G1 X139.317 Y95.234 E.01156
G1 X139.269 Y94.868 E.01158
G1 X139.317 Y94.502 E.01158
G1 X139.458 Y94.161 E.01157
G1 X139.683 Y93.869 E.01156
G1 X139.978 Y93.642 E.01168
G1 X140.367 Y93.496 E.01302
G1 X140.683 Y93.454 E.00997
G1 X141.049 Y93.503 E.01158
G1 X141.389 Y93.644 E.01157
G1 X141.682 Y93.869 E.01156
G1 X141.907 Y94.161 E.01156
G1 X142.048 Y94.502 E.01157
G1 X142.096 Y94.868 E.01158
G1 X142.048 Y95.234 E.01158
G1 X141.907 Y95.575 E.01156
G1 X141.682 Y95.869 E.01161
G1 X141.389 Y96.092 E.01156
G1 X141.049 Y96.233 E.01155
G1 X140.742 Y96.274 E.0097
M204 S1000
G1 X140.498 Y96.601 F10800
