; generated by PrusaSlicer 2.4.1+win64 on 2023-06-07 at 10:26:57 UTC


;
;
; 

; external perimeters extrusion width = 0.45mm
; perimeters extrusion width = 0.45mm
; infill extrusion width = 0.45mm
; solid infill extrusion width = 0.45mm
; top infill extrusion width = 0.40mm
; first layer extrusion width = 0.42mm

M73 P0 R51
M73 Q0 S51
M201 X1000 Y1000 Z200 E5000 ; sets maximum accelerations, mm/sec^2
M203 X200 Y200 Z12 E120 ; sets maximum feedrates, mm / sec
M204 P1250 R1250 T1250 ; sets acceleration (P, T) and retract acceleration (R), mm/sec^2
M205 X8.00 Y8.00 Z0.40 E4.50 ; sets the jerk limits, mm/sec
M205 S0 T0 ; sets the minimum extruding and travel feed rate, mm/sec
M107
;TYPE:Custom
M862.3 P "MK3S" ; printer model check
M862.1 P0.4 ; nozzle diameter check
M115 U3.11.0 ; tell printer latest fw version
G90 ; use absolute coordinates
M83 ; extruder relative mode
M104 S215 ; set extruder temp
M140 S60 ; set bed temp
M190 S60 ; wait for bed temp
M109 S215 ; wait for extruder temp
G28 W ; home all without mesh bed level
G80 ; mesh bed leveling

G1 Z0.2 F720
G1 Y-3 F1000 ; go outside print area
G92 E0
G1 X60 E9 F1000 ; intro line
G1 X100 E12.5 F1000 ; intro line

G92 E0
M221 S95

; Don't change E values below. Excessive value can damage the printer.
M907 E430 ; set extruder motor current
G21 ; set units to millimeters
G90 ; use absolute coordinates
M83 ; use relative distances for extrusion
M900 K0.05 ; Filament gcode LA 1.5
M900 K30 ; Filament gcode LA 1.0
M107
;LAYER_CHANGE
;Z:0.2
;HEIGHT:0.2
;BEFORE_LAYER_CHANGE
G92 E0.0
;0.2


G1 E-.8 F2100
G1 Z.4 F720
;AFTER_LAYER_CHANGE
;0.2
G1 X71.14 Y84.843 F10800
G1 Z.2 F720
G1 E.8 F2100
M204 S800
;TYPE:Skirt/Brim
;WIDTH:0.42
G1 F1200
G1 X72.185 Y83.967 E.04278
G1 X73.125 Y83.773 E.03008
G1 X176.875 Y83.773 E3.25301
G1 X178.182 Y84.165 E.04278
M73 P0 R50
G1 X179.058 Y85.21 E.04278
G1 X179.252 Y86.15 E.03008
G1 X179.252 Y123.85 E1.18206
G1 X178.86 Y125.157 E.04278
G1 X177.815 Y126.033 E.04278
G1 X176.875 Y126.227 E.03008
G1 X73.125 Y126.227 E3.25301
G1 X71.818 Y125.835 E.04278
G1 X70.942 Y124.79 E.04278
G1 X70.748 Y123.85 E.03008
G1 X70.748 Y86.15 E1.18206
G1 X71.122 Y84.9 E.0409
M204 S1000
; printing object Deckel mit Logo AA Schalter seitlich.stl id:0 copy 0
;WIPE_START
M73 Q0 S50
G1 F8640
G1 X72.185 Y83.967 E-.32671
G1 X73.125 Y83.773 E-.22155
G1 X74.042 Y83.773 E-.21174
;WIPE_END
G1 E-.04 F2100
G1 Z.6 F720
G1 X73.912 Y86.937 F10800
G1 Z.2 F720
G1 E.8 F2100
M204 S800
;TYPE:Perimeter
G1 F1200
G1 X176.088 Y86.937 E3.20365
G1 X176.088 Y123.063 E1.1327
G1 X73.912 Y123.063 E3.20365
G1 X73.912 Y86.997 E1.13082
M204 S1000
M73 P1 R50
M73 Q1 S50
G1 X73.535 Y86.56 F10800
M204 S800
;TYPE:External perimeter
G1 F1200
G1 X176.465 Y86.56 E3.2273
G1 X176.465 Y123.44 E1.15635
G1 X73.535 Y123.44 E3.2273
G1 X73.535 Y86.62 E1.15447
M204 S1000
G1 X73.932 Y86.606 F10800
;WIPE_START
G1 F8640
G1 X76.826 Y86.618 E-.76
;WIPE_END
G1 E-.04 F2100
G1 Z.6 F720
G1 X175.211 Y87.05 F10800
G1 Z.2 F720
G1 E.8 F2100
M204 S800
;TYPE:Solid infill
;WIDTH:0.420933
G1 F1200
G1 X175.805 Y87.645 E.02643
G1 X175.805 Y88.179 E.0168
G1 X174.846 Y87.22 E.04265
G1 X174.311 Y87.22 E.0168
G1 X175.805 Y88.714 E.06641
G1 X175.805 Y89.249 E.0168
G1 X173.776 Y87.22 E.09018
G1 X173.242 Y87.22 E.0168
G1 X175.805 Y89.783 E.11394
G1 X175.805 Y90.318 E.0168
G1 X172.707 Y87.22 E.1377
G1 X172.173 Y87.22 E.0168
G1 X175.805 Y90.852 E.16147
G1 X175.805 Y91.387 E.0168
G1 X171.638 Y87.22 E.18523
G1 X171.104 Y87.22 E.0168
G1 X175.805 Y91.921 E.20899
G1 X175.805 Y92.456 E.0168
G1 X170.569 Y87.22 E.23276
G1 X170.034 Y87.22 E.0168
G1 X175.805 Y92.991 E.25652
G1 X175.805 Y93.525 E.0168
G1 X169.5 Y87.22 E.28028
G1 X168.965 Y87.22 E.0168
G1 X175.805 Y94.06 E.30405
G1 X175.805 Y94.594 E.0168
G1 X168.431 Y87.22 E.32781
G1 X167.896 Y87.22 E.0168
G1 X175.805 Y95.129 E.35157
G1 X175.805 Y95.664 E.0168
G1 X167.361 Y87.22 E.37534
G1 X166.827 Y87.22 E.0168
G1 X175.805 Y96.198 E.3991
G1 X175.805 Y96.733 E.0168
G1 X166.292 Y87.22 E.42286
G1 X165.758 Y87.22 E.0168
G1 X175.805 Y97.267 E.44663
G1 X175.805 Y97.802 E.0168
G1 X165.223 Y87.22 E.47039
G1 X164.688 Y87.22 E.0168
G1 X175.805 Y98.337 E.49415
G1 X175.805 Y98.871 E.0168
G1 X164.154 Y87.22 E.51792
G1 X163.619 Y87.22 E.0168
M73 P2 R50
M73 Q2 S50
G1 X175.805 Y99.406 E.54168
G1 X175.805 Y99.94 E.0168
G1 X163.085 Y87.22 E.56544
G1 X162.55 Y87.22 E.0168
G1 X175.805 Y100.475 E.58921
G1 X175.805 Y101.01 E.0168
G1 X162.015 Y87.22 E.61297
G1 X161.481 Y87.22 E.0168
G1 X175.805 Y101.544 E.63673
G1 X175.805 Y102.079 E.0168
G1 X160.946 Y87.22 E.6605
G1 X160.412 Y87.22 E.0168
G1 X175.805 Y102.613 E.68426
G1 X175.805 Y103.148 E.0168
G1 X159.877 Y87.22 E.70802
G1 X159.343 Y87.22 E.0168
G1 X175.805 Y103.682 E.73179
G1 X175.805 Y104.217 E.0168
M73 P2 R49
G1 X158.808 Y87.22 E.75555
G1 X158.273 Y87.22 E.0168
G1 X175.805 Y104.752 E.77931
G1 X175.805 Y105.286 E.0168
G1 X157.739 Y87.22 E.80308
G1 X157.204 Y87.22 E.0168
G1 X175.805 Y105.821 E.82684
G1 X175.805 Y106.355 E.0168
G1 X156.67 Y87.22 E.8506
G1 X156.135 Y87.22 E.0168
G1 X175.805 Y106.89 E.87437
G1 X175.805 Y107.425 E.0168
G1 X155.6 Y87.22 E.89813
G1 X155.066 Y87.22 E.0168
M73 Q2 S49
G1 X175.805 Y107.959 E.92189
G1 X175.805 Y108.494 E.0168
G1 X154.531 Y87.22 E.94566
G1 X153.997 Y87.22 E.0168
G1 X175.805 Y109.028 E.96942
G1 X175.805 Y109.563 E.0168
G1 X153.462 Y87.22 E.99318
G1 X152.927 Y87.22 E.0168
G1 X175.805 Y110.098 E1.01695
G1 X175.805 Y110.632 E.0168
G1 X152.393 Y87.22 E1.04071
G1 X151.858 Y87.22 E.0168
G1 X175.805 Y111.167 E1.06447
G1 X175.805 Y111.701 E.0168
M73 Q3 S49
G1 X151.324 Y87.22 E1.08824
G1 X150.789 Y87.22 E.0168
M73 P3 R49
G1 X175.805 Y112.236 E1.112
G1 X175.805 Y112.771 E.0168
G1 X150.254 Y87.22 E1.13576
G1 X149.72 Y87.22 E.0168
G1 X175.805 Y113.305 E1.15953
G1 X175.805 Y113.84 E.0168
G1 X149.185 Y87.22 E1.18329
G1 X148.651 Y87.22 E.0168
G1 X175.805 Y114.374 E1.20705
G1 X175.805 Y114.909 E.0168
G1 X148.116 Y87.22 E1.23082
G1 X147.582 Y87.22 E.0168
G1 X175.805 Y115.443 E1.25458
G1 X175.805 Y115.978 E.0168
G1 X147.047 Y87.22 E1.27834
G1 X146.512 Y87.22 E.0168
G1 X175.805 Y116.513 E1.30211
G1 X175.805 Y117.047 E.0168
G1 X145.978 Y87.22 E1.32587
G1 X145.443 Y87.22 E.0168
G1 X175.805 Y117.582 E1.34963
G1 X175.805 Y118.116 E.0168
G1 X144.909 Y87.22 E1.3734
G1 X144.374 Y87.22 E.0168
G1 X175.805 Y118.651 E1.39716
G1 X175.805 Y119.186 E.0168
G1 X143.839 Y87.22 E1.42092
G1 X143.305 Y87.22 E.0168
G1 X175.805 Y119.72 E1.44469
G1 X175.805 Y120.255 E.0168
M73 P4 R49
M73 Q4 S49
G1 X142.77 Y87.22 E1.46845
G1 X142.236 Y87.22 E.0168
G1 X175.805 Y120.789 E1.49221
G1 X175.805 Y121.324 E.0168
G1 X141.701 Y87.22 E1.51598
G1 X141.166 Y87.22 E.0168
M73 P4 R48
G1 X175.805 Y121.859 E1.53974
G1 X175.805 Y122.393 E.0168
G1 X140.632 Y87.22 E1.5635
G1 X140.097 Y87.22 E.0168
G1 X175.657 Y122.78 E1.5807
G1 X175.123 Y122.78 E.0168
G1 X139.563 Y87.22 E1.5807
G1 X139.028 Y87.22 E.0168
M73 Q4 S48
G1 X174.588 Y122.78 E1.5807
G1 X174.054 Y122.78 E.0168
G1 X138.493 Y87.22 E1.5807
G1 X137.959 Y87.22 E.0168
G1 X173.519 Y122.78 E1.5807
G1 X172.985 Y122.78 E.0168
G1 X137.424 Y87.22 E1.5807
G1 X136.89 Y87.22 E.0168
G1 X172.45 Y122.78 E1.5807
G1 X171.915 Y122.78 E.0168
M73 P5 R48
M73 Q5 S48
G1 X136.355 Y87.22 E1.5807
G1 X135.821 Y87.22 E.0168
G1 X171.381 Y122.78 E1.5807
G1 X170.846 Y122.78 E.0168
G1 X135.286 Y87.22 E1.5807
G1 X134.751 Y87.22 E.0168
G1 X170.312 Y122.78 E1.5807
G1 X169.777 Y122.78 E.0168
G1 X134.217 Y87.22 E1.5807
G1 X133.682 Y87.22 E.0168
G1 X169.242 Y122.78 E1.5807
G1 X168.708 Y122.78 E.0168
G1 X133.148 Y87.22 E1.5807
G1 X132.613 Y87.22 E.0168
G1 X168.173 Y122.78 E1.5807
G1 X167.639 Y122.78 E.0168
G1 X132.078 Y87.22 E1.5807
G1 X131.544 Y87.22 E.0168
G1 X167.104 Y122.78 E1.5807
G1 X166.569 Y122.78 E.0168
G1 X131.009 Y87.22 E1.5807
G1 X130.475 Y87.22 E.0168
G1 X166.035 Y122.78 E1.5807
G1 X165.5 Y122.78 E.0168
M73 P6 R48
M73 Q6 S48
G1 X129.94 Y87.22 E1.5807
G1 X129.405 Y87.22 E.0168
G1 X164.966 Y122.78 E1.5807
G1 X164.431 Y122.78 E.0168
G1 X128.871 Y87.22 E1.5807
G1 X128.336 Y87.22 E.0168
M73 P6 R47
G1 X163.896 Y122.78 E1.5807
G1 X163.362 Y122.78 E.0168
G1 X127.802 Y87.22 E1.5807
G1 X127.267 Y87.22 E.0168
G1 X162.827 Y122.78 E1.5807
G1 X162.293 Y122.78 E.0168
M73 Q6 S47
G1 X126.732 Y87.22 E1.5807
G1 X126.198 Y87.22 E.0168
G1 X161.758 Y122.78 E1.5807
G1 X161.224 Y122.78 E.0168
G1 X125.663 Y87.22 E1.5807
G1 X125.129 Y87.22 E.0168
G1 X160.689 Y122.78 E1.5807
G1 X160.154 Y122.78 E.0168
G1 X124.594 Y87.22 E1.5807
G1 X124.059 Y87.22 E.0168
G1 X159.62 Y122.78 E1.5807
G1 X159.085 Y122.78 E.0168
M73 P7 R47
M73 Q7 S47
G1 X123.525 Y87.22 E1.5807
G1 X122.99 Y87.22 E.0168
G1 X158.551 Y122.78 E1.5807
G1 X158.016 Y122.78 E.0168
G1 X122.456 Y87.22 E1.5807
G1 X121.921 Y87.22 E.0168
G1 X157.481 Y122.78 E1.5807
G1 X156.947 Y122.78 E.0168
G1 X121.387 Y87.22 E1.5807
G1 X120.852 Y87.22 E.0168
G1 X156.412 Y122.78 E1.5807
G1 X155.878 Y122.78 E.0168
G1 X120.317 Y87.22 E1.5807
G1 X119.783 Y87.22 E.0168
G1 X155.343 Y122.78 E1.5807
G1 X154.808 Y122.78 E.0168
G1 X119.248 Y87.22 E1.5807
G1 X118.714 Y87.22 E.0168
G1 X154.274 Y122.78 E1.5807
G1 X153.739 Y122.78 E.0168
G1 X118.179 Y87.22 E1.5807
G1 X117.644 Y87.22 E.0168
G1 X153.205 Y122.78 E1.5807
G1 X152.67 Y122.78 E.0168
M73 P8 R47
M73 Q8 S47
G1 X117.11 Y87.22 E1.5807
G1 X116.575 Y87.22 E.0168
G1 X152.135 Y122.78 E1.5807
G1 X151.601 Y122.78 E.0168
M73 P8 R46
G1 X116.041 Y87.22 E1.5807
G1 X115.506 Y87.22 E.0168
G1 X151.066 Y122.78 E1.5807
G1 X150.532 Y122.78 E.0168
G1 X114.971 Y87.22 E1.5807
G1 X114.437 Y87.22 E.0168
G1 X149.997 Y122.78 E1.5807
G1 X149.463 Y122.78 E.0168
M73 Q8 S46
G1 X113.902 Y87.22 E1.5807
G1 X113.368 Y87.22 E.0168
G1 X148.928 Y122.78 E1.5807
G1 X148.393 Y122.78 E.0168
G1 X112.833 Y87.22 E1.5807
G1 X112.298 Y87.22 E.0168
G1 X147.859 Y122.78 E1.5807
G1 X147.324 Y122.78 E.0168
G1 X111.764 Y87.22 E1.5807
G1 X111.229 Y87.22 E.0168
G1 X146.79 Y122.78 E1.5807
G1 X146.255 Y122.78 E.0168
M73 P9 R46
M73 Q9 S46
G1 X110.695 Y87.22 E1.5807
G1 X110.16 Y87.22 E.0168
G1 X145.72 Y122.78 E1.5807
G1 X145.186 Y122.78 E.0168
G1 X109.626 Y87.22 E1.5807
G1 X109.091 Y87.22 E.0168
G1 X144.651 Y122.78 E1.5807
G1 X144.117 Y122.78 E.0168
G1 X108.556 Y87.22 E1.5807
G1 X108.022 Y87.22 E.0168
G1 X143.582 Y122.78 E1.5807
G1 X143.047 Y122.78 E.0168
G1 X107.487 Y87.22 E1.5807
G1 X106.953 Y87.22 E.0168
G1 X142.513 Y122.78 E1.5807
G1 X141.978 Y122.78 E.0168
G1 X106.418 Y87.22 E1.5807
G1 X105.883 Y87.22 E.0168
G1 X141.444 Y122.78 E1.5807
G1 X140.909 Y122.78 E.0168
G1 X105.349 Y87.22 E1.5807
G1 X104.814 Y87.22 E.0168
G1 X140.374 Y122.78 E1.5807
G1 X139.84 Y122.78 E.0168
M73 P10 R46
M73 Q10 S46
G1 X104.28 Y87.22 E1.5807
G1 X103.745 Y87.22 E.0168
G1 X139.305 Y122.78 E1.5807
G1 X138.771 Y122.78 E.0168
M73 P10 R45
G1 X103.21 Y87.22 E1.5807
G1 X102.676 Y87.22 E.0168
G1 X138.236 Y122.78 E1.5807
G1 X137.702 Y122.78 E.0168
G1 X102.141 Y87.22 E1.5807
G1 X101.607 Y87.22 E.0168
M73 Q10 S45
G1 X137.167 Y122.78 E1.5807
G1 X136.632 Y122.78 E.0168
G1 X101.072 Y87.22 E1.5807
G1 X100.537 Y87.22 E.0168
G1 X136.098 Y122.78 E1.5807
G1 X135.563 Y122.78 E.0168
G1 X100.003 Y87.22 E1.5807
G1 X99.468 Y87.22 E.0168
G1 X135.029 Y122.78 E1.5807
G1 X134.494 Y122.78 E.0168
G1 X98.934 Y87.22 E1.5807
G1 X98.399 Y87.22 E.0168
G1 X133.959 Y122.78 E1.5807
G1 X133.425 Y122.78 E.0168
M73 P11 R45
M73 Q11 S45
G1 X97.865 Y87.22 E1.5807
G1 X97.33 Y87.22 E.0168
G1 X132.89 Y122.78 E1.5807
G1 X132.356 Y122.78 E.0168
G1 X96.795 Y87.22 E1.5807
G1 X96.261 Y87.22 E.0168
G1 X131.821 Y122.78 E1.5807
G1 X131.286 Y122.78 E.0168
G1 X95.726 Y87.22 E1.5807
G1 X95.192 Y87.22 E.0168
G1 X130.752 Y122.78 E1.5807
G1 X130.217 Y122.78 E.0168
G1 X94.657 Y87.22 E1.5807
G1 X94.122 Y87.22 E.0168
G1 X129.683 Y122.78 E1.5807
G1 X129.148 Y122.78 E.0168
G1 X93.588 Y87.22 E1.5807
G1 X93.053 Y87.22 E.0168
G1 X128.613 Y122.78 E1.5807
G1 X128.079 Y122.78 E.0168
G1 X92.519 Y87.22 E1.5807
G1 X91.984 Y87.22 E.0168
G1 X127.544 Y122.78 E1.5807
G1 X127.01 Y122.78 E.0168
M73 P12 R45
M73 Q12 S45
G1 X91.449 Y87.22 E1.5807
G1 X90.915 Y87.22 E.0168
M73 P12 R44
G1 X126.475 Y122.78 E1.5807
G1 X125.941 Y122.78 E.0168
G1 X90.38 Y87.22 E1.5807
G1 X89.846 Y87.22 E.0168
G1 X125.406 Y122.78 E1.5807
G1 X124.871 Y122.78 E.0168
G1 X89.311 Y87.22 E1.5807
G1 X88.776 Y87.22 E.0168
M73 Q12 S44
G1 X124.337 Y122.78 E1.5807
G1 X123.802 Y122.78 E.0168
G1 X88.242 Y87.22 E1.5807
G1 X87.707 Y87.22 E.0168
G1 X123.268 Y122.78 E1.5807
G1 X122.733 Y122.78 E.0168
G1 X87.173 Y87.22 E1.5807
G1 X86.638 Y87.22 E.0168
G1 X122.198 Y122.78 E1.5807
G1 X121.664 Y122.78 E.0168
G1 X86.104 Y87.22 E1.5807
G1 X85.569 Y87.22 E.0168
G1 X121.129 Y122.78 E1.5807
G1 X120.595 Y122.78 E.0168
M73 P13 R44
M73 Q13 S44
G1 X85.034 Y87.22 E1.5807
G1 X84.5 Y87.22 E.0168
G1 X120.06 Y122.78 E1.5807
G1 X119.525 Y122.78 E.0168
G1 X83.965 Y87.22 E1.5807
G1 X83.431 Y87.22 E.0168
G1 X118.991 Y122.78 E1.5807
G1 X118.456 Y122.78 E.0168
G1 X82.896 Y87.22 E1.5807
G1 X82.361 Y87.22 E.0168
G1 X117.922 Y122.78 E1.5807
G1 X117.387 Y122.78 E.0168
G1 X81.827 Y87.22 E1.5807
G1 X81.292 Y87.22 E.0168
G1 X116.852 Y122.78 E1.5807
G1 X116.318 Y122.78 E.0168
G1 X80.758 Y87.22 E1.5807
G1 X80.223 Y87.22 E.0168
G1 X115.783 Y122.78 E1.5807
G1 X115.249 Y122.78 E.0168
G1 X79.688 Y87.22 E1.5807
G1 X79.154 Y87.22 E.0168
G1 X114.714 Y122.78 E1.5807
G1 X114.18 Y122.78 E.0168
M73 P14 R44
M73 Q14 S44
G1 X78.619 Y87.22 E1.5807
G1 X78.085 Y87.22 E.0168
M73 P14 R43
G1 X113.645 Y122.78 E1.5807
G1 X113.11 Y122.78 E.0168
G1 X77.55 Y87.22 E1.5807
G1 X77.015 Y87.22 E.0168
G1 X112.576 Y122.78 E1.5807
G1 X112.041 Y122.78 E.0168
M73 Q14 S43
G1 X76.481 Y87.22 E1.5807
G1 X75.946 Y87.22 E.0168
G1 X111.507 Y122.78 E1.5807
G1 X110.972 Y122.78 E.0168
G1 X75.412 Y87.22 E1.5807
G1 X74.877 Y87.22 E.0168
G1 X110.437 Y122.78 E1.5807
G1 X109.903 Y122.78 E.0168
G1 X74.343 Y87.22 E1.5807
G1 X74.195 Y87.22 E.00464
G1 X74.195 Y87.607 E.01216
G1 X109.368 Y122.78 E1.5635
G1 X108.834 Y122.78 E.0168
G1 X74.195 Y88.141 E1.53974
G1 X74.195 Y88.676 E.0168
G1 X108.299 Y122.78 E1.51598
G1 X107.764 Y122.78 E.0168
M73 P15 R43
M73 Q15 S43
G1 X74.195 Y89.211 E1.49221
G1 X74.195 Y89.745 E.0168
G1 X107.23 Y122.78 E1.46845
G1 X106.695 Y122.78 E.0168
G1 X74.195 Y90.28 E1.44469
G1 X74.195 Y90.814 E.0168
G1 X106.161 Y122.78 E1.42092
G1 X105.626 Y122.78 E.0168
G1 X74.195 Y91.349 E1.39716
G1 X74.195 Y91.884 E.0168
G1 X105.091 Y122.78 E1.3734
G1 X104.557 Y122.78 E.0168
G1 X74.195 Y92.418 E1.34963
G1 X74.195 Y92.953 E.0168
G1 X104.022 Y122.78 E1.32587
G1 X103.488 Y122.78 E.0168
G1 X74.195 Y93.487 E1.30211
G1 X74.195 Y94.022 E.0168
G1 X102.953 Y122.78 E1.27834
G1 X102.418 Y122.78 E.0168
G1 X74.195 Y94.557 E1.25458
G1 X74.195 Y95.091 E.0168
G1 X101.884 Y122.78 E1.23082
G1 X101.349 Y122.78 E.0168
G1 X74.195 Y95.626 E1.20705
G1 X74.195 Y96.16 E.0168
G1 X100.815 Y122.78 E1.18329
G1 X100.28 Y122.78 E.0168
M73 P16 R42
G1 X74.195 Y96.695 E1.15953
G1 X74.195 Y97.229 E.0168
M73 Q16 S43
G1 X99.746 Y122.78 E1.13576
G1 X99.211 Y122.78 E.0168
G1 X74.195 Y97.764 E1.112
G1 X74.195 Y98.299 E.0168
G1 X98.676 Y122.78 E1.08824
G1 X98.142 Y122.78 E.0168
G1 X74.195 Y98.833 E1.06447
G1 X74.195 Y99.368 E.0168
M73 Q16 S42
G1 X97.607 Y122.78 E1.04071
G1 X97.073 Y122.78 E.0168
G1 X74.195 Y99.902 E1.01695
G1 X74.195 Y100.437 E.0168
G1 X96.538 Y122.78 E.99318
G1 X96.003 Y122.78 E.0168
G1 X74.195 Y100.972 E.96942
G1 X74.195 Y101.506 E.0168
G1 X95.469 Y122.78 E.94566
G1 X94.934 Y122.78 E.0168
G1 X74.195 Y102.041 E.92189
G1 X74.195 Y102.575 E.0168
G1 X94.4 Y122.78 E.89813
G1 X93.865 Y122.78 E.0168
G1 X74.195 Y103.11 E.87437
G1 X74.195 Y103.645 E.0168
G1 X93.33 Y122.78 E.8506
G1 X92.796 Y122.78 E.0168
G1 X74.195 Y104.179 E.82684
G1 X74.195 Y104.714 E.0168
G1 X92.261 Y122.78 E.80308
G1 X91.727 Y122.78 E.0168
G1 X74.195 Y105.248 E.77931
G1 X74.195 Y105.783 E.0168
G1 X91.192 Y122.78 E.75555
G1 X90.657 Y122.78 E.0168
G1 X74.195 Y106.318 E.73179
G1 X74.195 Y106.852 E.0168
G1 X90.123 Y122.78 E.70802
G1 X89.588 Y122.78 E.0168
M73 P17 R42
G1 X74.195 Y107.387 E.68426
G1 X74.195 Y107.921 E.0168
M73 Q17 S42
G1 X89.054 Y122.78 E.6605
G1 X88.519 Y122.78 E.0168
G1 X74.195 Y108.456 E.63673
G1 X74.195 Y108.99 E.0168
