; generated by PrusaSlicer 2.5.2+win64 on 2023-06-07 at 11:50:36 UTC


;
;
; 

; external perimeters extrusion width = 0.45mm
; perimeters extrusion width = 0.45mm
; infill extrusion width = 0.45mm
; solid infill extrusion width = 0.45mm
; top infill extrusion width = 0.40mm
; first layer extrusion width = 0.42mm

M73 P0 R51
M73 Q0 S52
M201 X1000 Y1000 Z200 E5000 ; sets maximum accelerations, mm/sec^2
M203 X200 Y200 Z12 E120 ; sets maximum feedrates, mm / sec
M204 P1250 R1250 T1250 ; sets acceleration (P, T) and retract acceleration (R), mm/sec^2
M205 X8.00 Y8.00 Z0.40 E4.50 ; sets the jerk limits, mm/sec
M205 S0 T0 ; sets the minimum extruding and travel feed rate, mm/sec
M107
;TYPE:Custom
M862.3 P "MK3S" ; printer model check
M862.1 P0.4 ; nozzle diameter check
M115 U3.12.2 ; tell printer latest fw version
G90 ; use absolute coordinates
M83 ; extruder relative mode
M104 S215 ; set extruder temp
M140 S60 ; set bed temp
M190 S60 ; wait for bed temp
M109 S215 ; wait for extruder temp
G28 W ; home all without mesh bed level
G80 ; mesh bed leveling

G1 Z0.2 F720
G1 Y-3 F1000 ; go outside print area
G92 E0
G1 X60 E9 F1000 ; intro line
G1 X100 E12.5 F1000 ; intro line

G92 E0
M221 S95

; Don't change E values below. Excessive value can damage the printer.
M907 E430 ; set extruder motor current
G21 ; set units to millimeters
G90 ; use absolute coordinates
M83 ; use relative distances for extrusion
M900 K0.05 ; Filament gcode LA 1.5
M900 K30 ; Filament gcode LA 1.0
M107
;LAYER_CHANGE
;Z:0.2
;HEIGHT:0.2
;BEFORE_LAYER_CHANGE
G92 E0.0
;0.2


G1 E-.8 F2100
G1 Z.4 F720
;AFTER_LAYER_CHANGE
;0.2
G1 X66.56 Y83.942 F10800
G1 Z.2 F720
M73 Q0 S51
G1 E.8 F2100
M204 S800
;TYPE:Skirt/Brim
;WIDTH:0.42
G1 F1200
G1 X67.5 Y83.748 E.03008
G1 X182.5 Y83.748 E3.60574
G1 X183.807 Y84.14 E.04278
G1 X184.683 Y85.185 E.04278
G1 X184.877 Y86.125 E.03008
G1 X184.877 Y123.875 E1.18362
G1 X184.485 Y125.182 E.04278
G1 X183.44 Y126.058 E.04278
G1 X182.5 Y126.252 E.03008
G1 X67.5 Y126.252 E3.60574
G1 X66.193 Y125.86 E.04278
G1 X65.317 Y124.815 E.04278
G1 X65.123 Y123.875 E.03008
G1 X65.123 Y86.125 E1.18362
G1 X65.515 Y84.818 E.04278
G1 X66.514 Y83.98 E.0409
M204 S1000
; printing object Deckel AA Schalter hinten.stl id:0 copy 0
;WIPE_START
G1 F8640
G1 X67.5 Y83.748 E-.23384
G1 X69.779 Y83.748 E-.52616
;WIPE_END
G1 E-.04 F2100
G1 Z.6 F720
G1 X181.713 Y123.088 F10800
G1 Z.2 F720
G1 E.8 F2100
M204 S800
;TYPE:Perimeter
;WIDTH:0.419999
G1 F1200
G1 X68.287 Y123.088 E3.55638
G1 X68.287 Y86.912 E1.13427
G1 X181.713 Y86.912 E3.55638
M73 P1 R51
M73 Q1 S51
G1 X181.713 Y123.028 E1.13239
M204 S1000
G1 X182.09 Y123.465 F10800
M204 S800
;TYPE:External perimeter
G1 F1200
G1 X67.91 Y123.465 E3.58003
G1 X67.91 Y86.535 E1.15791
G1 X182.09 Y86.535 E3.58003
G1 X182.09 Y123.405 E1.15603
M204 S1000
G1 X181.692 Y123.423 F10800
;WIPE_START
G1 F8640
G1 X178.799 Y123.407 E-.76
;WIPE_END
G1 E-.04 F2100
G1 Z.6 F720
G1 X181.543 Y87.845 F10800
G1 Z.2 F720
G1 E.8 F2100
M204 S800
;TYPE:Solid infill
;WIDTH:0.420546
G1 F1200
G1 X180.95 Y87.251 E.02637
G1 X180.415 Y87.251 E.01677
G1 X181.374 Y88.21 E.04255
G1 X181.374 Y88.744 E.01677
G1 X179.881 Y87.251 E.06626
G1 X179.347 Y87.251 E.01677
G1 X181.374 Y89.278 E.08997
G1 X181.374 Y89.812 E.01677
G1 X178.813 Y87.251 E.11369
M73 P1 R50
G1 X178.279 Y87.251 E.01677
G1 X181.374 Y90.346 E.1374
G1 X181.374 Y90.88 E.01677
G1 X177.745 Y87.251 E.16112
G1 X177.211 Y87.251 E.01677
G1 X181.374 Y91.414 E.18483
G1 X181.374 Y91.948 E.01677
G1 X176.677 Y87.251 E.20855
G1 X176.143 Y87.251 E.01677
G1 X181.374 Y92.482 E.23226
G1 X181.374 Y93.016 E.01677
G1 X175.609 Y87.251 E.25598
G1 X175.075 Y87.251 E.01677
G1 X181.374 Y93.55 E.27969
G1 X181.374 Y94.084 E.01677
G1 X174.541 Y87.251 E.30341
G1 X174.007 Y87.251 E.01677
G1 X181.374 Y94.618 E.32712
G1 X181.374 Y95.152 E.01677
G1 X173.473 Y87.251 E.35084
G1 X172.939 Y87.251 E.01677
G1 X181.374 Y95.686 E.37455
G1 X181.374 Y96.22 E.01677
G1 X172.405 Y87.251 E.39827
G1 X171.871 Y87.251 E.01677
G1 X181.374 Y96.754 E.42198
G1 X181.374 Y97.288 E.01677
M73 Q2 S51
G1 X171.337 Y87.251 E.4457
G1 X170.803 Y87.251 E.01677
M73 P2 R50
G1 X181.374 Y97.822 E.46941
G1 X181.374 Y98.356 E.01677
G1 X170.269 Y87.251 E.49312
G1 X169.735 Y87.251 E.01677
G1 X181.374 Y98.89 E.51684
G1 X181.374 Y99.424 E.01677
G1 X169.201 Y87.251 E.54055
G1 X168.666 Y87.251 E.01677
M73 Q2 S50
G1 X181.374 Y99.959 E.56427
G1 X181.374 Y100.493 E.01677
G1 X168.132 Y87.251 E.58798
G1 X167.598 Y87.251 E.01677
G1 X181.374 Y101.027 E.6117
G1 X181.374 Y101.561 E.01677
G1 X167.064 Y87.251 E.63541
G1 X166.53 Y87.251 E.01677
G1 X181.374 Y102.095 E.65913
G1 X181.374 Y102.629 E.01677
G1 X165.996 Y87.251 E.68284
G1 X165.462 Y87.251 E.01677
G1 X181.374 Y103.163 E.70656
G1 X181.374 Y103.697 E.01677
G1 X164.928 Y87.251 E.73027
G1 X164.394 Y87.251 E.01677
G1 X181.374 Y104.231 E.75399
G1 X181.374 Y104.765 E.01677
G1 X163.86 Y87.251 E.7777
G1 X163.326 Y87.251 E.01677
G1 X181.374 Y105.299 E.80142
G1 X181.374 Y105.833 E.01677
G1 X162.792 Y87.251 E.82513
G1 X162.258 Y87.251 E.01677
G1 X181.374 Y106.367 E.84885
G1 X181.374 Y106.901 E.01677
G1 X161.724 Y87.251 E.87256
G1 X161.19 Y87.251 E.01677
G1 X181.374 Y107.435 E.89627
G1 X181.374 Y107.969 E.01677
G1 X160.656 Y87.251 E.91999
G1 X160.122 Y87.251 E.01677
G1 X181.374 Y108.503 E.9437
G1 X181.374 Y109.037 E.01677
G1 X159.588 Y87.251 E.96742
G1 X159.054 Y87.251 E.01677
G1 X181.374 Y109.571 E.99113
G1 X181.374 Y110.105 E.01677
G1 X158.52 Y87.251 E1.01485
G1 X157.986 Y87.251 E.01677
G1 X181.374 Y110.639 E1.03856
G1 X181.374 Y111.173 E.01677
M73 P3 R50
M73 Q3 S50
G1 X157.452 Y87.251 E1.06228
G1 X156.918 Y87.251 E.01677
G1 X181.374 Y111.707 E1.08599
G1 X181.374 Y112.242 E.01677
G1 X156.383 Y87.251 E1.10971
G1 X155.849 Y87.251 E.01677
G1 X181.374 Y112.776 E1.13342
G1 X181.374 Y113.31 E.01677
G1 X155.315 Y87.251 E1.15714
G1 X154.781 Y87.251 E.01677
G1 X181.374 Y113.844 E1.18085
G1 X181.374 Y114.378 E.01677
G1 X154.247 Y87.251 E1.20457
G1 X153.713 Y87.251 E.01677
G1 X181.374 Y114.912 E1.22828
G1 X181.374 Y115.446 E.01677
G1 X153.179 Y87.251 E1.252
G1 X152.645 Y87.251 E.01677
G1 X181.374 Y115.98 E1.27571
G1 X181.374 Y116.514 E.01677
G1 X152.111 Y87.251 E1.29943
G1 X151.577 Y87.251 E.01677
G1 X181.374 Y117.048 E1.32314
G1 X181.374 Y117.582 E.01677
M73 P3 R49
G1 X151.043 Y87.251 E1.34685
G1 X150.509 Y87.251 E.01677
G1 X181.374 Y118.116 E1.37057
G1 X181.374 Y118.65 E.01677
G1 X149.975 Y87.251 E1.39428
G1 X149.441 Y87.251 E.01677
G1 X181.374 Y119.184 E1.418
G1 X181.374 Y119.718 E.01677
M73 P4 R49
M73 Q4 S49
G1 X148.907 Y87.251 E1.44171
G1 X148.373 Y87.251 E.01677
G1 X181.374 Y120.252 E1.46543
G1 X181.374 Y120.786 E.01677
G1 X147.839 Y87.251 E1.48914
G1 X147.305 Y87.251 E.01677
G1 X181.374 Y121.32 E1.51286
G1 X181.374 Y121.854 E.01677
G1 X146.771 Y87.251 E1.53657
G1 X146.237 Y87.251 E.01677
G1 X181.374 Y122.388 E1.56029
G1 X181.374 Y122.749 E.01131
G1 X181.2 Y122.749 E.00546
G1 X145.703 Y87.251 E1.57628
G1 X145.169 Y87.251 E.01677
G1 X180.666 Y122.749 E1.57628
G1 X180.132 Y122.749 E.01677
G1 X144.635 Y87.251 E1.57628
G1 X144.1 Y87.251 E.01677
G1 X179.598 Y122.749 E1.57628
G1 X179.064 Y122.749 E.01677
G1 X143.566 Y87.251 E1.57628
G1 X143.032 Y87.251 E.01677
G1 X178.53 Y122.749 E1.57628
G1 X177.995 Y122.749 E.01677
M73 P5 R49
M73 Q5 S49
G1 X142.498 Y87.251 E1.57628
G1 X141.964 Y87.251 E.01677
G1 X177.461 Y122.749 E1.57628
G1 X176.927 Y122.749 E.01677
G1 X141.43 Y87.251 E1.57628
G1 X140.896 Y87.251 E.01677
G1 X176.393 Y122.749 E1.57628
G1 X175.859 Y122.749 E.01677
G1 X140.362 Y87.251 E1.57628
G1 X139.828 Y87.251 E.01677
G1 X175.325 Y122.749 E1.57628
G1 X174.791 Y122.749 E.01677
G1 X139.294 Y87.251 E1.57628
G1 X138.76 Y87.251 E.01677
G1 X174.257 Y122.749 E1.57628
G1 X173.723 Y122.749 E.01677
M73 P5 R48
G1 X138.226 Y87.251 E1.57628
G1 X137.692 Y87.251 E.01677
G1 X173.189 Y122.749 E1.57628
G1 X172.655 Y122.749 E.01677
G1 X137.158 Y87.251 E1.57628
G1 X136.624 Y87.251 E.01677
G1 X172.121 Y122.749 E1.57628
G1 X171.587 Y122.749 E.01677
M73 Q5 S48
G1 X136.09 Y87.251 E1.57628
G1 X135.556 Y87.251 E.01677
M73 P6 R48
M73 Q6 S48
G1 X171.053 Y122.749 E1.57628
G1 X170.519 Y122.749 E.01677
G1 X135.022 Y87.251 E1.57628
G1 X134.488 Y87.251 E.01677
G1 X169.985 Y122.749 E1.57628
G1 X169.451 Y122.749 E.01677
G1 X133.954 Y87.251 E1.57628
G1 X133.42 Y87.251 E.01677
G1 X168.917 Y122.749 E1.57628
G1 X168.383 Y122.749 E.01677
G1 X132.886 Y87.251 E1.57628
G1 X132.352 Y87.251 E.01677
G1 X167.849 Y122.749 E1.57628
G1 X167.315 Y122.749 E.01677
G1 X131.817 Y87.251 E1.57628
G1 X131.283 Y87.251 E.01677
G1 X166.781 Y122.749 E1.57628
G1 X166.247 Y122.749 E.01677
G1 X130.749 Y87.251 E1.57628
G1 X130.215 Y87.251 E.01677
G1 X165.712 Y122.749 E1.57628
G1 X165.178 Y122.749 E.01677
G1 X129.681 Y87.251 E1.57628
G1 X129.147 Y87.251 E.01677
M73 P7 R48
M73 Q7 S48
G1 X164.644 Y122.749 E1.57628
G1 X164.11 Y122.749 E.01677
G1 X128.613 Y87.251 E1.57628
G1 X128.079 Y87.251 E.01677
G1 X163.576 Y122.749 E1.57628
G1 X163.042 Y122.749 E.01677
G1 X127.545 Y87.251 E1.57628
G1 X127.011 Y87.251 E.01677
G1 X162.508 Y122.749 E1.57628
G1 X161.974 Y122.749 E.01677
G1 X126.477 Y87.251 E1.57628
G1 X125.943 Y87.251 E.01677
G1 X161.44 Y122.749 E1.57628
G1 X160.906 Y122.749 E.01677
M73 P7 R47
G1 X125.409 Y87.251 E1.57628
G1 X124.875 Y87.251 E.01677
G1 X160.372 Y122.749 E1.57628
G1 X159.838 Y122.749 E.01677
G1 X124.341 Y87.251 E1.57628
G1 X123.807 Y87.251 E.01677
G1 X159.304 Y122.749 E1.57628
G1 X158.77 Y122.749 E.01677
M73 Q7 S47
G1 X123.273 Y87.251 E1.57628
G1 X122.739 Y87.251 E.01677
M73 P8 R47
M73 Q8 S47
G1 X158.236 Y122.749 E1.57628
G1 X157.702 Y122.749 E.01677
G1 X122.205 Y87.251 E1.57628
G1 X121.671 Y87.251 E.01677
G1 X157.168 Y122.749 E1.57628
G1 X156.634 Y122.749 E.01677
G1 X121.137 Y87.251 E1.57628
G1 X120.603 Y87.251 E.01677
G1 X156.1 Y122.749 E1.57628
G1 X155.566 Y122.749 E.01677
G1 X120.069 Y87.251 E1.57628
G1 X119.534 Y87.251 E.01677
G1 X155.032 Y122.749 E1.57628
G1 X154.498 Y122.749 E.01677
G1 X119 Y87.251 E1.57628
G1 X118.466 Y87.251 E.01677
G1 X153.964 Y122.749 E1.57628
G1 X153.429 Y122.749 E.01677
G1 X117.932 Y87.251 E1.57628
G1 X117.398 Y87.251 E.01677
G1 X152.895 Y122.749 E1.57628
G1 X152.361 Y122.749 E.01677
G1 X116.864 Y87.251 E1.57628
G1 X116.33 Y87.251 E.01677
M73 P9 R47
M73 Q9 S47
G1 X151.827 Y122.749 E1.57628
G1 X151.293 Y122.749 E.01677
G1 X115.796 Y87.251 E1.57628
G1 X115.262 Y87.251 E.01677
G1 X150.759 Y122.749 E1.57628
G1 X150.225 Y122.749 E.01677
G1 X114.728 Y87.251 E1.57628
G1 X114.194 Y87.251 E.01677
G1 X149.691 Y122.749 E1.57628
G1 X149.157 Y122.749 E.01677
G1 X113.66 Y87.251 E1.57628
G1 X113.126 Y87.251 E.01677
M73 P9 R46
G1 X148.623 Y122.749 E1.57628
G1 X148.089 Y122.749 E.01677
G1 X112.592 Y87.251 E1.57628
G1 X112.058 Y87.251 E.01677
G1 X147.555 Y122.749 E1.57628
G1 X147.021 Y122.749 E.01677
G1 X111.524 Y87.251 E1.57628
G1 X110.99 Y87.251 E.01677
M73 Q9 S46
G1 X146.487 Y122.749 E1.57628
G1 X145.953 Y122.749 E.01677
G1 X110.456 Y87.251 E1.57628
G1 X109.922 Y87.251 E.01677
M73 P10 R46
G1 X145.419 Y122.749 E1.57628
G1 X144.885 Y122.749 E.01677
M73 Q10 S46
G1 X109.388 Y87.251 E1.57628
G1 X108.854 Y87.251 E.01677
G1 X144.351 Y122.749 E1.57628
G1 X143.817 Y122.749 E.01677
G1 X108.32 Y87.251 E1.57628
G1 X107.786 Y87.251 E.01677
G1 X143.283 Y122.749 E1.57628
G1 X142.749 Y122.749 E.01677
G1 X107.251 Y87.251 E1.57628
G1 X106.717 Y87.251 E.01677
G1 X142.215 Y122.749 E1.57628
G1 X141.68 Y122.749 E.01677
G1 X106.183 Y87.251 E1.57628
G1 X105.649 Y87.251 E.01677
G1 X141.146 Y122.749 E1.57628
G1 X140.612 Y122.749 E.01677
G1 X105.115 Y87.251 E1.57628
G1 X104.581 Y87.251 E.01677
G1 X140.078 Y122.749 E1.57628
G1 X139.544 Y122.749 E.01677
G1 X104.047 Y87.251 E1.57628
G1 X103.513 Y87.251 E.01677
G1 X139.01 Y122.749 E1.57628
G1 X138.476 Y122.749 E.01677
M73 P11 R46
M73 Q11 S46
G1 X102.979 Y87.251 E1.57628
G1 X102.445 Y87.251 E.01677
G1 X137.942 Y122.749 E1.57628
G1 X137.408 Y122.749 E.01677
G1 X101.911 Y87.251 E1.57628
G1 X101.377 Y87.251 E.01677
G1 X136.874 Y122.749 E1.57628
G1 X136.34 Y122.749 E.01677
G1 X100.843 Y87.251 E1.57628
G1 X100.309 Y87.251 E.01677
M73 P11 R45
G1 X135.806 Y122.749 E1.57628
G1 X135.272 Y122.749 E.01677
G1 X99.775 Y87.251 E1.57628
G1 X99.241 Y87.251 E.01677
G1 X134.738 Y122.749 E1.57628
G1 X134.204 Y122.749 E.01677
G1 X98.707 Y87.251 E1.57628
G1 X98.173 Y87.251 E.01677
M73 Q11 S45
G1 X133.67 Y122.749 E1.57628
G1 X133.136 Y122.749 E.01677
G1 X97.639 Y87.251 E1.57628
G1 X97.105 Y87.251 E.01677
G1 X132.602 Y122.749 E1.57628
G1 X132.068 Y122.749 E.01677
M73 P12 R45
M73 Q12 S45
G1 X96.571 Y87.251 E1.57628
G1 X96.037 Y87.251 E.01677
G1 X131.534 Y122.749 E1.57628
G1 X131 Y122.749 E.01677
G1 X95.502 Y87.251 E1.57628
G1 X94.968 Y87.251 E.01677
G1 X130.466 Y122.749 E1.57628
G1 X129.932 Y122.749 E.01677
G1 X94.434 Y87.251 E1.57628
G1 X93.9 Y87.251 E.01677
G1 X129.397 Y122.749 E1.57628
G1 X128.863 Y122.749 E.01677
G1 X93.366 Y87.251 E1.57628
G1 X92.832 Y87.251 E.01677
G1 X128.329 Y122.749 E1.57628
G1 X127.795 Y122.749 E.01677
G1 X92.298 Y87.251 E1.57628
G1 X91.764 Y87.251 E.01677
G1 X127.261 Y122.749 E1.57628
G1 X126.727 Y122.749 E.01677
G1 X91.23 Y87.251 E1.57628
G1 X90.696 Y87.251 E.01677
G1 X126.193 Y122.749 E1.57628
G1 X125.659 Y122.749 E.01677
M73 P13 R45
M73 Q13 S45
G1 X90.162 Y87.251 E1.57628
G1 X89.628 Y87.251 E.01677
G1 X125.125 Y122.749 E1.57628
G1 X124.591 Y122.749 E.01677
G1 X89.094 Y87.251 E1.57628
G1 X88.56 Y87.251 E.01677
G1 X124.057 Y122.749 E1.57628
G1 X123.523 Y122.749 E.01677
M73 P13 R44
G1 X88.026 Y87.251 E1.57628
G1 X87.492 Y87.251 E.01677
G1 X122.989 Y122.749 E1.57628
G1 X122.455 Y122.749 E.01677
G1 X86.958 Y87.251 E1.57628
G1 X86.424 Y87.251 E.01677
G1 X121.921 Y122.749 E1.57628
G1 X121.387 Y122.749 E.01677
M73 Q13 S44
G1 X85.89 Y87.251 E1.57628
G1 X85.356 Y87.251 E.01677
G1 X120.853 Y122.749 E1.57628
G1 X120.319 Y122.749 E.01677
G1 X84.822 Y87.251 E1.57628
G1 X84.288 Y87.251 E.01677
G1 X119.785 Y122.749 E1.57628
G1 X119.251 Y122.749 E.01677
M73 P14 R44
G1 X83.754 Y87.251 E1.57628
G1 X83.219 Y87.251 E.01677
M73 Q14 S44
G1 X118.717 Y122.749 E1.57628
G1 X118.183 Y122.749 E.01677
G1 X82.685 Y87.251 E1.57628
G1 X82.151 Y87.251 E.01677
G1 X117.649 Y122.749 E1.57628
G1 X117.114 Y122.749 E.01677
G1 X81.617 Y87.251 E1.57628
G1 X81.083 Y87.251 E.01677
G1 X116.58 Y122.749 E1.57628
G1 X116.046 Y122.749 E.01677
G1 X80.549 Y87.251 E1.57628
G1 X80.015 Y87.251 E.01677
G1 X115.512 Y122.749 E1.57628
G1 X114.978 Y122.749 E.01677
G1 X79.481 Y87.251 E1.57628
G1 X78.947 Y87.251 E.01677
G1 X114.444 Y122.749 E1.57628
G1 X113.91 Y122.749 E.01677
G1 X78.413 Y87.251 E1.57628
G1 X77.879 Y87.251 E.01677
G1 X113.376 Y122.749 E1.57628
G1 X112.842 Y122.749 E.01677
G1 X77.345 Y87.251 E1.57628
G1 X76.811 Y87.251 E.01677
M73 P15 R44
M73 Q15 S44
G1 X112.308 Y122.749 E1.57628
G1 X111.774 Y122.749 E.01677
G1 X76.277 Y87.251 E1.57628
G1 X75.743 Y87.251 E.01677
G1 X111.24 Y122.749 E1.57628
G1 X110.706 Y122.749 E.01677
M73 P15 R43
G1 X75.209 Y87.251 E1.57628
G1 X74.675 Y87.251 E.01677
G1 X110.172 Y122.749 E1.57628
G1 X109.638 Y122.749 E.01677
G1 X74.141 Y87.251 E1.57628
G1 X73.607 Y87.251 E.01677
G1 X109.104 Y122.749 E1.57628
G1 X108.57 Y122.749 E.01677
M73 Q15 S43
G1 X73.073 Y87.251 E1.57628
G1 X72.539 Y87.251 E.01677
G1 X108.036 Y122.749 E1.57628
G1 X107.502 Y122.749 E.01677
G1 X72.005 Y87.251 E1.57628
G1 X71.471 Y87.251 E.01677
G1 X106.968 Y122.749 E1.57628
G1 X106.434 Y122.749 E.01677
G1 X70.936 Y87.251 E1.57628
G1 X70.402 Y87.251 E.01677
M73 P16 R43
M73 Q16 S43
G1 X105.9 Y122.749 E1.57628
G1 X105.366 Y122.749 E.01677
G1 X69.868 Y87.251 E1.57628
G1 X69.334 Y87.251 E.01677
G1 X104.831 Y122.749 E1.57628
G1 X104.297 Y122.749 E.01677
G1 X68.8 Y87.251 E1.57628
G1 X68.626 Y87.251 E.00546
G1 X68.626 Y87.612 E.01131
G1 X103.763 Y122.749 E1.56029
G1 X103.229 Y122.749 E.01677
G1 X68.626 Y88.146 E1.53657
G1 X68.626 Y88.68 E.01677
G1 X102.695 Y122.749 E1.51286
G1 X102.161 Y122.749 E.01677
G1 X68.626 Y89.214 E1.48914
G1 X68.626 Y89.748 E.01677
G1 X101.627 Y122.749 E1.46543
G1 X101.093 Y122.749 E.01677
G1 X68.626 Y90.282 E1.44172
G1 X68.626 Y90.816 E.01677
G1 X100.559 Y122.749 E1.418
