; generated by PrusaSlicer 2.5.2+win64 on 2023-06-23 at 11:12:30 UTC


;
;
; 

; external perimeters extrusion width = 0.45mm
; perimeters extrusion width = 0.45mm
; infill extrusion width = 0.45mm
; solid infill extrusion width = 0.45mm
; top infill extrusion width = 0.40mm
; first layer extrusion width = 0.42mm

M73 P0 R212
M73 Q0 S214
M201 X1000 Y1000 Z200 E5000 ; sets maximum accelerations, mm/sec^2
M203 X200 Y200 Z12 E120 ; sets maximum feedrates, mm / sec
M204 P1250 R1250 T1250 ; sets acceleration (P, T) and retract acceleration (R), mm/sec^2
M205 X8.00 Y8.00 Z0.40 E4.50 ; sets the jerk limits, mm/sec
M205 S0 T0 ; sets the minimum extruding and travel feed rate, mm/sec
M107
;TYPE:Custom
M862.3 P "MK3S" ; printer model check
M862.1 P0.4 ; nozzle diameter check
M115 U3.12.2 ; tell printer latest fw version
G90 ; use absolute coordinates
M83 ; extruder relative mode
M104 S215 ; set extruder temp
M140 S60 ; set bed temp
M190 S60 ; wait for bed temp
M109 S215 ; wait for extruder temp
G28 W ; home all without mesh bed level
G80 ; mesh bed leveling

G1 Z0.2 F720
G1 Y-3 F1000 ; go outside print area
G92 E0
G1 X60 E9 F1000 ; intro line
G1 X100 E12.5 F1000 ; intro line

G92 E0
M221 S95

; Don't change E values below. Excessive value can damage the printer.
M907 E430 ; set extruder motor current
G21 ; set units to millimeters
G90 ; use absolute coordinates
M83 ; use relative distances for extrusion
M900 K0.05 ; Filament gcode LA 1.5
M900 K30 ; Filament gcode LA 1.0
M107
;LAYER_CHANGE
;Z:0.2
;HEIGHT:0.2
;BEFORE_LAYER_CHANGE
G92 E0.0
;0.2


G1 E-.8 F2100
G1 Z.4 F720
;AFTER_LAYER_CHANGE
;0.2
G1 X69.246 Y61.086 F10800
G1 Z.2 F720
G1 E.8 F2100
M204 S800
;TYPE:Skirt/Brim
;WIDTH:0.42
G1 F1200
G1 X70.292 Y60.21 E.04278
G1 X71.232 Y60.016 E.03008
G1 X176.212 Y60.026 E3.29158
G1 X177.519 Y60.418 E.04278
G1 X178.395 Y61.463 E.04278
G1 X178.585 Y62.266 E.02585
G1 X181.142 Y106.47 E1.3883
G1 X181.146 Y147.607 E1.28983
G1 X180.754 Y148.914 E.04278
G1 X179.708 Y149.79 E.04278
G1 X178.769 Y149.984 E.03008
G1 X71.769 Y149.984 E3.35491
G1 X70.461 Y149.592 E.04278
G1 X69.585 Y148.547 E.04278
G1 X69.392 Y147.634 E.02926
G1 X68.854 Y100.113 E1.49008
G1 X68.854 Y62.393 E1.18268
G1 X69.229 Y61.143 E.0409
M204 S1000
; printing object Lukas_Taschenlampe_ AA_Stiwa_Logo.stl id:0 copy 0
;WIPE_START
G1 F8640
G1 X70.292 Y60.21 E-.32671
G1 X71.232 Y60.016 E-.22155
G1 X72.149 Y60.016 E-.21174
;WIPE_END
G1 E-.04 F2100
G1 Z.6 F720
G1 X72.556 Y107.394 F10800
G1 Z.2 F720
G1 E.8 F2100
M204 S800
;TYPE:Perimeter
;WIDTH:0.419999
G1 F1200
G1 X177.981 Y107.394 E3.30555
G1 X177.981 Y146.82 E1.23617
M73 Q0 S213
G1 X72.556 Y146.82 E3.30555
G1 X72.556 Y107.454 E1.23429
M204 S1000
G1 X72.178 Y107.017 F10800
M204 S800
;TYPE:External perimeter
G1 F1200
G1 X178.359 Y107.017 E3.32919
G1 X178.359 Y147.197 E1.25981
G1 X72.178 Y147.197 E3.32919
G1 X72.178 Y107.077 E1.25793
M204 S1000
G1 X72.576 Y107.065 F10800
;WIPE_START
G1 F8640
G1 X75.47 Y107.075 E-.76
;WIPE_END
G1 E-.04 F2100
G1 Z.6 F720
G1 X177.048 Y107.564 F10800
G1 Z.2 F720
M73 P0 R211
G1 E.8 F2100
M204 S800
;TYPE:Solid infill
;WIDTH:0.420694
G1 F1200
G1 X177.642 Y108.158 E.02639
G1 X177.642 Y108.692 E.01678
G1 X176.683 Y107.733 E.04259
G1 X176.149 Y107.733 E.01678
G1 X177.642 Y109.226 E.06632
G1 X177.642 Y109.761 E.01678
G1 X175.615 Y107.733 E.09005
G1 X175.081 Y107.733 E.01678
G1 X177.642 Y110.295 E.11379
G1 X177.642 Y110.829 E.01678
G1 X174.546 Y107.733 E.13752
G1 X174.012 Y107.733 E.01678
G1 X177.642 Y111.363 E.16125
G1 X177.642 Y111.898 E.01678
G1 X173.478 Y107.733 E.18499
G1 X172.944 Y107.733 E.01678
G1 X177.642 Y112.432 E.20872
G1 X177.642 Y112.966 E.01678
G1 X172.409 Y107.733 E.23245
G1 X171.875 Y107.733 E.01678
G1 X177.642 Y113.5 E.25619
G1 X177.642 Y114.035 E.01678
G1 X171.341 Y107.733 E.27992
G1 X170.807 Y107.733 E.01678
G1 X177.642 Y114.569 E.30365
G1 X177.642 Y115.103 E.01678
G1 X170.272 Y107.733 E.32738
G1 X169.738 Y107.733 E.01678
G1 X177.642 Y115.637 E.35112
G1 X177.642 Y116.172 E.01678
G1 X169.204 Y107.733 E.37485
G1 X168.67 Y107.733 E.01678
G1 X177.642 Y116.706 E.39858
G1 X177.642 Y117.24 E.01678
G1 X168.135 Y107.733 E.42232
G1 X167.601 Y107.733 E.01678
G1 X177.642 Y117.774 E.44605
G1 X177.642 Y118.309 E.01678
G1 X167.067 Y107.733 E.46978
G1 X166.533 Y107.733 E.01678
G1 X177.642 Y118.843 E.49352
G1 X177.642 Y119.377 E.01678
G1 X165.998 Y107.733 E.51725
G1 X165.464 Y107.733 E.01678
G1 X177.642 Y119.911 E.54098
G1 X177.642 Y120.446 E.01678
G1 X164.93 Y107.733 E.56472
G1 X164.396 Y107.733 E.01678
G1 X177.642 Y120.98 E.58845
G1 X177.642 Y121.514 E.01678
G1 X163.861 Y107.733 E.61218
G1 X163.327 Y107.733 E.01678
G1 X177.642 Y122.048 E.63592
G1 X177.642 Y122.583 E.01678
G1 X162.793 Y107.733 E.65965
G1 X162.259 Y107.733 E.01678
G1 X177.642 Y123.117 E.68338
G1 X177.642 Y123.651 E.01678
G1 X161.724 Y107.733 E.70712
G1 X161.19 Y107.733 E.01678
G1 X177.642 Y124.185 E.73085
G1 X177.642 Y124.72 E.01678
G1 X160.656 Y107.733 E.75458
G1 X160.122 Y107.733 E.01678
G1 X177.642 Y125.254 E.77832
G1 X177.642 Y125.788 E.01678
G1 X159.587 Y107.733 E.80205
G1 X159.053 Y107.733 E.01678
G1 X177.642 Y126.322 E.82578
G1 X177.642 Y126.857 E.01678
G1 X158.519 Y107.733 E.84952
G1 X157.985 Y107.733 E.01678
G1 X177.642 Y127.391 E.87325
G1 X177.642 Y127.925 E.01678
G1 X157.45 Y107.733 E.89698
G1 X156.916 Y107.733 E.01678
G1 X177.642 Y128.459 E.92072
G1 X177.642 Y128.994 E.01678
M73 Q0 S212
G1 X156.382 Y107.733 E.94445
G1 X155.848 Y107.733 E.01678
G1 X177.642 Y129.528 E.96818
G1 X177.642 Y130.062 E.01678
G1 X155.313 Y107.733 E.99192
G1 X154.779 Y107.733 E.01678
G1 X177.642 Y130.596 E1.01565
G1 X177.642 Y131.131 E.01678
G1 X154.245 Y107.733 E1.03938
G1 X153.711 Y107.733 E.01678
G1 X177.642 Y131.665 E1.06312
G1 X177.642 Y132.199 E.01678
G1 X153.176 Y107.733 E1.08685
G1 X152.642 Y107.733 E.01678
G1 X177.642 Y132.733 E1.11058
G1 X177.642 Y133.268 E.01678
G1 X152.108 Y107.733 E1.13432
G1 X151.574 Y107.733 E.01678
G1 X177.642 Y133.802 E1.15805
G1 X177.642 Y134.336 E.01678
G1 X151.039 Y107.733 E1.18178
G1 X150.505 Y107.733 E.01678
G1 X177.642 Y134.87 E1.20552
G1 X177.642 Y135.405 E.01678
G1 X149.971 Y107.733 E1.22925
G1 X149.437 Y107.733 E.01678
G1 X177.642 Y135.939 E1.25298
G1 X177.642 Y136.473 E.01678
G1 X148.902 Y107.733 E1.27672
G1 X148.368 Y107.733 E.01678
G1 X177.642 Y137.007 E1.30045
G1 X177.642 Y137.542 E.01678
M73 P0 R210
G1 X147.834 Y107.733 E1.32418
G1 X147.3 Y107.733 E.01678
G1 X177.642 Y138.076 E1.34792
G1 X177.642 Y138.61 E.01678
G1 X146.765 Y107.733 E1.37165
G1 X146.231 Y107.733 E.01678
G1 X177.642 Y139.144 E1.39538
G1 X177.642 Y139.679 E.01678
G1 X145.697 Y107.733 E1.41912
G1 X145.163 Y107.733 E.01678
M73 P1 R210
M73 Q1 S212
G1 X177.642 Y140.213 E1.44285
G1 X177.642 Y140.747 E.01678
G1 X144.628 Y107.733 E1.46658
G1 X144.094 Y107.733 E.01678
G1 X177.642 Y141.281 E1.49032
G1 X177.642 Y141.816 E.01678
G1 X143.56 Y107.733 E1.51405
G1 X143.026 Y107.733 E.01678
G1 X177.642 Y142.35 E1.53778
G1 X177.642 Y142.884 E.01678
G1 X142.491 Y107.733 E1.56152
G1 X141.957 Y107.733 E.01678
G1 X177.642 Y143.419 E1.58525
G1 X177.642 Y143.953 E.01678
G1 X141.423 Y107.733 E1.60898
G1 X140.888 Y107.733 E.01678
M73 Q1 S211
G1 X177.642 Y144.487 E1.63272
G1 X177.642 Y145.021 E.01678
G1 X140.354 Y107.733 E1.65645
G1 X139.82 Y107.733 E.01678
G1 X177.642 Y145.556 E1.68018
G1 X177.642 Y146.09 E.01678
G1 X139.286 Y107.733 E1.70392
G1 X138.751 Y107.733 E.01678
G1 X177.499 Y146.481 E1.72128
G1 X176.964 Y146.481 E.01678
G1 X138.217 Y107.733 E1.72128
G1 X137.683 Y107.733 E.01678
G1 X176.43 Y146.481 E1.72128
G1 X175.896 Y146.481 E.01678
G1 X137.149 Y107.733 E1.72128
G1 X136.614 Y107.733 E.01678
G1 X175.362 Y146.481 E1.72128
G1 X174.827 Y146.481 E.01678
G1 X136.08 Y107.733 E1.72128
G1 X135.546 Y107.733 E.01678
G1 X174.293 Y146.481 E1.72128
G1 X173.759 Y146.481 E.01678
M73 P1 R209
G1 X135.012 Y107.733 E1.72128
G1 X134.477 Y107.733 E.01678
G1 X173.225 Y146.481 E1.72128
G1 X172.69 Y146.481 E.01678
G1 X133.943 Y107.733 E1.72128
G1 X133.409 Y107.733 E.01678
G1 X172.156 Y146.481 E1.72128
G1 X171.622 Y146.481 E.01678
G1 X132.875 Y107.733 E1.72128
G1 X132.34 Y107.733 E.01678
G1 X171.088 Y146.481 E1.72128
G1 X170.553 Y146.481 E.01678
G1 X131.806 Y107.733 E1.72128
G1 X131.272 Y107.733 E.01678
G1 X170.019 Y146.481 E1.72128
G1 X169.485 Y146.481 E.01678
G1 X130.738 Y107.733 E1.72128
G1 X130.203 Y107.733 E.01678
G1 X168.951 Y146.481 E1.72128
G1 X168.416 Y146.481 E.01678
G1 X129.669 Y107.733 E1.72128
G1 X129.135 Y107.733 E.01678
M73 Q1 S210
G1 X167.882 Y146.481 E1.72128
G1 X167.348 Y146.481 E.01678
G1 X128.601 Y107.733 E1.72128
G1 X128.066 Y107.733 E.01678
G1 X166.814 Y146.481 E1.72128
G1 X166.279 Y146.481 E.01678
G1 X127.532 Y107.733 E1.72128
G1 X126.998 Y107.733 E.01678
G1 X165.745 Y146.481 E1.72128
G1 X165.211 Y146.481 E.01678
G1 X126.464 Y107.733 E1.72128
G1 X125.929 Y107.733 E.01678
G1 X164.677 Y146.481 E1.72128
G1 X164.142 Y146.481 E.01678
G1 X125.395 Y107.733 E1.72128
G1 X124.861 Y107.733 E.01678
G1 X163.608 Y146.481 E1.72128
G1 X163.074 Y146.481 E.01678
G1 X124.327 Y107.733 E1.72128
G1 X123.792 Y107.733 E.01678
G1 X162.54 Y146.481 E1.72128
G1 X162.005 Y146.481 E.01678
M73 P1 R208
G1 X123.258 Y107.733 E1.72128
G1 X122.724 Y107.733 E.01678
G1 X161.471 Y146.481 E1.72128
G1 X160.937 Y146.481 E.01678
G1 X122.19 Y107.733 E1.72128
G1 X121.655 Y107.733 E.01678
G1 X160.403 Y146.481 E1.72128
G1 X159.868 Y146.481 E.01678
G1 X121.121 Y107.733 E1.72128
G1 X120.587 Y107.733 E.01678
G1 X159.334 Y146.481 E1.72128
G1 X158.8 Y146.481 E.01678
M73 P2 R208
M73 Q2 S210
G1 X120.053 Y107.733 E1.72128
G1 X119.518 Y107.733 E.01678
G1 X158.266 Y146.481 E1.72128
G1 X157.731 Y146.481 E.01678
G1 X118.984 Y107.733 E1.72128
G1 X118.45 Y107.733 E.01678
G1 X157.197 Y146.481 E1.72128
G1 X156.663 Y146.481 E.01678
M73 Q2 S209
G1 X117.916 Y107.733 E1.72128
G1 X117.381 Y107.733 E.01678
G1 X156.128 Y146.481 E1.72128
G1 X155.594 Y146.481 E.01678
G1 X116.847 Y107.733 E1.72128
G1 X116.313 Y107.733 E.01678
G1 X155.06 Y146.481 E1.72128
G1 X154.526 Y146.481 E.01678
G1 X115.779 Y107.733 E1.72128
G1 X115.244 Y107.733 E.01678
G1 X153.991 Y146.481 E1.72128
G1 X153.457 Y146.481 E.01678
G1 X114.71 Y107.733 E1.72128
G1 X114.176 Y107.733 E.01678
G1 X152.923 Y146.481 E1.72128
G1 X152.389 Y146.481 E.01678
G1 X113.642 Y107.733 E1.72128
G1 X113.107 Y107.733 E.01678
G1 X151.854 Y146.481 E1.72128
G1 X151.32 Y146.481 E.01678
G1 X112.573 Y107.733 E1.72128
G1 X112.039 Y107.733 E.01678
M73 P2 R207
G1 X150.786 Y146.481 E1.72128
G1 X150.252 Y146.481 E.01678
G1 X111.505 Y107.733 E1.72128
G1 X110.97 Y107.733 E.01678
G1 X149.717 Y146.481 E1.72128
G1 X149.183 Y146.481 E.01678
G1 X110.436 Y107.733 E1.72128
G1 X109.902 Y107.733 E.01678
G1 X148.649 Y146.481 E1.72128
G1 X148.115 Y146.481 E.01678
G1 X109.368 Y107.733 E1.72128
G1 X108.833 Y107.733 E.01678
G1 X147.58 Y146.481 E1.72128
G1 X147.046 Y146.481 E.01678
G1 X108.299 Y107.733 E1.72128
G1 X107.765 Y107.733 E.01678
G1 X146.512 Y146.481 E1.72128
G1 X145.978 Y146.481 E.01678
G1 X107.231 Y107.733 E1.72128
G1 X106.696 Y107.733 E.01678
G1 X145.443 Y146.481 E1.72128
G1 X144.909 Y146.481 E.01678
M73 Q2 S208
G1 X106.162 Y107.733 E1.72128
G1 X105.628 Y107.733 E.01678
G1 X144.375 Y146.481 E1.72128
G1 X143.841 Y146.481 E.01678
G1 X105.094 Y107.733 E1.72128
G1 X104.559 Y107.733 E.01678
G1 X143.306 Y146.481 E1.72128
G1 X142.772 Y146.481 E.01678
G1 X104.025 Y107.733 E1.72128
G1 X103.491 Y107.733 E.01678
G1 X142.238 Y146.481 E1.72128
G1 X141.704 Y146.481 E.01678
G1 X102.957 Y107.733 E1.72128
G1 X102.422 Y107.733 E.01678
G1 X141.169 Y146.481 E1.72128
G1 X140.635 Y146.481 E.01678
G1 X101.888 Y107.733 E1.72128
G1 X101.354 Y107.733 E.01678
G1 X140.101 Y146.481 E1.72128
G1 X139.567 Y146.481 E.01678
G1 X100.82 Y107.733 E1.72128
G1 X100.285 Y107.733 E.01678
M73 P2 R206
G1 X139.032 Y146.481 E1.72128
G1 X138.498 Y146.481 E.01678
G1 X99.751 Y107.733 E1.72128
G1 X99.217 Y107.733 E.01678
G1 X137.964 Y146.481 E1.72128
G1 X137.43 Y146.481 E.01678
G1 X98.682 Y107.733 E1.72128
G1 X98.148 Y107.733 E.01678
G1 X136.895 Y146.481 E1.72128
G1 X136.361 Y146.481 E.01678
G1 X97.614 Y107.733 E1.72128
G1 X97.08 Y107.733 E.01678
G1 X135.827 Y146.481 E1.72128
G1 X135.293 Y146.481 E.01678
G1 X96.545 Y107.733 E1.72128
G1 X96.011 Y107.733 E.01678
G1 X134.758 Y146.481 E1.72128
G1 X134.224 Y146.481 E.01678
M73 P3 R206
G1 X95.477 Y107.733 E1.72128
G1 X94.943 Y107.733 E.01678
M73 Q3 S207
G1 X133.69 Y146.481 E1.72128
G1 X133.156 Y146.481 E.01678
G1 X94.408 Y107.733 E1.72128
G1 X93.874 Y107.733 E.01678
G1 X132.621 Y146.481 E1.72128
G1 X132.087 Y146.481 E.01678
G1 X93.34 Y107.733 E1.72128
G1 X92.806 Y107.733 E.01678
G1 X131.553 Y146.481 E1.72128
G1 X131.019 Y146.481 E.01678
G1 X92.271 Y107.733 E1.72128
G1 X91.737 Y107.733 E.01678
G1 X130.484 Y146.481 E1.72128
G1 X129.95 Y146.481 E.01678
G1 X91.203 Y107.733 E1.72128
G1 X90.669 Y107.733 E.01678
G1 X129.416 Y146.481 E1.72128
G1 X128.882 Y146.481 E.01678
G1 X90.134 Y107.733 E1.72128
G1 X89.6 Y107.733 E.01678
G1 X128.347 Y146.481 E1.72128
G1 X127.813 Y146.481 E.01678
M73 P3 R205
G1 X89.066 Y107.733 E1.72128
G1 X88.532 Y107.733 E.01678
G1 X127.279 Y146.481 E1.72128
G1 X126.745 Y146.481 E.01678
G1 X87.997 Y107.733 E1.72128
G1 X87.463 Y107.733 E.01678
G1 X126.21 Y146.481 E1.72128
G1 X125.676 Y146.481 E.01678
G1 X86.929 Y107.733 E1.72128
G1 X86.395 Y107.733 E.01678
G1 X125.142 Y146.481 E1.72128
G1 X124.608 Y146.481 E.01678
G1 X85.86 Y107.733 E1.72128
G1 X85.326 Y107.733 E.01678
G1 X124.073 Y146.481 E1.72128
G1 X123.539 Y146.481 E.01678
G1 X84.792 Y107.733 E1.72128
G1 X84.258 Y107.733 E.01678
G1 X123.005 Y146.481 E1.72128
G1 X122.471 Y146.481 E.01678
G1 X83.723 Y107.733 E1.72128
G1 X83.189 Y107.733 E.01678
M73 Q3 S206
G1 X121.936 Y146.481 E1.72128
G1 X121.402 Y146.481 E.01678
G1 X82.655 Y107.733 E1.72128
G1 X82.121 Y107.733 E.01678
G1 X120.868 Y146.481 E1.72128
G1 X120.334 Y146.481 E.01678
G1 X81.586 Y107.733 E1.72128
G1 X81.052 Y107.733 E.01678
G1 X119.799 Y146.481 E1.72128
G1 X119.265 Y146.481 E.01678
G1 X80.518 Y107.733 E1.72128
G1 X79.984 Y107.733 E.01678
G1 X118.731 Y146.481 E1.72128
G1 X118.197 Y146.481 E.01678
G1 X79.449 Y107.733 E1.72128
G1 X78.915 Y107.733 E.01678
G1 X117.662 Y146.481 E1.72128
G1 X117.128 Y146.481 E.01678
G1 X78.381 Y107.733 E1.72128
G1 X77.847 Y107.733 E.01678
G1 X116.594 Y146.481 E1.72128
G1 X116.06 Y146.481 E.01678
M73 P3 R204
G1 X77.312 Y107.733 E1.72128
G1 X76.778 Y107.733 E.01678
G1 X115.525 Y146.481 E1.72128
G1 X114.991 Y146.481 E.01678
G1 X76.244 Y107.733 E1.72128
G1 X75.71 Y107.733 E.01678
G1 X114.457 Y146.481 E1.72128
G1 X113.922 Y146.481 E.01678
G1 X75.175 Y107.733 E1.72128
G1 X74.641 Y107.733 E.01678
G1 X113.388 Y146.481 E1.72128
G1 X112.854 Y146.481 E.01678
G1 X74.107 Y107.733 E1.72128
G1 X73.573 Y107.733 E.01678
G1 X112.32 Y146.481 E1.72128
G1 X111.785 Y146.481 E.01678
G1 X73.038 Y107.733 E1.72128
G1 X72.895 Y107.733 E.0045
G1 X72.895 Y108.124 E.01228
G1 X111.251 Y146.481 E1.70391
G1 X110.717 Y146.481 E.01678
G1 X72.895 Y108.659 E1.68018
G1 X72.895 Y109.193 E.01678
M73 Q3 S205
G1 X110.183 Y146.481 E1.65645
G1 X109.648 Y146.481 E.01678
M73 P4 R204
G1 X72.895 Y109.727 E1.63271
G1 X72.895 Y110.261 E.01678
M73 Q4 S205
G1 X109.114 Y146.481 E1.60898
G1 X108.58 Y146.481 E.01678
G1 X72.895 Y110.796 E1.58525
G1 X72.895 Y111.33 E.01678
G1 X108.046 Y146.481 E1.56151
G1 X107.511 Y146.481 E.01678
G1 X72.895 Y111.864 E1.53778
G1 X72.895 Y112.398 E.01678
G1 X106.977 Y146.481 E1.51405
G1 X106.443 Y146.481 E.01678
G1 X72.895 Y112.933 E1.49031
G1 X72.895 Y113.467 E.01678
G1 X105.909 Y146.481 E1.46658
G1 X105.374 Y146.481 E.01678
G1 X72.895 Y114.001 E1.44285
G1 X72.895 Y114.535 E.01678
G1 X104.84 Y146.481 E1.41912
G1 X104.306 Y146.481 E.01678
G1 X72.895 Y115.07 E1.39538
G1 X72.895 Y115.604 E.01678
M73 P4 R203
G1 X103.772 Y146.481 E1.37165
G1 X103.237 Y146.481 E.01678
G1 X72.895 Y116.138 E1.34792
G1 X72.895 Y116.672 E.01678
G1 X102.703 Y146.481 E1.32418
G1 X102.169 Y146.481 E.01678
G1 X72.895 Y117.207 E1.30045
G1 X72.895 Y117.741 E.01678
G1 X101.635 Y146.481 E1.27672
G1 X101.1 Y146.481 E.01678
G1 X72.895 Y118.275 E1.25298
G1 X72.895 Y118.809 E.01678
