; generated by PrusaSlicer 2.5.2+win64 on 2023-05-19 at 10:53:54 UTC

; 

; external perimeters extrusion width = 0.45mm
; perimeters extrusion width = 0.45mm
; infill extrusion width = 0.45mm
; solid infill extrusion width = 0.45mm
; top infill extrusion width = 0.40mm
; first layer extrusion width = 0.70mm

M107
M104 S200 ; set temperature
;TYPE:Custom
G28 ; home all axes
G1 Z5 F5000 ; lift nozzle
M109 S200 ; set temperature and wait for it to be reached
G21 ; set units to millimeters
G90 ; use absolute coordinates
M82 ; use absolute distances for extrusion
G92 E0
; Filament gcode
M107
;LAYER_CHANGE
;Z:0.35
;HEIGHT:0.35
G1 Z.35 F7800
G1 E-2 F2400
G92 E0
G1 X49.372 Y27.241 F7800
G1 E2 F2400
;TYPE:Skirt/Brim
;WIDTH:0.7
G1 F1800
G1 X50.515 Y25.253 E2.20854
G1 X52.268 Y23.774 E2.41708
G1 X55.048 Y22.898 E2.68206
G1 X102.848 Y18.898 E7.04368
G1 X144.4 Y18.875 E10.82203
G1 X146.659 Y19.272 E11.03057
G1 X148.647 Y20.415 E11.23912
G1 X150.126 Y22.168 E11.44766
G1 X150.919 Y24.32 E11.6562
G1 X151.025 Y25.5 E11.76391
G1 X151.025 Y174.5 E25.31242
G1 X150.628 Y176.759 E25.52096
G1 X149.485 Y178.747 E25.7295
G1 X147.732 Y180.226 E25.93805
G1 X145.58 Y181.019 E26.14659
G1 X144.4 Y181.125 E26.2543
G1 X103.4 Y181.125 E29.98241
G1 X102.174 Y181.01 E30.09436
G1 X54.374 Y172.01 E34.51716
G1 X52.228 Y171.202 E34.72571
G1 X50.486 Y169.711 E34.93425
G1 X49.356 Y167.715 E35.14279
G1 X48.975 Y165.5 E35.34714
G1 X48.975 Y29.5 E47.71356
G1 X49.362 Y27.3 E47.91665
G1 E45.91665 F2400
G92 E0
G1 X105 Y172.9 F7800
G1 E2 F2400
;TYPE:Perimeter
;WIDTH:0.7
G1 F1800
G1 X105 Y27.1 E15.25757
G1 X142.8 Y27.1 E18.69474
G1 X142.8 Y172.9 E31.95231
G1 X105.06 Y172.9 E35.38403
G1 X104.375 Y173.525 F7800
G1 F1800
G1 X104.375 Y26.475 E48.75523
G1 X143.425 Y26.475 E52.30605
G1 X143.425 Y173.525 E65.67726
G1 X104.435 Y173.525 E69.22262
G1 X103.75 Y174.15 F7800
;TYPE:External perimeter
G1 F1800
G1 X103.75 Y25.85 E82.70747
G1 X144.05 Y25.85 E86.37193
G1 X144.05 Y174.15 E99.85678
G1 X103.81 Y174.15 E103.51578
G1 X103.785 Y173.752 F7800
G1 E101.51578 F2400
G92 E0
G1 X141.349 Y27.287 F7800
G1 E2 F2400
;TYPE:Solid infill
;WIDTH:0.700152
G1 F1800
G1 X142.332 Y28.27 E2.12635
G1 X142.332 Y29.153 E2.20674
G1 X140.747 Y27.568 E2.41062
G1 X139.863 Y27.568 E2.49101
G1 X142.332 Y30.037 E2.80859
G1 X142.332 Y30.921 E2.88898
G1 X138.979 Y27.568 E3.32025
G1 X138.095 Y27.568 E3.40065
G1 X142.332 Y31.805 E3.94562
G1 X142.332 Y32.689 E4.02601
G1 X137.211 Y27.568 E4.68467
G1 X136.327 Y27.568 E4.76507
G1 X142.332 Y33.573 E5.53743
G1 X142.332 Y34.457 E5.61783
G1 X135.443 Y27.568 E6.50388
G1 X134.559 Y27.568 E6.58428
G1 X142.332 Y35.341 E7.58403
G1 X142.332 Y36.225 E7.66443
G1 X133.675 Y27.568 E8.77788
G1 X132.791 Y27.568 E8.85828
G1 X142.332 Y37.109 E10.08543
G1 X142.332 Y37.993 E10.16582
G1 X131.907 Y27.568 E11.50667
G1 X131.023 Y27.568 E11.58706
G1 X142.332 Y38.877 E13.04161
G1 X142.332 Y39.761 E13.122
G1 X130.139 Y27.568 E14.69024
G1 X129.255 Y27.568 E14.77064
G1 X142.332 Y40.645 E16.45257
G1 X142.332 Y41.529 E16.53297
G1 X128.371 Y27.568 E18.3286
G1 X127.487 Y27.568 E18.409
G1 X142.332 Y42.413 E20.31833
G1 X142.332 Y43.297 E20.39873
G1 X126.603 Y27.568 E22.42175
G1 X125.72 Y27.568 E22.50215
G1 X142.332 Y44.18 E24.63887
G1 X142.332 Y45.064 E24.71927
G1 X124.836 Y27.568 E26.96969
G1 X123.952 Y27.568 E27.05009
G1 X142.332 Y45.948 E29.41421
G1 X142.332 Y46.832 E29.4946
G1 X123.068 Y27.568 E31.97242
G1 X122.184 Y27.568 E32.05281
G1 X142.332 Y47.716 E34.64433
G1 X142.332 Y48.6 E34.72472
G1 X121.3 Y27.568 E37.42993
G1 X120.416 Y27.568 E37.51033
G1 X142.332 Y49.484 E40.32923
G1 X142.332 Y50.368 E40.40963
G1 X119.532 Y27.568 E43.34223
G1 X118.648 Y27.568 E43.42263
G1 X142.332 Y51.252 E46.46893
G1 X142.332 Y52.136 E46.54933
G1 X117.764 Y27.568 E49.70932
G1 X116.88 Y27.568 E49.78972
G1 X142.332 Y53.02 E53.06341
G1 X142.332 Y53.904 E53.14381
G1 X115.996 Y27.568 E56.5312
G1 X115.112 Y27.568 E56.6116
G1 X142.332 Y54.788 E60.11269
G1 X142.332 Y55.672 E60.19308
G1 X114.228 Y27.568 E63.80787
G1 X113.344 Y27.568 E63.88826
G1 X142.332 Y56.556 E67.61675
G1 X142.332 Y57.44 E67.69714
G1 X112.46 Y27.568 E71.53932
G1 X111.576 Y27.568 E71.61972
G1 X142.332 Y58.324 E75.57559
G1 X142.332 Y59.207 E75.65599
G1 X110.693 Y27.568 E79.72556
G1 X109.809 Y27.568 E79.80596
G1 X142.332 Y60.091 E83.98923
G1 X142.332 Y60.975 E84.06963
G1 X108.925 Y27.568 E88.36659
G1 X108.041 Y27.568 E88.44699
G1 X142.332 Y61.859 E92.85765
G1 X142.332 Y62.743 E92.93805
G1 X107.157 Y27.568 E97.46241
G1 X106.273 Y27.568 E97.54281
G1 X142.332 Y63.627 E102.18087
G1 X142.332 Y64.511 E102.26126
G1 X105.468 Y27.648 E107.00279
G1 X105.468 Y28.532 E107.08318
G1 X142.332 Y65.395 E111.82471
G1 X142.332 Y66.279 E111.9051
G1 X105.468 Y29.416 E116.64663
G1 X105.468 Y30.3 E116.72703
G1 X142.332 Y67.163 E121.46855
G1 X142.332 Y68.047 E121.54895
G1 X105.468 Y31.184 E126.29047
G1 X105.468 Y32.068 E126.37087
G1 X142.332 Y68.931 E131.11239
G1 X142.332 Y69.815 E131.19279
G1 X105.468 Y32.952 E135.93431
G1 X105.468 Y33.836 E136.01471
G1 X142.332 Y70.699 E140.75623
G1 X142.332 Y71.583 E140.83663
G1 X105.468 Y34.719 E145.57816
G1 X105.468 Y35.603 E145.65855
G1 X142.332 Y72.467 E150.40008
G1 X142.332 Y73.351 E150.48047
G1 X105.468 Y36.487 E155.222
G1 X105.468 Y37.371 E155.30239
G1 X142.332 Y74.234 E160.04392
G1 X142.332 Y75.118 E160.12431
G1 X105.468 Y38.255 E164.86584
G1 X105.468 Y39.139 E164.94624
G1 X142.332 Y76.002 E169.68776
G1 X142.332 Y76.886 E169.76816
G1 X105.468 Y40.023 E174.50968
G1 X105.468 Y40.907 E174.59008
G1 X142.332 Y77.77 E179.3316
G1 X142.332 Y78.654 E179.412
G1 X105.468 Y41.791 E184.15352
G1 X105.468 Y42.675 E184.23392
G1 X142.332 Y79.538 E188.97544
G1 X142.332 Y80.422 E189.05584
G1 X105.468 Y43.559 E193.79736
G1 X105.468 Y44.443 E193.87776
G1 X142.332 Y81.306 E198.61929
G1 X142.332 Y82.19 E198.69968
G1 X105.468 Y45.327 E203.44121
G1 X105.468 Y46.211 E203.5216
G1 X142.332 Y83.074 E208.26313
G1 X142.332 Y83.958 E208.34352
G1 X105.468 Y47.095 E213.08505
G1 X105.468 Y47.979 E213.16544
G1 X142.332 Y84.842 E217.90697
G1 X142.332 Y85.726 E217.98737
G1 X105.468 Y48.863 E222.72889
G1 X105.468 Y49.746 E222.80929
G1 X142.332 Y86.61 E227.55081
G1 X142.332 Y87.494 E227.63121
G1 X105.468 Y50.63 E232.37273
G1 X105.468 Y51.514 E232.45313
G1 X142.332 Y88.378 E237.19465
G1 X142.332 Y89.261 E237.27505
G1 X105.468 Y52.398 E242.01657
G1 X105.468 Y53.282 E242.09697
G1 X142.332 Y90.145 E246.83849
G1 X142.332 Y91.029 E246.91889
G1 X105.468 Y54.166 E251.66042
G1 X105.468 Y55.05 E251.74081
G1 X142.332 Y91.913 E256.48234
G1 X142.332 Y92.797 E256.56273
G1 X105.468 Y55.934 E261.30426
G1 X105.468 Y56.818 E261.38465
G1 X142.332 Y93.681 E266.12618
G1 X142.332 Y94.565 E266.20657
G1 X105.468 Y57.702 E270.9481
G1 X105.468 Y58.586 E271.0285
G1 X142.332 Y95.449 E275.77002
G1 X142.332 Y96.333 E275.85042
G1 X105.468 Y59.47 E280.59194
G1 X105.468 Y60.354 E280.67234
G1 X142.332 Y97.217 E285.41386
G1 X142.332 Y98.101 E285.49426
G1 X105.468 Y61.238 E290.23578
G1 X105.468 Y62.122 E290.31618
G1 X142.332 Y98.985 E295.0577
G1 X142.332 Y99.869 E295.1381
G1 X105.468 Y63.006 E299.87963
G1 X105.468 Y63.89 E299.96002
G1 X142.332 Y100.753 E304.70155
G1 X142.332 Y101.637 E304.78194
G1 X105.468 Y64.774 E309.52347
G1 X105.468 Y65.657 E309.60386
G1 X142.332 Y102.521 E314.34539
G1 X142.332 Y103.405 E314.42578
G1 X105.468 Y66.541 E319.16731
G1 X105.468 Y67.425 E319.2477
G1 X142.332 Y104.288 E323.98923
G1 X142.332 Y105.172 E324.06963
G1 X105.468 Y68.309 E328.81115
G1 X105.468 Y69.193 E328.89155
G1 X142.332 Y106.056 E333.63307
G1 X142.332 Y106.94 E333.71347
G1 X105.468 Y70.077 E338.45499
G1 X105.468 Y70.961 E338.53539
G1 X142.332 Y107.824 E343.27691
G1 X142.332 Y108.708 E343.35731
G1 X105.468 Y71.845 E348.09883
G1 X105.468 Y72.729 E348.17923
G1 X142.332 Y109.592 E352.92075
G1 X142.332 Y110.476 E353.00115
G1 X105.468 Y73.613 E357.74268
G1 X105.468 Y74.497 E357.82307
G1 X142.332 Y111.36 E362.5646
G1 X142.332 Y112.244 E362.64499
G1 X105.468 Y75.381 E367.38652
G1 X105.468 Y76.265 E367.46691
G1 X142.332 Y113.128 E372.20844
G1 X142.332 Y114.012 E372.28883
G1 X105.468 Y77.149 E377.03036
G1 X105.468 Y78.033 E377.11075
G1 X142.332 Y114.896 E381.85228
G1 X142.332 Y115.78 E381.93268
G1 X105.468 Y78.917 E386.6742
G1 X105.468 Y79.801 E386.7546
G1 X142.332 Y116.664 E391.49612
G1 X142.332 Y117.548 E391.57652
G1 X105.468 Y80.684 E396.31804
G1 X105.468 Y81.568 E396.39844
G1 X142.332 Y118.432 E401.13996
G1 X142.332 Y119.315 E401.22036
G1 X105.468 Y82.452 E405.96188
G1 X105.468 Y83.336 E406.04228
G1 X142.332 Y120.199 E410.7838
G1 X142.332 Y121.083 E410.8642
G1 X105.468 Y84.22 E415.60572
G1 X105.468 Y85.104 E415.68612
G1 X142.332 Y121.967 E420.42765
G1 X142.332 Y122.851 E420.50804
G1 X105.468 Y85.988 E425.24957
G1 X105.468 Y86.872 E425.32996
G1 X142.332 Y123.735 E430.07149
G1 X142.332 Y124.619 E430.15188
G1 X105.468 Y87.756 E434.89341
G1 X105.468 Y88.64 E434.9738
G1 X142.332 Y125.503 E439.71533
G1 X142.332 Y126.387 E439.79572
G1 X105.468 Y89.524 E444.53725
G1 X105.468 Y90.408 E444.61765
G1 X142.332 Y127.271 E449.35917
G1 X142.332 Y128.155 E449.43957
G1 X105.468 Y91.292 E454.18109
G1 X105.468 Y92.176 E454.26149
G1 X142.332 Y129.039 E459.00301
G1 X142.332 Y129.923 E459.08341
G1 X105.468 Y93.06 E463.82493
G1 X105.468 Y93.944 E463.90533
G1 X142.332 Y130.807 E468.64685
G1 X142.332 Y131.691 E468.72725
G1 X105.468 Y94.828 E473.46877
G1 X105.468 Y95.711 E473.54917
G1 X142.332 Y132.575 E478.2907
G1 X142.332 Y133.459 E478.37109
G1 X105.468 Y96.595 E483.11262
G1 X105.468 Y97.479 E483.19301
G1 X142.332 Y134.342 E487.93454
G1 X142.332 Y135.226 E488.01493
G1 X105.468 Y98.363 E492.75646
G1 X105.468 Y99.247 E492.83685
G1 X142.332 Y136.11 E497.57838
G1 X142.332 Y136.994 E497.65877
G1 X105.468 Y100.131 E502.4003
G1 X105.468 Y101.015 E502.4807
G1 X142.332 Y137.878 E507.22222
G1 X142.332 Y138.762 E507.30262
G1 X105.468 Y101.899 E512.04414
G1 X105.468 Y102.783 E512.12454
G1 X142.332 Y139.646 E516.86606
G1 X142.332 Y140.53 E516.94646
G1 X105.468 Y103.667 E521.68798
G1 X105.468 Y104.551 E521.76838
G1 X142.332 Y141.414 E526.5099
G1 X142.332 Y142.298 E526.5903
G1 X105.468 Y105.435 E531.33182
G1 X105.468 Y106.319 E531.41222
G1 X142.332 Y143.182 E536.15375
G1 X142.332 Y144.066 E536.23414
G1 X105.468 Y107.203 E540.97567
G1 X105.468 Y108.087 E541.05606
G1 X142.332 Y144.95 E545.79759
G1 X142.332 Y145.834 E545.87798
G1 X105.468 Y108.971 E550.61951
G1 X105.468 Y109.855 E550.6999
G1 X142.332 Y146.718 E555.44143
G1 X142.332 Y147.602 E555.52183
G1 X105.468 Y110.738 E560.26335
G1 X105.468 Y111.622 E560.34375
G1 X142.332 Y148.486 E565.08527
G1 X142.332 Y149.369 E565.16567
G1 X105.468 Y112.506 E569.90719
G1 X105.468 Y113.39 E569.98759
G1 X142.332 Y150.253 E574.72911
G1 X142.332 Y151.137 E574.80951
G1 X105.468 Y114.274 E579.55103
G1 X105.468 Y115.158 E579.63143
G1 X142.332 Y152.021 E584.37296
G1 X142.332 Y152.905 E584.45335
G1 X105.468 Y116.042 E589.19488
G1 X105.468 Y116.926 E589.27527
G1 X142.332 Y153.789 E594.0168
G1 X142.332 Y154.673 E594.09719
G1 X105.468 Y117.81 E598.83872
G1 X105.468 Y118.694 E598.91911
G1 X142.332 Y155.557 E603.66064
G1 X142.332 Y156.441 E603.74104
G1 X105.468 Y119.578 E608.48256
G1 X105.468 Y120.462 E608.56296
G1 X142.332 Y157.325 E613.30448
G1 X142.332 Y158.209 E613.38488
G1 X105.468 Y121.346 E618.1264
G1 X105.468 Y122.23 E618.2068
G1 X142.332 Y159.093 E622.94832
G1 X142.332 Y159.977 E623.02872
G1 X105.468 Y123.114 E627.77024
G1 X105.468 Y123.998 E627.85064
G1 X142.332 Y160.861 E632.59216
G1 X142.332 Y161.745 E632.67256
G1 X105.468 Y124.882 E637.41409
G1 X105.468 Y125.765 E637.49448
G1 X142.332 Y162.629 E642.23601
G1 X142.332 Y163.513 E642.3164
G1 X105.468 Y126.649 E647.05793
G1 X105.468 Y127.533 E647.13832
G1 X142.332 Y164.397 E651.87985
G1 X142.332 Y165.28 E651.96024
G1 X105.468 Y128.417 E656.70177
G1 X105.468 Y129.301 E656.78216
G1 X142.332 Y166.164 E661.52369
G1 X142.332 Y167.048 E661.60409
G1 X105.468 Y130.185 E666.34561
G1 X105.468 Y131.069 E666.42601
G1 X142.332 Y167.932 E671.16753
G1 X142.332 Y168.816 E671.24793
G1 X105.468 Y131.953 E675.98945
G1 X105.468 Y132.837 E676.06985
G1 X142.332 Y169.7 E680.81137
G1 X142.332 Y170.584 E680.89177
G1 X105.468 Y133.721 E685.63329
G1 X105.468 Y134.605 E685.71369
G1 X142.332 Y171.468 E690.45521
G1 X142.332 Y172.352 E690.53561
G1 X105.468 Y135.489 E695.27714
G1 X105.468 Y136.373 E695.35753
G1 X141.527 Y172.432 E699.9956
G1 X140.643 Y172.432 E700.07599
G1 X105.468 Y137.257 E704.60036
G1 X105.468 Y138.141 E704.68076
G1 X139.759 Y172.432 E709.09143
G1 X138.875 Y172.432 E709.17183
G1 X105.468 Y139.025 E713.46881
G1 X105.468 Y139.909 E713.5492
G1 X137.991 Y172.432 E717.73248
G1 X137.108 Y172.432 E717.81288
G1 X105.468 Y140.792 E721.88246
G1 X105.468 Y141.676 E721.96285
G1 X136.224 Y172.432 E725.91874
G1 X135.34 Y172.432 E725.99913
G1 X105.468 Y142.56 E729.84132
G1 X105.468 Y143.444 E729.92172
G1 X134.456 Y172.432 E733.65021
G1 X133.572 Y172.432 E733.7306
G1 X105.468 Y144.328 E737.3454
G1 X105.468 Y145.212 E737.42579
G1 X132.688 Y172.432 E740.92689
G1 X131.804 Y172.432 E741.00729
G1 X105.468 Y146.096 E744.39469
G1 X105.468 Y146.98 E744.47508
G1 X130.92 Y172.432 E747.74879
G1 X130.036 Y172.432 E747.82918
G1 X105.468 Y147.864 E750.98919
G1 X105.468 Y148.748 E751.06958
G1 X129.152 Y172.432 E754.11589
G1 X128.268 Y172.432 E754.19629
G1 X105.468 Y149.632 E757.1289
G1 X105.468 Y150.516 E757.2093
G1 X127.384 Y172.432 E760.02821
G1 X126.5 Y172.432 E760.10861
G1 X105.468 Y151.4 E762.81382
G1 X105.468 Y152.284 E762.89422
G1 X125.616 Y172.432 E765.48574
G1 X124.732 Y172.432 E765.56614
G1 X105.468 Y153.168 E768.04396
G1 X105.468 Y154.052 E768.12436
G1 X123.848 Y172.432 E770.48848
G1 X122.964 Y172.432 E770.56888
G1 X105.468 Y154.936 E772.81931
G1 X105.468 Y155.819 E772.8997
G1 X122.081 Y172.432 E775.03644
G1 X121.197 Y172.432 E775.11683
G1 X105.468 Y156.703 E777.13987
G1 X105.468 Y157.587 E777.22026
G1 X120.313 Y172.432 E779.1296
G1 X119.429 Y172.432 E779.21
G1 X105.468 Y158.471 E781.00564
G1 X105.468 Y159.355 E781.08604
G1 X118.545 Y172.432 E782.76798
G1 X117.661 Y172.432 E782.84838
G1 X105.468 Y160.239 E784.41662
G1 X105.468 Y161.123 E784.49702
G1 X116.777 Y172.432 E785.95157
G1 X115.893 Y172.432 E786.03197
G1 X105.468 Y162.007 E787.37282
G1 X105.468 Y162.891 E787.45322
G1 X115.009 Y172.432 E788.68037
G1 X114.125 Y172.432 E788.76077
G1 X105.468 Y163.775 E789.87423
G1 X105.468 Y164.659 E789.95462
G1 X113.241 Y172.432 E790.95439
G1 X112.357 Y172.432 E791.03478
G1 X105.468 Y165.543 E791.92085
G1 X105.468 Y166.427 E792.00124
G1 X111.473 Y172.432 E792.77361
G1 X110.589 Y172.432 E792.85401
G1 X105.468 Y167.311 E793.51268
G1 X105.468 Y168.195 E793.59308
G1 X109.705 Y172.432 E794.13805
G1 X108.821 Y172.432 E794.21845
G1 X105.468 Y169.079 E794.64972
G1 X105.468 Y169.963 E794.73012
G1 X107.937 Y172.432 E795.0477
G1 X107.054 Y172.432 E795.12809
G1 X105.468 Y170.846 E795.33198
G1 X105.468 Y171.73 E795.41237
G1 X106.451 Y172.713 E795.53873
G1 E793.53873 F2400
G92 E0
G1 X91.8 Y163.9 F7800
G1 E2 F2400
;TYPE:Perimeter
;WIDTH:0.7
G1 F1800
G1 X57.2 Y163.9 E5.1462
G1 X57.2 Y31.1 E17.22168
G1 X91.8 Y31.1 E20.36789
G1 X91.8 Y163.84 E32.43791
G1 X92.425 Y164.525 F7800
G1 F1800
G1 X56.575 Y164.525 E35.69776
G1 X56.575 Y30.475 E47.88688
G1 X92.425 Y30.475 E51.14672
G1 X92.425 Y164.465 E63.33039
G1 X93.05 Y165.15 F7800
;TYPE:External perimeter
G1 F1800
G1 X55.95 Y165.15 E66.70388
G1 X55.95 Y29.85 E79.00664
G1 X93.05 Y29.85 E82.38013
G1 X93.05 Y165.09 E94.67743
G1 X92.687 Y164.982 F7800
G1 E92.67743 F2400
G92 E0
G1 X90.345 Y31.287 F7800
G1 E2 F2400
;TYPE:Solid infill
;WIDTH:0.70239
G1 F1800
G1 X91.332 Y32.274 E2.12741
G1 X91.332 Y33.161 E2.20839
G1 X89.739 Y31.568 E2.41401
G1 X88.852 Y31.568 E2.49499
G1 X91.332 Y34.048 E2.81512
G1 X91.332 Y34.936 E2.8961
G1 X87.964 Y31.568 E3.33075
G1 X87.077 Y31.568 E3.41172
G1 X91.332 Y35.823 E3.96089
G1 X91.332 Y36.71 E4.04186
G1 X86.19 Y31.568 E4.70554
G1 X85.303 Y31.568 E4.78651
G1 X91.332 Y37.597 E5.5647
G1 X91.332 Y38.484 E5.64567
G1 X84.416 Y31.568 E6.53837
G1 X83.529 Y31.568 E6.61935
G1 X91.332 Y39.371 E7.62656
G1 X91.332 Y40.258 E7.70754
