; generated by PrusaSlicer 2.5.0+win64 on 2023-04-27 at 06:28:36 UTC


;
;
; 

; external perimeters extrusion width = 0.60mm
; perimeters extrusion width = 0.50mm
; infill extrusion width = 0.50mm
; solid infill extrusion width = 0.50mm
; top infill extrusion width = 0.45mm
; first layer extrusion width = 0.42mm

M73 P0 R127
M73 Q0 S128
M201 X1000 Y1000 Z200 E5000 ; sets maximum accelerations, mm/sec^2
M203 X200 Y200 Z12 E120 ; sets maximum feedrates, mm / sec
M204 P1250 R1250 T1250 ; sets acceleration (P, T) and retract acceleration (R), mm/sec^2
M205 X8.00 Y8.00 Z0.40 E4.50 ; sets the jerk limits, mm/sec
M205 S0 T0 ; sets the minimum extruding and travel feed rate, mm/sec
M107
;TYPE:Custom
M862.3 P "MK3S" ; printer model check
M862.1 P0.4 ; nozzle diameter check
M115 U3.11.0 ; tell printer latest fw version
G90 ; use absolute coordinates
M83 ; extruder relative mode
M104 S215 ; set extruder temp
M140 S60 ; set bed temp
M190 S60 ; wait for bed temp
M109 S215 ; wait for extruder temp
G28 W ; home all without mesh bed level
G80 ; mesh bed leveling

G1 Z0.2 F720
G1 Y-3 F1000 ; go outside print area
G92 E0
G1 X60 E9 F1000 ; intro line
G1 X100 E12.5 F1000 ; intro line

G92 E0
M221 S95

; Don't change E values below. Excessive value can damage the printer.

M907 E538 ; set extruder motor current
G21 ; set units to millimeters
G90 ; use absolute coordinates
M83 ; use relative distances for extrusion
M900 K0.05 ; Filament gcode LA 1.5
M900 K30 ; Filament gcode LA 1.0
M107
;LAYER_CHANGE
;Z:0.2
;HEIGHT:0.2
;BEFORE_LAYER_CHANGE
G92 E0.0
;0.2


G1 E-.8 F2100
G1 Z.4 F720
;AFTER_LAYER_CHANGE
;0.2
G1 X70.043 Y61.05 F10800
G1 Z.2 F720
G1 E.8 F2100
M204 S800
;TYPE:Skirt/Brim
;WIDTH:0.42
G1 F1200
G1 X71.108 Y60.197 E.04278
G1 X72 Y60.023 E.0285
G1 X176 Y60.023 E3.26085
G1 X177.307 Y60.415 E.04278
M73 Q0 S127
G1 X178.183 Y61.46 E.04278
G1 X178.372 Y62.245 E.02532
G1 X181.377 Y108.4 E1.45021
G1 X181.377 Y147.6 E1.22909
G1 X180.985 Y148.907 E.04278
G1 X179.94 Y149.783 E.04278
G1 X179 Y149.977 E.03008
G1 X71 Y149.977 E3.38626
G1 X69.693 Y149.585 E.04278
M73 P0 R126
G1 X68.817 Y148.54 E.04278
G1 X68.623 Y147.6 E.03008
G1 X68.623 Y108.348 E1.23071
G1 X69.623 Y62.348 E1.44264
G1 X70.025 Y61.107 E.0409
M204 S1000
; printing object Simon Taschenlampe (2).stl id:0 copy 0
;WIPE_START
G1 F8640
G1 X71.108 Y60.197 E-.32671
G1 X72 Y60.023 E-.20985
G1 X72.968 Y60.023 E-.22344
;WIPE_END
G1 E-.04 F2100
G1 Z.6 F720
G1 X178.213 Y109.187 F10800
G1 Z.2 F720
G1 E.8 F2100
M204 S800
;TYPE:Perimeter
;WIDTH:0.419999
G1 F1200
G1 X178.213 Y146.813 E1.17973
G1 X71.787 Y146.813 E3.3369
G1 X71.787 Y109.187 E1.17973
G1 X178.153 Y109.187 E3.33502
M204 S1000
G1 X178.59 Y108.81 F10800
M204 S800
;TYPE:External perimeter
G1 F1200
G1 X178.59 Y147.19 E1.20338
G1 X71.41 Y147.19 E3.36055
G1 X71.41 Y108.81 E1.20338
G1 X178.53 Y108.81 E3.35867
M204 S1000
G1 X178.431 Y109.177 F10800
;WIPE_START
G1 F8640
G1 X178.535 Y112.101 E-.76
;WIPE_END
G1 E-.04 F2100
G1 Z.6 F720
G1 X177.336 Y109.3 F10800
G1 Z.2 F720
G1 E.8 F2100
M204 S800
;TYPE:Solid infill
;WIDTH:0.42059
G1 F1200
G1 X177.93 Y109.894 E.02637
G1 X177.93 Y110.428 E.01677
G1 X176.972 Y109.47 E.04256
G1 X176.438 Y109.47 E.01677
G1 X177.93 Y110.962 E.06628
G1 X177.93 Y111.496 E.01677
G1 X175.904 Y109.47 E.09
G1 X175.37 Y109.47 E.01677
G1 X177.93 Y112.03 E.11372
G1 X177.93 Y112.565 E.01677
G1 X174.835 Y109.47 E.13744
G1 X174.301 Y109.47 E.01677
G1 X177.93 Y113.099 E.16116
G1 X177.93 Y113.633 E.01677
G1 X173.767 Y109.47 E.18488
G1 X173.233 Y109.47 E.01677
G1 X177.93 Y114.167 E.2086
G1 X177.93 Y114.701 E.01677
G1 X172.699 Y109.47 E.23232
G1 X172.165 Y109.47 E.01677
G1 X177.93 Y115.235 E.25604
G1 X177.93 Y115.769 E.01677
G1 X171.631 Y109.47 E.27976
G1 X171.097 Y109.47 E.01677
G1 X177.93 Y116.303 E.30348
G1 X177.93 Y116.837 E.01677
G1 X170.563 Y109.47 E.3272
G1 X170.028 Y109.47 E.01677
G1 X177.93 Y117.372 E.35092
G1 X177.93 Y117.906 E.01677
G1 X169.494 Y109.47 E.37464
G1 X168.96 Y109.47 E.01677
G1 X177.93 Y118.44 E.39836
G1 X177.93 Y118.974 E.01677
G1 X168.426 Y109.47 E.42208
G1 X167.892 Y109.47 E.01677
G1 X177.93 Y119.508 E.4458
G1 X177.93 Y120.042 E.01677
G1 X167.358 Y109.47 E.46952
G1 X166.824 Y109.47 E.01677
G1 X177.93 Y120.576 E.49324
G1 X177.93 Y121.11 E.01677
G1 X166.29 Y109.47 E.51696
G1 X165.756 Y109.47 E.01677
G1 X177.93 Y121.644 E.54068
G1 X177.93 Y122.178 E.01677
G1 X165.222 Y109.47 E.5644
G1 X164.687 Y109.47 E.01677
G1 X177.93 Y122.713 E.58812
G1 X177.93 Y123.247 E.01677
G1 X164.153 Y109.47 E.61184
G1 X163.619 Y109.47 E.01677
G1 X177.93 Y123.781 E.63556
G1 X177.93 Y124.315 E.01677
M73 Q0 S126
G1 X163.085 Y109.47 E.65928
G1 X162.551 Y109.47 E.01677
G1 X177.93 Y124.849 E.683
G1 X177.93 Y125.383 E.01677
G1 X162.017 Y109.47 E.70672
G1 X161.483 Y109.47 E.01677
G1 X177.93 Y125.917 E.73044
G1 X177.93 Y126.451 E.01677
M73 P1 R126
M73 Q1 S126
G1 X160.949 Y109.47 E.75416
G1 X160.415 Y109.47 E.01677
M73 P1 R125
G1 X177.93 Y126.985 E.77788
G1 X177.93 Y127.52 E.01677
G1 X159.88 Y109.47 E.8016
G1 X159.346 Y109.47 E.01677
G1 X177.93 Y128.054 E.82533
G1 X177.93 Y128.588 E.01677
G1 X158.812 Y109.47 E.84905
G1 X158.278 Y109.47 E.01677
G1 X177.93 Y129.122 E.87277
G1 X177.93 Y129.656 E.01677
G1 X157.744 Y109.47 E.89649
G1 X157.21 Y109.47 E.01677
G1 X177.93 Y130.19 E.92021
G1 X177.93 Y130.724 E.01677
G1 X156.676 Y109.47 E.94393
G1 X156.142 Y109.47 E.01677
G1 X177.93 Y131.258 E.96765
G1 X177.93 Y131.792 E.01677
G1 X155.608 Y109.47 E.99137
G1 X155.074 Y109.47 E.01677
G1 X177.93 Y132.326 E1.01509
G1 X177.93 Y132.861 E.01677
G1 X154.539 Y109.47 E1.03881
G1 X154.005 Y109.47 E.01677
G1 X177.93 Y133.395 E1.06253
G1 X177.93 Y133.929 E.01677
G1 X153.471 Y109.47 E1.08625
G1 X152.937 Y109.47 E.01677
G1 X177.93 Y134.463 E1.10997
G1 X177.93 Y134.997 E.01677
G1 X152.403 Y109.47 E1.13369
G1 X151.869 Y109.47 E.01677
G1 X177.93 Y135.531 E1.15741
G1 X177.93 Y136.065 E.01677
G1 X151.335 Y109.47 E1.18113
G1 X150.801 Y109.47 E.01677
G1 X177.93 Y136.599 E1.20485
G1 X177.93 Y137.133 E.01677
G1 X150.267 Y109.47 E1.22857
G1 X149.732 Y109.47 E.01677
G1 X177.93 Y137.668 E1.25229
G1 X177.93 Y138.202 E.01677
G1 X149.198 Y109.47 E1.27601
G1 X148.664 Y109.47 E.01677
G1 X177.93 Y138.736 E1.29973
G1 X177.93 Y139.27 E.01677
G1 X148.13 Y109.47 E1.32345
G1 X147.596 Y109.47 E.01677
G1 X177.93 Y139.804 E1.34717
G1 X177.93 Y140.338 E.01677
G1 X147.062 Y109.47 E1.37089
G1 X146.528 Y109.47 E.01677
G1 X177.93 Y140.872 E1.39461
G1 X177.93 Y141.406 E.01677
G1 X145.994 Y109.47 E1.41833
G1 X145.46 Y109.47 E.01677
G1 X177.93 Y141.94 E1.44205
G1 X177.93 Y142.474 E.01677
G1 X144.926 Y109.47 E1.46577
G1 X144.391 Y109.47 E.01677
M73 Q1 S125
G1 X177.93 Y143.009 E1.48949
G1 X177.93 Y143.543 E.01677
G1 X143.857 Y109.47 E1.51321
G1 X143.323 Y109.47 E.01677
M73 P1 R124
G1 X177.93 Y144.077 E1.53693
G1 X177.93 Y144.611 E.01677
G1 X142.789 Y109.47 E1.56065
G1 X142.255 Y109.47 E.01677
G1 X177.93 Y145.145 E1.58437
G1 X177.93 Y145.679 E.01677
G1 X141.721 Y109.47 E1.60809
G1 X141.187 Y109.47 E.01677
G1 X177.93 Y146.213 E1.63181
G1 X177.93 Y146.53 E.00995
G1 X177.713 Y146.53 E.00682
G1 X140.653 Y109.47 E1.64589
G1 X140.119 Y109.47 E.01677
M73 P2 R124
M73 Q2 S125
G1 X177.179 Y146.53 E1.64589
G1 X176.645 Y146.53 E.01677
G1 X139.584 Y109.47 E1.64589
G1 X139.05 Y109.47 E.01677
G1 X176.111 Y146.53 E1.64589
G1 X175.577 Y146.53 E.01677
G1 X138.516 Y109.47 E1.64589
G1 X137.982 Y109.47 E.01677
G1 X175.042 Y146.53 E1.64589
G1 X174.508 Y146.53 E.01677
G1 X137.448 Y109.47 E1.64589
G1 X136.914 Y109.47 E.01677
G1 X173.974 Y146.53 E1.64589
G1 X173.44 Y146.53 E.01677
G1 X136.38 Y109.47 E1.64589
G1 X135.846 Y109.47 E.01677
G1 X172.906 Y146.53 E1.64589
G1 X172.372 Y146.53 E.01677
G1 X135.312 Y109.47 E1.64589
G1 X134.777 Y109.47 E.01677
G1 X171.838 Y146.53 E1.64589
G1 X171.304 Y146.53 E.01677
G1 X134.243 Y109.47 E1.64589
G1 X133.709 Y109.47 E.01677
G1 X170.77 Y146.53 E1.64589
G1 X170.235 Y146.53 E.01677
G1 X133.175 Y109.47 E1.64589
G1 X132.641 Y109.47 E.01677
G1 X169.701 Y146.53 E1.64589
G1 X169.167 Y146.53 E.01677
M73 Q2 S124
G1 X132.107 Y109.47 E1.64589
G1 X131.573 Y109.47 E.01677
G1 X168.633 Y146.53 E1.64589
G1 X168.099 Y146.53 E.01677
M73 P2 R123
G1 X131.039 Y109.47 E1.64589
G1 X130.505 Y109.47 E.01677
G1 X167.565 Y146.53 E1.64589
G1 X167.031 Y146.53 E.01677
G1 X129.971 Y109.47 E1.64589
G1 X129.436 Y109.47 E.01677
G1 X166.497 Y146.53 E1.64589
G1 X165.963 Y146.53 E.01677
G1 X128.902 Y109.47 E1.64589
G1 X128.368 Y109.47 E.01677
G1 X165.428 Y146.53 E1.64589
G1 X164.894 Y146.53 E.01677
G1 X127.834 Y109.47 E1.64589
G1 X127.3 Y109.47 E.01677
G1 X164.36 Y146.53 E1.64589
G1 X163.826 Y146.53 E.01677
G1 X126.766 Y109.47 E1.64589
G1 X126.232 Y109.47 E.01677
G1 X163.292 Y146.53 E1.64589
G1 X162.758 Y146.53 E.01677
G1 X125.698 Y109.47 E1.64589
G1 X125.164 Y109.47 E.01677
G1 X162.224 Y146.53 E1.64589
G1 X161.69 Y146.53 E.01677
M73 P3 R123
M73 Q3 S124
G1 X124.629 Y109.47 E1.64589
G1 X124.095 Y109.47 E.01677
G1 X161.156 Y146.53 E1.64589
G1 X160.622 Y146.53 E.01677
G1 X123.561 Y109.47 E1.64589
G1 X123.027 Y109.47 E.01677
G1 X160.087 Y146.53 E1.64589
G1 X159.553 Y146.53 E.01677
G1 X122.493 Y109.47 E1.64589
G1 X121.959 Y109.47 E.01677
G1 X159.019 Y146.53 E1.64589
G1 X158.485 Y146.53 E.01677
G1 X121.425 Y109.47 E1.64589
G1 X120.891 Y109.47 E.01677
G1 X157.951 Y146.53 E1.64589
G1 X157.417 Y146.53 E.01677
M73 Q3 S123
G1 X120.357 Y109.47 E1.64589
G1 X119.823 Y109.47 E.01677
G1 X156.883 Y146.53 E1.64589
G1 X156.349 Y146.53 E.01677
G1 X119.288 Y109.47 E1.64589
G1 X118.754 Y109.47 E.01677
M73 P3 R122
G1 X155.815 Y146.53 E1.64589
G1 X155.28 Y146.53 E.01677
G1 X118.22 Y109.47 E1.64589
G1 X117.686 Y109.47 E.01677
G1 X154.746 Y146.53 E1.64589
G1 X154.212 Y146.53 E.01677
G1 X117.152 Y109.47 E1.64589
G1 X116.618 Y109.47 E.01677
G1 X153.678 Y146.53 E1.64589
G1 X153.144 Y146.53 E.01677
G1 X116.084 Y109.47 E1.64589
G1 X115.55 Y109.47 E.01677
G1 X152.61 Y146.53 E1.64589
G1 X152.076 Y146.53 E.01677
G1 X115.016 Y109.47 E1.64589
G1 X114.481 Y109.47 E.01677
G1 X151.542 Y146.53 E1.64589
G1 X151.008 Y146.53 E.01677
G1 X113.947 Y109.47 E1.64589
G1 X113.413 Y109.47 E.01677
G1 X150.474 Y146.53 E1.64589
G1 X149.939 Y146.53 E.01677
G1 X112.879 Y109.47 E1.64589
G1 X112.345 Y109.47 E.01677
G1 X149.405 Y146.53 E1.64589
G1 X148.871 Y146.53 E.01677
G1 X111.811 Y109.47 E1.64589
G1 X111.277 Y109.47 E.01677
G1 X148.337 Y146.53 E1.64589
G1 X147.803 Y146.53 E.01677
G1 X110.743 Y109.47 E1.64589
G1 X110.209 Y109.47 E.01677
G1 X147.269 Y146.53 E1.64589
G1 X146.735 Y146.53 E.01677
G1 X109.675 Y109.47 E1.64589
G1 X109.14 Y109.47 E.01677
M73 P4 R122
M73 Q4 S123
G1 X146.201 Y146.53 E1.64589
G1 X145.667 Y146.53 E.01677
G1 X108.606 Y109.47 E1.64589
G1 X108.072 Y109.47 E.01677
M73 Q4 S122
G1 X145.132 Y146.53 E1.64589
G1 X144.598 Y146.53 E.01677
G1 X107.538 Y109.47 E1.64589
G1 X107.004 Y109.47 E.01677
M73 P4 R121
G1 X144.064 Y146.53 E1.64589
G1 X143.53 Y146.53 E.01677
G1 X106.47 Y109.47 E1.64589
G1 X105.936 Y109.47 E.01677
G1 X142.996 Y146.53 E1.64589
G1 X142.462 Y146.53 E.01677
G1 X105.402 Y109.47 E1.64589
G1 X104.868 Y109.47 E.01677
G1 X141.928 Y146.53 E1.64589
G1 X141.394 Y146.53 E.01677
G1 X104.333 Y109.47 E1.64589
G1 X103.799 Y109.47 E.01677
G1 X140.86 Y146.53 E1.64589
G1 X140.326 Y146.53 E.01677
G1 X103.265 Y109.47 E1.64589
G1 X102.731 Y109.47 E.01677
G1 X139.791 Y146.53 E1.64589
G1 X139.257 Y146.53 E.01677
G1 X102.197 Y109.47 E1.64589
G1 X101.663 Y109.47 E.01677
G1 X138.723 Y146.53 E1.64589
G1 X138.189 Y146.53 E.01677
G1 X101.129 Y109.47 E1.64589
G1 X100.595 Y109.47 E.01677
G1 X137.655 Y146.53 E1.64589
G1 X137.121 Y146.53 E.01677
G1 X100.061 Y109.47 E1.64589
G1 X99.527 Y109.47 E.01677
G1 X136.587 Y146.53 E1.64589
G1 X136.053 Y146.53 E.01677
G1 X98.992 Y109.47 E1.64589
G1 X98.458 Y109.47 E.01677
G1 X135.519 Y146.53 E1.64589
G1 X134.984 Y146.53 E.01677
G1 X97.924 Y109.47 E1.64589
G1 X97.39 Y109.47 E.01677
G1 X134.45 Y146.53 E1.64589
G1 X133.916 Y146.53 E.01677
G1 X96.856 Y109.47 E1.64589
G1 X96.322 Y109.47 E.01677
M73 Q4 S121
G1 X133.382 Y146.53 E1.64589
G1 X132.848 Y146.53 E.01677
G1 X95.788 Y109.47 E1.64589
G1 X95.254 Y109.47 E.01677
G1 X132.314 Y146.53 E1.64589
G1 X131.78 Y146.53 E.01677
M73 P4 R120
G1 X94.72 Y109.47 E1.64589
G1 X94.185 Y109.47 E.01677
M73 P5 R120
G1 X131.246 Y146.53 E1.64589
G1 X130.712 Y146.53 E.01677
M73 Q5 S121
G1 X93.651 Y109.47 E1.64589
G1 X93.117 Y109.47 E.01677
G1 X130.177 Y146.53 E1.64589
G1 X129.643 Y146.53 E.01677
G1 X92.583 Y109.47 E1.64589
G1 X92.049 Y109.47 E.01677
G1 X129.109 Y146.53 E1.64589
G1 X128.575 Y146.53 E.01677
G1 X91.515 Y109.47 E1.64589
G1 X90.981 Y109.47 E.01677
G1 X128.041 Y146.53 E1.64589
G1 X127.507 Y146.53 E.01677
G1 X90.447 Y109.47 E1.64589
G1 X89.913 Y109.47 E.01677
G1 X126.973 Y146.53 E1.64589
G1 X126.439 Y146.53 E.01677
G1 X89.378 Y109.47 E1.64589
G1 X88.844 Y109.47 E.01677
G1 X125.905 Y146.53 E1.64589
G1 X125.371 Y146.53 E.01677
G1 X88.31 Y109.47 E1.64589
G1 X87.776 Y109.47 E.01677
G1 X124.836 Y146.53 E1.64589
G1 X124.302 Y146.53 E.01677
G1 X87.242 Y109.47 E1.64589
G1 X86.708 Y109.47 E.01677
G1 X123.768 Y146.53 E1.64589
G1 X123.234 Y146.53 E.01677
G1 X86.174 Y109.47 E1.64589
G1 X85.64 Y109.47 E.01677
G1 X122.7 Y146.53 E1.64589
G1 X122.166 Y146.53 E.01677
G1 X85.106 Y109.47 E1.64589
G1 X84.572 Y109.47 E.01677
G1 X121.632 Y146.53 E1.64589
G1 X121.098 Y146.53 E.01677
M73 Q5 S120
G1 X84.037 Y109.47 E1.64589
G1 X83.503 Y109.47 E.01677
G1 X120.564 Y146.53 E1.64589
G1 X120.029 Y146.53 E.01677
M73 P5 R119
G1 X82.969 Y109.47 E1.64589
G1 X82.435 Y109.47 E.01677
G1 X119.495 Y146.53 E1.64589
G1 X118.961 Y146.53 E.01677
G1 X81.901 Y109.47 E1.64589
G1 X81.367 Y109.47 E.01677
G1 X118.427 Y146.53 E1.64589
G1 X117.893 Y146.53 E.01677
G1 X80.833 Y109.47 E1.64589
G1 X80.299 Y109.47 E.01677
G1 X117.359 Y146.53 E1.64589
G1 X116.825 Y146.53 E.01677
G1 X79.765 Y109.47 E1.64589
G1 X79.23 Y109.47 E.01677
G1 X116.291 Y146.53 E1.64589
G1 X115.757 Y146.53 E.01677
M73 P6 R119
G1 X78.696 Y109.47 E1.64589
G1 X78.162 Y109.47 E.01677
M73 Q6 S120
G1 X115.223 Y146.53 E1.64589
G1 X114.688 Y146.53 E.01677
G1 X77.628 Y109.47 E1.64589
G1 X77.094 Y109.47 E.01677
G1 X114.154 Y146.53 E1.64589
G1 X113.62 Y146.53 E.01677
G1 X76.56 Y109.47 E1.64589
G1 X76.026 Y109.47 E.01677
G1 X113.086 Y146.53 E1.64589
G1 X112.552 Y146.53 E.01677
G1 X75.492 Y109.47 E1.64589
G1 X74.958 Y109.47 E.01677
G1 X112.018 Y146.53 E1.64589
G1 X111.484 Y146.53 E.01677
G1 X74.424 Y109.47 E1.64589
G1 X73.889 Y109.47 E.01677
G1 X110.95 Y146.53 E1.64589
G1 X110.416 Y146.53 E.01677
G1 X73.355 Y109.47 E1.64589
G1 X72.821 Y109.47 E.01677
G1 X109.881 Y146.53 E1.64589
G1 X109.347 Y146.53 E.01677
G1 X72.287 Y109.47 E1.64589
G1 X72.07 Y109.47 E.00682
M73 Q6 S119
G1 X72.07 Y109.787 E.00995
G1 X108.813 Y146.53 E1.63181
G1 X108.279 Y146.53 E.01677
G1 X72.07 Y110.321 E1.60809
G1 X72.07 Y110.855 E.01677
M73 P6 R118
G1 X107.745 Y146.53 E1.58437
G1 X107.211 Y146.53 E.01677
G1 X72.07 Y111.389 E1.56065
G1 X72.07 Y111.923 E.01677
G1 X106.677 Y146.53 E1.53693
G1 X106.143 Y146.53 E.01677
G1 X72.07 Y112.457 E1.51321
G1 X72.07 Y112.991 E.01677
G1 X105.609 Y146.53 E1.48949
G1 X105.075 Y146.53 E.01677
G1 X72.07 Y113.525 E1.46577
G1 X72.07 Y114.06 E.01677
G1 X104.54 Y146.53 E1.44205
G1 X104.006 Y146.53 E.01677
G1 X72.07 Y114.594 E1.41833
G1 X72.07 Y115.128 E.01677
G1 X103.472 Y146.53 E1.39461
G1 X102.938 Y146.53 E.01677
G1 X72.07 Y115.662 E1.37089
G1 X72.07 Y116.196 E.01677
G1 X102.404 Y146.53 E1.34717
G1 X101.87 Y146.53 E.01677
G1 X72.07 Y116.73 E1.32345
G1 X72.07 Y117.264 E.01677
G1 X101.336 Y146.53 E1.29973
G1 X100.802 Y146.53 E.01677
G1 X72.07 Y117.798 E1.27601
G1 X72.07 Y118.332 E.01677
G1 X100.268 Y146.53 E1.25229
G1 X99.733 Y146.53 E.01677
G1 X72.07 Y118.867 E1.22857
G1 X72.07 Y119.401 E.01677
M73 P7 R118
G1 X99.199 Y146.53 E1.20485
G1 X98.665 Y146.53 E.01677
G1 X72.07 Y119.935 E1.18113
G1 X72.07 Y120.469 E.01677
M73 Q7 S119
G1 X98.131 Y146.53 E1.15741
G1 X97.597 Y146.53 E.01677
G1 X72.07 Y121.003 E1.13369
G1 X72.07 Y121.537 E.01677
G1 X97.063 Y146.53 E1.10997
G1 X96.529 Y146.53 E.01677
G1 X72.07 Y122.071 E1.08625
G1 X72.07 Y122.605 E.01677
G1 X95.995 Y146.53 E1.06253
