; generated by PrusaSlicer 2.5.2+win64 on 2023-06-16 at 06:05:16 UTC


;
;
; 

; external perimeters extrusion width = 0.45mm
; perimeters extrusion width = 0.45mm
; infill extrusion width = 0.45mm
; solid infill extrusion width = 0.45mm
; top infill extrusion width = 0.40mm
; first layer extrusion width = 0.42mm

M73 P0 R155
M73 Q0 S156
M201 X1000 Y1000 Z200 E5000 ; sets maximum accelerations, mm/sec^2
M203 X200 Y200 Z12 E120 ; sets maximum feedrates, mm / sec
M204 P1250 R1250 T1250 ; sets acceleration (P, T) and retract acceleration (R), mm/sec^2
M205 X8.00 Y8.00 Z0.40 E4.50 ; sets the jerk limits, mm/sec
M205 S0 T0 ; sets the minimum extruding and travel feed rate, mm/sec
M107
;TYPE:Custom
M862.3 P "MK3S" ; printer model check
M862.1 P0.4 ; nozzle diameter check
M115 U3.12.2 ; tell printer latest fw version
G90 ; use absolute coordinates
M83 ; extruder relative mode
M104 S215 ; set extruder temp
M140 S60 ; set bed temp
M190 S60 ; wait for bed temp
M109 S215 ; wait for extruder temp
G28 W ; home all without mesh bed level
G80 ; mesh bed leveling

G1 Z0.2 F720
G1 Y-3 F1000 ; go outside print area
G92 E0
G1 X60 E9 F1000 ; intro line
G1 X100 E12.5 F1000 ; intro line

G92 E0
M221 S95

; Don't change E values below. Excessive value can damage the printer.
M907 E430 ; set extruder motor current
G21 ; set units to millimeters
G90 ; use absolute coordinates
M83 ; use relative distances for extrusion
M900 K0.05 ; Filament gcode LA 1.5
M900 K30 ; Filament gcode LA 1.0
M107
;LAYER_CHANGE
;Z:0.2
;HEIGHT:0.2
;BEFORE_LAYER_CHANGE
G92 E0.0
;0.2


G1 E-.8 F2100
G1 Z.4 F720
;AFTER_LAYER_CHANGE
;0.2
G1 X79.515 Y64.668 F10800
G1 Z.2 F720
G1 E.8 F2100
M204 S800
;TYPE:Skirt/Brim
;WIDTH:0.42
G1 F1200
G1 X80.56 Y63.792 E.04278
G1 X81.5 Y63.598 E.03008
G1 X168.5 Y63.598 E2.72782
G1 X169.807 Y63.99 E.04278
G1 X170.683 Y65.035 E.04278
G1 X170.877 Y65.975 E.03008
G1 X170.877 Y99.975 E1.06605
G1 X168.975 Y144.127 E1.38565
M73 P0 R154
G1 X168.527 Y145.416 E.04278
G1 X167.445 Y146.247 E.04278
G1 X166.6 Y146.402 E.02693
G1 X81.6 Y146.402 E2.66512
G1 X80.293 Y146.01 E.04278
G1 X79.417 Y144.965 E.04278
G1 X79.223 Y144.03 E.02992
G1 X79.123 Y65.975 E2.44737
G1 X79.497 Y64.725 E.0409
M204 S1000
; printing object Taschenlampe Schalter seitlich AAA 4.stl id:0 copy 0
;WIPE_START
G1 F8640
G1 X80.56 Y63.792 E-.32671
G1 X81.5 Y63.598 E-.22155
G1 X82.417 Y63.598 E-.21174
;WIPE_END
G1 E-.04 F2100
G1 Z.6 F720
G1 X82.387 Y112.962 F10800
G1 Z.2 F720
G1 E.8 F2100
M204 S800
;TYPE:Perimeter
;WIDTH:0.419999
G1 F1200
G1 X165.813 Y112.962 E2.61575
G1 X165.813 Y143.238 E.94928
G1 X82.387 Y143.238 E2.61575
G1 X82.387 Y113.022 E.94739
M204 S1000
G1 X82.01 Y112.585 F10800
M204 S800
;TYPE:External perimeter
M73 Q0 S155
G1 F1200
G1 X166.19 Y112.585 E2.6394
G1 X166.19 Y143.615 E.97292
G1 X82.01 Y143.615 E2.6394
G1 X82.01 Y112.645 E.97104
M204 S1000
G1 X82.407 Y112.632 F10800
;WIPE_START
G1 F8640
G1 X85.301 Y112.643 E-.76
;WIPE_END
G1 E-.04 F2100
G1 Z.6 F720
G1 X164.881 Y113.132 F10800
G1 Z.2 F720
G1 E.8 F2100
M204 S800
;TYPE:Solid infill
;WIDTH:0.420149
G1 F1200
G1 X165.474 Y113.725 E.0263
G1 X165.474 Y114.258 E.01673
G1 X164.517 Y113.301 E.04244
G1 X163.983 Y113.301 E.01673
G1 X165.474 Y114.792 E.0661
G1 X165.474 Y115.325 E.01673
G1 X163.45 Y113.301 E.08977
G1 X162.916 Y113.301 E.01673
G1 X165.474 Y115.859 E.11343
G1 X165.474 Y116.392 E.01673
G1 X162.383 Y113.301 E.1371
G1 X161.849 Y113.301 E.01673
G1 X165.474 Y116.926 E.16076
G1 X165.474 Y117.459 E.01673
G1 X161.316 Y113.301 E.18443
G1 X160.782 Y113.301 E.01673
G1 X165.474 Y117.993 E.20809
G1 X165.474 Y118.526 E.01673
G1 X160.249 Y113.301 E.23176
G1 X159.716 Y113.301 E.01673
G1 X165.474 Y119.059 E.25542
G1 X165.474 Y119.593 E.01673
G1 X159.182 Y113.301 E.27909
G1 X158.649 Y113.301 E.01673
G1 X165.474 Y120.126 E.30275
G1 X165.474 Y120.66 E.01673
G1 X158.115 Y113.301 E.32642
G1 X157.582 Y113.301 E.01673
G1 X165.474 Y121.193 E.35008
G1 X165.474 Y121.727 E.01673
G1 X157.048 Y113.301 E.37375
G1 X156.515 Y113.301 E.01673
G1 X165.474 Y122.26 E.39741
G1 X165.474 Y122.794 E.01673
G1 X155.981 Y113.301 E.42108
G1 X155.448 Y113.301 E.01673
G1 X165.474 Y123.327 E.44474
G1 X165.474 Y123.861 E.01673
G1 X154.914 Y113.301 E.46841
G1 X154.381 Y113.301 E.01673
G1 X165.474 Y124.394 E.49207
G1 X165.474 Y124.928 E.01673
G1 X153.847 Y113.301 E.51574
G1 X153.314 Y113.301 E.01673
G1 X165.474 Y125.461 E.5394
G1 X165.474 Y125.995 E.01673
G1 X152.78 Y113.301 E.56307
G1 X152.247 Y113.301 E.01673
G1 X165.474 Y126.528 E.58673
G1 X165.474 Y127.062 E.01673
G1 X151.713 Y113.301 E.6104
G1 X151.18 Y113.301 E.01673
G1 X165.474 Y127.595 E.63406
G1 X165.474 Y128.129 E.01673
G1 X150.646 Y113.301 E.65773
G1 X150.113 Y113.301 E.01673
G1 X165.474 Y128.662 E.68139
G1 X165.474 Y129.196 E.01673
G1 X149.579 Y113.301 E.70505
G1 X149.046 Y113.301 E.01673
G1 X165.474 Y129.729 E.72872
G1 X165.474 Y130.263 E.01673
G1 X148.512 Y113.301 E.75238
G1 X147.979 Y113.301 E.01673
G1 X165.474 Y130.796 E.77605
G1 X165.474 Y131.33 E.01673
G1 X147.445 Y113.301 E.79971
G1 X146.912 Y113.301 E.01673
G1 X165.474 Y131.863 E.82338
G1 X165.474 Y132.397 E.01673
M73 P0 R153
G1 X146.378 Y113.301 E.84704
G1 X145.845 Y113.301 E.01673
G1 X165.474 Y132.93 E.87071
G1 X165.474 Y133.463 E.01673
G1 X145.312 Y113.301 E.89437
G1 X144.778 Y113.301 E.01673
G1 X165.474 Y133.997 E.91804
G1 X165.474 Y134.53 E.01673
G1 X144.245 Y113.301 E.9417
G1 X143.711 Y113.301 E.01673
G1 X165.474 Y135.064 E.96537
G1 X165.474 Y135.597 E.01673
G1 X143.178 Y113.301 E.98903
G1 X142.644 Y113.301 E.01673
G1 X165.474 Y136.131 E1.0127
G1 X165.474 Y136.664 E.01673
G1 X142.111 Y113.301 E1.03636
G1 X141.577 Y113.301 E.01673
G1 X165.474 Y137.198 E1.06003
G1 X165.474 Y137.731 E.01673
G1 X141.044 Y113.301 E1.08369
G1 X140.51 Y113.301 E.01673
G1 X165.474 Y138.265 E1.10736
G1 X165.474 Y138.798 E.01673
G1 X139.977 Y113.301 E1.13102
G1 X139.443 Y113.301 E.01673
M73 P1 R153
M73 Q1 S155
G1 X165.474 Y139.332 E1.15469
G1 X165.474 Y139.865 E.01673
M73 Q1 S154
G1 X138.91 Y113.301 E1.17835
G1 X138.376 Y113.301 E.01673
G1 X165.474 Y140.399 E1.20202
G1 X165.474 Y140.932 E.01673
G1 X137.843 Y113.301 E1.22568
G1 X137.309 Y113.301 E.01673
G1 X165.474 Y141.466 E1.24935
G1 X165.474 Y141.999 E.01673
G1 X136.776 Y113.301 E1.27301
G1 X136.242 Y113.301 E.01673
G1 X165.474 Y142.533 E1.29668
G1 X165.474 Y142.899 E.01148
G1 X165.306 Y142.899 E.00526
G1 X135.709 Y113.301 E1.31291
G1 X135.175 Y113.301 E.01673
G1 X164.772 Y142.899 E1.31291
G1 X164.239 Y142.899 E.01673
G1 X134.642 Y113.301 E1.31291
G1 X134.108 Y113.301 E.01673
G1 X163.706 Y142.899 E1.31291
G1 X163.172 Y142.899 E.01673
G1 X133.575 Y113.301 E1.31291
G1 X133.041 Y113.301 E.01673
G1 X162.639 Y142.899 E1.31291
G1 X162.105 Y142.899 E.01673
G1 X132.508 Y113.301 E1.31291
G1 X131.974 Y113.301 E.01673
G1 X161.572 Y142.899 E1.31291
G1 X161.038 Y142.899 E.01673
G1 X131.441 Y113.301 E1.31291
G1 X130.907 Y113.301 E.01673
G1 X160.505 Y142.899 E1.31291
G1 X159.971 Y142.899 E.01673
G1 X130.374 Y113.301 E1.31291
G1 X129.841 Y113.301 E.01673
G1 X159.438 Y142.899 E1.31291
G1 X158.904 Y142.899 E.01673
M73 P1 R152
G1 X129.307 Y113.301 E1.31291
G1 X128.774 Y113.301 E.01673
G1 X158.371 Y142.899 E1.31291
G1 X157.837 Y142.899 E.01673
G1 X128.24 Y113.301 E1.31291
G1 X127.707 Y113.301 E.01673
G1 X157.304 Y142.899 E1.31291
G1 X156.77 Y142.899 E.01673
G1 X127.173 Y113.301 E1.31291
G1 X126.64 Y113.301 E.01673
G1 X156.237 Y142.899 E1.31291
G1 X155.703 Y142.899 E.01673
G1 X126.106 Y113.301 E1.31291
G1 X125.573 Y113.301 E.01673
G1 X155.17 Y142.899 E1.31291
G1 X154.636 Y142.899 E.01673
G1 X125.039 Y113.301 E1.31291
G1 X124.506 Y113.301 E.01673
G1 X154.103 Y142.899 E1.31291
G1 X153.569 Y142.899 E.01673
G1 X123.972 Y113.301 E1.31291
G1 X123.439 Y113.301 E.01673
M73 Q1 S153
G1 X153.036 Y142.899 E1.31291
G1 X152.502 Y142.899 E.01673
G1 X122.905 Y113.301 E1.31291
G1 X122.372 Y113.301 E.01673
G1 X151.969 Y142.899 E1.31291
G1 X151.435 Y142.899 E.01673
G1 X121.838 Y113.301 E1.31291
G1 X121.305 Y113.301 E.01673
G1 X150.902 Y142.899 E1.31291
G1 X150.368 Y142.899 E.01673
G1 X120.771 Y113.301 E1.31291
G1 X120.238 Y113.301 E.01673
G1 X149.835 Y142.899 E1.31291
G1 X149.301 Y142.899 E.01673
G1 X119.704 Y113.301 E1.31291
G1 X119.171 Y113.301 E.01673
G1 X148.768 Y142.899 E1.31291
G1 X148.235 Y142.899 E.01673
G1 X118.637 Y113.301 E1.31291
G1 X118.104 Y113.301 E.01673
G1 X147.701 Y142.899 E1.31291
G1 X147.168 Y142.899 E.01673
G1 X117.57 Y113.301 E1.31291
G1 X117.037 Y113.301 E.01673
G1 X146.634 Y142.899 E1.31291
G1 X146.101 Y142.899 E.01673
G1 X116.503 Y113.301 E1.31291
G1 X115.97 Y113.301 E.01673
M73 P2 R152
M73 Q2 S153
G1 X145.567 Y142.899 E1.31291
G1 X145.034 Y142.899 E.01673
G1 X115.436 Y113.301 E1.31291
G1 X114.903 Y113.301 E.01673
G1 X144.5 Y142.899 E1.31291
G1 X143.967 Y142.899 E.01673
M73 P2 R151
G1 X114.37 Y113.301 E1.31291
G1 X113.836 Y113.301 E.01673
G1 X143.433 Y142.899 E1.31291
G1 X142.9 Y142.899 E.01673
G1 X113.303 Y113.301 E1.31291
G1 X112.769 Y113.301 E.01673
G1 X142.366 Y142.899 E1.31291
G1 X141.833 Y142.899 E.01673
G1 X112.236 Y113.301 E1.31291
G1 X111.702 Y113.301 E.01673
G1 X141.299 Y142.899 E1.31291
G1 X140.766 Y142.899 E.01673
G1 X111.169 Y113.301 E1.31291
G1 X110.635 Y113.301 E.01673
G1 X140.232 Y142.899 E1.31291
G1 X139.699 Y142.899 E.01673
G1 X110.102 Y113.301 E1.31291
G1 X109.568 Y113.301 E.01673
G1 X139.165 Y142.899 E1.31291
G1 X138.632 Y142.899 E.01673
G1 X109.035 Y113.301 E1.31291
G1 X108.501 Y113.301 E.01673
M73 Q2 S152
G1 X138.098 Y142.899 E1.31291
G1 X137.565 Y142.899 E.01673
G1 X107.968 Y113.301 E1.31291
G1 X107.434 Y113.301 E.01673
G1 X137.031 Y142.899 E1.31291
G1 X136.498 Y142.899 E.01673
G1 X106.901 Y113.301 E1.31291
G1 X106.367 Y113.301 E.01673
G1 X135.964 Y142.899 E1.31291
G1 X135.431 Y142.899 E.01673
G1 X105.834 Y113.301 E1.31291
G1 X105.3 Y113.301 E.01673
G1 X134.897 Y142.899 E1.31291
G1 X134.364 Y142.899 E.01673
G1 X104.767 Y113.301 E1.31291
G1 X104.233 Y113.301 E.01673
G1 X133.831 Y142.899 E1.31291
G1 X133.297 Y142.899 E.01673
G1 X103.7 Y113.301 E1.31291
G1 X103.166 Y113.301 E.01673
G1 X132.764 Y142.899 E1.31291
G1 X132.23 Y142.899 E.01673
G1 X102.633 Y113.301 E1.31291
G1 X102.099 Y113.301 E.01673
G1 X131.697 Y142.899 E1.31291
G1 X131.163 Y142.899 E.01673
G1 X101.566 Y113.301 E1.31291
G1 X101.032 Y113.301 E.01673
G1 X130.63 Y142.899 E1.31291
G1 X130.096 Y142.899 E.01673
G1 X100.499 Y113.301 E1.31291
G1 X99.966 Y113.301 E.01673
G1 X129.563 Y142.899 E1.31291
G1 X129.029 Y142.899 E.01673
M73 P2 R150
G1 X99.432 Y113.301 E1.31291
G1 X98.899 Y113.301 E.01673
G1 X128.496 Y142.899 E1.31291
G1 X127.962 Y142.899 E.01673
G1 X98.365 Y113.301 E1.31291
G1 X97.832 Y113.301 E.01673
G1 X127.429 Y142.899 E1.31291
G1 X126.895 Y142.899 E.01673
G1 X97.298 Y113.301 E1.31291
G1 X96.765 Y113.301 E.01673
G1 X126.362 Y142.899 E1.31291
G1 X125.828 Y142.899 E.01673
G1 X96.231 Y113.301 E1.31291
G1 X95.698 Y113.301 E.01673
G1 X125.295 Y142.899 E1.31291
G1 X124.761 Y142.899 E.01673
G1 X95.164 Y113.301 E1.31291
G1 X94.631 Y113.301 E.01673
G1 X124.228 Y142.899 E1.31291
G1 X123.694 Y142.899 E.01673
G1 X94.097 Y113.301 E1.31291
G1 X93.564 Y113.301 E.01673
M73 Q2 S151
G1 X123.161 Y142.899 E1.31291
G1 X122.627 Y142.899 E.01673
G1 X93.03 Y113.301 E1.31291
M73 P3 R150
G1 X92.497 Y113.301 E.01673
M73 Q3 S151
G1 X122.094 Y142.899 E1.31291
G1 X121.56 Y142.899 E.01673
G1 X91.963 Y113.301 E1.31291
G1 X91.43 Y113.301 E.01673
G1 X121.027 Y142.899 E1.31291
G1 X120.493 Y142.899 E.01673
G1 X90.896 Y113.301 E1.31291
G1 X90.363 Y113.301 E.01673
G1 X119.96 Y142.899 E1.31291
G1 X119.426 Y142.899 E.01673
G1 X89.829 Y113.301 E1.31291
G1 X89.296 Y113.301 E.01673
G1 X118.893 Y142.899 E1.31291
G1 X118.36 Y142.899 E.01673
G1 X88.762 Y113.301 E1.31291
G1 X88.229 Y113.301 E.01673
G1 X117.826 Y142.899 E1.31291
G1 X117.293 Y142.899 E.01673
G1 X87.695 Y113.301 E1.31291
G1 X87.162 Y113.301 E.01673
G1 X116.759 Y142.899 E1.31291
G1 X116.226 Y142.899 E.01673
G1 X86.628 Y113.301 E1.31291
G1 X86.095 Y113.301 E.01673
G1 X115.692 Y142.899 E1.31291
G1 X115.159 Y142.899 E.01673
G1 X85.561 Y113.301 E1.31291
G1 X85.028 Y113.301 E.01673
G1 X114.625 Y142.899 E1.31291
G1 X114.092 Y142.899 E.01673
M73 P3 R149
G1 X84.495 Y113.301 E1.31291
G1 X83.961 Y113.301 E.01673
G1 X113.558 Y142.899 E1.31291
G1 X113.025 Y142.899 E.01673
G1 X83.428 Y113.301 E1.31291
G1 X82.894 Y113.301 E.01673
G1 X112.491 Y142.899 E1.31291
G1 X111.958 Y142.899 E.01673
G1 X82.726 Y113.667 E1.29668
G1 X82.726 Y114.201 E.01673
G1 X111.424 Y142.899 E1.27301
G1 X110.891 Y142.899 E.01673
G1 X82.726 Y114.734 E1.24935
G1 X82.726 Y115.268 E.01673
G1 X110.357 Y142.899 E1.22568
G1 X109.824 Y142.899 E.01673
G1 X82.726 Y115.801 E1.20202
G1 X82.726 Y116.335 E.01673
G1 X109.29 Y142.899 E1.17835
G1 X108.757 Y142.899 E.01673
G1 X82.726 Y116.868 E1.15469
G1 X82.726 Y117.402 E.01673
M73 Q3 S150
G1 X108.223 Y142.899 E1.13102
G1 X107.69 Y142.899 E.01673
G1 X82.726 Y117.935 E1.10736
G1 X82.726 Y118.469 E.01673
G1 X107.156 Y142.899 E1.08369
G1 X106.623 Y142.899 E.01673
G1 X82.726 Y119.002 E1.06003
G1 X82.726 Y119.536 E.01673
G1 X106.089 Y142.899 E1.03636
G1 X105.556 Y142.899 E.01673
G1 X82.726 Y120.069 E1.0127
G1 X82.726 Y120.603 E.01673
G1 X105.022 Y142.899 E.98904
G1 X104.489 Y142.899 E.01673
G1 X82.726 Y121.136 E.96537
G1 X82.726 Y121.67 E.01673
G1 X103.955 Y142.899 E.94171
G1 X103.422 Y142.899 E.01673
G1 X82.726 Y122.203 E.91804
G1 X82.726 Y122.736 E.01673
G1 X102.889 Y142.899 E.89438
G1 X102.355 Y142.899 E.01673
G1 X82.726 Y123.27 E.87071
G1 X82.726 Y123.803 E.01673
G1 X101.822 Y142.899 E.84705
G1 X101.288 Y142.899 E.01673
G1 X82.726 Y124.337 E.82338
G1 X82.726 Y124.87 E.01673
G1 X100.755 Y142.899 E.79972
G1 X100.221 Y142.899 E.01673
G1 X82.726 Y125.404 E.77605
G1 X82.726 Y125.937 E.01673
G1 X99.688 Y142.899 E.75239
G1 X99.154 Y142.899 E.01673
G1 X82.726 Y126.471 E.72872
G1 X82.726 Y127.004 E.01673
G1 X98.621 Y142.899 E.70506
G1 X98.087 Y142.899 E.01673
G1 X82.726 Y127.538 E.68139
G1 X82.726 Y128.071 E.01673
G1 X97.554 Y142.899 E.65773
G1 X97.02 Y142.899 E.01673
G1 X82.726 Y128.605 E.63406
G1 X82.726 Y129.138 E.01673
G1 X96.487 Y142.899 E.6104
G1 X95.953 Y142.899 E.01673
G1 X82.726 Y129.672 E.58673
G1 X82.726 Y130.205 E.01673
G1 X95.42 Y142.899 E.56307
G1 X94.886 Y142.899 E.01673
G1 X82.726 Y130.739 E.5394
G1 X82.726 Y131.272 E.01673
G1 X94.353 Y142.899 E.51574
G1 X93.819 Y142.899 E.01673
M73 P4 R148
G1 X82.726 Y131.806 E.49207
G1 X82.726 Y132.339 E.01673
G1 X93.286 Y142.899 E.46841
G1 X92.752 Y142.899 E.01673
G1 X82.726 Y132.873 E.44474
G1 X82.726 Y133.406 E.01673
G1 X92.219 Y142.899 E.42108
G1 X91.685 Y142.899 E.01673
M73 Q4 S150
G1 X82.726 Y133.94 E.39741
G1 X82.726 Y134.473 E.01673
G1 X91.152 Y142.899 E.37375
G1 X90.618 Y142.899 E.01673
G1 X82.726 Y135.007 E.35008
G1 X82.726 Y135.54 E.01673
G1 X90.085 Y142.899 E.32642
G1 X89.551 Y142.899 E.01673
G1 X82.726 Y136.074 E.30275
G1 X82.726 Y136.607 E.01673
G1 X89.018 Y142.899 E.27909
G1 X88.485 Y142.899 E.01673
G1 X82.726 Y137.14 E.25542
G1 X82.726 Y137.674 E.01673
G1 X87.951 Y142.899 E.23176
G1 X87.418 Y142.899 E.01673
G1 X82.726 Y138.207 E.20809
G1 X82.726 Y138.741 E.01673
G1 X86.884 Y142.899 E.18443
G1 X86.351 Y142.899 E.01673
G1 X82.726 Y139.274 E.16076
G1 X82.726 Y139.808 E.01673
G1 X85.817 Y142.899 E.1371
G1 X85.284 Y142.899 E.01673
G1 X82.726 Y140.341 E.11343
G1 X82.726 Y140.875 E.01673
G1 X84.75 Y142.899 E.08977
G1 X84.217 Y142.899 E.01673
G1 X82.726 Y141.408 E.06611
G1 X82.726 Y141.942 E.01673
G1 X83.683 Y142.899 E.04244
G1 X83.15 Y142.899 E.01673
G1 X82.557 Y142.306 E.0263
M204 S1000
;WIPE_START
G1 F8640
G1 X83.15 Y142.899 E-.19362
G1 X83.683 Y142.899 E-.12318
G1 X82.726 Y141.942 E-.31242
G1 X82.726 Y141.408 E-.12318
G1 X82.75 Y141.432 E-.00759
;WIPE_END
G1 E-.04 F2100
G1 Z.6 F720
G1 X167.713 Y99.188 F10800
G1 Z.2 F720
G1 E.8 F2100
M204 S800
;TYPE:Perimeter
;WIDTH:0.419999
G1 F1200
G1 X82.287 Y99.188 E2.67846
G1 X82.287 Y66.762 E1.01669
G1 X167.713 Y66.762 E2.67846
G1 X167.713 Y99.128 E1.01481
M204 S1000
G1 X168.09 Y99.565 F10800
M204 S800
;TYPE:External perimeter
G1 F1200
G1 X81.91 Y99.565 E2.70211
G1 X81.91 Y66.385 E1.04033
M73 Q4 S149
