; generated by PrusaSlicer 2.4.1+win64 on 2023-06-16 at 11:23:11 UTC


;
;
; 

; external perimeters extrusion width = 0.45mm
; perimeters extrusion width = 0.45mm
; infill extrusion width = 0.45mm
; solid infill extrusion width = 0.45mm
; top infill extrusion width = 0.40mm
; first layer extrusion width = 0.42mm

M73 P0 R181
M73 Q0 S183
M201 X1000 Y1000 Z200 E5000 ; sets maximum accelerations, mm/sec^2
M203 X200 Y200 Z12 E120 ; sets maximum feedrates, mm / sec
M204 P1250 R1250 T1250 ; sets acceleration (P, T) and retract acceleration (R), mm/sec^2
M205 X8.00 Y8.00 Z0.40 E4.50 ; sets the jerk limits, mm/sec
M205 S0 T0 ; sets the minimum extruding and travel feed rate, mm/sec
M107
;TYPE:Custom
M862.3 P "MK3S" ; printer model check
M862.1 P0.4 ; nozzle diameter check
M115 U3.11.0 ; tell printer latest fw version
G90 ; use absolute coordinates
M83 ; extruder relative mode
M104 S215 ; set extruder temp
M140 S60 ; set bed temp
M190 S60 ; wait for bed temp
M109 S215 ; wait for extruder temp
G28 W ; home all without mesh bed level
G80 ; mesh bed leveling

G1 Z0.2 F720
G1 Y-3 F1000 ; go outside print area
G92 E0
G1 X60 E9 F1000 ; intro line
G1 X100 E12.5 F1000 ; intro line

G92 E0
M221 S95

; Don't change E values below. Excessive value can damage the printer.
M907 E430 ; set extruder motor current
G21 ; set units to millimeters
G90 ; use absolute coordinates
M83 ; use relative distances for extrusion
M900 K0.05 ; Filament gcode LA 1.5
M900 K30 ; Filament gcode LA 1.0
M107
;LAYER_CHANGE
;Z:0.2
;HEIGHT:0.2
;BEFORE_LAYER_CHANGE
G92 E0.0
;0.2


G1 E-.8 F2100
G1 Z.4 F720
;AFTER_LAYER_CHANGE
;0.2
G1 X77.515 Y61.293 F10800
G1 Z.2 F720
G1 E.8 F2100
M204 S800
;TYPE:Skirt/Brim
;WIDTH:0.42
G1 F1200
G1 X78.56 Y60.417 E.04278
G1 X79.5 Y60.223 E.03008
G1 X170.5 Y60.223 E2.85324
G1 X171.807 Y60.615 E.04278
G1 X172.683 Y61.66 E.04278
G1 X172.877 Y62.6 E.03008
G1 X172.877 Y103.6 E1.28553
G1 X170.875 Y147.508 E1.37815
G1 X170.424 Y148.796 E.04278
G1 X169.339 Y149.624 E.04278
G1 X168.5 Y149.777 E.02675
G1 X79.5 Y149.777 E2.79053
G1 X78.193 Y149.385 E.04278
M73 Q0 S182
G1 X77.317 Y148.34 E.04278
G1 X77.123 Y147.4 E.03008
G1 X77.123 Y62.6 E2.65884
G1 X77.497 Y61.35 E.0409
M204 S1000
; printing object Taschenlampe Schalter seitlich AA 3.stl id:0 copy 0
;WIPE_START
G1 F8640
G1 X78.56 Y60.417 E-.32671
G1 X79.5 Y60.223 E-.22155
G1 X80.417 Y60.223 E-.21174
;WIPE_END
G1 E-.04 F2100
G1 Z.6 F720
G1 X80.287 Y110.287 F10800
G1 Z.2 F720
G1 E.8 F2100
M204 S800
;TYPE:Perimeter
G1 F1200
G1 X167.713 Y110.287 E2.74118
G1 X167.713 Y146.613 E1.13897
G1 X80.287 Y146.613 E2.74118
G1 X80.287 Y110.347 E1.13709
M204 S1000
G1 X79.91 Y109.91 F10800
M204 S800
;TYPE:External perimeter
G1 F1200
G1 X168.09 Y109.91 E2.76482
G1 X168.09 Y146.99 E1.16262
G1 X79.91 Y146.99 E2.76482
G1 X79.91 Y109.97 E1.16074
M204 S1000
G1 X80.306 Y109.963 F10800
;WIPE_START
G1 F8640
G1 X83.201 Y109.968 E-.76
;WIPE_END
G1 E-.04 F2100
G1 Z.6 F720
G1 X166.836 Y110.4 F10800
G1 Z.2 F720
G1 E.8 F2100
M204 S800
;TYPE:Solid infill
;WIDTH:0.420578
G1 F1200
G1 X167.43 Y110.994 E.02637
G1 X167.43 Y111.528 E.01677
G1 X166.472 Y110.57 E.04255
G1 X165.938 Y110.57 E.01677
G1 X167.43 Y112.062 E.06627
G1 X167.43 Y112.596 E.01677
G1 X165.404 Y110.57 E.08999
G1 X164.87 Y110.57 E.01677
G1 X167.43 Y113.13 E.11371
G1 X167.43 Y113.664 E.01677
G1 X164.336 Y110.57 E.13743
G1 X163.801 Y110.57 E.01677
G1 X167.43 Y114.199 E.16115
G1 X167.43 Y114.733 E.01677
G1 X163.267 Y110.57 E.18487
G1 X162.733 Y110.57 E.01677
G1 X167.43 Y115.267 E.20859
G1 X167.43 Y115.801 E.01677
G1 X162.199 Y110.57 E.2323
G1 X161.665 Y110.57 E.01677
G1 X167.43 Y116.335 E.25602
G1 X167.43 Y116.869 E.01677
G1 X161.131 Y110.57 E.27974
G1 X160.597 Y110.57 E.01677
G1 X167.43 Y117.403 E.30346
G1 X167.43 Y117.937 E.01677
M73 P0 R180
G1 X160.063 Y110.57 E.32718
G1 X159.529 Y110.57 E.01677
G1 X167.43 Y118.471 E.3509
G1 X167.43 Y119.005 E.01677
G1 X158.995 Y110.57 E.37462
G1 X158.461 Y110.57 E.01677
G1 X167.43 Y119.539 E.39833
G1 X167.43 Y120.074 E.01677
G1 X157.926 Y110.57 E.42205
G1 X157.392 Y110.57 E.01677
G1 X167.43 Y120.608 E.44577
G1 X167.43 Y121.142 E.01677
G1 X156.858 Y110.57 E.46949
G1 X156.324 Y110.57 E.01677
G1 X167.43 Y121.676 E.49321
G1 X167.43 Y122.21 E.01677
G1 X155.79 Y110.57 E.51693
G1 X155.256 Y110.57 E.01677
G1 X167.43 Y122.744 E.54065
G1 X167.43 Y123.278 E.01677
G1 X154.722 Y110.57 E.56437
G1 X154.188 Y110.57 E.01677
G1 X167.43 Y123.812 E.58808
G1 X167.43 Y124.346 E.01677
G1 X153.654 Y110.57 E.6118
G1 X153.12 Y110.57 E.01677
G1 X167.43 Y124.88 E.63552
G1 X167.43 Y125.414 E.01677
G1 X152.586 Y110.57 E.65924
G1 X152.052 Y110.57 E.01677
G1 X167.43 Y125.948 E.68296
G1 X167.43 Y126.483 E.01677
G1 X151.517 Y110.57 E.70668
G1 X150.983 Y110.57 E.01677
G1 X167.43 Y127.017 E.7304
G1 X167.43 Y127.551 E.01677
G1 X150.449 Y110.57 E.75412
G1 X149.915 Y110.57 E.01677
G1 X167.43 Y128.085 E.77783
G1 X167.43 Y128.619 E.01677
G1 X149.381 Y110.57 E.80155
G1 X148.847 Y110.57 E.01677
G1 X167.43 Y129.153 E.82527
G1 X167.43 Y129.687 E.01677
G1 X148.313 Y110.57 E.84899
G1 X147.779 Y110.57 E.01677
G1 X167.43 Y130.221 E.87271
G1 X167.43 Y130.755 E.01677
M73 Q0 S181
G1 X147.245 Y110.57 E.89643
G1 X146.711 Y110.57 E.01677
G1 X167.43 Y131.289 E.92015
G1 X167.43 Y131.823 E.01677
G1 X146.177 Y110.57 E.94387
G1 X145.642 Y110.57 E.01677
G1 X167.43 Y132.358 E.96758
G1 X167.43 Y132.892 E.01677
G1 X145.108 Y110.57 E.9913
G1 X144.574 Y110.57 E.01677
G1 X167.43 Y133.426 E1.01502
G1 X167.43 Y133.96 E.01677
G1 X144.04 Y110.57 E1.03874
G1 X143.506 Y110.57 E.01677
G1 X167.43 Y134.494 E1.06246
G1 X167.43 Y135.028 E.01677
G1 X142.972 Y110.57 E1.08618
G1 X142.438 Y110.57 E.01677
G1 X167.43 Y135.562 E1.1099
G1 X167.43 Y136.096 E.01677
G1 X141.904 Y110.57 E1.13362
G1 X141.37 Y110.57 E.01677
G1 X167.43 Y136.63 E1.15733
G1 X167.43 Y137.164 E.01677
G1 X140.836 Y110.57 E1.18105
G1 X140.302 Y110.57 E.01677
G1 X167.43 Y137.698 E1.20477
G1 X167.43 Y138.233 E.01677
G1 X139.767 Y110.57 E1.22849
G1 X139.233 Y110.57 E.01677
G1 X167.43 Y138.767 E1.25221
G1 X167.43 Y139.301 E.01677
G1 X138.699 Y110.57 E1.27593
G1 X138.165 Y110.57 E.01677
M73 P1 R180
M73 Q1 S181
G1 X167.43 Y139.835 E1.29965
G1 X167.43 Y140.369 E.01677
G1 X137.631 Y110.57 E1.32337
G1 X137.097 Y110.57 E.01677
G1 X167.43 Y140.903 E1.34708
G1 X167.43 Y141.437 E.01677
M73 P1 R179
G1 X136.563 Y110.57 E1.3708
G1 X136.029 Y110.57 E.01677
G1 X167.43 Y141.971 E1.39452
G1 X167.43 Y142.505 E.01677
G1 X135.495 Y110.57 E1.41824
G1 X134.961 Y110.57 E.01677
G1 X167.43 Y143.039 E1.44196
G1 X167.43 Y143.573 E.01677
G1 X134.427 Y110.57 E1.46568
G1 X133.892 Y110.57 E.01677
G1 X167.43 Y144.108 E1.4894
G1 X167.43 Y144.642 E.01677
G1 X133.358 Y110.57 E1.51312
G1 X132.824 Y110.57 E.01677
G1 X167.43 Y145.176 E1.53683
G1 X167.43 Y145.71 E.01677
G1 X132.29 Y110.57 E1.56055
G1 X131.756 Y110.57 E.01677
G1 X167.43 Y146.244 E1.58427
G1 X167.43 Y146.33 E.00271
M73 Q1 S180
G1 X166.982 Y146.33 E.01406
G1 X131.222 Y110.57 E1.5881
G1 X130.688 Y110.57 E.01677
G1 X166.448 Y146.33 E1.5881
G1 X165.914 Y146.33 E.01677
G1 X130.154 Y110.57 E1.5881
G1 X129.62 Y110.57 E.01677
G1 X165.38 Y146.33 E1.5881
G1 X164.846 Y146.33 E.01677
G1 X129.086 Y110.57 E1.5881
G1 X128.552 Y110.57 E.01677
G1 X164.312 Y146.33 E1.5881
G1 X163.778 Y146.33 E.01677
G1 X128.018 Y110.57 E1.5881
G1 X127.483 Y110.57 E.01677
G1 X163.244 Y146.33 E1.5881
G1 X162.71 Y146.33 E.01677
G1 X126.949 Y110.57 E1.5881
G1 X126.415 Y110.57 E.01677
G1 X162.176 Y146.33 E1.5881
G1 X161.641 Y146.33 E.01677
G1 X125.881 Y110.57 E1.5881
G1 X125.347 Y110.57 E.01677
G1 X161.107 Y146.33 E1.5881
G1 X160.573 Y146.33 E.01677
G1 X124.813 Y110.57 E1.5881
G1 X124.279 Y110.57 E.01677
G1 X160.039 Y146.33 E1.5881
G1 X159.505 Y146.33 E.01677
M73 P1 R178
G1 X123.745 Y110.57 E1.5881
G1 X123.211 Y110.57 E.01677
G1 X158.971 Y146.33 E1.5881
G1 X158.437 Y146.33 E.01677
G1 X122.677 Y110.57 E1.5881
G1 X122.143 Y110.57 E.01677
G1 X157.903 Y146.33 E1.5881
G1 X157.369 Y146.33 E.01677
G1 X121.608 Y110.57 E1.5881
G1 X121.074 Y110.57 E.01677
G1 X156.835 Y146.33 E1.5881
G1 X156.301 Y146.33 E.01677
G1 X120.54 Y110.57 E1.5881
G1 X120.006 Y110.57 E.01677
G1 X155.766 Y146.33 E1.5881
G1 X155.232 Y146.33 E.01677
G1 X119.472 Y110.57 E1.5881
G1 X118.938 Y110.57 E.01677
G1 X154.698 Y146.33 E1.5881
G1 X154.164 Y146.33 E.01677
M73 Q1 S179
G1 X118.404 Y110.57 E1.5881
G1 X117.87 Y110.57 E.01677
G1 X153.63 Y146.33 E1.5881
G1 X153.096 Y146.33 E.01677
G1 X117.336 Y110.57 E1.5881
G1 X116.802 Y110.57 E.01677
G1 X152.562 Y146.33 E1.5881
G1 X152.028 Y146.33 E.01677
G1 X116.268 Y110.57 E1.5881
G1 X115.733 Y110.57 E.01677
G1 X151.494 Y146.33 E1.5881
G1 X150.96 Y146.33 E.01677
G1 X115.199 Y110.57 E1.5881
G1 X114.665 Y110.57 E.01677
M73 P2 R178
M73 Q2 S179
G1 X150.426 Y146.33 E1.5881
G1 X149.891 Y146.33 E.01677
G1 X114.131 Y110.57 E1.5881
G1 X113.597 Y110.57 E.01677
G1 X149.357 Y146.33 E1.5881
G1 X148.823 Y146.33 E.01677
G1 X113.063 Y110.57 E1.5881
G1 X112.529 Y110.57 E.01677
G1 X148.289 Y146.33 E1.5881
G1 X147.755 Y146.33 E.01677
G1 X111.995 Y110.57 E1.5881
G1 X111.461 Y110.57 E.01677
G1 X147.221 Y146.33 E1.5881
G1 X146.687 Y146.33 E.01677
M73 P2 R177
G1 X110.927 Y110.57 E1.5881
G1 X110.393 Y110.57 E.01677
G1 X146.153 Y146.33 E1.5881
G1 X145.619 Y146.33 E.01677
G1 X109.858 Y110.57 E1.5881
G1 X109.324 Y110.57 E.01677
G1 X145.085 Y146.33 E1.5881
G1 X144.551 Y146.33 E.01677
G1 X108.79 Y110.57 E1.5881
G1 X108.256 Y110.57 E.01677
G1 X144.016 Y146.33 E1.5881
G1 X143.482 Y146.33 E.01677
G1 X107.722 Y110.57 E1.5881
G1 X107.188 Y110.57 E.01677
G1 X142.948 Y146.33 E1.5881
G1 X142.414 Y146.33 E.01677
G1 X106.654 Y110.57 E1.5881
G1 X106.12 Y110.57 E.01677
M73 Q2 S178
G1 X141.88 Y146.33 E1.5881
G1 X141.346 Y146.33 E.01677
G1 X105.586 Y110.57 E1.5881
G1 X105.052 Y110.57 E.01677
G1 X140.812 Y146.33 E1.5881
G1 X140.278 Y146.33 E.01677
G1 X104.518 Y110.57 E1.5881
G1 X103.983 Y110.57 E.01677
G1 X139.744 Y146.33 E1.5881
G1 X139.21 Y146.33 E.01677
G1 X103.449 Y110.57 E1.5881
G1 X102.915 Y110.57 E.01677
G1 X138.676 Y146.33 E1.5881
G1 X138.141 Y146.33 E.01677
G1 X102.381 Y110.57 E1.5881
G1 X101.847 Y110.57 E.01677
G1 X137.607 Y146.33 E1.5881
G1 X137.073 Y146.33 E.01677
G1 X101.313 Y110.57 E1.5881
G1 X100.779 Y110.57 E.01677
G1 X136.539 Y146.33 E1.5881
G1 X136.005 Y146.33 E.01677
G1 X100.245 Y110.57 E1.5881
G1 X99.711 Y110.57 E.01677
G1 X135.471 Y146.33 E1.5881
G1 X134.937 Y146.33 E.01677
G1 X99.177 Y110.57 E1.5881
G1 X98.643 Y110.57 E.01677
M73 P2 R176
G1 X134.403 Y146.33 E1.5881
G1 X133.869 Y146.33 E.01677
G1 X98.109 Y110.57 E1.5881
G1 X97.574 Y110.57 E.01677
G1 X133.335 Y146.33 E1.5881
G1 X132.801 Y146.33 E.01677
G1 X97.04 Y110.57 E1.5881
G1 X96.506 Y110.57 E.01677
G1 X132.267 Y146.33 E1.5881
G1 X131.732 Y146.33 E.01677
G1 X95.972 Y110.57 E1.5881
G1 X95.438 Y110.57 E.01677
G1 X131.198 Y146.33 E1.5881
G1 X130.664 Y146.33 E.01677
G1 X94.904 Y110.57 E1.5881
G1 X94.37 Y110.57 E.01677
G1 X130.13 Y146.33 E1.5881
G1 X129.596 Y146.33 E.01677
M73 Q2 S177
G1 X93.836 Y110.57 E1.5881
G1 X93.302 Y110.57 E.01677
G1 X129.062 Y146.33 E1.5881
G1 X128.528 Y146.33 E.01677
G1 X92.768 Y110.57 E1.5881
G1 X92.234 Y110.57 E.01677
M73 P3 R176
G1 X127.994 Y146.33 E1.5881
G1 X127.46 Y146.33 E.01677
M73 Q3 S177
G1 X91.699 Y110.57 E1.5881
G1 X91.165 Y110.57 E.01677
G1 X126.926 Y146.33 E1.5881
G1 X126.392 Y146.33 E.01677
G1 X90.631 Y110.57 E1.5881
G1 X90.097 Y110.57 E.01677
G1 X125.857 Y146.33 E1.5881
G1 X125.323 Y146.33 E.01677
G1 X89.563 Y110.57 E1.5881
G1 X89.029 Y110.57 E.01677
G1 X124.789 Y146.33 E1.5881
G1 X124.255 Y146.33 E.01677
G1 X88.495 Y110.57 E1.5881
G1 X87.961 Y110.57 E.01677
G1 X123.721 Y146.33 E1.5881
G1 X123.187 Y146.33 E.01677
G1 X87.427 Y110.57 E1.5881
G1 X86.893 Y110.57 E.01677
G1 X122.653 Y146.33 E1.5881
G1 X122.119 Y146.33 E.01677
M73 P3 R175
G1 X86.359 Y110.57 E1.5881
G1 X85.824 Y110.57 E.01677
G1 X121.585 Y146.33 E1.5881
G1 X121.051 Y146.33 E.01677
G1 X85.29 Y110.57 E1.5881
G1 X84.756 Y110.57 E.01677
G1 X120.517 Y146.33 E1.5881
G1 X119.982 Y146.33 E.01677
G1 X84.222 Y110.57 E1.5881
G1 X83.688 Y110.57 E.01677
G1 X119.448 Y146.33 E1.5881
G1 X118.914 Y146.33 E.01677
G1 X83.154 Y110.57 E1.5881
G1 X82.62 Y110.57 E.01677
G1 X118.38 Y146.33 E1.5881
G1 X117.846 Y146.33 E.01677
G1 X82.086 Y110.57 E1.5881
G1 X81.552 Y110.57 E.01677
G1 X117.312 Y146.33 E1.5881
G1 X116.778 Y146.33 E.01677
M73 Q3 S176
G1 X81.018 Y110.57 E1.5881
G1 X80.57 Y110.57 E.01406
G1 X80.57 Y110.656 E.00271
G1 X116.244 Y146.33 E1.58427
G1 X115.71 Y146.33 E.01677
G1 X80.57 Y111.19 E1.56055
G1 X80.57 Y111.724 E.01677
G1 X115.176 Y146.33 E1.53683
G1 X114.642 Y146.33 E.01677
G1 X80.57 Y112.258 E1.51311
G1 X80.57 Y112.793 E.01677
G1 X114.107 Y146.33 E1.4894
G1 X113.573 Y146.33 E.01677
G1 X80.57 Y113.327 E1.46568
G1 X80.57 Y113.861 E.01677
G1 X113.039 Y146.33 E1.44196
G1 X112.505 Y146.33 E.01677
G1 X80.57 Y114.395 E1.41824
G1 X80.57 Y114.929 E.01677
G1 X111.971 Y146.33 E1.39452
G1 X111.437 Y146.33 E.01677
G1 X80.57 Y115.463 E1.3708
G1 X80.57 Y115.997 E.01677
G1 X110.903 Y146.33 E1.34708
G1 X110.369 Y146.33 E.01677
G1 X80.57 Y116.531 E1.32336
G1 X80.57 Y117.065 E.01677
G1 X109.835 Y146.33 E1.29965
G1 X109.301 Y146.33 E.01677
G1 X80.57 Y117.599 E1.27593
G1 X80.57 Y118.133 E.01677
M73 P3 R174
G1 X108.767 Y146.33 E1.25221
G1 X108.233 Y146.33 E.01677
G1 X80.57 Y118.667 E1.22849
G1 X80.57 Y119.202 E.01677
G1 X107.698 Y146.33 E1.20477
G1 X107.164 Y146.33 E.01677
G1 X80.57 Y119.736 E1.18105
G1 X80.57 Y120.27 E.01677
G1 X106.63 Y146.33 E1.15733
G1 X106.096 Y146.33 E.01677
G1 X80.57 Y120.804 E1.13361
G1 X80.57 Y121.338 E.01677
G1 X105.562 Y146.33 E1.1099
G1 X105.028 Y146.33 E.01677
G1 X80.57 Y121.872 E1.08618
G1 X80.57 Y122.406 E.01677
G1 X104.494 Y146.33 E1.06246
G1 X103.96 Y146.33 E.01677
G1 X80.57 Y122.94 E1.03874
G1 X80.57 Y123.474 E.01677
G1 X103.426 Y146.33 E1.01502
G1 X102.892 Y146.33 E.01677
M73 P4 R174
G1 X80.57 Y124.008 E.9913
G1 X80.57 Y124.542 E.01677
G1 X102.358 Y146.33 E.96758
G1 X101.823 Y146.33 E.01677
M73 Q4 S175
G1 X80.57 Y125.077 E.94386
G1 X80.57 Y125.611 E.01677
G1 X101.289 Y146.33 E.92015
G1 X100.755 Y146.33 E.01677
G1 X80.57 Y126.145 E.89643
G1 X80.57 Y126.679 E.01677
G1 X100.221 Y146.33 E.87271
G1 X99.687 Y146.33 E.01677
G1 X80.57 Y127.213 E.84899
G1 X80.57 Y127.747 E.01677
G1 X99.153 Y146.33 E.82527
G1 X98.619 Y146.33 E.01677
G1 X80.57 Y128.281 E.80155
G1 X80.57 Y128.815 E.01677
G1 X98.085 Y146.33 E.77783
G1 X97.551 Y146.33 E.01677
G1 X80.57 Y129.349 E.75411
G1 X80.57 Y129.883 E.01677
G1 X97.017 Y146.33 E.7304
G1 X96.483 Y146.33 E.01677
G1 X80.57 Y130.417 E.70668
G1 X80.57 Y130.952 E.01677
G1 X95.948 Y146.33 E.68296
G1 X95.414 Y146.33 E.01677
G1 X80.57 Y131.486 E.65924
G1 X80.57 Y132.02 E.01677
G1 X94.88 Y146.33 E.63552
G1 X94.346 Y146.33 E.01677
G1 X80.57 Y132.554 E.6118
G1 X80.57 Y133.088 E.01677
G1 X93.812 Y146.33 E.58808
G1 X93.278 Y146.33 E.01677
G1 X80.57 Y133.622 E.56436
G1 X80.57 Y134.156 E.01677
G1 X92.744 Y146.33 E.54065
G1 X92.21 Y146.33 E.01677
G1 X80.57 Y134.69 E.51693
G1 X80.57 Y135.224 E.01677
G1 X91.676 Y146.33 E.49321
G1 X91.142 Y146.33 E.01677
G1 X80.57 Y135.758 E.46949
G1 X80.57 Y136.292 E.01677
G1 X90.608 Y146.33 E.44577
G1 X90.073 Y146.33 E.01677
G1 X80.57 Y136.827 E.42205
G1 X80.57 Y137.361 E.01677
G1 X89.539 Y146.33 E.39833
G1 X89.005 Y146.33 E.01677
G1 X80.57 Y137.895 E.37462
G1 X80.57 Y138.429 E.01677
G1 X88.471 Y146.33 E.3509
G1 X87.937 Y146.33 E.01677
G1 X80.57 Y138.963 E.32718
G1 X80.57 Y139.497 E.01677
G1 X87.403 Y146.33 E.30346
G1 X86.869 Y146.33 E.01677
G1 X80.57 Y140.031 E.27974
G1 X80.57 Y140.565 E.01677
G1 X86.335 Y146.33 E.25602
G1 X85.801 Y146.33 E.01677
G1 X80.57 Y141.099 E.2323
G1 X80.57 Y141.633 E.01677
G1 X85.267 Y146.33 E.20858
G1 X84.733 Y146.33 E.01677
G1 X80.57 Y142.167 E.18487
G1 X80.57 Y142.701 E.01677
G1 X84.199 Y146.33 E.16115
G1 X83.664 Y146.33 E.01677
G1 X80.57 Y143.236 E.13743
G1 X80.57 Y143.77 E.01677
G1 X83.13 Y146.33 E.11371
G1 X82.596 Y146.33 E.01677
G1 X80.57 Y144.304 E.08999
G1 X80.57 Y144.838 E.01677
G1 X82.062 Y146.33 E.06627
G1 X81.528 Y146.33 E.01677
G1 X80.57 Y145.372 E.04255
G1 X80.57 Y145.906 E.01677
G1 X81.164 Y146.5 E.02637
M204 S1000
