; generated by PrusaSlicer 2.5.2+win64 on 2023-06-15 at 08:29:22 UTC


;
;
; 

; external perimeters extrusion width = 0.45mm
; perimeters extrusion width = 0.45mm
; infill extrusion width = 0.45mm
; solid infill extrusion width = 0.45mm
; top infill extrusion width = 0.40mm
; first layer extrusion width = 0.42mm

M73 P0 R139
M73 Q0 S140
M201 X1000 Y1000 Z200 E5000 ; sets maximum accelerations, mm/sec^2
M203 X200 Y200 Z12 E120 ; sets maximum feedrates, mm / sec
M204 P1250 R1250 T1250 ; sets acceleration (P, T) and retract acceleration (R), mm/sec^2
M205 X8.00 Y8.00 Z0.40 E4.50 ; sets the jerk limits, mm/sec
M205 S0 T0 ; sets the minimum extruding and travel feed rate, mm/sec
M107
;TYPE:Custom
M862.3 P "MK3S" ; printer model check
M862.1 P0.4 ; nozzle diameter check
M115 U3.12.2 ; tell printer latest fw version
G90 ; use absolute coordinates
M83 ; extruder relative mode
M104 S215 ; set extruder temp
M140 S60 ; set bed temp
M190 S60 ; wait for bed temp
M109 S215 ; wait for extruder temp
G28 W ; home all without mesh bed level
G80 ; mesh bed leveling

G1 Z0.2 F720
G1 Y-3 F1000 ; go outside print area
G92 E0
G1 X60 E9 F1000 ; intro line
G1 X100 E12.5 F1000 ; intro line

G92 E0
M221 S95

; Don't change E values below. Excessive value can damage the printer.
M907 E430 ; set extruder motor current
G21 ; set units to millimeters
G90 ; use absolute coordinates
M83 ; use relative distances for extrusion
M900 K0.05 ; Filament gcode LA 1.5
M900 K30 ; Filament gcode LA 1.0
M107
;LAYER_CHANGE
;Z:0.2
;HEIGHT:0.2
;BEFORE_LAYER_CHANGE
G92 E0.0
;0.2


G1 E-.8 F2100
G1 Z.4 F720
;AFTER_LAYER_CHANGE
;0.2
G1 X95.24 Y41.693 F10800
G1 Z.2 F720
G1 E.8 F2100
M204 S800
;TYPE:Skirt/Brim
;WIDTH:0.42
G1 F1200
G1 X96.285 Y40.817 E.04278
G1 X97.013 Y40.632 E.02355
G1 X130.563 Y37.632 E1.05613
G1 X152.775 Y37.623 E.69643
G1 X154.082 Y38.015 E.04278
G1 X154.958 Y39.06 E.04278
G1 X155.152 Y40 E.03008
G1 X155.152 Y169 E4.0447
G1 X154.76 Y170.307 E.04278
G1 X153.715 Y171.183 E.04278
G1 X152.841 Y171.376 E.02805
G1 X116.775 Y172.377 E1.13126
G1 X97.225 Y172.377 E.61298
G1 X95.918 Y171.985 E.04278
G1 X95.042 Y170.94 E.04278
G1 X94.848 Y170 E.03008
G1 X94.848 Y43 E3.982
G1 X95.222 Y41.75 E.0409
M204 S1000
; printing object Taschenlampe lang AAA 3.stl id:0 copy 0
;WIPE_START
M73 P0 R138
G1 F8640
G1 X96.285 Y40.817 E-.32671
G1 X97.013 Y40.632 E-.1734
G1 X98.134 Y40.532 E-.25989
;WIPE_END
G1 E-.04 F2100
G1 Z.6 F720
G1 X115.988 Y43.787 F10800
G1 Z.2 F720
G1 E.8 F2100
M204 S800
;TYPE:Perimeter
;WIDTH:0.419999
G1 F1200
G1 X115.988 Y169.213 E3.93263
G1 X98.012 Y169.213 E.56362
G1 X98.012 Y43.787 E3.93263
G1 X115.928 Y43.787 E.56174
M204 S1000
G1 X116.365 Y43.41 F10800
M204 S800
;TYPE:External perimeter
G1 F1200
G1 X116.365 Y169.59 E3.95628
G1 X97.635 Y169.59 E.58727
M73 Q0 S139
G1 X97.635 Y43.41 E3.95628
G1 X116.305 Y43.41 E.58538
M204 S1000
G1 X116.345 Y43.81 F10800
;WIPE_START
G1 F8640
G1 X116.307 Y46.701 E-.76
;WIPE_END
G1 E-.04 F2100
G1 Z.6 F720
G1 X115.054 Y43.957 F10800
G1 Z.2 F720
G1 E.8 F2100
M204 S800
;TYPE:Solid infill
;WIDTH:0.421098
G1 F1200
G1 X115.649 Y44.552 E.02646
G1 X115.649 Y45.086 E.01682
G1 X114.689 Y44.126 E.04269
G1 X114.154 Y44.126 E.01682
G1 X115.649 Y45.621 E.06648
G1 X115.649 Y46.156 E.01682
G1 X113.619 Y44.126 E.09026
G1 X113.084 Y44.126 E.01682
G1 X115.649 Y46.691 E.11405
G1 X115.649 Y47.226 E.01682
G1 X112.549 Y44.126 E.13783
G1 X112.014 Y44.126 E.01682
G1 X115.649 Y47.761 E.16161
G1 X115.649 Y48.295 E.01682
G1 X111.48 Y44.126 E.1854
G1 X110.945 Y44.126 E.01682
G1 X115.649 Y48.83 E.20918
G1 X115.649 Y49.365 E.01682
G1 X110.41 Y44.126 E.23297
G1 X109.875 Y44.126 E.01682
G1 X115.649 Y49.9 E.25675
G1 X115.649 Y50.435 E.01682
G1 X109.34 Y44.126 E.28054
G1 X108.805 Y44.126 E.01682
G1 X115.649 Y50.97 E.30432
G1 X115.649 Y51.504 E.01682
G1 X108.271 Y44.126 E.3281
G1 X107.736 Y44.126 E.01682
G1 X115.649 Y52.039 E.35189
G1 X115.649 Y52.574 E.01682
G1 X107.201 Y44.126 E.37567
G1 X106.666 Y44.126 E.01682
G1 X115.649 Y53.109 E.39946
G1 X115.649 Y53.644 E.01682
G1 X106.131 Y44.126 E.42324
G1 X105.597 Y44.126 E.01682
G1 X115.649 Y54.178 E.44702
G1 X115.649 Y54.713 E.01682
G1 X105.062 Y44.126 E.47081
G1 X104.527 Y44.126 E.01682
G1 X115.649 Y55.248 E.49459
G1 X115.649 Y55.783 E.01682
G1 X103.992 Y44.126 E.51838
G1 X103.457 Y44.126 E.01682
G1 X115.649 Y56.318 E.54216
G1 X115.649 Y56.853 E.01682
G1 X102.922 Y44.126 E.56594
G1 X102.388 Y44.126 E.01682
G1 X115.649 Y57.387 E.58973
G1 X115.649 Y57.922 E.01682
G1 X101.853 Y44.126 E.61351
G1 X101.318 Y44.126 E.01682
G1 X115.649 Y58.457 E.6373
G1 X115.649 Y58.992 E.01682
G1 X100.783 Y44.126 E.66108
G1 X100.248 Y44.126 E.01682
G1 X115.649 Y59.527 E.68486
G1 X115.649 Y60.062 E.01682
G1 X99.713 Y44.126 E.70865
G1 X99.179 Y44.126 E.01682
G1 X115.649 Y60.596 E.73243
G1 X115.649 Y61.131 E.01682
G1 X98.644 Y44.126 E.75622
G1 X98.351 Y44.126 E.00919
G1 X98.351 Y44.369 E.00762
G1 X115.649 Y61.666 E.76922
G1 X115.649 Y62.201 E.01682
G1 X98.351 Y44.904 E.76922
G1 X98.351 Y45.439 E.01682
G1 X115.649 Y62.736 E.76922
G1 X115.649 Y63.271 E.01682
G1 X98.351 Y45.973 E.76922
G1 X98.351 Y46.508 E.01682
G1 X115.649 Y63.805 E.76922
G1 X115.649 Y64.34 E.01682
G1 X98.351 Y47.043 E.76922
G1 X98.351 Y47.578 E.01682
M73 P1 R138
M73 Q1 S139
G1 X115.649 Y64.875 E.76922
G1 X115.649 Y65.41 E.01682
M73 P1 R137
G1 X98.351 Y48.113 E.76922
G1 X98.351 Y48.647 E.01682
G1 X115.649 Y65.945 E.76922
G1 X115.649 Y66.479 E.01682
G1 X98.351 Y49.182 E.76922
G1 X98.351 Y49.717 E.01682
G1 X115.649 Y67.014 E.76922
G1 X115.649 Y67.549 E.01682
G1 X98.351 Y50.252 E.76922
G1 X98.351 Y50.787 E.01682
G1 X115.649 Y68.084 E.76922
G1 X115.649 Y68.619 E.01682
G1 X98.351 Y51.322 E.76922
G1 X98.351 Y51.856 E.01682
G1 X115.649 Y69.154 E.76922
G1 X115.649 Y69.688 E.01682
G1 X98.351 Y52.391 E.76922
G1 X98.351 Y52.926 E.01682
G1 X115.649 Y70.223 E.76922
G1 X115.649 Y70.758 E.01682
G1 X98.351 Y53.461 E.76922
G1 X98.351 Y53.996 E.01682
G1 X115.649 Y71.293 E.76922
G1 X115.649 Y71.828 E.01682
G1 X98.351 Y54.531 E.76922
G1 X98.351 Y55.065 E.01682
M73 Q1 S138
G1 X115.649 Y72.363 E.76922
G1 X115.649 Y72.897 E.01682
G1 X98.351 Y55.6 E.76922
G1 X98.351 Y56.135 E.01682
G1 X115.649 Y73.432 E.76922
G1 X115.649 Y73.967 E.01682
G1 X98.351 Y56.67 E.76922
G1 X98.351 Y57.205 E.01682
G1 X115.649 Y74.502 E.76922
G1 X115.649 Y75.037 E.01682
G1 X98.351 Y57.74 E.76922
G1 X98.351 Y58.274 E.01682
G1 X115.649 Y75.571 E.76922
G1 X115.649 Y76.106 E.01682
G1 X98.351 Y58.809 E.76922
G1 X98.351 Y59.344 E.01682
G1 X115.649 Y76.641 E.76922
G1 X115.649 Y77.176 E.01682
G1 X98.351 Y59.879 E.76922
G1 X98.351 Y60.414 E.01682
G1 X115.649 Y77.711 E.76922
G1 X115.649 Y78.246 E.01682
G1 X98.351 Y60.948 E.76922
G1 X98.351 Y61.483 E.01682
G1 X115.649 Y78.78 E.76922
G1 X115.649 Y79.315 E.01682
G1 X98.351 Y62.018 E.76922
G1 X98.351 Y62.553 E.01682
G1 X115.649 Y79.85 E.76922
G1 X115.649 Y80.385 E.01682
G1 X98.351 Y63.088 E.76922
G1 X98.351 Y63.623 E.01682
G1 X115.649 Y80.92 E.76922
G1 X115.649 Y81.455 E.01682
G1 X98.351 Y64.157 E.76922
G1 X98.351 Y64.692 E.01682
G1 X115.649 Y81.989 E.76922
G1 X115.649 Y82.524 E.01682
G1 X98.351 Y65.227 E.76922
G1 X98.351 Y65.762 E.01682
G1 X115.649 Y83.059 E.76922
G1 X115.649 Y83.594 E.01682
G1 X98.351 Y66.297 E.76922
G1 X98.351 Y66.832 E.01682
G1 X115.649 Y84.129 E.76922
G1 X115.649 Y84.663 E.01682
G1 X98.351 Y67.366 E.76922
G1 X98.351 Y67.901 E.01682
G1 X115.649 Y85.198 E.76922
G1 X115.649 Y85.733 E.01682
G1 X98.351 Y68.436 E.76922
G1 X98.351 Y68.971 E.01682
G1 X115.649 Y86.268 E.76922
G1 X115.649 Y86.803 E.01682
G1 X98.351 Y69.506 E.76922
G1 X98.351 Y70.04 E.01682
G1 X115.649 Y87.338 E.76922
G1 X115.649 Y87.872 E.01682
G1 X98.351 Y70.575 E.76922
G1 X98.351 Y71.11 E.01682
G1 X115.649 Y88.407 E.76922
G1 X115.649 Y88.942 E.01682
G1 X98.351 Y71.645 E.76922
G1 X98.351 Y72.18 E.01682
G1 X115.649 Y89.477 E.76922
G1 X115.649 Y90.012 E.01682
G1 X98.351 Y72.715 E.76922
G1 X98.351 Y73.249 E.01682
M73 P1 R136
G1 X115.649 Y90.547 E.76922
G1 X115.649 Y91.081 E.01682
G1 X98.351 Y73.784 E.76922
G1 X98.351 Y74.319 E.01682
G1 X115.649 Y91.616 E.76922
G1 X115.649 Y92.151 E.01682
G1 X98.351 Y74.854 E.76922
G1 X98.351 Y75.389 E.01682
G1 X115.649 Y92.686 E.76922
G1 X115.649 Y93.221 E.01682
G1 X98.351 Y75.924 E.76922
G1 X98.351 Y76.458 E.01682
G1 X115.649 Y93.756 E.76922
G1 X115.649 Y94.29 E.01682
G1 X98.351 Y76.993 E.76922
G1 X98.351 Y77.528 E.01682
G1 X115.649 Y94.825 E.76922
G1 X115.649 Y95.36 E.01682
G1 X98.351 Y78.063 E.76922
G1 X98.351 Y78.598 E.01682
G1 X115.649 Y95.895 E.76922
G1 X115.649 Y96.43 E.01682
G1 X98.351 Y79.132 E.76922
G1 X98.351 Y79.667 E.01682
G1 X115.649 Y96.964 E.76922
G1 X115.649 Y97.499 E.01682
G1 X98.351 Y80.202 E.76922
G1 X98.351 Y80.737 E.01682
M73 Q1 S137
G1 X115.649 Y98.034 E.76922
G1 X115.649 Y98.569 E.01682
G1 X98.351 Y81.272 E.76922
G1 X98.351 Y81.807 E.01682
G1 X115.649 Y99.104 E.76922
G1 X115.649 Y99.639 E.01682
G1 X98.351 Y82.341 E.76922
G1 X98.351 Y82.876 E.01682
M73 P2 R136
G1 X115.649 Y100.173 E.76922
G1 X115.649 Y100.708 E.01682
M73 Q2 S137
G1 X98.351 Y83.411 E.76922
G1 X98.351 Y83.946 E.01682
G1 X115.649 Y101.243 E.76922
G1 X115.649 Y101.778 E.01682
G1 X98.351 Y84.481 E.76922
G1 X98.351 Y85.016 E.01682
G1 X115.649 Y102.313 E.76922
G1 X115.649 Y102.848 E.01682
G1 X98.351 Y85.55 E.76922
G1 X98.351 Y86.085 E.01682
G1 X115.649 Y103.382 E.76922
G1 X115.649 Y103.917 E.01682
G1 X98.351 Y86.62 E.76922
G1 X98.351 Y87.155 E.01682
G1 X115.649 Y104.452 E.76922
G1 X115.649 Y104.987 E.01682
G1 X98.351 Y87.69 E.76922
G1 X98.351 Y88.225 E.01682
G1 X115.649 Y105.522 E.76922
G1 X115.649 Y106.056 E.01682
G1 X98.351 Y88.759 E.76922
G1 X98.351 Y89.294 E.01682
G1 X115.649 Y106.591 E.76922
G1 X115.649 Y107.126 E.01682
G1 X98.351 Y89.829 E.76922
G1 X98.351 Y90.364 E.01682
G1 X115.649 Y107.661 E.76922
G1 X115.649 Y108.196 E.01682
G1 X98.351 Y90.899 E.76922
G1 X98.351 Y91.433 E.01682
G1 X115.649 Y108.731 E.76922
G1 X115.649 Y109.265 E.01682
G1 X98.351 Y91.968 E.76922
G1 X98.351 Y92.503 E.01682
G1 X115.649 Y109.8 E.76922
G1 X115.649 Y110.335 E.01682
G1 X98.351 Y93.038 E.76922
G1 X98.351 Y93.573 E.01682
G1 X115.649 Y110.87 E.76922
G1 X115.649 Y111.405 E.01682
G1 X98.351 Y94.108 E.76922
G1 X98.351 Y94.642 E.01682
G1 X115.649 Y111.94 E.76922
G1 X115.649 Y112.474 E.01682
G1 X98.351 Y95.177 E.76922
G1 X98.351 Y95.712 E.01682
G1 X115.649 Y113.009 E.76922
G1 X115.649 Y113.544 E.01682
G1 X98.351 Y96.247 E.76922
G1 X98.351 Y96.782 E.01682
G1 X115.649 Y114.079 E.76922
G1 X115.649 Y114.614 E.01682
G1 X98.351 Y97.317 E.76922
G1 X98.351 Y97.851 E.01682
G1 X115.649 Y115.148 E.76922
G1 X115.649 Y115.683 E.01682
G1 X98.351 Y98.386 E.76922
G1 X98.351 Y98.921 E.01682
M73 P2 R135
G1 X115.649 Y116.218 E.76922
G1 X115.649 Y116.753 E.01682
G1 X98.351 Y99.456 E.76922
G1 X98.351 Y99.991 E.01682
G1 X115.649 Y117.288 E.76922
G1 X115.649 Y117.823 E.01682
G1 X98.351 Y100.525 E.76922
G1 X98.351 Y101.06 E.01682
G1 X115.649 Y118.357 E.76922
G1 X115.649 Y118.892 E.01682
G1 X98.351 Y101.595 E.76922
G1 X98.351 Y102.13 E.01682
G1 X115.649 Y119.427 E.76922
G1 X115.649 Y119.962 E.01682
G1 X98.351 Y102.665 E.76922
G1 X98.351 Y103.2 E.01682
G1 X115.649 Y120.497 E.76922
G1 X115.649 Y121.032 E.01682
G1 X98.351 Y103.734 E.76922
G1 X98.351 Y104.269 E.01682
G1 X115.649 Y121.566 E.76922
G1 X115.649 Y122.101 E.01682
G1 X98.351 Y104.804 E.76922
G1 X98.351 Y105.339 E.01682
G1 X115.649 Y122.636 E.76922
G1 X115.649 Y123.171 E.01682
M73 Q2 S136
G1 X98.351 Y105.874 E.76922
G1 X98.351 Y106.409 E.01682
G1 X115.649 Y123.706 E.76922
G1 X115.649 Y124.241 E.01682
G1 X98.351 Y106.943 E.76922
G1 X98.351 Y107.478 E.01682
G1 X115.649 Y124.775 E.76922
G1 X115.649 Y125.31 E.01682
G1 X98.351 Y108.013 E.76922
G1 X98.351 Y108.548 E.01682
G1 X115.649 Y125.845 E.76922
G1 X115.649 Y126.38 E.01682
G1 X98.351 Y109.083 E.76922
G1 X98.351 Y109.617 E.01682
G1 X115.649 Y126.915 E.76922
G1 X115.649 Y127.449 E.01682
G1 X98.351 Y110.152 E.76922
G1 X98.351 Y110.687 E.01682
G1 X115.649 Y127.984 E.76922
G1 X115.649 Y128.519 E.01682
G1 X98.351 Y111.222 E.76922
G1 X98.351 Y111.757 E.01682
G1 X115.649 Y129.054 E.76922
G1 X115.649 Y129.589 E.01682
G1 X98.351 Y112.292 E.76922
G1 X98.351 Y112.826 E.01682
G1 X115.649 Y130.124 E.76922
G1 X115.649 Y130.658 E.01682
G1 X98.351 Y113.361 E.76922
G1 X98.351 Y113.896 E.01682
G1 X115.649 Y131.193 E.76922
G1 X115.649 Y131.728 E.01682
G1 X98.351 Y114.431 E.76922
G1 X98.351 Y114.966 E.01682
G1 X115.649 Y132.263 E.76922
G1 X115.649 Y132.798 E.01682
G1 X98.351 Y115.501 E.76922
G1 X98.351 Y116.035 E.01682
G1 X115.649 Y133.333 E.76922
G1 X115.649 Y133.867 E.01682
G1 X98.351 Y116.57 E.76922
G1 X98.351 Y117.105 E.01682
G1 X115.649 Y134.402 E.76922
G1 X115.649 Y134.937 E.01682
G1 X98.351 Y117.64 E.76922
G1 X98.351 Y118.175 E.01682
M73 P3 R135
G1 X115.649 Y135.472 E.76922
G1 X115.649 Y136.007 E.01682
G1 X98.351 Y118.709 E.76922
G1 X98.351 Y119.244 E.01682
M73 Q3 S136
G1 X115.649 Y136.541 E.76922
G1 X115.649 Y137.076 E.01682
G1 X98.351 Y119.779 E.76922
G1 X98.351 Y120.314 E.01682
G1 X115.649 Y137.611 E.76922
G1 X115.649 Y138.146 E.01682
G1 X98.351 Y120.849 E.76922
G1 X98.351 Y121.384 E.01682
G1 X115.649 Y138.681 E.76922
G1 X115.649 Y139.216 E.01682
G1 X98.351 Y121.918 E.76922
G1 X98.351 Y122.453 E.01682
G1 X115.649 Y139.75 E.76922
G1 X115.649 Y140.285 E.01682
G1 X98.351 Y122.988 E.76922
G1 X98.351 Y123.523 E.01682
G1 X115.649 Y140.82 E.76922
G1 X115.649 Y141.355 E.01682
M73 P3 R134
G1 X98.351 Y124.058 E.76922
G1 X98.351 Y124.593 E.01682
G1 X115.649 Y141.89 E.76922
G1 X115.649 Y142.425 E.01682
G1 X98.351 Y125.127 E.76922
G1 X98.351 Y125.662 E.01682
G1 X115.649 Y142.959 E.76922
G1 X115.649 Y143.494 E.01682
G1 X98.351 Y126.197 E.76922
G1 X98.351 Y126.732 E.01682
G1 X115.649 Y144.029 E.76922
G1 X115.649 Y144.564 E.01682
G1 X98.351 Y127.267 E.76922
G1 X98.351 Y127.802 E.01682
G1 X115.649 Y145.099 E.76922
G1 X115.649 Y145.633 E.01682
G1 X98.351 Y128.336 E.76922
G1 X98.351 Y128.871 E.01682
G1 X115.649 Y146.168 E.76922
G1 X115.649 Y146.703 E.01682
G1 X98.351 Y129.406 E.76922
G1 X98.351 Y129.941 E.01682
G1 X115.649 Y147.238 E.76922
G1 X115.649 Y147.773 E.01682
G1 X98.351 Y130.476 E.76922
G1 X98.351 Y131.01 E.01682
G1 X115.649 Y148.308 E.76922
G1 X115.649 Y148.842 E.01682
M73 Q3 S135
G1 X98.351 Y131.545 E.76922
G1 X98.351 Y132.08 E.01682
G1 X115.649 Y149.377 E.76922
G1 X115.649 Y149.912 E.01682
G1 X98.351 Y132.615 E.76922
G1 X98.351 Y133.15 E.01682
G1 X115.649 Y150.447 E.76922
G1 X115.649 Y150.982 E.01682
G1 X98.351 Y133.685 E.76922
G1 X98.351 Y134.219 E.01682
G1 X115.649 Y151.517 E.76922
G1 X115.649 Y152.051 E.01682
G1 X98.351 Y134.754 E.76922
G1 X98.351 Y135.289 E.01682
G1 X115.649 Y152.586 E.76922
G1 X115.649 Y153.121 E.01682
G1 X98.351 Y135.824 E.76922
G1 X98.351 Y136.359 E.01682
G1 X115.649 Y153.656 E.76922
G1 X115.649 Y154.191 E.01682
G1 X98.351 Y136.894 E.76922
G1 X98.351 Y137.428 E.01682
G1 X115.649 Y154.725 E.76922
G1 X115.649 Y155.26 E.01682
G1 X98.351 Y137.963 E.76922
G1 X98.351 Y138.498 E.01682
G1 X115.649 Y155.795 E.76922
G1 X115.649 Y156.33 E.01682
G1 X98.351 Y139.033 E.76922
G1 X98.351 Y139.568 E.01682
G1 X115.649 Y156.865 E.76922
G1 X115.649 Y157.4 E.01682
G1 X98.351 Y140.102 E.76922
G1 X98.351 Y140.637 E.01682
G1 X115.649 Y157.934 E.76922
G1 X115.649 Y158.469 E.01682
G1 X98.351 Y141.172 E.76922
G1 X98.351 Y141.707 E.01682
G1 X115.649 Y159.004 E.76922
G1 X115.649 Y159.539 E.01682
G1 X98.351 Y142.242 E.76922
G1 X98.351 Y142.777 E.01682
G1 X115.649 Y160.074 E.76922
G1 X115.649 Y160.609 E.01682
G1 X98.351 Y143.311 E.76922
G1 X98.351 Y143.846 E.01682
G1 X115.649 Y161.143 E.76922
G1 X115.649 Y161.678 E.01682
G1 X98.351 Y144.381 E.76922
G1 X98.351 Y144.916 E.01682
G1 X115.649 Y162.213 E.76922
G1 X115.649 Y162.748 E.01682
G1 X98.351 Y145.451 E.76922
G1 X98.351 Y145.986 E.01682
G1 X115.649 Y163.283 E.76922
G1 X115.649 Y163.818 E.01682
G1 X98.351 Y146.52 E.76922
G1 X98.351 Y147.055 E.01682
G1 X115.649 Y164.352 E.76922
G1 X115.649 Y164.887 E.01682
G1 X98.351 Y147.59 E.76922
G1 X98.351 Y148.125 E.01682
G1 X115.649 Y165.422 E.76922
G1 X115.649 Y165.957 E.01682
G1 X98.351 Y148.66 E.76922
G1 X98.351 Y149.194 E.01682
