; generated by PrusaSlicer 2.5.2+win64 on 2023-05-22 at 06:46:41 UTC


;
;

;
;

;
;
; 

; external perimeters extrusion width = 0.45mm
; perimeters extrusion width = 0.45mm
; infill extrusion width = 0.45mm
; solid infill extrusion width = 0.45mm
; top infill extrusion width = 0.45mm
; first layer extrusion width = 0.50mm

M73 P0 R195
M201 X2500 Y2500 Z200 E2500 ; sets maximum accelerations, mm/sec^2
M203 X200 Y200 Z40 E100 ; sets maximum feedrates, mm / sec
M204 P2000 R1200 T2000 ; sets acceleration (P, T) and retract acceleration (R), mm/sec^2
M205 X8.00 Y8.00 Z2.00 E10.00 ; sets the jerk limits, mm/sec
M205 S0 T0 ; sets the minimum extruding and travel feed rate, mm/sec
M107
;TYPE:Custom
M17 ; enable steppers
M862.3 P "MK4" ; printer model check
M862.1 P0.4 ; nozzle diameter check
M330 SYSLOG
M331 loadcell_raw
M331 loadcell_threshold
M331 loadcell_hysteresis
M331 loadcell_scale
M331 probe_z
M331 probe_z_raw
M331 probe_z_diff
M331 home_diff
M331 fsensor_raw
M331 temp_hbr
M331 temp_bed
M331 temp_noz
M331 temp_brd
M331 ttemp_bed
M331 ttemp_noz
M331 pos_z
M331 fan_speed
M331 fan_hbr_speed
M331 tmc_sg_x
M331 tmc_sg_y
M331 tmc_sg_z
M331 tmc_sg_e

M555 X66.5 Y53 W117 H100

G90 ; use absolute coordinates
M92 E380 ; set steps/mm for extruder
M83 ; extruder relative mode

M140 S60 ; set bed temp

M104 S170 ; set extruder temp for bed leveling
M109 R170 ; wait for temp


M84 E ; turn off E motor

G28 ; home all without mesh bed level

; probe to clean the nozzle
G1 X98.5 Y53 Z5 F4800

M302 S160 ; lower cold extrusion limit to 160C


G1 E-2 F2400 ; retraction


M84 E ; turn off E motor

G29 P9 X66.5 Y53 W32 H4

M106 S100

G0 X66.5 Y53 Z40 F10000

M190 S60 ; wait for bed temp

M107

;
; MBL
;
M84 E ; turn off E motor
G29 ; mesh bed leveling
M104 S215 ; set extruder temp
G0 X66.5 Y52.5 Z30 F4800

M109 S215 ; wait for extruder temp
G1 Z0.2 F720
G92 E0

M569 S0 E ; set spreadcycle mode for extruder

;
; Extrude purge line
;

G1 E2 F2400 ; deretraction


; move right
G1 X98.5 E4.8 F1000
; move down
G1 Y51 E0.225 F1000
; move left
G1 X66.5 E9.6 F800

G92 E0
M221 S100 ; set flow to 100%
G21 ; set units to millimeters
G90 ; use absolute coordinates
M83 ; use relative distances for extrusion
M900 K0.06 ; Filament gcode

M142 S36 ; set heatbreak target temp
M107
;LAYER_CHANGE
;Z:0.2
;HEIGHT:0.2
;BEFORE_LAYER_CHANGE
G92 E0.0
;0.2


G1 E-.8 F2100
G1 Z.2 F720
;AFTER_LAYER_CHANGE
;0.2
; printing object Taschenlampe Schalter hinten AA.stl id:0 copy 0
G1 Z.4
G1 X182.593 Y112.907 F12000
G1 Z.2 F720
G1 E.8 F1500
M204 P600
;TYPE:Perimeter
;WIDTH:0.499999
G1 F1200
G1 X182.593 Y152.093 E1.48931
G1 X67.407 Y152.093 E4.37778
G1 X67.407 Y112.907 E1.48931
G1 X182.533 Y112.907 E4.3755
M204 P1000
G1 X183.05 Y112.45 F12000
M204 P600
;TYPE:External perimeter
G1 F1200
G1 X183.05 Y152.55 E1.52405
G1 X66.95 Y152.55 E4.41253
G1 X66.95 Y112.45 E1.52405
G1 X182.99 Y112.45 E4.41025
M204 P1000
G1 X182.89 Y112.816 F12000
G1 E-.64 F2100
;WIPE_START
G1 F9600
G1 X182.991 Y113.181 E-.152
;WIPE_END
G1 E-.008 F2100
G1 Z.4 F720
G1 X181.46 Y113.113 F12000
G1 Z.2 F720
G1 E.8 F1500
M204 P600
;TYPE:Solid infill
;WIDTH:0.501317
G1 F1200
G1 X182.182 Y113.834 E.03887
G1 X182.182 Y114.482 E.02471
G1 X181.018 Y113.318 E.06273
G1 X180.37 Y113.318 E.02471
G1 X182.182 Y115.13 E.09767
G1 X182.182 Y115.779 E.02471
G1 X179.721 Y113.318 E.13262
G1 X179.073 Y113.318 E.02471
G1 X182.182 Y116.427 E.16756
G1 X182.182 Y117.075 E.02471
G1 X178.425 Y113.318 E.2025
G1 X177.777 Y113.318 E.02471
G1 X182.182 Y117.723 E.23745
G1 X182.182 Y118.372 E.02471
G1 X177.128 Y113.318 E.27239
G1 X176.48 Y113.318 E.02471
G1 X182.182 Y119.02 E.30734
G1 X182.182 Y119.668 E.02471
G1 X175.832 Y113.318 E.34228
G1 X175.183 Y113.318 E.02471
G1 X182.182 Y120.317 E.37723
G1 X182.182 Y120.965 E.02471
G1 X174.535 Y113.318 E.41217
G1 X173.887 Y113.318 E.02471
G1 X182.182 Y121.613 E.44711
G1 X182.182 Y122.261 E.02471
G1 X173.239 Y113.318 E.48206
G1 X172.59 Y113.318 E.02471
G1 X182.182 Y122.91 E.517
G1 X182.182 Y123.558 E.02471
G1 X171.942 Y113.318 E.55195
G1 X171.294 Y113.318 E.02471
G1 X182.182 Y124.206 E.58689
G1 X182.182 Y124.854 E.02471
G1 X170.646 Y113.318 E.62184
G1 X169.997 Y113.318 E.02471
G1 X182.182 Y125.503 E.65678
G1 X182.182 Y126.151 E.02471
M73 P0 R194
G1 X169.349 Y113.318 E.69173
G1 X168.701 Y113.318 E.02471
G1 X182.182 Y126.799 E.72667
G1 X182.182 Y127.448 E.02471
G1 X168.052 Y113.318 E.76161
G1 X167.404 Y113.318 E.02471
G1 X182.182 Y128.096 E.79656
G1 X182.182 Y128.744 E.02471
G1 X166.756 Y113.318 E.8315
G1 X166.108 Y113.318 E.02471
G1 X182.182 Y129.392 E.86645
G1 X182.182 Y130.041 E.02471
G1 X165.459 Y113.318 E.90139
G1 X164.811 Y113.318 E.02471
G1 X182.182 Y130.689 E.93634
G1 X182.182 Y131.337 E.02471
G1 X164.163 Y113.318 E.97128
G1 X163.515 Y113.318 E.02471
G1 X182.182 Y131.985 E1.00623
G1 X182.182 Y132.634 E.02471
G1 X162.866 Y113.318 E1.04117
G1 X162.218 Y113.318 E.02471
G1 X182.182 Y133.282 E1.07611
G1 X182.182 Y133.93 E.02471
G1 X161.57 Y113.318 E1.11106
G1 X160.921 Y113.318 E.02471
G1 X182.182 Y134.579 E1.146
G1 X182.182 Y135.227 E.02471
G1 X160.273 Y113.318 E1.18095
G1 X159.625 Y113.318 E.02471
G1 X182.182 Y135.875 E1.21589
G1 X182.182 Y136.523 E.02471
G1 X158.977 Y113.318 E1.25084
G1 X158.328 Y113.318 E.02471
G1 X182.182 Y137.172 E1.28578
G1 X182.182 Y137.82 E.02471
G1 X157.68 Y113.318 E1.32072
G1 X157.032 Y113.318 E.02471
G1 X182.182 Y138.468 E1.35567
G1 X182.182 Y139.116 E.02471
G1 X156.384 Y113.318 E1.39061
G1 X155.735 Y113.318 E.02471
G1 X182.182 Y139.765 E1.42556
G1 X182.182 Y140.413 E.02471
G1 X155.087 Y113.318 E1.4605
G1 X154.439 Y113.318 E.02471
G1 X182.182 Y141.061 E1.49545
G1 X182.182 Y141.709 E.02471
G1 X153.791 Y113.318 E1.53039
G1 X153.142 Y113.318 E.02471
G1 X182.182 Y142.358 E1.56534
G1 X182.182 Y143.006 E.02471
G1 X152.494 Y113.318 E1.60028
G1 X151.846 Y113.318 E.02471
G1 X182.182 Y143.654 E1.63522
G1 X182.182 Y144.303 E.02471
G1 X151.197 Y113.318 E1.67017
G1 X150.549 Y113.318 E.02471
G1 X182.182 Y144.951 E1.70511
G1 X182.182 Y145.599 E.02471
G1 X149.901 Y113.318 E1.74006
G1 X149.253 Y113.318 E.02471
G1 X182.182 Y146.247 E1.775
G1 X182.182 Y146.896 E.02471
G1 X148.604 Y113.318 E1.80995
G1 X147.956 Y113.318 E.02471
G1 X182.182 Y147.544 E1.84489
G1 X182.182 Y148.192 E.02471
G1 X147.308 Y113.318 E1.87984
G1 X146.66 Y113.318 E.02471
M73 P0 R193
G1 X182.182 Y148.84 E1.91478
G1 X182.182 Y149.489 E.02471
G1 X146.011 Y113.318 E1.94972
G1 X145.363 Y113.318 E.02471
G1 X182.182 Y150.137 E1.98467
G1 X182.182 Y150.785 E.02471
M73 P1 R193
G1 X144.715 Y113.318 E2.01961
G1 X144.066 Y113.318 E.02471
G1 X182.182 Y151.434 E2.05456
G1 X182.182 Y151.682 E.00945
G1 X181.781 Y151.682 E.01526
G1 X143.418 Y113.318 E2.06793
G1 X142.77 Y113.318 E.02471
G1 X181.133 Y151.682 E2.06793
G1 X180.485 Y151.682 E.02471
G1 X142.122 Y113.318 E2.06793
G1 X141.473 Y113.318 E.02471
G1 X179.836 Y151.682 E2.06793
G1 X179.188 Y151.682 E.02471
G1 X140.825 Y113.318 E2.06793
G1 X140.177 Y113.318 E.02471
G1 X178.54 Y151.682 E2.06793
G1 X177.892 Y151.682 E.02471
G1 X139.529 Y113.318 E2.06793
G1 X138.88 Y113.318 E.02471
G1 X177.243 Y151.682 E2.06793
G1 X176.595 Y151.682 E.02471
G1 X138.232 Y113.318 E2.06793
G1 X137.584 Y113.318 E.02471
G1 X175.947 Y151.682 E2.06793
G1 X175.299 Y151.682 E.02471
G1 X136.935 Y113.318 E2.06793
G1 X136.287 Y113.318 E.02471
G1 X174.65 Y151.682 E2.06793
G1 X174.002 Y151.682 E.02471
G1 X135.639 Y113.318 E2.06793
G1 X134.991 Y113.318 E.02471
G1 X173.354 Y151.682 E2.06793
G1 X172.706 Y151.682 E.02471
G1 X134.342 Y113.318 E2.06793
G1 X133.694 Y113.318 E.02471
G1 X172.057 Y151.682 E2.06793
G1 X171.409 Y151.682 E.02471
G1 X133.046 Y113.318 E2.06793
G1 X132.398 Y113.318 E.02471
M73 P1 R192
G1 X170.761 Y151.682 E2.06793
G1 X170.112 Y151.682 E.02471
G1 X131.749 Y113.318 E2.06793
G1 X131.101 Y113.318 E.02471
G1 X169.464 Y151.682 E2.06793
G1 X168.816 Y151.682 E.02471
G1 X130.453 Y113.318 E2.06793
G1 X129.804 Y113.318 E.02471
G1 X168.168 Y151.682 E2.06793
G1 X167.519 Y151.682 E.02471
G1 X129.156 Y113.318 E2.06793
G1 X128.508 Y113.318 E.02471
G1 X166.871 Y151.682 E2.06793
G1 X166.223 Y151.682 E.02471
G1 X127.86 Y113.318 E2.06793
G1 X127.211 Y113.318 E.02471
G1 X165.575 Y151.682 E2.06793
G1 X164.926 Y151.682 E.02471
G1 X126.563 Y113.318 E2.06793
G1 X125.915 Y113.318 E.02471
G1 X164.278 Y151.682 E2.06793
G1 X163.63 Y151.682 E.02471
G1 X125.267 Y113.318 E2.06793
G1 X124.618 Y113.318 E.02471
G1 X162.981 Y151.682 E2.06793
G1 X162.333 Y151.682 E.02471
G1 X123.97 Y113.318 E2.06793
G1 X123.322 Y113.318 E.02471
G1 X161.685 Y151.682 E2.06793
G1 X161.037 Y151.682 E.02471
G1 X122.673 Y113.318 E2.06793
G1 X122.025 Y113.318 E.02471
G1 X160.388 Y151.682 E2.06793
G1 X159.74 Y151.682 E.02471
G1 X121.377 Y113.318 E2.06793
G1 X120.729 Y113.318 E.02471
G1 X159.092 Y151.682 E2.06793
G1 X158.444 Y151.682 E.02471
G1 X120.08 Y113.318 E2.06793
G1 X119.432 Y113.318 E.02471
G1 X157.795 Y151.682 E2.06793
G1 X157.147 Y151.682 E.02471
G1 X118.784 Y113.318 E2.06793
G1 X118.136 Y113.318 E.02471
M73 P1 R191
G1 X156.499 Y151.682 E2.06793
G1 X155.85 Y151.682 E.02471
G1 X117.487 Y113.318 E2.06793
G1 X116.839 Y113.318 E.02471
M73 P2 R191
G1 X155.202 Y151.682 E2.06793
G1 X154.554 Y151.682 E.02471
G1 X116.191 Y113.318 E2.06793
G1 X115.543 Y113.318 E.02471
G1 X153.906 Y151.682 E2.06793
G1 X153.257 Y151.682 E.02471
G1 X114.894 Y113.318 E2.06793
G1 X114.246 Y113.318 E.02471
G1 X152.609 Y151.682 E2.06793
G1 X151.961 Y151.682 E.02471
G1 X113.598 Y113.318 E2.06793
G1 X112.949 Y113.318 E.02471
G1 X151.313 Y151.682 E2.06793
G1 X150.664 Y151.682 E.02471
G1 X112.301 Y113.318 E2.06793
G1 X111.653 Y113.318 E.02471
G1 X150.016 Y151.682 E2.06793
G1 X149.368 Y151.682 E.02471
G1 X111.005 Y113.318 E2.06793
G1 X110.356 Y113.318 E.02471
G1 X148.719 Y151.682 E2.06793
G1 X148.071 Y151.682 E.02471
G1 X109.708 Y113.318 E2.06793
G1 X109.06 Y113.318 E.02471
G1 X147.423 Y151.682 E2.06793
G1 X146.775 Y151.682 E.02471
G1 X108.412 Y113.318 E2.06793
G1 X107.763 Y113.318 E.02471
G1 X146.126 Y151.682 E2.06793
G1 X145.478 Y151.682 E.02471
G1 X107.115 Y113.318 E2.06793
G1 X106.467 Y113.318 E.02471
G1 X144.83 Y151.682 E2.06793
G1 X144.182 Y151.682 E.02471
G1 X105.818 Y113.318 E2.06793
G1 X105.17 Y113.318 E.02471
G1 X143.533 Y151.682 E2.06793
G1 X142.885 Y151.682 E.02471
G1 X104.522 Y113.318 E2.06793
G1 X103.874 Y113.318 E.02471
M73 P2 R190
G1 X142.237 Y151.682 E2.06793
G1 X141.588 Y151.682 E.02471
G1 X103.225 Y113.318 E2.06793
G1 X102.577 Y113.318 E.02471
G1 X140.94 Y151.682 E2.06793
G1 X140.292 Y151.682 E.02471
G1 X101.929 Y113.318 E2.06793
G1 X101.281 Y113.318 E.02471
G1 X139.644 Y151.682 E2.06793
G1 X138.995 Y151.682 E.02471
G1 X100.632 Y113.318 E2.06793
G1 X99.984 Y113.318 E.02471
G1 X138.347 Y151.682 E2.06793
G1 X137.699 Y151.682 E.02471
G1 X99.336 Y113.318 E2.06793
G1 X98.687 Y113.318 E.02471
G1 X137.051 Y151.682 E2.06793
G1 X136.402 Y151.682 E.02471
G1 X98.039 Y113.318 E2.06793
G1 X97.391 Y113.318 E.02471
G1 X135.754 Y151.682 E2.06793
G1 X135.106 Y151.682 E.02471
G1 X96.743 Y113.318 E2.06793
G1 X96.094 Y113.318 E.02471
G1 X134.458 Y151.682 E2.06793
G1 X133.809 Y151.682 E.02471
G1 X95.446 Y113.318 E2.06793
G1 X94.798 Y113.318 E.02471
G1 X133.161 Y151.682 E2.06793
G1 X132.513 Y151.682 E.02471
G1 X94.15 Y113.318 E2.06793
G1 X93.501 Y113.318 E.02471
G1 X131.864 Y151.682 E2.06793
G1 X131.216 Y151.682 E.02471
G1 X92.853 Y113.318 E2.06793
G1 X92.205 Y113.318 E.02471
G1 X130.568 Y151.682 E2.06793
G1 X129.92 Y151.682 E.02471
G1 X91.556 Y113.318 E2.06793
G1 X90.908 Y113.318 E.02471
G1 X129.271 Y151.682 E2.06793
G1 X128.623 Y151.682 E.02471
G1 X90.26 Y113.318 E2.06793
G1 X89.612 Y113.318 E.02471
M73 P3 R189
G1 X127.975 Y151.682 E2.06793
G1 X127.327 Y151.682 E.02471
G1 X88.963 Y113.318 E2.06793
G1 X88.315 Y113.318 E.02471
G1 X126.678 Y151.682 E2.06793
G1 X126.03 Y151.682 E.02471
G1 X87.667 Y113.318 E2.06793
G1 X87.019 Y113.318 E.02471
G1 X125.382 Y151.682 E2.06793
G1 X124.733 Y151.682 E.02471
G1 X86.37 Y113.318 E2.06793
G1 X85.722 Y113.318 E.02471
G1 X124.085 Y151.682 E2.06793
G1 X123.437 Y151.682 E.02471
G1 X85.074 Y113.318 E2.06793
G1 X84.425 Y113.318 E.02471
G1 X122.789 Y151.682 E2.06793
G1 X122.14 Y151.682 E.02471
G1 X83.777 Y113.318 E2.06793
G1 X83.129 Y113.318 E.02471
G1 X121.492 Y151.682 E2.06793
G1 X120.844 Y151.682 E.02471
G1 X82.481 Y113.318 E2.06793
G1 X81.832 Y113.318 E.02471
G1 X120.196 Y151.682 E2.06793
G1 X119.547 Y151.682 E.02471
G1 X81.184 Y113.318 E2.06793
G1 X80.536 Y113.318 E.02471
G1 X118.899 Y151.682 E2.06793
G1 X118.251 Y151.682 E.02471
G1 X79.888 Y113.318 E2.06793
G1 X79.239 Y113.318 E.02471
G1 X117.602 Y151.682 E2.06793
G1 X116.954 Y151.682 E.02471
G1 X78.591 Y113.318 E2.06793
G1 X77.943 Y113.318 E.02471
G1 X116.306 Y151.682 E2.06793
G1 X115.658 Y151.682 E.02471
G1 X77.295 Y113.318 E2.06793
G1 X76.646 Y113.318 E.02471
G1 X115.009 Y151.682 E2.06793
G1 X114.361 Y151.682 E.02471
M73 P3 R188
G1 X75.998 Y113.318 E2.06793
G1 X75.35 Y113.318 E.02471
G1 X113.713 Y151.682 E2.06793
G1 X113.065 Y151.682 E.02471
G1 X74.701 Y113.318 E2.06793
G1 X74.053 Y113.318 E.02471
G1 X112.416 Y151.682 E2.06793
G1 X111.768 Y151.682 E.02471
G1 X73.405 Y113.318 E2.06793
G1 X72.757 Y113.318 E.02471
G1 X111.12 Y151.682 E2.06793
G1 X110.471 Y151.682 E.02471
G1 X72.108 Y113.318 E2.06793
G1 X71.46 Y113.318 E.02471
G1 X109.823 Y151.682 E2.06793
G1 X109.175 Y151.682 E.02471
G1 X70.812 Y113.318 E2.06793
G1 X70.164 Y113.318 E.02471
G1 X108.527 Y151.682 E2.06793
G1 X107.878 Y151.682 E.02471
G1 X69.515 Y113.318 E2.06793
G1 X68.867 Y113.318 E.02471
G1 X107.23 Y151.682 E2.06793
G1 X106.582 Y151.682 E.02471
G1 X68.219 Y113.318 E2.06793
G1 X67.818 Y113.318 E.01526
G1 X67.818 Y113.566 E.00945
G1 X105.934 Y151.682 E2.05456
G1 X105.285 Y151.682 E.02471
G1 X67.818 Y114.215 E2.01961
G1 X67.818 Y114.863 E.02471
G1 X104.637 Y151.682 E1.98467
G1 X103.989 Y151.682 E.02471
G1 X67.818 Y115.511 E1.94972
G1 X67.818 Y116.16 E.02471
G1 X103.34 Y151.682 E1.91478
G1 X102.692 Y151.682 E.02471
G1 X67.818 Y116.808 E1.87984
G1 X67.818 Y117.456 E.02471
G1 X102.044 Y151.682 E1.84489
G1 X101.396 Y151.682 E.02471
G1 X67.818 Y118.104 E1.80995
G1 X67.818 Y118.753 E.02471
G1 X100.747 Y151.682 E1.775
G1 X100.099 Y151.682 E.02471
G1 X67.818 Y119.401 E1.74006
G1 X67.818 Y120.049 E.02471
M73 P4 R187
G1 X99.451 Y151.682 E1.70511
G1 X98.803 Y151.682 E.02471
G1 X67.818 Y120.697 E1.67017
G1 X67.818 Y121.346 E.02471
G1 X98.154 Y151.682 E1.63522
G1 X97.506 Y151.682 E.02471
G1 X67.818 Y121.994 E1.60028
G1 X67.818 Y122.642 E.02471
G1 X96.858 Y151.682 E1.56534
G1 X96.21 Y151.682 E.02471
G1 X67.818 Y123.29 E1.53039
G1 X67.818 Y123.939 E.02471
G1 X95.561 Y151.682 E1.49545
G1 X94.913 Y151.682 E.02471
G1 X67.818 Y124.587 E1.4605
G1 X67.818 Y125.235 E.02471
G1 X94.265 Y151.682 E1.42556
G1 X93.616 Y151.682 E.02471
G1 X67.818 Y125.884 E1.39061
G1 X67.818 Y126.532 E.02471
G1 X92.968 Y151.682 E1.35567
G1 X92.32 Y151.682 E.02471
G1 X67.818 Y127.18 E1.32073
G1 X67.818 Y127.828 E.02471
G1 X91.672 Y151.682 E1.28578
G1 X91.023 Y151.682 E.02471
G1 X67.818 Y128.477 E1.25084
G1 X67.818 Y129.125 E.02471
G1 X90.375 Y151.682 E1.21589
G1 X89.727 Y151.682 E.02471
G1 X67.818 Y129.773 E1.18095
G1 X67.818 Y130.421 E.02471
G1 X89.079 Y151.682 E1.146
G1 X88.43 Y151.682 E.02471
G1 X67.818 Y131.07 E1.11106
G1 X67.818 Y131.718 E.02471
G1 X87.782 Y151.682 E1.07611
G1 X87.134 Y151.682 E.02471
G1 X67.818 Y132.366 E1.04117
G1 X67.818 Y133.015 E.02471
G1 X86.485 Y151.682 E1.00623
G1 X85.837 Y151.682 E.02471
G1 X67.818 Y133.663 E.97128
G1 X67.818 Y134.311 E.02471
G1 X85.189 Y151.682 E.93634
G1 X84.541 Y151.682 E.02471
G1 X67.818 Y134.959 E.90139
G1 X67.818 Y135.608 E.02471
G1 X83.892 Y151.682 E.86645
G1 X83.244 Y151.682 E.02471
G1 X67.818 Y136.256 E.8315
G1 X67.818 Y136.904 E.02471
G1 X82.596 Y151.682 E.79656
G1 X81.948 Y151.682 E.02471
G1 X67.818 Y137.552 E.76161
G1 X67.818 Y138.201 E.02471
G1 X81.299 Y151.682 E.72667
G1 X80.651 Y151.682 E.02471
G1 X67.818 Y138.849 E.69173
G1 X67.818 Y139.497 E.02471
G1 X80.003 Y151.682 E.65678
G1 X79.354 Y151.682 E.02471
G1 X67.818 Y140.146 E.62184
G1 X67.818 Y140.794 E.02471
G1 X78.706 Y151.682 E.58689
