; generated by PrusaSlicer 2.5.2+win64 on 2023-05-22 at 06:45:42 UTC

; 

; external perimeters extrusion width = 0.45mm
; perimeters extrusion width = 0.45mm
; infill extrusion width = 0.45mm
; solid infill extrusion width = 0.45mm
; top infill extrusion width = 0.40mm
; first layer extrusion width = 0.70mm

M107
M104 S200 ; set temperature
;TYPE:Custom
G28 ; home all axes
G1 Z5 F5000 ; lift nozzle
M109 S200 ; set temperature and wait for it to be reached
G21 ; set units to millimeters
G90 ; use absolute coordinates
M82 ; use absolute distances for extrusion
G92 E0
; Filament gcode
M107
;LAYER_CHANGE
;Z:0.35
;HEIGHT:0.35
G1 Z.35 F7800
G1 E-2 F2400
G92 E0
G1 X48.872 Y15.741 F7800
G1 E2 F2400
;TYPE:Skirt/Brim
;WIDTH:0.7
G1 F1800
G1 X50.015 Y13.753 E2.20854
G1 X51.768 Y12.274 E2.41708
G1 X53.92 Y11.481 E2.62563
G1 X55.1 Y11.375 E2.73334
G1 X96.236 Y11.377 E6.47379
G1 X145.036 Y12.377 E10.91209
G1 X147.286 Y12.82 E11.12063
G1 X149.25 Y14.004 E11.32917
G1 X150.693 Y15.786 E11.53771
G1 X151.525 Y19 E11.83957
G1 X151.525 Y180 E26.47923
G1 X151.128 Y182.259 E26.68778
G1 X149.985 Y184.247 E26.89632
G1 X148.232 Y185.726 E27.10486
G1 X145.171 Y186.619 E27.39476
G1 X96.1 Y188.625 E31.86052
G1 X55.1 Y188.625 E35.58863
G1 X52.841 Y188.228 E35.79717
G1 X50.853 Y187.085 E36.00572
G1 X49.374 Y185.332 E36.21426
G1 X48.581 Y183.18 E36.4228
G1 X48.475 Y182 E36.53051
G1 X48.475 Y18 E51.44296
G1 X48.862 Y15.8 E51.64605
G1 E49.64605 F2400
G92 E0
G1 X94.5 Y180.4 F7800
G1 E2 F2400
;TYPE:Perimeter
;WIDTH:0.7
G1 F1800
G1 X56.7 Y180.4 E5.43718
G1 X56.7 Y19.6 E20.05868
G1 X94.5 Y19.6 E23.49586
G1 X94.5 Y180.34 E38.11191
G1 X95.125 Y181.025 F7800
G1 F1800
G1 X56.075 Y181.025 E41.66273
G1 X56.075 Y18.975 E56.39788
G1 X95.125 Y18.975 E59.9487
G1 X95.125 Y180.965 E74.67839
G1 X95.75 Y181.65 F7800
;TYPE:External perimeter
G1 F1800
G1 X55.45 Y181.65 E78.34285
G1 X55.45 Y18.35 E93.19165
G1 X95.75 Y18.35 E96.85611
G1 X95.75 Y181.59 E111.69944
G1 X95.389 Y181.479 F7800
G1 E109.69944 F2400
G92 E0
G1 X93.049 Y19.787 F7800
G1 E2 F2400
;TYPE:Solid infill
;WIDTH:0.700067
G1 F1800
G1 X94.032 Y20.769 E2.12631
G1 X94.032 Y21.653 E2.20668
G1 X92.447 Y20.068 E2.41049
G1 X91.563 Y20.068 E2.49086
G1 X94.032 Y22.537 E2.80834
G1 X94.032 Y23.421 E2.88871
G1 X90.679 Y20.068 E3.31986
G1 X89.795 Y20.068 E3.40023
G1 X94.032 Y24.305 E3.94504
G1 X94.032 Y25.188 E4.02541
G1 X88.912 Y20.068 E4.68388
G1 X88.028 Y20.068 E4.76426
G1 X94.032 Y26.072 E5.5364
G1 X94.032 Y26.956 E5.61677
G1 X87.144 Y20.068 E6.50258
G1 X86.26 Y20.068 E6.58295
G1 X94.032 Y27.84 E7.58242
G1 X94.032 Y28.724 E7.6628
G1 X85.376 Y20.068 E8.77594
G1 X84.492 Y20.068 E8.85631
G1 X94.032 Y29.608 E10.08311
G1 X94.032 Y30.491 E10.16349
G1 X83.609 Y20.068 E11.50396
G1 X82.725 Y20.068 E11.58433
G1 X94.032 Y31.375 E13.03847
G1 X94.032 Y32.259 E13.11884
G1 X81.841 Y20.068 E14.68664
G1 X80.957 Y20.068 E14.76702
G1 X94.032 Y33.143 E16.44849
G1 X94.032 Y34.027 E16.52886
G1 X80.073 Y20.068 E18.32399
G1 X79.19 Y20.068 E18.40437
G1 X94.032 Y34.91 E20.31317
G1 X94.032 Y35.794 E20.39354
G1 X78.306 Y20.068 E22.41601
G1 X77.422 Y20.068 E22.49638
G1 X94.032 Y36.678 E24.63252
G1 X94.032 Y37.562 E24.71289
G1 X76.538 Y20.068 E26.96269
G1 X75.654 Y20.068 E27.04306
G1 X94.032 Y38.446 E29.40653
G1 X94.032 Y39.33 E29.4869
G1 X74.77 Y20.068 E31.96403
G1 X73.887 Y20.068 E32.04441
G1 X94.032 Y40.213 E34.6352
G1 X94.032 Y41.097 E34.71558
G1 X73.003 Y20.068 E37.42004
G1 X72.119 Y20.068 E37.50042
G1 X94.032 Y41.981 E40.31854
G1 X94.032 Y42.865 E40.39892
G1 X71.235 Y20.068 E43.33071
G1 X70.351 Y20.068 E43.41109
G1 X94.032 Y43.749 E46.45655
G1 X94.032 Y44.633 E46.53692
G1 X69.467 Y20.068 E49.69605
G1 X68.584 Y20.068 E49.77642
G1 X94.032 Y45.516 E53.04922
G1 X94.032 Y46.4 E53.12959
G1 X67.7 Y20.068 E56.51605
G1 X66.816 Y20.068 E56.59643
G1 X94.032 Y47.284 E60.09655
G1 X94.032 Y48.168 E60.17693
G1 X65.932 Y20.068 E63.79072
G1 X65.048 Y20.068 E63.87109
G1 X94.032 Y49.052 E67.59855
G1 X94.032 Y49.935 E67.67892
G1 X64.165 Y20.068 E71.52005
G1 X63.281 Y20.068 E71.60042
G1 X94.032 Y50.819 E75.55521
G1 X94.032 Y51.703 E75.63559
G1 X62.397 Y20.068 E79.70404
G1 X61.513 Y20.068 E79.78442
G1 X94.032 Y52.587 E83.96654
G1 X94.032 Y53.471 E84.04691
G1 X60.629 Y20.068 E88.3427
G1 X59.745 Y20.068 E88.42307
G1 X94.032 Y54.355 E92.83253
G1 X94.032 Y55.238 E92.9129
G1 X58.862 Y20.068 E97.43602
G1 X57.978 Y20.068 E97.5164
G1 X94.032 Y56.122 E102.15318
G1 X94.032 Y57.006 E102.23356
G1 X57.168 Y20.143 E106.97444
G1 X57.168 Y21.027 E107.05481
G1 X94.032 Y57.89 E111.79569
G1 X94.032 Y58.774 E111.87607
G1 X57.168 Y21.91 E116.61695
G1 X57.168 Y22.794 E116.69732
G1 X94.032 Y59.657 E121.4382
G1 X94.032 Y60.541 E121.51858
G1 X57.168 Y23.678 E126.25946
G1 X57.168 Y24.562 E126.33983
G1 X94.032 Y61.425 E131.08071
G1 X94.032 Y62.309 E131.16108
G1 X57.168 Y25.446 E135.90197
G1 X57.168 Y26.33 E135.98234
G1 X94.032 Y63.193 E140.72322
G1 X94.032 Y64.077 E140.80359
G1 X57.168 Y27.213 E145.54447
G1 X57.168 Y28.097 E145.62485
G1 X94.032 Y64.96 E150.36573
G1 X94.032 Y65.844 E150.4461
G1 X57.168 Y28.981 E155.18698
G1 X57.168 Y29.865 E155.26736
G1 X94.032 Y66.728 E160.00824
G1 X94.032 Y67.612 E160.08861
G1 X57.168 Y30.749 E164.82949
G1 X57.168 Y31.633 E164.90987
G1 X94.032 Y68.496 E169.65075
G1 X94.032 Y69.38 E169.73112
G1 X57.168 Y32.516 E174.472
G1 X57.168 Y33.4 E174.55238
G1 X94.032 Y70.263 E179.29326
G1 X94.032 Y71.147 E179.37363
G1 X57.168 Y34.284 E184.11451
G1 X57.168 Y35.168 E184.19488
G1 X94.032 Y72.031 E188.93576
G1 X94.032 Y72.915 E189.01614
G1 X57.168 Y36.052 E193.75702
G1 X57.168 Y36.935 E193.83739
G1 X94.032 Y73.799 E198.57827
G1 X94.032 Y74.682 E198.65865
G1 X57.168 Y37.819 E203.39953
G1 X57.168 Y38.703 E203.4799
G1 X94.032 Y75.566 E208.22078
G1 X94.032 Y76.45 E208.30116
G1 X57.168 Y39.587 E213.04204
G1 X57.168 Y40.471 E213.12241
G1 X94.032 Y77.334 E217.86329
G1 X94.032 Y78.218 E217.94367
G1 X57.168 Y41.355 E222.68455
G1 X57.168 Y42.238 E222.76492
G1 X94.032 Y79.102 E227.5058
G1 X94.032 Y79.985 E227.58618
G1 X57.168 Y43.122 E232.32706
G1 X57.168 Y44.006 E232.40743
G1 X94.032 Y80.869 E237.14831
G1 X94.032 Y81.753 E237.22868
G1 X57.168 Y44.89 E241.96956
G1 X57.168 Y45.774 E242.04994
G1 X94.032 Y82.637 E246.79082
G1 X94.032 Y83.521 E246.87119
G1 X57.168 Y46.657 E251.61207
G1 X57.168 Y47.541 E251.69245
G1 X94.032 Y84.404 E256.43333
G1 X94.032 Y85.288 E256.5137
G1 X57.168 Y48.425 E261.25458
G1 X57.168 Y49.309 E261.33496
G1 X94.032 Y86.172 E266.07584
G1 X94.032 Y87.056 E266.15621
G1 X57.168 Y50.193 E270.89709
G1 X57.168 Y51.077 E270.97747
G1 X94.032 Y87.94 E275.71835
G1 X94.032 Y88.824 E275.79872
G1 X57.168 Y51.96 E280.5396
G1 X57.168 Y52.844 E280.61997
G1 X94.032 Y89.707 E285.36086
G1 X94.032 Y90.591 E285.44123
G1 X57.168 Y53.728 E290.18211
G1 X57.168 Y54.612 E290.26248
G1 X94.032 Y91.475 E295.00336
G1 X94.032 Y92.359 E295.08374
G1 X57.168 Y55.496 E299.82462
G1 X57.168 Y56.38 E299.90499
G1 X94.032 Y93.243 E304.64587
G1 X94.032 Y94.127 E304.72625
G1 X57.168 Y57.263 E309.46713
G1 X57.168 Y58.147 E309.5475
G1 X94.032 Y95.01 E314.28838
G1 X94.032 Y95.894 E314.36876
G1 X57.168 Y59.031 E319.10964
G1 X57.168 Y59.915 E319.19001
G1 X94.032 Y96.778 E323.93089
G1 X94.032 Y97.662 E324.01127
G1 X57.168 Y60.799 E328.75215
G1 X57.168 Y61.682 E328.83252
G1 X94.032 Y98.546 E333.5734
G1 X94.032 Y99.429 E333.65377
G1 X57.168 Y62.566 E338.39465
G1 X57.168 Y63.45 E338.47503
G1 X94.032 Y100.313 E343.21591
G1 X94.032 Y101.197 E343.29628
G1 X57.168 Y64.334 E348.03716
G1 X57.168 Y65.218 E348.11754
G1 X94.032 Y102.081 E352.85842
G1 X94.032 Y102.965 E352.93879
G1 X57.168 Y66.102 E357.67967
G1 X57.168 Y66.985 E357.76005
G1 X94.032 Y103.849 E362.50093
G1 X94.032 Y104.732 E362.5813
G1 X57.168 Y67.869 E367.32218
G1 X57.168 Y68.753 E367.40256
G1 X94.032 Y105.616 E372.14344
G1 X94.032 Y106.5 E372.22381
G1 X57.168 Y69.637 E376.96469
G1 X57.168 Y70.521 E377.04506
G1 X94.032 Y107.384 E381.78595
G1 X94.032 Y108.268 E381.86632
G1 X57.168 Y71.404 E386.6072
G1 X57.168 Y72.288 E386.68757
G1 X94.032 Y109.151 E391.42845
G1 X94.032 Y110.035 E391.50883
G1 X57.168 Y73.172 E396.24971
G1 X57.168 Y74.056 E396.33008
G1 X94.032 Y110.919 E401.07096
G1 X94.032 Y111.803 E401.15134
G1 X57.168 Y74.94 E405.89222
G1 X57.168 Y75.824 E405.97259
G1 X94.032 Y112.687 E410.71347
G1 X94.032 Y113.571 E410.79385
G1 X57.168 Y76.707 E415.53473
G1 X57.168 Y77.591 E415.6151
G1 X94.032 Y114.454 E420.35598
G1 X94.032 Y115.338 E420.43635
G1 X57.168 Y78.475 E425.17724
G1 X57.168 Y79.359 E425.25761
G1 X94.032 Y116.222 E429.99849
G1 X94.032 Y117.106 E430.07886
G1 X57.168 Y80.243 E434.81974
G1 X57.168 Y81.127 E434.90012
G1 X94.032 Y117.99 E439.641
G1 X94.032 Y118.873 E439.72137
G1 X57.168 Y82.01 E444.46225
G1 X57.168 Y82.894 E444.54263
G1 X94.032 Y119.757 E449.28351
G1 X94.032 Y120.641 E449.36388
G1 X57.168 Y83.778 E454.10476
G1 X57.168 Y84.662 E454.18514
G1 X94.032 Y121.525 E458.92602
G1 X94.032 Y122.409 E459.00639
G1 X57.168 Y85.546 E463.74727
G1 X57.168 Y86.429 E463.82764
G1 X94.032 Y123.293 E468.56853
G1 X94.032 Y124.176 E468.6489
G1 X57.168 Y87.313 E473.38978
G1 X57.168 Y88.197 E473.47015
G1 X94.032 Y125.06 E478.21103
G1 X94.032 Y125.944 E478.29141
G1 X57.168 Y89.081 E483.03229
G1 X57.168 Y89.965 E483.11266
G1 X94.032 Y126.828 E487.85354
G1 X94.032 Y127.712 E487.93392
G1 X57.168 Y90.849 E492.6748
G1 X57.168 Y91.732 E492.75517
G1 X94.032 Y128.596 E497.49605
G1 X94.032 Y129.479 E497.57643
G1 X57.168 Y92.616 E502.31731
G1 X57.168 Y93.5 E502.39768
G1 X94.032 Y130.363 E507.13856
G1 X94.032 Y131.247 E507.21893
G1 X57.168 Y94.384 E511.95982
G1 X57.168 Y95.268 E512.04019
G1 X94.032 Y132.131 E516.78107
G1 X94.032 Y133.015 E516.86144
G1 X57.168 Y96.151 E521.60232
G1 X57.168 Y97.035 E521.6827
G1 X94.032 Y133.898 E526.42358
G1 X94.032 Y134.782 E526.50395
G1 X57.168 Y97.919 E531.24483
G1 X57.168 Y98.803 E531.32521
G1 X94.032 Y135.666 E536.06609
G1 X94.032 Y136.55 E536.14646
G1 X57.168 Y99.687 E540.88734
G1 X57.168 Y100.571 E540.96772
G1 X94.032 Y137.434 E545.7086
G1 X94.032 Y138.318 E545.78897
G1 X57.168 Y101.454 E550.52985
G1 X57.168 Y102.338 E550.61022
G1 X94.032 Y139.201 E555.35111
G1 X94.032 Y140.085 E555.43148
G1 X57.168 Y103.222 E560.17236
G1 X57.168 Y104.106 E560.25273
G1 X94.032 Y140.969 E564.99361
G1 X94.032 Y141.853 E565.07399
G1 X57.168 Y104.99 E569.81487
G1 X57.168 Y105.874 E569.89524
G1 X94.032 Y142.737 E574.63612
G1 X94.032 Y143.62 E574.7165
G1 X57.168 Y106.757 E579.45738
G1 X57.168 Y107.641 E579.53775
G1 X94.032 Y144.504 E584.27863
G1 X94.032 Y145.388 E584.35901
G1 X57.168 Y108.525 E589.09989
G1 X57.168 Y109.409 E589.18026
G1 X94.032 Y146.272 E593.92114
G1 X94.032 Y147.156 E594.00151
G1 X57.168 Y110.293 E598.7424
G1 X57.168 Y111.176 E598.82277
G1 X94.032 Y148.04 E603.56365
G1 X94.032 Y148.923 E603.64402
G1 X57.168 Y112.06 E608.3849
G1 X57.168 Y112.944 E608.46528
G1 X94.032 Y149.807 E613.20616
G1 X94.032 Y150.691 E613.28653
G1 X57.168 Y113.828 E618.02741
G1 X57.168 Y114.712 E618.10779
G1 X94.032 Y151.575 E622.84867
G1 X94.032 Y152.459 E622.92904
G1 X57.168 Y115.596 E627.66992
G1 X57.168 Y116.479 E627.7503
G1 X94.032 Y153.343 E632.49118
G1 X94.032 Y154.226 E632.57155
G1 X57.168 Y117.363 E637.31243
G1 X57.168 Y118.247 E637.39281
G1 X94.032 Y155.11 E642.13369
G1 X94.032 Y155.994 E642.21406
G1 X57.168 Y119.131 E646.95494
G1 X57.168 Y120.015 E647.03531
G1 X94.032 Y156.878 E651.77619
G1 X94.032 Y157.762 E651.85657
G1 X57.168 Y120.898 E656.59745
G1 X57.168 Y121.782 E656.67782
G1 X94.032 Y158.645 E661.4187
G1 X94.032 Y159.529 E661.49908
G1 X57.168 Y122.666 E666.23996
G1 X57.168 Y123.55 E666.32033
G1 X94.032 Y160.413 E671.06121
G1 X94.032 Y161.297 E671.14159
G1 X57.168 Y124.434 E675.88247
G1 X57.168 Y125.318 E675.96284
G1 X94.032 Y162.181 E680.70372
G1 X94.032 Y163.065 E680.7841
G1 X57.168 Y126.201 E685.52498
G1 X57.168 Y127.085 E685.60535
G1 X94.032 Y163.948 E690.34623
G1 X94.032 Y164.832 E690.4266
G1 X57.168 Y127.969 E695.16749
G1 X57.168 Y128.853 E695.24786
G1 X94.032 Y165.716 E699.98874
G1 X94.032 Y166.6 E700.06911
G1 X57.168 Y129.737 E704.80999
G1 X57.168 Y130.621 E704.89037
G1 X94.032 Y167.484 E709.63125
G1 X94.032 Y168.367 E709.71162
G1 X57.168 Y131.504 E714.4525
G1 X57.168 Y132.388 E714.53288
G1 X94.032 Y169.251 E719.27376
G1 X94.032 Y170.135 E719.35413
G1 X57.168 Y133.272 E724.09501
G1 X57.168 Y134.156 E724.17539
G1 X94.032 Y171.019 E728.91627
G1 X94.032 Y171.903 E728.99664
G1 X57.168 Y135.04 E733.73752
G1 X57.168 Y135.923 E733.8179
G1 X94.032 Y172.787 E738.55878
G1 X94.032 Y173.67 E738.63915
G1 X57.168 Y136.807 E743.38003
G1 X57.168 Y137.691 E743.4604
G1 X94.032 Y174.554 E748.20129
G1 X94.032 Y175.438 E748.28166
G1 X57.168 Y138.575 E753.02254
G1 X57.168 Y139.459 E753.10291
G1 X94.032 Y176.322 E757.84379
G1 X94.032 Y177.206 E757.92417
G1 X57.168 Y140.343 E762.66505
G1 X57.168 Y141.226 E762.74542
G1 X94.032 Y178.09 E767.4863
G1 X94.032 Y178.973 E767.56668
G1 X57.168 Y142.11 E772.30756
G1 X57.168 Y142.994 E772.38793
G1 X94.032 Y179.857 E777.12881
G1 X94.032 Y179.932 E777.13558
G1 X93.222 Y179.932 E777.20919
G1 X57.168 Y143.878 E781.84597
G1 X57.168 Y144.762 E781.92634
G1 X92.338 Y179.932 E786.44946
G1 X91.455 Y179.932 E786.52984
G1 X57.168 Y145.645 E790.93929
G1 X57.168 Y146.529 E791.01966
G1 X90.571 Y179.932 E795.31545
G1 X89.687 Y179.932 E795.39582
G1 X57.168 Y147.413 E799.57794
G1 X57.168 Y148.297 E799.65832
G1 X88.803 Y179.932 E803.72677
G1 X87.919 Y179.932 E803.80715
G1 X57.168 Y149.181 E807.76194
G1 X57.168 Y150.065 E807.84231
G1 X87.035 Y179.932 E811.68343
G1 X86.152 Y179.932 E811.76381
G1 X57.168 Y150.948 E815.49126
G1 X57.168 Y151.832 E815.57164
G1 X85.268 Y179.932 E819.18543
G1 X84.384 Y179.932 E819.2658
G1 X57.168 Y152.716 E822.76592
G1 X57.168 Y153.6 E822.8463
G1 X83.5 Y179.932 E826.23275
G1 X82.616 Y179.932 E826.31313
G1 X57.168 Y154.484 E829.58592
G1 X57.168 Y155.368 E829.66629
G1 X81.732 Y179.932 E832.82542
G1 X80.849 Y179.932 E832.90579
G1 X57.168 Y156.251 E835.95125
G1 X57.168 Y157.135 E836.03163
G1 X79.965 Y179.932 E838.96342
G1 X79.081 Y179.932 E839.04379
G1 X57.168 Y158.019 E841.86192
G1 X57.168 Y158.903 E841.9423
G1 X78.197 Y179.932 E844.64676
G1 X77.313 Y179.932 E844.72713
G1 X57.168 Y159.787 E847.31793
G1 X57.168 Y160.67 E847.3983
G1 X76.43 Y179.932 E849.87543
G1 X75.546 Y179.932 E849.9558
G1 X57.168 Y161.554 E852.31927
G1 X57.168 Y162.438 E852.39964
G1 X74.662 Y179.932 E854.64944
G1 X73.778 Y179.932 E854.72981
G1 X57.168 Y163.322 E856.86594
G1 X57.168 Y164.206 E856.94632
G1 X72.894 Y179.932 E858.96878
G1 X72.01 Y179.932 E859.04915
G1 X57.168 Y165.09 E860.95795
G1 X57.168 Y165.973 E861.03833
G1 X71.127 Y179.932 E862.83346
G1 X70.243 Y179.932 E862.91383
G1 X57.168 Y166.857 E864.5953
G1 X57.168 Y167.741 E864.67567
G1 X69.359 Y179.932 E866.24347
G1 X68.475 Y179.932 E866.32385
G1 X57.168 Y168.625 E867.77798
G1 X57.168 Y169.509 E867.85836
G1 X67.591 Y179.932 E869.19882
G1 X66.708 Y179.932 E869.2792
G1 X57.168 Y170.392 E870.506
G1 X57.168 Y171.276 E870.58637
G1 X65.824 Y179.932 E871.69951
G1 X64.94 Y179.932 E871.77988
G1 X57.168 Y172.16 E872.77935
G1 X57.168 Y173.044 E872.85973
G1 X64.056 Y179.932 E873.74553
G1 X63.172 Y179.932 E873.82591
G1 X57.168 Y173.928 E874.59804
G1 X57.168 Y174.812 E874.67842
G1 X62.288 Y179.932 E875.33689
G1 X61.405 Y179.932 E875.41726
G1 X57.168 Y175.695 E875.96207
G1 X57.168 Y176.579 E876.04244
G1 X60.521 Y179.932 E876.47358
G1 X59.637 Y179.932 E876.55396
G1 X57.168 Y177.463 E876.87143
G1 X57.168 Y178.347 E876.9518
G1 X58.753 Y179.932 E877.15561
G1 X57.869 Y179.932 E877.23598
G1 X56.887 Y178.949 E877.36229
G1 E875.36229 F2400
G92 E0
G1 X108.7 Y178.4 F7800
G1 E2 F2400
;TYPE:Perimeter
;WIDTH:0.7
G1 F1800
G1 X108.7 Y20.6 E16.34872
G1 X143.3 Y20.6 E19.49492
G1 X143.3 Y178.4 E33.84364
G1 X108.76 Y178.4 E36.98439
G1 X108.075 Y179.025 F7800
G1 F1800
G1 X108.075 Y19.975 E51.44675
G1 X143.925 Y19.975 E54.70659
G1 X143.925 Y179.025 E69.16895
G1 X108.135 Y179.025 E72.42334
G1 X107.45 Y179.65 F7800
;TYPE:External perimeter
G1 F1800
G1 X107.45 Y19.35 E86.99934
G1 X144.55 Y19.35 E90.37283
G1 X144.55 Y179.65 E104.94883
G1 X107.51 Y179.65 E108.31686
G1 X107.48 Y179.251 F7800
G1 E106.31686 F2400
