; generated by PrusaSlicer 2.5.2+win64 on 2023-05-22 at 06:46:08 UTC


;
;

;
;

;
;
; 

; external perimeters extrusion width = 0.45mm
; perimeters extrusion width = 0.45mm
; infill extrusion width = 0.45mm
; solid infill extrusion width = 0.45mm
; top infill extrusion width = 0.45mm
; first layer extrusion width = 0.50mm

M73 P0 R249
M201 X2500 Y2500 Z200 E2500 ; sets maximum accelerations, mm/sec^2
M203 X200 Y200 Z40 E100 ; sets maximum feedrates, mm / sec
M204 P2000 R1200 T2000 ; sets acceleration (P, T) and retract acceleration (R), mm/sec^2
M205 X8.00 Y8.00 Z2.00 E10.00 ; sets the jerk limits, mm/sec
M205 S0 T0 ; sets the minimum extruding and travel feed rate, mm/sec
M107
;TYPE:Custom
M17 ; enable steppers
M862.3 P "MK4" ; printer model check
M862.1 P0.4 ; nozzle diameter check
M330 SYSLOG
M331 loadcell_raw
M331 loadcell_threshold
M331 loadcell_hysteresis
M331 loadcell_scale
M331 probe_z
M331 probe_z_raw
M331 probe_z_diff
M331 home_diff
M331 fsensor_raw
M331 temp_hbr
M331 temp_bed
M331 temp_noz
M331 temp_brd
M331 ttemp_bed
M331 ttemp_noz
M331 pos_z
M331 fan_speed
M331 fan_hbr_speed
M331 tmc_sg_x
M331 tmc_sg_y
M331 tmc_sg_z
M331 tmc_sg_e

M555 X50.6 Y21 W98.8 H154

G90 ; use absolute coordinates
M92 E380 ; set steps/mm for extruder
M83 ; extruder relative mode

M140 S60 ; set bed temp

M104 S170 ; set extruder temp for bed leveling
M109 R170 ; wait for temp


M84 E ; turn off E motor

G28 ; home all without mesh bed level

; probe to clean the nozzle
G1 X82.6 Y21 Z5 F4800

M302 S160 ; lower cold extrusion limit to 160C


G1 E-2 F2400 ; retraction


M84 E ; turn off E motor

G29 P9 X50.6 Y21 W32 H4

M106 S100

G0 X50.6 Y21 Z40 F10000

M190 S60 ; wait for bed temp

M107

;
; MBL
;
M84 E ; turn off E motor
G29 ; mesh bed leveling
M104 S215 ; set extruder temp
G0 X50.6 Y20.5 Z30 F4800

M109 S215 ; wait for extruder temp
G1 Z0.2 F720
G92 E0

M569 S0 E ; set spreadcycle mode for extruder

;
; Extrude purge line
;

G1 E2 F2400 ; deretraction


; move right
G1 X82.6 E4.8 F1000
; move down
G1 Y19 E0.225 F1000
; move left
G1 X50.6 E9.6 F800

G92 E0
M221 S100 ; set flow to 100%
G21 ; set units to millimeters
G90 ; use absolute coordinates
M83 ; use relative distances for extrusion
M900 K0.06 ; Filament gcode

M142 S36 ; set heatbreak target temp
M107
;LAYER_CHANGE
;Z:0.2
;HEIGHT:0.2
;BEFORE_LAYER_CHANGE
G92 E0.0
;0.2


G1 E-.8 F2100
G1 Z.2 F720
;AFTER_LAYER_CHANGE
;0.2
; printing object Taschenlampe lang AAA.stl id:0 copy 0
G1 Z.4
G1 X148.493 Y26.907 F12000
G1 Z.2 F720
G1 E.8 F1500
M204 P600
;TYPE:Perimeter
;WIDTH:0.499999
G1 F1200
G1 X148.493 Y174.093 E5.59399
G1 X109.307 Y174.093 E1.48931
G1 X109.307 Y26.907 E5.59399
G1 X148.433 Y26.907 E1.48703
M204 P1000
G1 X148.95 Y26.45 F12000
M204 P600
;TYPE:External perimeter
G1 F1200
G1 X148.95 Y174.55 E5.62873
G1 X108.85 Y174.55 E1.52405
G1 X108.85 Y26.45 E5.62873
G1 X148.89 Y26.45 E1.52177
M204 P1000
G1 X148.915 Y26.848 F12000
G1 E-.64 F2100
;WIPE_START
G1 F9600
G1 X148.89 Y27.181 E-.152
;WIPE_END
G1 E-.008 F2100
G1 Z.4 F720
G1 X147.363 Y27.113 F12000
G1 Z.2 F720
G1 E.8 F1500
M204 P600
;TYPE:Solid infill
;WIDTH:0.500298
G1 F1200
G1 X148.082 Y27.832 E.03867
G1 X148.082 Y28.478 E.0246
G1 X146.922 Y27.318 E.06239
G1 X146.275 Y27.318 E.0246
G1 X148.082 Y29.125 E.09718
G1 X148.082 Y29.772 E.0246
G1 X145.628 Y27.318 E.13197
G1 X144.981 Y27.318 E.0246
G1 X148.082 Y30.419 E.16676
G1 X148.082 Y31.066 E.0246
G1 X144.334 Y27.318 E.20155
G1 X143.687 Y27.318 E.0246
G1 X148.082 Y31.713 E.23634
G1 X148.082 Y32.359 E.0246
G1 X143.041 Y27.318 E.27113
G1 X142.394 Y27.318 E.0246
G1 X148.082 Y33.006 E.30592
G1 X148.082 Y33.653 E.0246
G1 X141.747 Y27.318 E.34071
G1 X141.1 Y27.318 E.0246
G1 X148.082 Y34.3 E.3755
G1 X148.082 Y34.947 E.0246
G1 X140.453 Y27.318 E.41029
G1 X139.806 Y27.318 E.0246
G1 X148.082 Y35.594 E.44507
G1 X148.082 Y36.24 E.0246
G1 X139.16 Y27.318 E.47986
G1 X138.513 Y27.318 E.0246
M73 P0 R248
G1 X148.082 Y36.887 E.51465
G1 X148.082 Y37.534 E.0246
G1 X137.866 Y27.318 E.54944
G1 X137.219 Y27.318 E.0246
G1 X148.082 Y38.181 E.58423
G1 X148.082 Y38.828 E.0246
G1 X136.572 Y27.318 E.61902
G1 X135.925 Y27.318 E.0246
G1 X148.082 Y39.475 E.65381
G1 X148.082 Y40.121 E.0246
G1 X135.279 Y27.318 E.6886
G1 X134.632 Y27.318 E.0246
G1 X148.082 Y40.768 E.72339
G1 X148.082 Y41.415 E.0246
G1 X133.985 Y27.318 E.75818
G1 X133.338 Y27.318 E.0246
G1 X148.082 Y42.062 E.79297
G1 X148.082 Y42.709 E.0246
G1 X132.691 Y27.318 E.82776
G1 X132.044 Y27.318 E.0246
G1 X148.082 Y43.356 E.86255
G1 X148.082 Y44.002 E.0246
G1 X131.398 Y27.318 E.89733
G1 X130.751 Y27.318 E.0246
G1 X148.082 Y44.649 E.93212
G1 X148.082 Y45.296 E.0246
G1 X130.104 Y27.318 E.96691
G1 X129.457 Y27.318 E.0246
G1 X148.082 Y45.943 E1.0017
G1 X148.082 Y46.59 E.0246
G1 X128.81 Y27.318 E1.03649
G1 X128.163 Y27.318 E.0246
G1 X148.082 Y47.237 E1.07128
G1 X148.082 Y47.883 E.0246
G1 X127.517 Y27.318 E1.10607
G1 X126.87 Y27.318 E.0246
G1 X148.082 Y48.53 E1.14086
G1 X148.082 Y49.177 E.0246
G1 X126.223 Y27.318 E1.17565
G1 X125.576 Y27.318 E.0246
G1 X148.082 Y49.824 E1.21044
G1 X148.082 Y50.471 E.0246
G1 X124.929 Y27.318 E1.24523
G1 X124.282 Y27.318 E.0246
G1 X148.082 Y51.118 E1.28002
G1 X148.082 Y51.764 E.0246
G1 X123.636 Y27.318 E1.3148
G1 X122.989 Y27.318 E.0246
G1 X148.082 Y52.411 E1.34959
G1 X148.082 Y53.058 E.0246
G1 X122.342 Y27.318 E1.38438
G1 X121.695 Y27.318 E.0246
G1 X148.082 Y53.705 E1.41917
G1 X148.082 Y54.352 E.0246
G1 X121.048 Y27.318 E1.45396
G1 X120.401 Y27.318 E.0246
G1 X148.082 Y54.999 E1.48875
G1 X148.082 Y55.645 E.0246
G1 X119.755 Y27.318 E1.52354
G1 X119.108 Y27.318 E.0246
G1 X148.082 Y56.292 E1.55833
G1 X148.082 Y56.939 E.0246
G1 X118.461 Y27.318 E1.59312
G1 X117.814 Y27.318 E.0246
G1 X148.082 Y57.586 E1.62791
G1 X148.082 Y58.233 E.0246
G1 X117.167 Y27.318 E1.6627
G1 X116.52 Y27.318 E.0246
G1 X148.082 Y58.88 E1.69749
G1 X148.082 Y59.526 E.0246
G1 X115.874 Y27.318 E1.73228
G1 X115.227 Y27.318 E.0246
G1 X148.082 Y60.173 E1.76706
G1 X148.082 Y60.82 E.0246
G1 X114.58 Y27.318 E1.80185
G1 X113.933 Y27.318 E.0246
G1 X148.082 Y61.467 E1.83664
G1 X148.082 Y62.114 E.0246
M73 P0 R247
G1 X113.286 Y27.318 E1.87143
G1 X112.64 Y27.318 E.0246
G1 X148.082 Y62.76 E1.90622
G1 X148.082 Y63.407 E.0246
G1 X111.993 Y27.318 E1.94101
G1 X111.346 Y27.318 E.0246
G1 X148.082 Y64.054 E1.9758
G1 X148.082 Y64.701 E.0246
G1 X110.699 Y27.318 E2.01059
G1 X110.052 Y27.318 E.0246
G1 X148.082 Y65.348 E2.04538
G1 X148.082 Y65.995 E.0246
G1 X109.718 Y27.632 E2.06333
G1 X109.718 Y28.278 E.0246
G1 X148.082 Y66.641 E2.06333
G1 X148.082 Y67.288 E.0246
G1 X109.718 Y28.925 E2.06333
G1 X109.718 Y29.572 E.0246
G1 X148.082 Y67.935 E2.06333
G1 X148.082 Y68.582 E.0246
G1 X109.718 Y30.219 E2.06333
G1 X109.718 Y30.866 E.0246
G1 X148.082 Y69.229 E2.06333
G1 X148.082 Y69.876 E.0246
G1 X109.718 Y31.512 E2.06333
G1 X109.718 Y32.159 E.0246
G1 X148.082 Y70.522 E2.06333
G1 X148.082 Y71.169 E.0246
M73 P1 R247
G1 X109.718 Y32.806 E2.06333
G1 X109.718 Y33.453 E.0246
G1 X148.082 Y71.816 E2.06333
G1 X148.082 Y72.463 E.0246
G1 X109.718 Y34.1 E2.06333
G1 X109.718 Y34.747 E.0246
G1 X148.082 Y73.11 E2.06333
G1 X148.082 Y73.757 E.0246
G1 X109.718 Y35.393 E2.06333
G1 X109.718 Y36.04 E.0246
G1 X148.082 Y74.403 E2.06333
G1 X148.082 Y75.05 E.0246
G1 X109.718 Y36.687 E2.06333
G1 X109.718 Y37.334 E.0246
G1 X148.082 Y75.697 E2.06333
G1 X148.082 Y76.344 E.0246
M73 P1 R246
G1 X109.718 Y37.981 E2.06333
G1 X109.718 Y38.628 E.0246
G1 X148.082 Y76.991 E2.06333
G1 X148.082 Y77.638 E.0246
G1 X109.718 Y39.274 E2.06333
G1 X109.718 Y39.921 E.0246
G1 X148.082 Y78.284 E2.06333
G1 X148.082 Y78.931 E.0246
G1 X109.718 Y40.568 E2.06333
G1 X109.718 Y41.215 E.0246
G1 X148.082 Y79.578 E2.06333
G1 X148.082 Y80.225 E.0246
G1 X109.718 Y41.862 E2.06333
G1 X109.718 Y42.509 E.0246
G1 X148.082 Y80.872 E2.06333
G1 X148.082 Y81.519 E.0246
G1 X109.718 Y43.155 E2.06333
G1 X109.718 Y43.802 E.0246
G1 X148.082 Y82.165 E2.06333
G1 X148.082 Y82.812 E.0246
G1 X109.718 Y44.449 E2.06333
G1 X109.718 Y45.096 E.0246
G1 X148.082 Y83.459 E2.06333
G1 X148.082 Y84.106 E.0246
G1 X109.718 Y45.743 E2.06333
G1 X109.718 Y46.39 E.0246
G1 X148.082 Y84.753 E2.06333
G1 X148.082 Y85.4 E.0246
G1 X109.718 Y47.036 E2.06333
G1 X109.718 Y47.683 E.0246
G1 X148.082 Y86.046 E2.06333
G1 X148.082 Y86.693 E.0246
G1 X109.718 Y48.33 E2.06333
G1 X109.718 Y48.977 E.0246
G1 X148.082 Y87.34 E2.06333
G1 X148.082 Y87.987 E.0246
G1 X109.718 Y49.624 E2.06333
G1 X109.718 Y50.271 E.0246
G1 X148.082 Y88.634 E2.06333
G1 X148.082 Y89.281 E.0246
G1 X109.718 Y50.917 E2.06333
G1 X109.718 Y51.564 E.0246
G1 X148.082 Y89.927 E2.06333
G1 X148.082 Y90.574 E.0246
M73 P1 R245
G1 X109.718 Y52.211 E2.06333
G1 X109.718 Y52.858 E.0246
G1 X148.082 Y91.221 E2.06333
G1 X148.082 Y91.868 E.0246
G1 X109.718 Y53.505 E2.06333
G1 X109.718 Y54.152 E.0246
G1 X148.082 Y92.515 E2.06333
G1 X148.082 Y93.162 E.0246
G1 X109.718 Y54.798 E2.06333
G1 X109.718 Y55.445 E.0246
G1 X148.082 Y93.808 E2.06333
G1 X148.082 Y94.455 E.0246
G1 X109.718 Y56.092 E2.06333
G1 X109.718 Y56.739 E.0246
G1 X148.082 Y95.102 E2.06333
G1 X148.082 Y95.749 E.0246
G1 X109.718 Y57.386 E2.06333
G1 X109.718 Y58.033 E.0246
G1 X148.082 Y96.396 E2.06333
G1 X148.082 Y97.042 E.0246
G1 X109.718 Y58.679 E2.06333
G1 X109.718 Y59.326 E.0246
G1 X148.082 Y97.689 E2.06333
G1 X148.082 Y98.336 E.0246
G1 X109.718 Y59.973 E2.06333
G1 X109.718 Y60.62 E.0246
G1 X148.082 Y98.983 E2.06333
G1 X148.082 Y99.63 E.0246
G1 X109.718 Y61.267 E2.06333
G1 X109.718 Y61.914 E.0246
G1 X148.082 Y100.277 E2.06333
G1 X148.082 Y100.923 E.0246
G1 X109.718 Y62.56 E2.06333
G1 X109.718 Y63.207 E.0246
G1 X148.082 Y101.57 E2.06333
G1 X148.082 Y102.217 E.0246
G1 X109.718 Y63.854 E2.06333
G1 X109.718 Y64.501 E.0246
G1 X148.082 Y102.864 E2.06333
G1 X148.082 Y103.511 E.0246
G1 X109.718 Y65.148 E2.06333
G1 X109.718 Y65.794 E.0246
G1 X148.082 Y104.158 E2.06333
G1 X148.082 Y104.804 E.0246
M73 P1 R244
G1 X109.718 Y66.441 E2.06333
G1 X109.718 Y67.088 E.0246
G1 X148.082 Y105.451 E2.06333
G1 X148.082 Y106.098 E.0246
M73 P2 R244
G1 X109.718 Y67.735 E2.06333
G1 X109.718 Y68.382 E.0246
G1 X148.082 Y106.745 E2.06333
G1 X148.082 Y107.392 E.0246
G1 X109.718 Y69.029 E2.06333
G1 X109.718 Y69.675 E.0246
G1 X148.082 Y108.039 E2.06333
G1 X148.082 Y108.685 E.0246
G1 X109.718 Y70.322 E2.06333
G1 X109.718 Y70.969 E.0246
G1 X148.082 Y109.332 E2.06333
G1 X148.082 Y109.979 E.0246
G1 X109.718 Y71.616 E2.06333
G1 X109.718 Y72.263 E.0246
G1 X148.082 Y110.626 E2.06333
G1 X148.082 Y111.273 E.0246
G1 X109.718 Y72.91 E2.06333
G1 X109.718 Y73.556 E.0246
G1 X148.082 Y111.92 E2.06333
G1 X148.082 Y112.566 E.0246
G1 X109.718 Y74.203 E2.06333
G1 X109.718 Y74.85 E.0246
G1 X148.082 Y113.213 E2.06333
G1 X148.082 Y113.86 E.0246
G1 X109.718 Y75.497 E2.06333
G1 X109.718 Y76.144 E.0246
G1 X148.082 Y114.507 E2.06333
G1 X148.082 Y115.154 E.0246
G1 X109.718 Y76.791 E2.06333
G1 X109.718 Y77.437 E.0246
G1 X148.082 Y115.801 E2.06333
G1 X148.082 Y116.447 E.0246
G1 X109.718 Y78.084 E2.06333
G1 X109.718 Y78.731 E.0246
G1 X148.082 Y117.094 E2.06333
G1 X148.082 Y117.741 E.0246
G1 X109.718 Y79.378 E2.06333
G1 X109.718 Y80.025 E.0246
M73 P2 R243
G1 X148.082 Y118.388 E2.06333
G1 X148.082 Y119.035 E.0246
G1 X109.718 Y80.672 E2.06333
G1 X109.718 Y81.318 E.0246
G1 X148.082 Y119.682 E2.06333
G1 X148.082 Y120.328 E.0246
G1 X109.718 Y81.965 E2.06333
G1 X109.718 Y82.612 E.0246
G1 X148.082 Y120.975 E2.06333
G1 X148.082 Y121.622 E.0246
G1 X109.718 Y83.259 E2.06333
G1 X109.718 Y83.906 E.0246
G1 X148.082 Y122.269 E2.06333
G1 X148.082 Y122.916 E.0246
G1 X109.718 Y84.553 E2.06333
G1 X109.718 Y85.199 E.0246
G1 X148.082 Y123.563 E2.06333
G1 X148.082 Y124.209 E.0246
G1 X109.718 Y85.846 E2.06333
G1 X109.718 Y86.493 E.0246
G1 X148.082 Y124.856 E2.06333
G1 X148.082 Y125.503 E.0246
G1 X109.718 Y87.14 E2.06333
G1 X109.718 Y87.787 E.0246
G1 X148.082 Y126.15 E2.06333
G1 X148.082 Y126.797 E.0246
G1 X109.718 Y88.434 E2.06333
G1 X109.718 Y89.08 E.0246
G1 X148.082 Y127.444 E2.06333
G1 X148.082 Y128.09 E.0246
G1 X109.718 Y89.727 E2.06333
G1 X109.718 Y90.374 E.0246
G1 X148.082 Y128.737 E2.06333
G1 X148.082 Y129.384 E.0246
G1 X109.718 Y91.021 E2.06333
G1 X109.718 Y91.668 E.0246
G1 X148.082 Y130.031 E2.06333
G1 X148.082 Y130.678 E.0246
G1 X109.718 Y92.315 E2.06333
G1 X109.718 Y92.961 E.0246
G1 X148.082 Y131.324 E2.06333
G1 X148.082 Y131.971 E.0246
G1 X109.718 Y93.608 E2.06333
G1 X109.718 Y94.255 E.0246
M73 P2 R242
G1 X148.082 Y132.618 E2.06333
G1 X148.082 Y133.265 E.0246
G1 X109.718 Y94.902 E2.06333
G1 X109.718 Y95.549 E.0246
G1 X148.082 Y133.912 E2.06333
G1 X148.082 Y134.559 E.0246
G1 X109.718 Y96.196 E2.06333
G1 X109.718 Y96.842 E.0246
G1 X148.082 Y135.205 E2.06333
G1 X148.082 Y135.852 E.0246
G1 X109.718 Y97.489 E2.06333
G1 X109.718 Y98.136 E.0246
G1 X148.082 Y136.499 E2.06333
G1 X148.082 Y137.146 E.0246
G1 X109.718 Y98.783 E2.06333
G1 X109.718 Y99.43 E.0246
G1 X148.082 Y137.793 E2.06333
G1 X148.082 Y138.44 E.0246
G1 X109.718 Y100.076 E2.06333
G1 X109.718 Y100.723 E.0246
G1 X148.082 Y139.086 E2.06333
G1 X148.082 Y139.733 E.0246
G1 X109.718 Y101.37 E2.06333
G1 X109.718 Y102.017 E.0246
G1 X148.082 Y140.38 E2.06333
G1 X148.082 Y141.027 E.0246
G1 X109.718 Y102.664 E2.06333
G1 X109.718 Y103.311 E.0246
M73 P3 R242
G1 X148.082 Y141.674 E2.06333
G1 X148.082 Y142.321 E.0246
G1 X109.718 Y103.957 E2.06333
G1 X109.718 Y104.604 E.0246
G1 X148.082 Y142.967 E2.06333
G1 X148.082 Y143.614 E.0246
G1 X109.718 Y105.251 E2.06333
G1 X109.718 Y105.898 E.0246
G1 X148.082 Y144.261 E2.06333
G1 X148.082 Y144.908 E.0246
G1 X109.718 Y106.545 E2.06333
G1 X109.718 Y107.192 E.0246
G1 X148.082 Y145.555 E2.06333
G1 X148.082 Y146.202 E.0246
G1 X109.718 Y107.838 E2.06333
G1 X109.718 Y108.485 E.0246
M73 P3 R241
G1 X148.082 Y146.848 E2.06333
G1 X148.082 Y147.495 E.0246
G1 X109.718 Y109.132 E2.06333
G1 X109.718 Y109.779 E.0246
G1 X148.082 Y148.142 E2.06333
G1 X148.082 Y148.789 E.0246
G1 X109.718 Y110.426 E2.06333
G1 X109.718 Y111.073 E.0246
G1 X148.082 Y149.436 E2.06333
G1 X148.082 Y150.083 E.0246
G1 X109.718 Y111.719 E2.06333
G1 X109.718 Y112.366 E.0246
G1 X148.082 Y150.729 E2.06333
G1 X148.082 Y151.376 E.0246
G1 X109.718 Y113.013 E2.06333
G1 X109.718 Y113.66 E.0246
G1 X148.082 Y152.023 E2.06333
G1 X148.082 Y152.67 E.0246
G1 X109.718 Y114.307 E2.06333
G1 X109.718 Y114.954 E.0246
G1 X148.082 Y153.317 E2.06333
G1 X148.082 Y153.964 E.0246
G1 X109.718 Y115.6 E2.06333
G1 X109.718 Y116.247 E.0246
G1 X148.082 Y154.61 E2.06333
G1 X148.082 Y155.257 E.0246
G1 X109.718 Y116.894 E2.06333
G1 X109.718 Y117.541 E.0246
G1 X148.082 Y155.904 E2.06333
G1 X148.082 Y156.551 E.0246
G1 X109.718 Y118.188 E2.06333
G1 X109.718 Y118.835 E.0246
G1 X148.082 Y157.198 E2.06333
G1 X148.082 Y157.845 E.0246
G1 X109.718 Y119.481 E2.06333
G1 X109.718 Y120.128 E.0246
G1 X148.082 Y158.491 E2.06333
G1 X148.082 Y159.138 E.0246
G1 X109.718 Y120.775 E2.06333
G1 X109.718 Y121.422 E.0246
G1 X148.082 Y159.785 E2.06333
G1 X148.082 Y160.432 E.0246
G1 X109.718 Y122.069 E2.06333
G1 X109.718 Y122.716 E.0246
M73 P3 R240
G1 X148.082 Y161.079 E2.06333
G1 X148.082 Y161.726 E.0246
G1 X109.718 Y123.362 E2.06333
G1 X109.718 Y124.009 E.0246
G1 X148.082 Y162.372 E2.06333
G1 X148.082 Y163.019 E.0246
G1 X109.718 Y124.656 E2.06333
G1 X109.718 Y125.303 E.0246
G1 X148.082 Y163.666 E2.06333
G1 X148.082 Y164.313 E.0246
G1 X109.718 Y125.95 E2.06333
G1 X109.718 Y126.597 E.0246
G1 X148.082 Y164.96 E2.06333
G1 X148.082 Y165.606 E.0246
G1 X109.718 Y127.243 E2.06333
G1 X109.718 Y127.89 E.0246
G1 X148.082 Y166.253 E2.06333
G1 X148.082 Y166.9 E.0246
G1 X109.718 Y128.537 E2.06333
G1 X109.718 Y129.184 E.0246
G1 X148.082 Y167.547 E2.06333
G1 X148.082 Y168.194 E.0246
G1 X109.718 Y129.831 E2.06333
G1 X109.718 Y130.478 E.0246
G1 X148.082 Y168.841 E2.06333
G1 X148.082 Y169.487 E.0246
G1 X109.718 Y131.124 E2.06333
G1 X109.718 Y131.771 E.0246
G1 X148.082 Y170.134 E2.06333
G1 X148.082 Y170.781 E.0246
G1 X109.718 Y132.418 E2.06333
G1 X109.718 Y133.065 E.0246
G1 X148.082 Y171.428 E2.06333
G1 X148.082 Y172.075 E.0246
G1 X109.718 Y133.712 E2.06333
G1 X109.718 Y134.358 E.0246
G1 X148.082 Y172.722 E2.06333
G1 X148.082 Y173.368 E.0246
G1 X109.718 Y135.005 E2.06333
