; generated by PrusaSlicer 2.5.2+win64 on 2023-12-14 at 12:08:18 UTC


;
;
; 

; external perimeters extrusion width = 0.60mm
; perimeters extrusion width = 0.50mm
; infill extrusion width = 0.50mm
; solid infill extrusion width = 0.50mm
; top infill extrusion width = 0.45mm
; first layer extrusion width = 0.42mm

M73 P0 R50
M73 Q0 S50
M201 X1000 Y1000 Z200 E5000 ; sets maximum accelerations, mm/sec^2
M203 X200 Y200 Z12 E120 ; sets maximum feedrates, mm / sec
M204 P1250 R1250 T1250 ; sets acceleration (P, T) and retract acceleration (R), mm/sec^2
M205 X8.00 Y8.00 Z0.40 E4.50 ; sets the jerk limits, mm/sec
M205 S0 T0 ; sets the minimum extruding and travel feed rate, mm/sec
M107
;TYPE:Custom
M862.3 P "MK3S" ; printer model check
M862.1 P0.4 ; nozzle diameter check
M115 U3.11.0 ; tell printer latest fw version
G90 ; use absolute coordinates
M83 ; extruder relative mode
M104 S215 ; set extruder temp
M140 S60 ; set bed temp
M190 S60 ; wait for bed temp
M109 S215 ; wait for extruder temp
G28 W ; home all without mesh bed level
G80 ; mesh bed leveling

G1 Z0.2 F720
G1 Y-3 F1000 ; go outside print area
G92 E0
G1 X60 E9 F1000 ; intro line
G1 X100 E12.5 F1000 ; intro line

G92 E0
M221 S95

; Don't change E values below. Excessive value can damage the printer.

M907 E538 ; set extruder motor current
G21 ; set units to millimeters
G90 ; use absolute coordinates
M83 ; use relative distances for extrusion
M900 K0.05 ; Filament gcode LA 1.5
M900 K30 ; Filament gcode LA 1.0
M107
;LAYER_CHANGE
;Z:0.2
;HEIGHT:0.2
;BEFORE_LAYER_CHANGE
G92 E0.0
;0.2


G1 E-.8 F2100
G1 Z.4 F720
;AFTER_LAYER_CHANGE
;0.2
G1 X65.517 Y65.795 F10800
G1 Z.2 F720
G1 E.8 F2100
M204 S800
;TYPE:Skirt/Brim
;WIDTH:0.42
G1 F1200
G1 X96.249 Y39.069 E1.27698
G1 X97.809 Y38.485 E.05222
G1 X107.167 Y38.485 E.29344
G1 X108.798 Y39.133 E.055
G1 X181.769 Y107.909 E3.14403
G1 X184.938 Y111.077 E.14051
G1 X185.635 Y112.757 E.05704
G1 X185.635 Y118.996 E.19562
G1 X185.457 Y119.899 E.02883
G1 X166.943 Y165.04 E1.52978
G1 X166.425 Y165.818 E.02932
G1 X163.306 Y168.938 E.13832
G1 X161.724 Y169.633 E.05417
G1 X116.748 Y171.513 E1.41142
G1 X107.291 Y171.515 E.29653
G1 X106.152 Y171.224 E.03683
G1 X71.843 Y152.51 E1.22536
G1 X70.696 Y151.077 E.05757
G1 X64.457 Y129.244 E.71196
G1 X64.365 Y128.59 E.02068
G1 X64.365 Y119.217 E.2939
G1 X64.699 Y67.573 E1.6193
G1 X65.492 Y65.849 E.05948
M204 S1000
; printing object minecraft_tools_with_keychain_hole_plus_hoe.stl id:0 copy 0
;WIPE_START
M73 P0 R49
G1 F8640
G1 X67.974 Y63.688 E-.76
;WIPE_END
G1 E-.04 F2100
G1 Z.6 F720
G1 X82.033 Y143.421 F10800
G1 Z.2 F720
G1 E.8 F2100
M204 S800
;TYPE:Perimeter
;WIDTH:0.419999
G1 F1200
G1 X81.837 Y143.473 E.00636
G1 X81.633 Y143.673 E.00895
G1 X81.552 Y143.964 E.00947
G1 X81.552 Y146.517 E.08006
G1 X78.888 Y146.528 E.08354
G1 X78.635 Y146.65 E.00879
G1 X78.493 Y146.83 E.0072
G1 X78.433 Y147.083 E.00815
G1 X78.433 Y149.636 E.08006
G1 X73.769 Y149.636 E.14626
G1 X73.769 Y144.972 E.14626
G1 X76.433 Y144.961 E.08354
G1 X76.686 Y144.839 E.00879
G1 X76.828 Y144.659 E.0072
G1 X76.888 Y144.406 E.00815
G1 X76.888 Y138.734 E.17785
G1 X79.441 Y138.734 E.08006
G1 X79.595 Y138.712 E.00487
G1 X79.798 Y138.607 E.00717
G1 X79.939 Y138.437 E.00693
G1 X80.007 Y138.168 E.00869
G1 X79.996 Y134.496 E.11513
G1 X79.874 Y134.243 E.00879
M73 Q1 S50
G1 X79.694 Y134.101 E.0072
G1 X79.441 Y134.041 E.00815
G1 X76.888 Y134.041 E.08006
G1 X76.877 Y131.377 E.08354
G1 X76.755 Y131.124 E.00879
M73 P1 R49
G1 X76.575 Y130.982 E.0072
G1 X76.322 Y130.922 E.00815
G1 X73.769 Y130.922 E.08006
G1 X73.769 Y128.59 E.07313
G1 X73.74 Y128.191 E.01255
G1 X73.636 Y128.005 E.00665
G1 X73.457 Y127.864 E.00716
G1 X73.204 Y127.803 E.00815
G1 X67.53 Y127.803 E.17792
G1 X67.53 Y120.02 E.24406
G1 X75.314 Y120.02 E.24409
G1 X75.314 Y125.692 E.17785
G1 X75.375 Y125.946 E.00819
G1 X75.481 Y126.093 E.00568
G1 X75.702 Y126.229 E.00813
G1 X75.88 Y126.258 E.00567
G1 X78.433 Y126.258 E.08006
G1 X78.444 Y128.922 E.08354
G1 X78.566 Y129.175 E.00879
G1 X78.746 Y129.317 E.0072
G1 X78.999 Y129.377 E.00815
G1 X81.552 Y129.377 E.08006
G1 X81.563 Y132.041 E.08354
G1 X81.685 Y132.294 E.00879
G1 X81.865 Y132.436 E.0072
G1 X82.118 Y132.496 E.00815
G1 X85.458 Y132.496 E.10472
G1 X85.851 Y132.469 E.01234
G1 X86.046 Y132.361 E.00699
G1 X86.17 Y132.211 E.0061
G1 X86.245 Y131.93 E.00912
G1 X86.245 Y129.377 E.08006
G1 X92.028 Y129.366 E.18133
G1 X92.281 Y129.244 E.00879
G1 X92.423 Y129.064 E.0072
G1 X92.483 Y128.811 E.00815
G1 X92.483 Y126.258 E.08006
G1 X97.147 Y126.258 E.14626
G1 X97.147 Y130.922 E.14626
G1 X94.483 Y130.933 E.08354
G1 X94.23 Y131.055 E.00879
G1 X94.088 Y131.235 E.0072
G1 X94.028 Y131.488 E.00815
G1 X94.028 Y134.041 E.08006
G1 X91.475 Y134.041 E.08006
G1 X91.184 Y134.122 E.00947
G1 X90.984 Y134.326 E.00895
G1 X90.909 Y134.607 E.00912
G1 X90.909 Y137.726 E.09779
G1 X90.925 Y138.299 E.01797
G1 X91.042 Y138.532 E.00816
G1 X91.228 Y138.677 E.0074
G1 X91.475 Y138.734 E.00796
G1 X94.028 Y138.734 E.08006
G1 X94.037 Y141.385 E.08315
G1 X94.13 Y141.61 E.00762
G1 X94.353 Y141.798 E.00915
G1 X94.594 Y141.853 E.00776
G1 X97.147 Y141.853 E.08006
G1 X97.156 Y144.504 E.08315
G1 X97.249 Y144.729 E.00762
G1 X97.472 Y144.917 E.00915
G1 X97.713 Y144.972 E.00776
G1 X100.266 Y144.972 E.08006
G1 X100.275 Y147.623 E.08315
G1 X100.368 Y147.848 E.00762
G1 X100.591 Y148.036 E.00915
G1 X100.832 Y148.091 E.00776
G1 X103.385 Y148.091 E.08006
G1 X103.394 Y150.742 E.08315
G1 X103.487 Y150.967 E.00762
G1 X103.71 Y151.155 E.00915
G1 X103.951 Y151.21 E.00776
G1 X106.504 Y151.21 E.08006
G1 X106.504 Y153.763 E.08006
G1 X106.513 Y153.861 E.0031
G1 X106.606 Y154.086 E.00762
G1 X106.829 Y154.274 E.00915
G1 X107.07 Y154.329 E.00776
G1 X109.623 Y154.329 E.08006
G1 X109.623 Y156.882 E.08006
G1 X109.632 Y156.98 E.0031
G1 X109.725 Y157.205 E.00762
G1 X109.948 Y157.393 E.00915
G1 X110.189 Y157.448 E.00776
G1 X112.742 Y157.448 E.08006
G1 X112.742 Y160.001 E.08006
G1 X112.751 Y160.099 E.0031
G1 X112.84 Y160.318 E.00739
G1 X113.051 Y160.505 E.00885
G1 X113.308 Y160.567 E.00829
G1 X115.861 Y160.567 E.08006
G1 X115.861 Y168.35 E.24406
G1 X108.078 Y168.35 E.24406
G1 X108.078 Y165.797 E.08006
G1 X108.069 Y165.697 E.00315
G1 X107.967 Y165.462 E.00803
G1 X107.75 Y165.284 E.0088
G1 X107.512 Y165.231 E.00765
G1 X104.959 Y165.231 E.08006
G1 X104.959 Y162.678 E.08006
G1 X104.95 Y162.58 E.0031
G1 X104.857 Y162.355 E.00762
G1 X104.634 Y162.167 E.00915
G1 X104.393 Y162.112 E.00776
G1 X101.84 Y162.112 E.08006
G1 X101.84 Y159.559 E.08006
G1 X101.831 Y159.461 E.0031
G1 X101.738 Y159.236 E.00762
G1 X101.515 Y159.048 E.00915
G1 X101.274 Y158.993 E.00776
G1 X98.721 Y158.993 E.08006
G1 X98.721 Y156.44 E.08006
G1 X98.712 Y156.342 E.0031
G1 X98.619 Y156.117 E.00762
G1 X98.396 Y155.929 E.00915
G1 X98.155 Y155.874 E.00776
G1 X95.602 Y155.874 E.08006
G1 X95.602 Y153.321 E.08006
G1 X95.593 Y153.223 E.0031
G1 X95.5 Y152.998 E.00762
G1 X95.277 Y152.81 E.00915
G1 X95.036 Y152.755 E.00776
G1 X92.483 Y152.755 E.08006
G1 X92.483 Y150.202 E.08006
G1 X92.474 Y150.104 E.0031
G1 X92.381 Y149.879 E.00762
G1 X92.158 Y149.691 E.00915
G1 X91.917 Y149.636 E.00776
G1 X89.364 Y149.636 E.08006
G1 X89.355 Y146.985 E.08315
G1 X89.262 Y146.76 E.00762
G1 X89.039 Y146.572 E.00915
G1 X88.798 Y146.517 E.00776
G1 X86.245 Y146.517 E.08006
G1 X86.245 Y143.964 E.08006
G1 X86.236 Y143.866 E.0031
G1 X86.112 Y143.6 E.00917
G1 X85.891 Y143.44 E.00856
G1 X85.679 Y143.398 E.00679
G1 X82.091 Y143.406 E.1125
M204 S1000
M73 Q1 S49
G1 X82.118 Y143.776 F10800
M204 S800
;TYPE:External perimeter
G1 F1200
G1 X81.985 Y143.83 E.00451
G1 X81.93 Y143.964 E.00454
G1 X81.93 Y146.894 E.09188
G1 X78.999 Y146.894 E.09188
G1 X78.878 Y146.939 E.00404
G1 X78.811 Y147.083 E.005
G1 X78.811 Y150.014 E.09188
G1 X73.391 Y150.014 E.16991
G1 X73.391 Y144.594 E.16991
G1 X76.322 Y144.594 E.09188
G1 X76.443 Y144.55 E.00404
G1 X76.51 Y144.406 E.005
G1 X76.51 Y138.356 E.18968
G1 X79.441 Y138.356 E.09188
G1 X79.56 Y138.314 E.00396
G1 X79.629 Y138.168 E.00508
G1 X79.629 Y134.607 E.11165
G1 X79.585 Y134.486 E.00404
G1 X79.441 Y134.418 E.005
G1 X76.51 Y134.418 E.09188
G1 X76.51 Y131.488 E.09188
G1 X76.466 Y131.367 E.00404
G1 X76.322 Y131.299 E.005
G1 X73.392 Y131.299 E.09188
G1 X73.391 Y128.369 E.09188
G1 X73.347 Y128.248 E.00404
G1 X73.203 Y128.18 E.00498
G1 X67.153 Y128.18 E.18972
G1 X67.153 Y119.642 E.2677
G1 X75.692 Y119.642 E.26773
G1 X75.692 Y125.692 E.18968
G1 X75.747 Y125.826 E.00454
G1 X75.88 Y125.88 E.00451
G1 X78.811 Y125.88 E.09188
G1 X78.811 Y128.811 E.09188
G1 X78.855 Y128.932 E.00404
G1 X78.999 Y128.999 E.005
G1 X81.93 Y128.999 E.09188
G1 X81.93 Y131.93 E.09188
G1 X81.974 Y132.051 E.00404
G1 X82.118 Y132.118 E.005
G1 X85.679 Y132.118 E.11165
G1 X85.801 Y132.074 E.00408
G1 X85.867 Y131.93 E.00496
G1 X85.867 Y128.999 E.09188
G1 X91.917 Y128.999 E.18968
G1 X92.038 Y128.955 E.00404
G1 X92.105 Y128.811 E.005
G1 X92.105 Y125.88 E.09188
G1 X97.525 Y125.88 E.16991
G1 X97.525 Y131.299 E.16991
G1 X94.594 Y131.299 E.09188
G1 X94.473 Y131.344 E.00404
G1 X94.406 Y131.488 E.005
G1 X94.406 Y134.418 E.09188
G1 X91.475 Y134.418 E.09188
G1 X91.341 Y134.474 E.00454
G1 X91.286 Y134.607 E.00451
G1 X91.286 Y138.168 E.11165
G1 X91.331 Y138.289 E.00404
G1 X91.475 Y138.356 E.005
G1 X94.406 Y138.356 E.09188
G1 X94.406 Y141.287 E.09188
G1 X94.45 Y141.408 E.00404
G1 X94.594 Y141.475 E.005
G1 X97.525 Y141.475 E.09188
G1 X97.525 Y144.406 E.09188
G1 X97.569 Y144.527 E.00404
G1 X97.713 Y144.594 E.005
G1 X100.644 Y144.594 E.09188
G1 X100.644 Y147.525 E.09188
G1 X100.688 Y147.646 E.00404
G1 X100.832 Y147.713 E.005
G1 X103.763 Y147.713 E.09188
G1 X103.763 Y150.644 E.09188
G1 X103.807 Y150.765 E.00404
G1 X103.951 Y150.832 E.005
G1 X106.882 Y150.832 E.09188
G1 X106.882 Y153.763 E.09188
G1 X106.926 Y153.884 E.00404
G1 X107.07 Y153.951 E.005
G1 X110.001 Y153.951 E.09188
G1 X110.001 Y156.882 E.09188
G1 X110.045 Y157.003 E.00404
G1 X110.189 Y157.07 E.005
G1 X113.12 Y157.07 E.09188
G1 X113.12 Y160.001 E.09188
G1 X113.164 Y160.122 E.00404
G1 X113.308 Y160.189 E.005
G1 X116.239 Y160.189 E.09188
G1 X116.239 Y168.727 E.2677
G1 X107.7 Y168.727 E.2677
G1 X107.7 Y165.797 E.09188
G1 X107.656 Y165.676 E.00404
G1 X107.512 Y165.609 E.005
G1 X104.582 Y165.609 E.09188
G1 X104.582 Y162.678 E.09188
G1 X104.537 Y162.557 E.00404
G1 X104.393 Y162.489 E.005
G1 X101.462 Y162.489 E.09188
G1 X101.462 Y159.559 E.09188
G1 X101.418 Y159.438 E.00404
G1 X101.274 Y159.37 E.005
G1 X98.343 Y159.37 E.09188
G1 X98.343 Y156.44 E.09188
G1 X98.299 Y156.319 E.00404
G1 X98.155 Y156.252 E.005
G1 X95.224 Y156.252 E.09188
G1 X95.224 Y153.321 E.09188
G1 X95.18 Y153.2 E.00404
G1 X95.036 Y153.132 E.005
G1 X92.105 Y153.132 E.09188
G1 X92.105 Y150.202 E.09188
G1 X92.061 Y150.081 E.00404
G1 X91.917 Y150.014 E.005
G1 X88.986 Y150.014 E.09188
G1 X88.986 Y147.083 E.09188
G1 X88.942 Y146.962 E.00404
G1 X88.798 Y146.894 E.005
G1 X85.867 Y146.894 E.09188
G1 X85.867 Y143.964 E.09188
G1 X85.823 Y143.843 E.00404
G1 X85.679 Y143.776 E.005
G1 X82.178 Y143.776 E.10977
M204 S1000
G1 X82.017 Y143.673 F10800
;WIPE_START
G1 F8640
G1 X81.985 Y143.83 E-.04633
G1 X81.93 Y143.964 E-.03342
G1 X81.93 Y146.894 E-.67665
G1 X81.914 Y146.894 E-.0036
;WIPE_END
G1 E-.04 F2100
G1 Z.6 F720
G1 X69.279 Y126.112 F10800
G1 Z.2 F720
G1 E.8 F2100
M204 S800
;TYPE:Perimeter
G1 F1200
G1 X69.238 Y126.095 E.00137
G1 X69.081 Y125.793 E.01068
G1 X69.072 Y125.695 E.00308
G1 X69.072 Y122.127 E.11187
G1 X69.238 Y121.727 E.01357
G1 X69.54 Y121.57 E.01069
G1 X69.638 Y121.561 E.00308
G1 X73.206 Y121.561 E.11187
G1 X73.606 Y121.727 E.01358
G1 X73.772 Y122.127 E.01357
G1 X73.772 Y125.695 E.11187
G1 X73.712 Y125.948 E.00815
G1 X73.606 Y126.095 E.00568
G1 X73.459 Y126.201 E.00568
G1 X73.203 Y126.261 E.00824
G1 X69.638 Y126.261 E.11178
G1 X69.334 Y126.135 E.01032
M204 S1000
G1 X69.505 Y125.828 F10800
M204 S800
;TYPE:External perimeter
G1 F1200
G1 X69.45 Y125.695 E.00452
G1 X69.45 Y122.127 E.11187
G1 X69.505 Y121.994 E.00452
G1 X69.638 Y121.938 E.00453
G1 X73.206 Y121.938 E.11187
G1 X73.339 Y121.994 E.00453
G1 X73.394 Y122.127 E.00452
G1 X73.395 Y125.695 E.11187
G1 X73.339 Y125.828 E.00452
G1 X73.203 Y125.883 E.00461
G1 X69.638 Y125.883 E.11178
G1 X69.56 Y125.851 E.00264
M204 S1000
G1 X69.365 Y125.865 F10800
;WIPE_START
G1 F8640
G1 X69.45 Y125.695 E-.04421
G1 X69.45 Y122.595 E-.71579
;WIPE_END
G1 E-.04 F2100
G1 Z.6 F720
G1 X115.748 Y161.496 F10800
G1 Z.2 F720
G1 E.8 F2100
M204 S800
;TYPE:Solid infill
;WIDTH:0.424269
G1 F1200
G1 X115.102 Y160.849 E.029
G1 X114.562 Y160.849 E.0171
G1 X115.579 Y161.866 E.04557
G1 X115.579 Y162.405 E.0171
G1 X113.853 Y160.68 E.07737
M204 S1000
;WIPE_START
G1 F8640
G1 X115.579 Y162.405 E-.56336
G1 X115.579 Y161.866 E-.12453
G1 X115.358 Y161.645 E-.07211
;WIPE_END
G1 E-.04 F2100
G1 Z.6 F720
G1 X112.633 Y158.38 F10800
G1 Z.2 F720
G1 E.8 F2100
M204 S800
G1 F1200
G1 X111.983 Y157.73 E.02915
G1 X111.443 Y157.73 E.0171
G1 X112.465 Y158.752 E.0458
G1 X112.467 Y159.294 E.01718
G1 X110.734 Y157.561 E.07771
M204 S1000
;WIPE_START
G1 F8640
G1 X112.467 Y159.294 E-.56586
G1 X112.465 Y158.752 E-.12511
G1 X112.253 Y158.54 E-.06904
;WIPE_END
G1 E-.04 F2100
G1 Z.6 F720
G1 X109.514 Y155.261 F10800
G1 Z.2 F720
G1 E.8 F2100
M204 S800
G1 F1200
G1 X108.864 Y154.611 E.02915
G1 X108.324 Y154.611 E.0171
G1 X109.346 Y155.633 E.0458
G1 X109.348 Y156.175 E.01718
G1 X107.615 Y154.442 E.07771
M204 S1000
;WIPE_START
G1 F8640
G1 X109.348 Y156.175 E-.56586
G1 X109.346 Y155.633 E-.12511
G1 X109.134 Y155.421 E-.06904
;WIPE_END
G1 E-.04 F2100
G1 Z.6 F720
G1 X106.395 Y152.142 F10800
G1 Z.2 F720
G1 E.8 F2100
M204 S800
G1 F1200
G1 X105.745 Y151.492 E.02915
G1 X105.205 Y151.492 E.0171
G1 X106.227 Y152.514 E.0458
G1 X106.229 Y153.056 E.01718
G1 X104.496 Y151.323 E.07771
M204 S1000
;WIPE_START
G1 F8640
G1 X106.229 Y153.056 E-.56586
G1 X106.227 Y152.514 E-.12511
G1 X106.015 Y152.302 E-.06904
;WIPE_END
G1 E-.04 F2100
G1 Z.6 F720
G1 X103.276 Y149.023 F10800
G1 Z.2 F720
G1 E.8 F2100
M204 S800
G1 F1200
G1 X102.626 Y148.373 E.02915
G1 X102.086 Y148.373 E.0171
G1 X103.108 Y149.395 E.0458
G1 X103.11 Y149.937 E.01718
G1 X101.377 Y148.204 E.07771
M204 S1000
;WIPE_START
G1 F8640
G1 X103.11 Y149.937 E-.56586
G1 X103.108 Y149.395 E-.12511
G1 X102.896 Y149.183 E-.06904
;WIPE_END
G1 E-.04 F2100
G1 Z.6 F720
G1 X100.157 Y145.904 F10800
G1 Z.2 F720
G1 E.8 F2100
M204 S800
G1 F1200
G1 X99.507 Y145.254 E.02915
G1 X98.967 Y145.254 E.0171
G1 X99.989 Y146.276 E.0458
G1 X99.991 Y146.818 E.01718
G1 X98.258 Y145.085 E.07771
M204 S1000
;WIPE_START
G1 F8640
M73 Q2 S49
G1 X99.991 Y146.818 E-.56586
G1 X99.989 Y146.276 E-.12511
G1 X99.777 Y146.064 E-.06904
;WIPE_END
G1 E-.04 F2100
G1 Z.6 F720
G1 X97.038 Y142.785 F10800
M73 P2 R49
G1 Z.2 F720
G1 E.8 F2100
M204 S800
G1 F1200
G1 X96.388 Y142.135 E.02915
G1 X95.848 Y142.135 E.0171
G1 X96.87 Y143.157 E.0458
G1 X96.872 Y143.699 E.01718
G1 X95.139 Y141.966 E.07771
M204 S1000
;WIPE_START
G1 F8640
G1 X96.872 Y143.699 E-.56586
G1 X96.87 Y143.157 E-.12511
G1 X96.658 Y142.945 E-.06904
;WIPE_END
G1 E-.04 F2100
G1 Z.6 F720
G1 X93.919 Y139.666 F10800
G1 Z.2 F720
G1 E.8 F2100
M204 S800
G1 F1200
G1 X93.266 Y139.014 E.02927
G1 X92.724 Y139.011 E.01718
G1 X93.751 Y140.038 E.04603
G1 X93.753 Y140.58 E.01718
G1 X92.012 Y138.838 E.07809
M204 S1000
;WIPE_START
G1 F8640
G1 X93.753 Y140.58 E-.56861
G1 X93.751 Y140.038 E-.12511
G1 X93.548 Y139.835 E-.06629
;WIPE_END
G1 E-.04 F2100
G1 Z.6 F720
G1 X97.034 Y127.142 F10800
G1 Z.2 F720
G1 E.8 F2100
M204 S800
G1 F1200
G1 X96.433 Y126.54 E.02698
G1 X95.893 Y126.54 E.0171
G1 X96.865 Y127.512 E.04356
G1 X96.865 Y128.051 E.0171
G1 X95.354 Y126.54 E.06774
G1 X94.815 Y126.54 E.0171
G1 X96.865 Y128.59 E.09192
G1 X96.865 Y129.13 E.0171
G1 X94.275 Y126.54 E.11611
G1 X93.736 Y126.54 E.0171
G1 X96.865 Y129.669 E.14029
G1 X96.865 Y130.208 E.0171
G1 X93.197 Y126.54 E.16448
G1 X92.765 Y126.54 E.01368
G1 X92.765 Y126.648 E.00342
G1 X96.757 Y130.64 E.17899
G1 X96.217 Y130.64 E.0171
G1 X92.765 Y127.188 E.15481
G1 X92.765 Y127.727 E.0171
G1 X95.678 Y130.64 E.13062
G1 X95.139 Y130.64 E.0171
G1 X92.765 Y128.266 E.10644
G1 X92.765 Y128.805 E.0171
G1 X94.6 Y130.64 E.08225
G1 X94.426 Y130.656 E.00553
