; generated by PrusaSlicer 2.4.1+win64 on 2024-02-29 at 12:18:33 UTC


;
;
; 

; external perimeters extrusion width = 0.60mm
; perimeters extrusion width = 0.50mm
; infill extrusion width = 0.50mm
; solid infill extrusion width = 0.50mm
; top infill extrusion width = 0.45mm
; support material extrusion width = 0.38mm
; first layer extrusion width = 0.42mm

M73 P0 R33
M73 Q0 S33
M201 X1000 Y1000 Z200 E5000 ; sets maximum accelerations, mm/sec^2
M203 X200 Y200 Z12 E120 ; sets maximum feedrates, mm / sec
M204 P1250 R1250 T1250 ; sets acceleration (P, T) and retract acceleration (R), mm/sec^2
M205 X8.00 Y8.00 Z0.40 E4.50 ; sets the jerk limits, mm/sec
M205 S0 T0 ; sets the minimum extruding and travel feed rate, mm/sec
M107
;TYPE:Custom
M862.3 P "MK3S" ; printer model check
M862.1 P0.4 ; nozzle diameter check
M115 U3.11.0 ; tell printer latest fw version
G90 ; use absolute coordinates
M83 ; extruder relative mode
M104 S215 ; set extruder temp
M140 S60 ; set bed temp
M190 S60 ; wait for bed temp
M109 S215 ; wait for extruder temp
G28 W ; home all without mesh bed level
G80 ; mesh bed leveling

G1 Z0.2 F720
G1 Y-3 F1000 ; go outside print area
G92 E0
G1 X60 E9 F1000 ; intro line
G1 X100 E12.5 F1000 ; intro line

G92 E0
M221 S95

; Don't change E values below. Excessive value can damage the printer.

M907 E538 ; set extruder motor current
G21 ; set units to millimeters
G90 ; use absolute coordinates
M83 ; use relative distances for extrusion
M900 K0.05 ; Filament gcode LA 1.5
M900 K30 ; Filament gcode LA 1.0
M107
;LAYER_CHANGE
;Z:0.2
;HEIGHT:0.2
;BEFORE_LAYER_CHANGE
G92 E0.0
;0.2


M73 P0 R32
G1 E-.8 F2100
G1 Z.4 F720
;AFTER_LAYER_CHANGE
;0.2
G1 X108.572 Y77.552 F10800
G1 Z.2 F720
G1 E.8 F2100
M204 S800
;TYPE:Skirt/Brim
;WIDTH:0.42
G1 F1200
G1 X113.866 Y70.14 E.28559
G1 X114.945 Y69.304 E.04278
G1 X115.801 Y69.144 E.0273
G1 X128.643 Y69.144 E.40266
G1 X129.962 Y69.544 E.0432
G1 X137.271 Y74.472 E.2764
G1 X141.902 Y79.103 E.20536
G1 X142.598 Y80.784 E.05704
G1 X142.588 Y109.745 E.90807
G1 X141.95 Y116.424 E.21035
G1 X140.267 Y130.95 E.4585
G1 X140.032 Y131.739 E.02583
G1 X137.716 Y136.37 E.16235
G1 X137.271 Y136.988 E.02388
G1 X134.955 Y139.304 E.10268
G1 X133.274 Y140 E.05704
G1 X125.063 Y140 E.25745
G1 X123.682 Y139.557 E.04549
G1 X107.472 Y127.979 E.62457
G1 X106.515 Y126.47 E.05603
M73 Q0 S32
G1 X101.884 Y100.998 E.81174
G1 X101.846 Y87.731 E.416
G1 X102.288 Y86.349 E.04549
G1 X108.537 Y77.6 E.3371
M204 S1000
; printing object minecraft_wolf1.stl id:0 copy 0
;WIPE_START
G1 F8640
G1 X110.451 Y74.922 E-.76
;WIPE_END
G1 E-.04 F2100
G1 Z.6 F720
G1 X119.097 Y90.678 F10800
G1 Z.2 F720
G1 E.8 F2100
M204 S800
;TYPE:Support material interface
;WIDTH:0.38
G1 F1200
G1 X118.748 Y90.678 E.00977
G1 X118.748 Y95.31 E.12981
G1 X119.255 Y95.31 E.01419
G1 X119.255 Y90.678 E.12981
G1 X119.77 Y90.678 E.01445
G1 X119.77 Y95.31 E.12981
G1 X120.286 Y95.31 E.01445
G1 X120.286 Y90.678 E.12981
G1 X120.802 Y90.678 E.01445
G1 X120.802 Y95.31 E.12981
G1 X121.064 Y95.31 E.00736
G1 X121.064 Y96.561 E.03506
G1 X121.281 Y96.256 E.01049
G1 X121.317 Y96.25 E.00102
G1 X121.317 Y88.363 E.22106
G1 X121.833 Y88.363 E.01445
G1 X121.833 Y96.163 E.21863
G1 X122.349 Y96.076 E.01465
G1 X122.349 Y88.363 E.2162
G1 X122.864 Y88.363 E.01445
M73 Q1 S32
G1 X122.864 Y95.99 E.21377
G1 X123.38 Y95.903 E.01465
M73 P1 R32
G1 X123.38 Y88.363 E.21134
G1 X123.895 Y88.363 E.01445
G1 X123.895 Y95.816 E.20891
G1 X124.411 Y95.73 E.01465
G1 X124.411 Y88.363 E.20648
G1 X124.927 Y88.363 E.01445
G1 X124.927 Y95.643 E.20405
G1 X125.442 Y95.556 E.01465
G1 X125.442 Y88.363 E.20162
G1 X125.958 Y88.363 E.01445
G1 X125.958 Y95.47 E.19919
G1 X126.473 Y95.383 E.01465
G1 X126.473 Y88.363 E.19676
G1 X126.989 Y88.363 E.01445
G1 X126.989 Y95.296 E.19433
G1 X127.505 Y95.209 E.01465
G1 X127.505 Y88.363 E.1919
G1 X128.02 Y88.363 E.01445
G1 X128.02 Y95.123 E.18947
G1 X128.536 Y95.036 E.01465
G1 X128.536 Y88.363 E.18704
G1 X129.052 Y88.363 E.01445
G1 X129.052 Y94.949 E.18461
G1 X129.567 Y94.863 E.01465
G1 X129.567 Y88.363 E.18218
G1 X130.083 Y88.363 E.01445
G1 X130.083 Y94.776 E.17975
G1 X130.598 Y94.689 E.01465
G1 X130.598 Y88.363 E.17732
G1 X131.114 Y88.363 E.01445
G1 X131.114 Y94.603 E.17489
G1 X131.63 Y94.516 E.01465
G1 X131.63 Y88.363 E.17246
G1 X132.145 Y88.363 E.01445
G1 X132.145 Y94.429 E.17003
G1 X132.661 Y94.343 E.01465
G1 X132.661 Y88.363 E.1676
G1 X133.177 Y88.363 E.01445
G1 X133.177 Y94.256 E.16517
G1 X133.692 Y94.169 E.01465
G1 X133.692 Y88.363 E.16274
G1 X134.208 Y88.363 E.01445
G1 X134.208 Y94.082 E.16031
G1 X134.723 Y93.996 E.01465
G1 X134.723 Y88.363 E.15788
G1 X134.958 Y88.363 E.00657
G1 X134.958 Y88.806 E.01242
M204 S1000
;WIPE_START
G1 F8640
G1 X134.958 Y88.363 E-.10228
G1 X134.723 Y88.363 E-.05415
G1 X134.723 Y90.977 E-.60357
;WIPE_END
G1 E-.04 F2100
G1 Z.6 F720
G1 X134.976 Y90.678 F10800
G1 Z.2 F720
G1 E.8 F2100
M204 S800
G1 F1200
G1 X135.239 Y90.678 E.00737
G1 X135.239 Y93.909 E.09055
G1 X135.512 Y93.863 E.00777
G1 X135.755 Y94.036 E.00833
G1 X135.755 Y90.678 E.09409
G1 X136.27 Y90.678 E.01445
G1 X136.27 Y95.31 E.12981
G1 X136.786 Y95.31 E.01445
G1 X136.786 Y90.678 E.12981
G1 X137.273 Y90.678 E.01367
G1 X137.273 Y95.31 E.12981
G1 X136.944 Y95.31 E.00924
M204 S1000
;WIPE_START
G1 F8640
G1 X137.273 Y95.31 E-.07616
G1 X137.273 Y92.348 E-.68384
;WIPE_END
G1 E-.04 F2100
G1 Z.6 F720
G1 X121.064 Y96.794 F10800
G1 Z.2 F720
G1 E.8 F2100
M204 S800
G1 F1200
G1 X121.204 Y97.625 E.02363
G1 X121.064 Y97.625 E.00392
G1 X121.064 Y96.841 E.02198
M204 S1000
;WIPE_START
G1 F8640
G1 X121.064 Y97.625 E-.18107
G1 X121.204 Y97.625 E-.03228
G1 X121.064 Y96.794 E-.1947
;WIPE_END
G1 E-.39195 F2100
G1 Z.6 F720
G1 X118.748 Y113.835 F10800
G1 Z.2 F720
G1 E.8 F2100
M204 S800
G1 F1200
G1 X118.739 Y116.989 E.08842
G1 X119.255 Y116.903 E.01465
G1 X119.255 Y113.835 E.08599
G1 X119.77 Y113.835 E.01445
G1 X119.77 Y116.816 E.08356
G1 X120.286 Y116.729 E.01465
G1 X120.286 Y113.835 E.08113
G1 X120.802 Y113.835 E.01445
G1 X120.802 Y116.642 E.0787
G1 X121.317 Y116.556 E.01465
G1 X121.317 Y113.835 E.07627
G1 X121.833 Y113.835 E.01445
G1 X121.833 Y116.469 E.07384
G1 X122.349 Y116.382 E.01465
G1 X122.349 Y113.835 E.07141
G1 X122.864 Y113.835 E.01445
G1 X122.864 Y116.296 E.06898
G1 X123.38 Y116.209 E.01465
G1 X123.38 Y109.203 E.19636
G1 X123.895 Y109.203 E.01445
G1 X123.895 Y116.122 E.19393
G1 X124.411 Y116.036 E.01465
G1 X124.411 Y109.203 E.1915
G1 X124.927 Y109.203 E.01445
G1 X124.927 Y115.949 E.18907
G1 X125.442 Y115.862 E.01465
G1 X125.442 Y109.203 E.18664
G1 X125.958 Y109.203 E.01445
G1 X125.958 Y115.776 E.18421
G1 X126.473 Y115.689 E.01465
G1 X126.473 Y109.203 E.18178
G1 X126.989 Y109.203 E.01445
G1 X126.989 Y115.602 E.17935
G1 X127.505 Y115.515 E.01465
G1 X127.505 Y109.203 E.17692
G1 X128.02 Y109.203 E.01445
G1 X128.02 Y115.429 E.17449
G1 X128.536 Y115.342 E.01465
G1 X128.536 Y109.203 E.17206
G1 X129.052 Y109.203 E.01445
G1 X129.052 Y115.255 E.16963
G1 X129.567 Y115.169 E.01465
G1 X129.567 Y109.203 E.1672
G1 X130.083 Y109.203 E.01445
G1 X130.083 Y115.082 E.16477
G1 X130.598 Y114.995 E.01465
G1 X130.598 Y106.888 E.22724
G1 X131.114 Y106.888 E.01445
G1 X131.114 Y114.909 E.22481
G1 X131.63 Y114.822 E.01465
G1 X131.63 Y106.888 E.22238
G1 X132.145 Y106.888 E.01445
M73 P2 R32
M73 Q2 S32
G1 X132.145 Y114.735 E.21995
G1 X132.661 Y114.649 E.01465
G1 X132.661 Y106.888 E.21752
G1 X133.177 Y106.888 E.01445
G1 X133.177 Y114.562 E.21509
G1 X133.692 Y114.475 E.01465
G1 X133.692 Y106.888 E.21266
G1 X134.208 Y106.888 E.01445
G1 X134.208 Y114.388 E.21023
G1 X134.723 Y114.302 E.01465
G1 X134.723 Y106.888 E.2078
G1 X135.239 Y106.888 E.01445
G1 X135.239 Y114.215 E.20537
G1 X135.755 Y114.128 E.01465
G1 X135.755 Y106.888 E.20294
G1 X136.27 Y106.888 E.01445
G1 X136.27 Y114.042 E.20051
G1 X136.786 Y113.955 E.01465
G1 X136.786 Y106.888 E.19808
G1 X137.273 Y106.888 E.01367
G1 X137.273 Y111.519 E.12981
G1 X137.301 Y111.519 E.00078
G1 X137.301 Y113.868 E.06585
G1 X137.817 Y113.782 E.01465
G1 X137.817 Y111.519 E.06342
G1 X138.175 Y111.519 E.01003
M204 S1000
;WIPE_START
G1 F8640
G1 X137.817 Y111.519 E-.08262
G1 X137.817 Y113.782 E-.52244
G1 X137.301 Y113.868 E-.12073
G1 X137.301 Y113.72 E-.03421
;WIPE_END
G1 E-.04 F2100
G1 Z.6 F720
G1 X139.589 Y111.941 F10800
G1 Z.2 F720
G1 E.8 F2100
M204 S800
G1 F1200
G1 X139.589 Y111.519 E.01184
G1 X139.364 Y111.519 E.00631
G1 X139.364 Y116.15 E.12981
G1 X138.848 Y116.15 E.01445
G1 X138.848 Y111.519 E.12981
G1 X138.333 Y111.519 E.01445
G1 X138.333 Y114.827 E.09271
M204 S1000
;WIPE_START
G1 F8640
G1 X138.333 Y111.535 E-.76
;WIPE_END
G1 E-.04 F2100
G1 Z.6 F720
G1 X118.581 Y116.15 F10800
G1 Z.2 F720
G1 E.8 F2100
M204 S800
G1 F1200
G1 X118.224 Y116.15 E.01003
G1 X118.224 Y117.076 E.02594
G1 X117.708 Y117.163 E.01465
G1 X117.708 Y116.15 E.02837
G1 X117.192 Y116.15 E.01445
G1 X117.192 Y117.249 E.0308
G1 X116.677 Y117.336 E.01465
G1 X116.677 Y116.15 E.03323
G1 X116.161 Y116.15 E.01445
G1 X116.161 Y117.423 E.03566
G1 X115.645 Y117.509 E.01465
G1 X115.645 Y116.15 E.03809
G1 X115.13 Y116.15 E.01445
G1 X115.13 Y117.596 E.04052
G1 X114.614 Y117.683 E.01465
G1 X114.614 Y116.15 E.04295
G1 X114.099 Y116.15 E.01445
G1 X114.099 Y117.769 E.04538
G1 X113.583 Y117.856 E.01465
G1 X113.583 Y116.15 E.04781
G1 X113.067 Y116.15 E.01445
G1 X113.067 Y117.943 E.05024
G1 X112.552 Y118.03 E.01465
G1 X112.552 Y116.15 E.05267
G1 X112.036 Y116.15 E.01445
G1 X112.036 Y118.116 E.0551
G1 X111.802 Y118.156 E.00666
G1 X111.802 Y117.673 E.01352
M204 S1000
;WIPE_START
G1 F8640
G1 X111.802 Y118.156 E-.11137
G1 X112.036 Y118.116 E-.0549
G1 X112.036 Y116.15 E-.45395
G1 X112.552 Y116.15 E-.11906
G1 X112.552 Y116.24 E-.02072
;WIPE_END
G1 E-.04 F2100
G1 Z.6 F720
G1 X111.434 Y118.834 F10800
G1 Z.2 F720
G1 E.8 F2100
M204 S800
;TYPE:Support material
;WIDTH:0.42
G1 F1200
G1 X111.962 Y118.834 E.01657
G1 X111.923 Y118.597 E.00752
G1 X111.995 Y118.496 E.00389
G1 X114.452 Y118.083 E.07813
G1 X114.574 Y118.805 E.02297
G1 X128.378 Y116.485 E.4389
G1 X129.016 Y120.279 E.12063
G1 X126.387 Y120.721 E.08359
G1 X126.113 Y121.105 E.01481
G1 X126.523 Y123.548 E.07767
G1 X126.908 Y123.822 E.01481
G1 X137.906 Y121.973 E.34966
G1 X137.906 Y130.676 E.27287
G1 X135.59 Y130.676 E.0726
G1 X135.59 Y135.307 E.14521
G1 X133.274 Y135.307 E.0726
G1 X133.274 Y137.623 E.0726
G1 X125.063 Y137.623 E.25745
G1 X125.063 Y135.307 E.0726
G1 X122.748 Y135.307 E.0726
G1 X122.748 Y126.045 E.29042
G1 X108.854 Y126.045 E.43563
G1 X108.854 Y115.834 E.32016
G1 X111.434 Y115.834 E.08089
G1 X111.434 Y118.777 E.09229
M204 S1000
G1 X137.206 Y130.506 F10800
M204 S800
G1 F1200
G1 X137.206 Y122.435 E.25308
G1 X136.787 Y122.505 E.01332
G1 X136.787 Y130.337 E.24555
G1 X136.368 Y130.337 E.01314
G1 X136.368 Y122.576 E.24334
G1 X135.949 Y122.646 E.01332
G1 X135.949 Y130.337 E.24113
G1 X135.53 Y130.337 E.01314
G1 X135.53 Y122.717 E.23892
G1 X135.111 Y122.787 E.01332
G1 X135.111 Y134.968 E.38192
G1 X134.692 Y134.968 E.01314
G1 X134.692 Y122.858 E.37971
G1 X134.273 Y122.928 E.01332
G1 X134.273 Y134.968 E.3775
G1 X133.854 Y134.968 E.01314
G1 X133.854 Y122.998 E.3753
G1 X133.435 Y123.069 E.01332
G1 X133.435 Y134.968 E.37309
G1 X133.016 Y134.968 E.01314
M73 P3 R32
M73 Q3 S32
G1 X133.016 Y123.139 E.37088
G1 X132.597 Y123.21 E.01332
G1 X132.597 Y137.284 E.44127
G1 X132.178 Y137.284 E.01314
G1 X132.178 Y123.28 E.43907
G1 X131.759 Y123.351 E.01332
G1 X131.759 Y137.284 E.43686
G1 X131.34 Y137.284 E.01314
M73 P3 R31
G1 X131.34 Y123.421 E.43465
G1 X130.921 Y123.492 E.01332
G1 X130.921 Y137.284 E.43244
G1 X130.502 Y137.284 E.01314
G1 X130.502 Y123.562 E.43023
G1 X130.083 Y123.632 E.01332
G1 X130.083 Y137.284 E.42802
G1 X129.664 Y137.284 E.01314
G1 X129.664 Y123.703 E.42581
G1 X129.245 Y123.773 E.01332
G1 X129.245 Y137.284 E.4236
G1 X128.826 Y137.284 E.01314
G1 X128.826 Y123.844 E.4214
G1 X128.407 Y123.914 E.01332
G1 X128.407 Y137.284 E.41919
G1 X127.988 Y137.284 E.01314
G1 X127.988 Y123.985 E.41698
G1 X127.57 Y124.055 E.01332
G1 X127.57 Y137.284 E.41477
G1 X127.151 Y137.284 E.01314
G1 X127.151 Y124.126 E.41256
G1 X126.826 Y124.18 E.01033
G1 X126.732 Y124.113 E.00363
G1 X126.732 Y137.284 E.41295
G1 X126.313 Y137.284 E.01314
G1 X126.313 Y123.317 E.4379
M204 S1000
;WIPE_START
G1 F8640
G1 X126.313 Y126.609 E-.76
;WIPE_END
G1 E-.04 F2100
G1 Z.6 F720
G1 X128.407 Y120.209 F10800
G1 Z.2 F720
G1 E.8 F2100
M204 S800
G1 F1200
G1 X128.407 Y118.708 E.04707
G1 X128.099 Y116.875 E.05825
G1 X127.988 Y116.894 E.00353
G1 X127.988 Y120.107 E.10075
G1 X127.57 Y120.178 E.01332
G1 X127.57 Y116.965 E.10075
G1 X127.151 Y117.035 E.01332
G1 X127.151 Y120.248 E.10075
G1 X126.732 Y120.319 E.01332
G1 X126.732 Y117.105 E.10075
M73 Q3 S31
G1 X126.313 Y117.176 E.01332
G1 X126.313 Y120.561 E.10614
M204 S1000
G1 X125.894 Y137.453 F10800
M204 S800
G1 F1200
G1 X125.894 Y117.246 E.63357
G1 X125.475 Y117.317 E.01332
G1 X125.475 Y137.284 E.62605
G1 X125.403 Y137.284 E.00226
G1 X125.403 Y134.968 E.0726
G1 X125.056 Y134.968 E.01088
G1 X125.056 Y117.387 E.55123
G1 X124.637 Y117.458 E.01332
G1 X124.637 Y134.968 E.54902
G1 X124.218 Y134.968 E.01314
G1 X124.218 Y117.528 E.54681
G1 X123.799 Y117.599 E.01332
G1 X123.799 Y134.968 E.54461
G1 X123.38 Y134.968 E.01314
M73 P4 R31
M73 Q4 S31
G1 X123.38 Y117.669 E.5424
G1 X122.961 Y117.739 E.01332
G1 X122.961 Y125.705 E.24977
G1 X122.542 Y125.705 E.01314
G1 X122.542 Y117.81 E.24756
G1 X122.123 Y117.88 E.01332
G1 X122.123 Y125.705 E.24535
G1 X121.704 Y125.705 E.01314
G1 X121.704 Y117.951 E.24314
G1 X121.285 Y118.021 E.01332
G1 X121.285 Y125.705 E.24093
G1 X120.866 Y125.705 E.01314
G1 X120.866 Y118.092 E.23873
G1 X120.447 Y118.162 E.01332
G1 X120.447 Y125.705 E.23652
G1 X120.028 Y125.705 E.01314
G1 X120.028 Y118.233 E.23431
G1 X119.609 Y118.303 E.01332
G1 X119.609 Y125.705 E.2321
G1 X119.19 Y125.705 E.01314
G1 X119.19 Y118.373 E.22989
G1 X118.771 Y118.444 E.01332
G1 X118.771 Y125.705 E.22768
G1 X118.352 Y125.705 E.01314
G1 X118.352 Y118.514 E.22547
G1 X117.933 Y118.585 E.01332
G1 X117.933 Y125.705 E.22327
G1 X117.514 Y125.705 E.01314
G1 X117.514 Y118.655 E.22106
G1 X117.095 Y118.726 E.01332
G1 X117.095 Y125.705 E.21885
G1 X116.676 Y125.705 E.01314
G1 X116.676 Y118.796 E.21664
G1 X116.257 Y118.867 E.01332
G1 X116.257 Y125.705 E.21443
G1 X115.838 Y125.705 E.01314
G1 X115.838 Y118.937 E.21222
G1 X115.419 Y119.007 E.01332
G1 X115.419 Y125.705 E.21001
G1 X115 Y125.705 E.01314
G1 X115 Y119.078 E.2078
G1 X114.581 Y119.148 E.01332
G1 X114.581 Y125.705 E.2056
G1 X114.162 Y125.705 E.01314
G1 X114.162 Y118.476 E.22668
G1 X113.743 Y118.546 E.01332
G1 X113.743 Y125.705 E.22447
G1 X113.324 Y125.705 E.01314
G1 X113.324 Y118.617 E.22226
G1 X112.905 Y118.687 E.01332
G1 X112.905 Y125.705 E.22005
G1 X112.486 Y125.705 E.01314
G1 X112.486 Y118.758 E.21784
G1 X112.299 Y118.789 E.00596
G1 X112.364 Y119.173 E.01221
G1 X112.067 Y119.173 E.00929
G1 X112.067 Y125.705 E.20482
G1 X111.648 Y125.705 E.01314
G1 X111.648 Y119.173 E.20482
G1 X111.229 Y119.173 E.01314
G1 X111.229 Y125.705 E.20482
G1 X110.81 Y125.705 E.01314
G1 X110.81 Y116.173 E.29888
G1 X110.391 Y116.173 E.01314
G1 X110.391 Y125.705 E.29888
G1 X109.972 Y125.705 E.01314
G1 X109.972 Y116.173 E.29888
G1 X109.554 Y116.173 E.01314
G1 X109.554 Y125.875 E.3042
M204 S1000
;WIPE_START
G1 F8640
G1 X109.554 Y122.584 E-.76
;WIPE_END
G1 E-.04 F2100
G1 Z.6 F720
G1 X114.065 Y115.782 F10800
G1 Z.2 F720
G1 E.8 F2100
M204 S800
G1 F1200
G1 X113.576 Y115.782 E.01534
G1 X114.052 Y115.702 E.01513
G1 X114.056 Y115.727 E.00077
M204 S1000
;WIPE_START
G1 F8640
G1 X114.052 Y115.702 E-.00567
G1 X113.576 Y115.782 E-.11139
G1 X114.065 Y115.782 E-.11296
;WIPE_END
G1 E-.56998 F2100
G1 Z.6 F720
G1 X128.643 Y73.837 F10800
G1 Z.2 F720
G1 E.8 F2100
M204 S800
G1 F1200
G1 X130.959 Y73.837 E.0726
G1 X130.959 Y76.153 E.0726
G1 X135.59 Y76.153 E.14521
G1 X135.59 Y80.784 E.14521
G1 X140.221 Y80.784 E.14521
G1 X140.221 Y91.311 E.33006
G1 X137.641 Y91.311 E.08089
G1 X137.641 Y90.311 E.03135
G1 X135.326 Y90.311 E.0726
G1 X135.326 Y87.995 E.07261
G1 X120.696 Y87.995 E.4587
G1 X120.696 Y90.311 E.0726
G1 X118.381 Y90.311 E.0726
G1 X118.381 Y95.678 E.16828
G1 X120.696 Y95.678 E.0726
G1 X120.696 Y97.993 E.0726
