; generated by PrusaSlicer 2.4.1+win64 on 2024-02-29 at 11:58:23 UTC


;
;
; 

; external perimeters extrusion width = 0.60mm
; perimeters extrusion width = 0.50mm
; infill extrusion width = 0.50mm
; solid infill extrusion width = 0.50mm
; top infill extrusion width = 0.45mm
; support material extrusion width = 0.38mm
; first layer extrusion width = 0.42mm

M73 P0 R9
M73 Q0 S9
M201 X1000 Y1000 Z200 E5000 ; sets maximum accelerations, mm/sec^2
M203 X200 Y200 Z12 E120 ; sets maximum feedrates, mm / sec
M204 P1250 R1250 T1250 ; sets acceleration (P, T) and retract acceleration (R), mm/sec^2
M205 X8.00 Y8.00 Z0.40 E4.50 ; sets the jerk limits, mm/sec
M205 S0 T0 ; sets the minimum extruding and travel feed rate, mm/sec
M107
;TYPE:Custom
M862.3 P "MK3S" ; printer model check
M862.1 P0.4 ; nozzle diameter check
M115 U3.11.0 ; tell printer latest fw version
G90 ; use absolute coordinates
M83 ; extruder relative mode
M104 S215 ; set extruder temp
M140 S60 ; set bed temp
M190 S60 ; wait for bed temp
M109 S215 ; wait for extruder temp
G28 W ; home all without mesh bed level
G80 ; mesh bed leveling

G1 Z0.2 F720
G1 Y-3 F1000 ; go outside print area
G92 E0
G1 X60 E9 F1000 ; intro line
G1 X100 E12.5 F1000 ; intro line

G92 E0
M221 S95

; Don't change E values below. Excessive value can damage the printer.

M907 E538 ; set extruder motor current
G21 ; set units to millimeters
G90 ; use absolute coordinates
M83 ; use relative distances for extrusion
M900 K0.05 ; Filament gcode LA 1.5
M900 K30 ; Filament gcode LA 1.0
M107
;LAYER_CHANGE
;Z:0.2
;HEIGHT:0.2
;BEFORE_LAYER_CHANGE
G92 E0.0
;0.2


G1 E-.8 F2100
M73 P1 R9
M73 Q1 S9
G1 Z.4 F720
;AFTER_LAYER_CHANGE
;0.2
G1 X115.012 Y86.259 F10800
G1 Z.2 F720
G1 E.8 F2100
M204 S800
;TYPE:Skirt/Brim
;WIDTH:0.42
G1 F1200
G1 X116.723 Y83.977 E.08944
G1 X117.888 Y83.078 E.04612
G1 X118.927 Y82.875 E.03319
G1 X129.453 Y82.875 E.33006
G1 X131.401 Y83.682 E.06609
G1 X136.032 Y88.313 E.20536
G1 X136.839 Y90.26 E.06609
G1 X136.839 Y119.312 E.91089
G1 X136.548 Y120.544 E.03968
G1 X134.232 Y125.175 E.16235
G1 X133.247 Y126.267 E.04612
G1 X131.769 Y126.697 E.04827
G1 X123.558 Y126.697 E.25745
G1 X121.905 Y126.146 E.05462
G1 X112.643 Y119.2 E.36302
G1 X111.595 Y117.536 E.06164
G1 X109.279 Y105.958 E.37021
G1 X109.226 Y105.418 E.01702
M73 P2 R9
M73 Q2 S9
G1 X109.226 Y94.892 E.33006
G1 X109.776 Y93.239 E.05462
G1 X114.976 Y86.307 E.2717
M204 S1000
G1 X115.277 Y86.533 F10800
M204 S800
G1 F1200
G1 X117.025 Y84.203 E.09133
G1 X118.122 Y83.392 E.04278
G1 X118.927 Y83.252 E.02559
G1 X129.453 Y83.252 E.33006
G1 X131.134 Y83.948 E.05704
G1 X135.765 Y88.579 E.20536
G1 X136.462 Y90.26 E.05704
G1 X136.462 Y119.312 E.91089
G1 X136.211 Y120.375 E.03425
G1 X133.895 Y125.006 E.16235
G1 X132.96 Y126 E.04278
G1 X131.769 Y126.32 E.03868
G1 X123.558 Y126.32 E.25745
G1 X122.132 Y125.845 E.04714
G1 X112.869 Y118.898 E.36302
G1 X111.964 Y117.462 E.0532
G1 X109.649 Y105.884 E.37021
M73 Q3 S9
G1 X109.603 Y94.892 E.34468
M73 P3 R9
G1 X110.078 Y93.465 E.04714
G1 X115.241 Y86.581 E.26982
M204 S1000
; printing object minecraft_wolf1.stl id:0 copy 0
;WIPE_START
G1 F8640
G1 X117.025 Y84.203 E-.6864
G1 X117.281 Y84.013 E-.0736
;WIPE_END
G1 E-.04 F2100
G1 Z.6 F720
G1 X129.453 Y87.945 F10800
G1 Z.2 F720
G1 E.8 F2100
M204 S800
;TYPE:Support material
G1 F1200
G1 X131.769 Y87.945 E.0726
G1 X131.769 Y90.26 E.0726
G1 X134.084 Y90.26 E.0726
G1 X134.084 Y100.787 E.33006
G1 X130.867 Y100.787 E.10087
G1 X130.58 Y100.583 E.01104
G1 X129.365 Y100.787 E.03864
G1 X127.911 Y100.787 E.04558
G1 X127.621 Y99.06 E.05491
G1 X125.509 Y99.415 E.06714
G1 X125.84 Y101.38 E.06246
G1 X123.211 Y101.822 E.08359
G1 X122.937 Y102.206 E.01481
G1 X123.347 Y104.649 E.07767
G1 X123.732 Y104.923 E.01481
G1 X123.822 Y104.908 E.00286
G1 X123.822 Y107.47 E.08032
G1 X124.755 Y107.47 E.02924
G1 X124.704 Y107.169 E.00957
G1 X124.776 Y107.067 E.00389
G1 X127.234 Y106.654 E.07813
G1 X127.993 Y111.171 E.1436
G1 X118.462 Y112.773 E.30304
G1 X118.188 Y113.158 E.01481
G1 X118.267 Y113.626 E.01488
G1 X118.651 Y113.9 E.0148
G1 X125.224 Y112.795 E.20898
G1 X125.501 Y114.44 E.05232
G1 X125.885 Y114.714 E.01481
G1 X132.27 Y113.641 E.20299
G1 X132.544 Y113.256 E.01481
M73 Q4 S9
G1 X132.226 Y111.367 E.06008
G1 X134.084 Y111.054 E.05908
G1 X134.084 Y119.312 E.25892
M73 P4 R9
G1 X131.769 Y119.312 E.0726
G1 X131.769 Y123.943 E.14521
G1 X123.558 Y123.943 E.25745
G1 X123.558 Y121.628 E.0726
G1 X121.242 Y121.628 E.0726
G1 X121.242 Y116.996 E.14521
G1 X114.295 Y116.996 E.21781
G1 X114.295 Y106.47 E.33006
G1 X121.242 Y106.47 E.21781
G1 X121.242 Y105.418 E.03297
G1 X111.98 Y105.418 E.29042
G1 X111.98 Y94.892 E.33006
G1 X118.927 Y94.892 E.21781
G1 X118.927 Y85.629 E.29042
G1 X129.453 Y85.629 E.33006
G1 X129.453 Y87.888 E.07083
M204 S1000
;WIPE_START
G1 F8640
G1 X129.453 Y85.629 E-.52162
G1 X128.421 Y85.629 E-.23838
;WIPE_END
G1 E-.04 F2100
G1 Z.6 F720
G1 X133.407 Y119.142 F10800
M73 Q5 S9
G1 Z.2 F720
M73 P5 R9
G1 E.8 F2100
M204 S800
G1 F1200
G1 X133.407 Y111.512 E.23924
G1 X132.988 Y111.583 E.01332
G1 X132.988 Y118.973 E.23171
G1 X132.569 Y118.973 E.01314
G1 X132.569 Y113.805 E.16202
G1 X132.465 Y113.952 E.00565
G1 X132.15 Y114.005 E.00999
G1 X132.15 Y118.973 E.15576
G1 X131.731 Y118.973 E.01314
G1 X131.731 Y114.075 E.15355
G1 X131.312 Y114.146 E.01332
G1 X131.312 Y123.604 E.29655
G1 X130.894 Y123.604 E.01314
G1 X130.894 Y114.216 E.29434
G1 X130.475 Y114.287 E.01332
G1 X130.475 Y123.604 E.29213
G1 X130.056 Y123.604 E.01314
G1 X130.056 Y114.357 E.28992
G1 X129.637 Y114.428 E.01332
G1 X129.637 Y123.604 E.28771
G1 X129.218 Y123.604 E.01314
G1 X129.218 Y114.498 E.2855
G1 X128.799 Y114.568 E.01332
G1 X128.799 Y123.604 E.28329
G1 X128.38 Y123.604 E.01314
G1 X128.38 Y114.639 E.28109
G1 X127.961 Y114.709 E.01332
M73 P6 R9
M73 Q6 S9
G1 X127.961 Y123.604 E.27888
G1 X127.542 Y123.604 E.01314
G1 X127.542 Y114.78 E.27667
G1 X127.123 Y114.85 E.01332
G1 X127.123 Y123.604 E.27446
G1 X126.704 Y123.604 E.01314
G1 X126.704 Y114.921 E.27225
G1 X126.285 Y114.991 E.01332
G1 X126.285 Y123.604 E.27004
G1 X125.866 Y123.604 E.01314
G1 X125.866 Y115.062 E.26783
G1 X125.803 Y115.072 E.002
G1 X125.447 Y114.819 E.01371
G1 X125.447 Y123.604 E.27546
G1 X125.028 Y123.604 E.01314
G1 X125.028 Y113.675 E.31132
G1 X124.946 Y113.186 E.01555
G1 X124.609 Y113.242 E.01071
G1 X124.609 Y123.604 E.32488
G1 X124.19 Y123.604 E.01314
G1 X124.19 Y113.313 E.32267
G1 X123.771 Y113.383 E.01332
G1 X123.771 Y121.288 E.24785
G1 X123.352 Y121.288 E.01314
G1 X123.352 Y113.454 E.24565
G1 X122.933 Y113.524 E.01332
M73 Q7 S9
G1 X122.933 Y121.288 E.24344
M73 P7 R9
G1 X122.514 Y121.288 E.01314
G1 X122.514 Y113.595 E.24123
G1 X122.095 Y113.665 E.01332
G1 X122.095 Y121.288 E.23902
G1 X121.676 Y121.288 E.01314
G1 X121.676 Y113.735 E.23681
G1 X121.257 Y113.806 E.01332
G1 X121.257 Y116.657 E.08939
G1 X120.838 Y116.657 E.01314
G1 X120.838 Y113.876 E.08718
G1 X120.419 Y113.947 E.01332
G1 X120.419 Y116.657 E.08498
G1 X120 Y116.657 E.01314
G1 X120 Y114.017 E.08277
G1 X119.581 Y114.088 E.01332
G1 X119.581 Y116.657 E.08056
G1 X119.162 Y116.657 E.01314
G1 X119.162 Y114.158 E.07835
G1 X118.743 Y114.229 E.01332
G1 X118.743 Y116.657 E.07614
G1 X118.324 Y116.657 E.01314
G1 X118.324 Y113.875 E.08721
M204 S1000
;WIPE_START
G1 F8640
G1 X118.324 Y116.657 E-.64227
G1 X118.743 Y116.657 E-.09674
G1 X118.743 Y116.566 E-.02098
;WIPE_END
G1 E-.04 F2100
G1 Z.6 F720
G1 X133.407 Y100.617 F10800
G1 Z.2 F720
G1 E.8 F2100
M204 S800
G1 F1200
G1 X133.407 Y90.6 E.3141
G1 X132.988 Y90.6 E.01314
G1 X132.988 Y100.448 E.30877
G1 X132.569 Y100.448 E.01314
G1 X132.569 Y90.6 E.30877
G1 X132.15 Y90.6 E.01314
G1 X132.15 Y100.448 E.30877
G1 X131.731 Y100.448 E.01314
M73 Q8 S9
G1 X131.731 Y90.6 E.30877
G1 X131.429 Y90.6 E.00947
M73 P8 R9
G1 X131.429 Y88.284 E.0726
G1 X131.312 Y88.284 E.00367
G1 X131.312 Y100.448 E.38138
G1 X130.976 Y100.448 E.01056
G1 X130.894 Y100.389 E.00317
G1 X130.894 Y88.284 E.37954
G1 X130.475 Y88.284 E.01314
G1 X130.475 Y100.256 E.37538
G1 X130.056 Y100.327 E.01332
G1 X130.056 Y88.284 E.37759
G1 X129.637 Y88.284 E.01314
G1 X129.637 Y100.397 E.3798
G1 X129.337 Y100.448 E.00953
G1 X129.218 Y100.448 E.00374
G1 X129.218 Y88.284 E.38138
G1 X129.114 Y88.284 E.00325
G1 X129.114 Y85.968 E.0726
G1 X128.799 Y85.968 E.00988
G1 X128.799 Y100.448 E.45398
G1 X128.38 Y100.448 E.01314
G1 X128.38 Y85.968 E.45398
G1 X127.961 Y85.968 E.01314
M73 P9 R9
M73 Q9 S9
G1 X127.961 Y99.033 E.40964
G1 X127.899 Y98.669 E.01158
M73 P9 R8
G1 X127.542 Y98.729 E.01137
G1 X127.542 Y85.968 E.40011
G1 X127.123 Y85.968 E.01314
G1 X127.123 Y98.8 E.40232
G1 X126.704 Y98.87 E.01332
G1 X126.704 Y85.968 E.40453
G1 X126.285 Y85.968 E.01314
M73 Q9 S8
G1 X126.285 Y98.941 E.40673
G1 X125.866 Y99.011 E.01332
G1 X125.866 Y85.968 E.40894
G1 X125.447 Y85.968 E.01314
G1 X125.447 Y99.082 E.41115
G1 X125.119 Y99.137 E.01044
G1 X125.447 Y101.102 E.06246
G1 X125.028 Y101.172 E.01332
G1 X125.028 Y85.968 E.4767
G1 X124.609 Y85.968 E.01314
M73 Q10 S8
G1 X124.609 Y101.243 E.47891
G1 X124.19 Y101.313 E.01332
M73 P10 R8
G1 X124.19 Y85.968 E.48112
G1 X123.771 Y85.968 E.01314
G1 X123.771 Y101.383 E.48333
G1 X123.352 Y101.454 E.01332
G1 X123.352 Y85.968 E.48553
G1 X122.933 Y85.968 E.01314
G1 X122.933 Y101.627 E.49095
G1 X122.579 Y102.124 E.01914
G1 X122.933 Y104.231 E.06698
G1 X122.933 Y111.677 E.23349
G1 X123.352 Y111.607 E.01332
G1 X123.352 Y105.069 E.20499
G1 X123.483 Y105.162 E.00503
G1 X123.483 Y107.809 E.08299
G1 X123.771 Y107.809 E.00904
G1 X123.771 Y111.536 E.11687
G1 X124.19 Y111.466 E.01332
G1 X124.19 Y107.809 E.11466
G1 X124.609 Y107.809 E.01314
G1 X124.609 Y111.396 E.11245
G1 X125.028 Y111.325 E.01332
G1 X125.028 Y107.809 E.11024
G1 X125.156 Y107.809 E.00401
M73 Q11 S8
G1 X125.08 Y107.36 E.01427
G1 X125.447 Y107.299 E.01165
G1 X125.447 Y111.255 E.12403
G1 X125.866 Y111.184 E.01332
M73 P11 R8
G1 X125.866 Y107.228 E.12403
G1 X126.285 Y107.158 E.01332
G1 X126.285 Y111.114 E.12403
G1 X126.704 Y111.043 E.01332
G1 X126.704 Y107.087 E.12403
G1 X126.955 Y107.045 E.00799
G1 X127.123 Y108.042 E.03168
G1 X127.123 Y110.973 E.09191
G1 X127.542 Y110.902 E.01332
G1 X127.542 Y109.51 E.04366
M204 S1000
G1 X122.514 Y111.92 F10800
M204 S800
G1 F1200
G1 X122.514 Y85.968 E.81369
G1 X122.095 Y85.968 E.01314
G1 X122.095 Y111.818 E.8105
G1 X121.676 Y111.889 E.01332
G1 X121.676 Y85.968 E.81271
G1 X121.257 Y85.968 E.01314
G1 X121.257 Y105.079 E.59919
G1 X120.838 Y105.079 E.01314
M73 P12 R8
M73 Q12 S8
G1 X120.838 Y85.968 E.59919
G1 X120.419 Y85.968 E.01314
G1 X120.419 Y105.079 E.59919
G1 X120 Y105.079 E.01314
G1 X120 Y85.968 E.59919
G1 X119.581 Y85.968 E.01314
G1 X119.581 Y105.079 E.59919
G1 X119.162 Y105.079 E.01314
G1 X119.162 Y95.231 E.30877
G1 X118.743 Y95.231 E.01314
G1 X118.743 Y105.079 E.30877
G1 X118.324 Y105.079 E.01314
G1 X118.324 Y95.231 E.30877
G1 X117.905 Y95.231 E.01314
M73 P13 R8
M73 Q13 S8
G1 X117.905 Y105.079 E.30877
G1 X117.486 Y105.079 E.01314
G1 X117.486 Y95.231 E.30877
G1 X117.067 Y95.231 E.01314
G1 X117.067 Y105.079 E.30877
G1 X116.648 Y105.079 E.01314
G1 X116.648 Y95.231 E.30877
G1 X116.229 Y95.231 E.01314
G1 X116.229 Y105.079 E.30877
G1 X115.81 Y105.079 E.01314
G1 X115.81 Y95.231 E.30877
G1 X115.391 Y95.231 E.01314
G1 X115.391 Y105.079 E.30877
G1 X114.972 Y105.079 E.01314
G1 X114.972 Y95.231 E.30877
G1 X114.553 Y95.231 E.01314
G1 X114.553 Y105.079 E.30877
G1 X114.134 Y105.079 E.01314
G1 X114.134 Y95.231 E.30877
G1 X113.715 Y95.231 E.01314
G1 X113.715 Y105.079 E.30877
G1 X113.296 Y105.079 E.01314
M73 Q14 S8
G1 X113.296 Y95.231 E.30877
G1 X112.877 Y95.231 E.01314
M73 P14 R8
G1 X112.877 Y105.079 E.30877
G1 X112.459 Y105.079 E.01314
G1 X112.459 Y95.061 E.3141
M204 S1000
;WIPE_START
G1 F8640
G1 X112.459 Y98.353 E-.76
;WIPE_END
G1 E-.04 F2100
G1 Z.6 F720
G1 X121.257 Y112.131 F10800
G1 Z.2 F720
G1 E.8 F2100
M204 S800
G1 F1200
G1 X121.257 Y106.809 E.16687
G1 X120.838 Y106.809 E.01314
G1 X120.838 Y112.03 E.16369
G1 X120.419 Y112.1 E.01332
G1 X120.419 Y106.809 E.16589
G1 X120 Y106.809 E.01314
G1 X120 Y112.17 E.1681
G1 X119.581 Y112.241 E.01332
G1 X119.581 Y106.809 E.17031
G1 X119.162 Y106.809 E.01314
G1 X119.162 Y112.311 E.17252
G1 X118.743 Y112.382 E.01332
G1 X118.743 Y106.809 E.17473
G1 X118.324 Y106.809 E.01314
G1 X118.324 Y112.674 E.18389
M204 S1000
G1 X117.905 Y116.827 F10800
M204 S800
G1 F1200
G1 X117.905 Y106.809 E.3141
G1 X117.486 Y106.809 E.01314
G1 X117.486 Y116.657 E.30877
G1 X117.067 Y116.657 E.01314
G1 X117.067 Y106.809 E.30877
G1 X116.648 Y106.809 E.01314
M73 P15 R8
M73 Q15 S8
G1 X116.648 Y116.657 E.30877
G1 X116.229 Y116.657 E.01314
G1 X116.229 Y106.809 E.30877
G1 X115.81 Y106.809 E.01314
G1 X115.81 Y116.657 E.30877
G1 X115.391 Y116.657 E.01314
G1 X115.391 Y106.809 E.30877
G1 X114.972 Y106.809 E.01314
G1 X114.972 Y116.827 E.3141
M204 S1000
;WIPE_START
G1 F8640
G1 X114.972 Y113.535 E-.76
;WIPE_END
G1 E-.04 F2100
G1 Z.6 F720
G1 X124.19 Y104.806 F10800
G1 Z.2 F720
G1 E.8 F2100
M204 S800
;TYPE:Support material interface
;WIDTH:0.38
G1 F1200
G1 X124.19 Y107.102 E.06435
G1 X124.32 Y107.102 E.00364
G1 X124.316 Y107.079 E.00064
G1 X124.565 Y106.73 E.01202
G1 X124.705 Y106.706 E.004
G1 X124.705 Y104.719 E.05569
G1 X125.221 Y104.633 E.01465
G1 X125.221 Y106.619 E.05569
G1 X125.737 Y106.533 E.01465
G1 X125.737 Y104.546 E.05569
G1 X126.252 Y104.459 E.01465
G1 X126.252 Y106.446 E.05569
G1 X126.768 Y106.359 E.01465
G1 X126.768 Y104.373 E.05569
G1 X127.284 Y104.286 E.01465
G1 X127.284 Y106.273 E.05569
G1 X127.799 Y106.186 E.01465
G1 X127.799 Y104.199 E.05569
G1 X128.315 Y104.112 E.01465
G1 X128.315 Y106.099 E.05569
G1 X128.83 Y106.013 E.01465
G1 X128.83 Y104.026 E.05569
G1 X129.346 Y103.939 E.01465
G1 X129.346 Y105.926 E.05569
G1 X129.862 Y105.839 E.01465
G1 X129.862 Y103.852 E.05569
G1 X130.377 Y103.766 E.01465
G1 X130.377 Y105.753 E.05569
G1 X130.893 Y105.666 E.01465
G1 X130.893 Y103.679 E.05569
G1 X131.074 Y103.649 E.00515
G1 X131.137 Y103.56 E.00303
G1 X131.137 Y104.15 E.01652
M204 S1000
;WIPE_START
G1 F8640
G1 X131.137 Y103.56 E-.13613
G1 X131.074 Y103.649 E-.02499
G1 X130.893 Y103.679 E-.04239
G1 X130.893 Y105.666 E-.45878
G1 X130.476 Y105.736 E-.09771
;WIPE_END
G1 E-.04 F2100
G1 Z.6 F720
G1 X131.137 Y105.195 F10800
G1 Z.2 F720
G1 E.8 F2100
M204 S800
M73 Q16 S8
G1 F1200
M73 P16 R8
G1 X131.137 Y105.827 E.01773
G1 X131.024 Y105.747 E.00388
M204 S1000
;WIPE_START
G1 F8640
G1 X131.137 Y105.827 E-.032
G1 X131.137 Y105.195 E-.14603
;WIPE_END
G1 E-.62198 F2100
G1 Z.6 F720
G1 X130.964 Y112.046 F10800
G1 Z.2 F720
G1 E.8 F2100
M204 S800
;TYPE:Perimeter
;WIDTH:0.42
G1 F1200
G1 X131.036 Y112.472 E.01356
G1 X126.612 Y113.216 E.14065
G1 X126.568 Y113.075 E.00464
G1 X126.414 Y112.782 E.01037
G1 X126.414 Y112.612 E.00535
G1 X126.869 Y112.657 E.01433
G1 X127.43 Y112.629 E.01763
G1 X130.905 Y112.055 E.11042
M204 S1000
G1 X131.274 Y111.612 F10800
M204 S800
;TYPE:External perimeter
G1 F1200
G1 X131.47 Y112.781 E.03717
G1 X126.349 Y113.643 E.16282
G1 X126.218 Y113.22 E.01388
G1 X126.037 Y112.876 E.0122
G1 X126.037 Y112.485 E.01223
G1 X125.972 Y112.301 E.00612
G1 X126.394 Y112.231 E.01342
G1 X126.878 Y112.279 E.01526
G1 X127.39 Y112.254 E.01607
G1 X131.214 Y111.622 E.12154
M204 S1000
G1 X131.132 Y111.986 F10800
G1 X130.814 Y112.29
M204 S800
;TYPE:Gap fill
;WIDTH:0.109075
G1 F1200
G1 X127.456 Y112.85 E.01873
M204 S1000
M204 S800
;WIDTH:0.109299
G1 X127.452 Y112.85 E.00002
M204 S1000
M204 S800
;WIDTH:0.143606
G1 X127.16 Y112.882 E.00246
M204 S1000
M204 S800
;WIDTH:0.177913
G1 X126.867 Y112.914 E.0033
M204 S1000
M204 S800
;WIDTH:0.179878
G1 X126.857 Y112.914 E.00012
M204 S1000
M204 S800
;WIDTH:0.198751
G1 X126.7 Y112.92 E.00204
M204 S1000
;WIPE_START
G1 F8640
G1 X126.857 Y112.914 E-.03636
;WIPE_END
G1 E-.76364 F2100
G1 Z.6 F720
G1 X124.516 Y103.415 F10800
G1 Z.2 F720
G1 E.8 F2100
M204 S800
;TYPE:Perimeter
;WIDTH:0.42
G1 F1200
G1 X124.445 Y102.99 E.01351
G1 X129.796 Y102.091 E.17015
G1 X129.868 Y102.515 E.01351
G1 X124.575 Y103.405 E.16827
M204 S1000
G1 X124.207 Y103.85 F10800
M204 S800
;TYPE:External perimeter
G1 F1200
G1 X124.01 Y102.681 E.03715
G1 X130.106 Y101.656 E.1938
G1 X130.302 Y102.825 E.03715
G1 X124.266 Y103.84 E.19192
M204 S1000
