; generated by PrusaSlicer 2.4.1+win64 on 2023-04-19 at 11:40:29 UTC


;
;
; 

; external perimeters extrusion width = 0.60mm
; perimeters extrusion width = 0.50mm
; infill extrusion width = 0.50mm
; solid infill extrusion width = 0.50mm
; top infill extrusion width = 0.45mm
; first layer extrusion width = 0.42mm

M73 P0 R181
M73 Q0 S182
M201 X1000 Y1000 Z200 E5000 ; sets maximum accelerations, mm/sec^2
M203 X200 Y200 Z12 E120 ; sets maximum feedrates, mm / sec
M204 P1250 R1250 T1250 ; sets acceleration (P, T) and retract acceleration (R), mm/sec^2
M205 X8.00 Y8.00 Z0.40 E4.50 ; sets the jerk limits, mm/sec
M205 S0 T0 ; sets the minimum extruding and travel feed rate, mm/sec
M107
;TYPE:Custom
M862.3 P "MK3S" ; printer model check
M862.1 P0.4 ; nozzle diameter check
M115 U3.11.0 ; tell printer latest fw version
G90 ; use absolute coordinates
M83 ; extruder relative mode
M104 S215 ; set extruder temp
M140 S60 ; set bed temp
M190 S60 ; wait for bed temp
M109 S215 ; wait for extruder temp
G28 W ; home all without mesh bed level
G80 ; mesh bed leveling

G1 Z0.2 F720
G1 Y-3 F1000 ; go outside print area
G92 E0
G1 X60 E9 F1000 ; intro line
G1 X100 E12.5 F1000 ; intro line

G92 E0
M221 S95

; Don't change E values below. Excessive value can damage the printer.

M907 E538 ; set extruder motor current
G21 ; set units to millimeters
G90 ; use absolute coordinates
M83 ; use relative distances for extrusion
M900 K0.05 ; Filament gcode LA 1.5
M900 K30 ; Filament gcode LA 1.0
M107
;LAYER_CHANGE
;Z:0.2
;HEIGHT:0.2
;BEFORE_LAYER_CHANGE
G92 E0.0
;0.2


G1 E-.8 F2100
G1 Z.4 F720
;AFTER_LAYER_CHANGE
;0.2
G1 X48.515 Y43.693 F10800
G1 Z.2 F720
G1 E.8 F2100
M204 S800
;TYPE:Skirt/Brim
;WIDTH:0.42
G1 F1200
G1 X49.56 Y42.817 E.04278
G1 X50.5 Y42.623 E.03008
G1 X190.5 Y42.623 E4.3896
G1 X191.807 Y43.015 E.04278
M73 Q0 S181
G1 X192.683 Y44.06 E.04278
G1 X192.87 Y44.818 E.02446
G1 X201.87 Y161.818 E3.67929
G1 X201.877 Y165 E.09978
G1 X201.485 Y166.307 E.04278
G1 X200.44 Y167.183 E.04278
G1 X199.5 Y167.377 E.03008
G1 X50.5 Y167.377 E4.67179
G1 X49.193 Y166.985 E.04278
G1 X48.317 Y165.94 E.04278
G1 X48.123 Y165 E.03008
G1 X48.123 Y45 E3.76252
G1 X48.497 Y43.75 E.0409
M204 S1000
; printing object RasiAbdeckung2.stl id:0 copy 0
;WIPE_START
G1 F8640
G1 X49.56 Y42.817 E-.32671
G1 X50.5 Y42.623 E-.22155
G1 X51.417 Y42.623 E-.21174
;WIPE_END
G1 E-.04 F2100
G1 Z.6 F720
G1 X51.287 Y45.787 F10800
G1 Z.2 F720
G1 E.8 F2100
M204 S800
;TYPE:Perimeter
G1 F1200
G1 X189.713 Y45.787 E4.34025
G1 X189.713 Y162.787 E3.66845
G1 X198.713 Y162.787 E.28219
G1 X198.713 Y164.213 E.04471
G1 X51.287 Y164.213 E4.62243
G1 X51.287 Y45.847 E3.71128
M204 S1000
G1 X50.91 Y45.41 F10800
M204 S800
;TYPE:External perimeter
M73 P0 R180
G1 F1200
G1 X190.09 Y45.41 E4.36389
G1 X190.09 Y162.41 E3.66845
M73 Q0 S180
G1 X199.09 Y162.41 E.28219
G1 X199.09 Y164.59 E.06835
G1 X50.91 Y164.59 E4.64608
G1 X50.91 Y45.47 E3.73492
M204 S1000
G1 X51.3 Y45.5 F10800
;WIPE_START
G1 F8640
G1 X54.201 Y45.469 E-.76
;WIPE_END
G1 E-.04 F2100
G1 Z.6 F720
G1 X189.6 Y46.664 F10800
G1 Z.2 F720
G1 E.8 F2100
M204 S800
;TYPE:Solid infill
;WIDTH:0.420742
G1 F1200
G1 X189.006 Y46.07 E.0264
G1 X188.471 Y46.07 E.01679
G1 X189.43 Y47.029 E.0426
G1 X189.43 Y47.563 E.01679
G1 X187.937 Y46.07 E.06634
G1 X187.403 Y46.07 E.01679
G1 X189.43 Y48.097 E.09008
G1 X189.43 Y48.632 E.01679
G1 X186.868 Y46.07 E.11382
G1 X186.334 Y46.07 E.01679
G1 X189.43 Y49.166 E.13756
G1 X189.43 Y49.7 E.01679
G1 X185.8 Y46.07 E.16129
G1 X185.265 Y46.07 E.01679
G1 X189.43 Y50.235 E.18503
G1 X189.43 Y50.769 E.01679
G1 X184.731 Y46.07 E.20877
G1 X184.197 Y46.07 E.01679
G1 X189.43 Y51.303 E.23251
G1 X189.43 Y51.838 E.01679
G1 X183.662 Y46.07 E.25625
G1 X183.128 Y46.07 E.01679
G1 X189.43 Y52.372 E.27999
G1 X189.43 Y52.906 E.01679
G1 X182.594 Y46.07 E.30373
G1 X182.059 Y46.07 E.01679
G1 X189.43 Y53.441 E.32747
G1 X189.43 Y53.975 E.01679
G1 X181.525 Y46.07 E.35121
G1 X180.991 Y46.07 E.01679
G1 X189.43 Y54.509 E.37495
G1 X189.43 Y55.043 E.01679
G1 X180.457 Y46.07 E.39869
G1 X179.922 Y46.07 E.01679
G1 X189.43 Y55.578 E.42243
G1 X189.43 Y56.112 E.01679
G1 X179.388 Y46.07 E.44617
G1 X178.854 Y46.07 E.01679
G1 X189.43 Y56.646 E.46991
G1 X189.43 Y57.181 E.01679
G1 X178.319 Y46.07 E.49365
G1 X177.785 Y46.07 E.01679
G1 X189.43 Y57.715 E.51738
G1 X189.43 Y58.249 E.01679
G1 X177.251 Y46.07 E.54112
G1 X176.716 Y46.07 E.01679
G1 X189.43 Y58.784 E.56486
G1 X189.43 Y59.318 E.01679
G1 X176.182 Y46.07 E.5886
G1 X175.648 Y46.07 E.01679
G1 X189.43 Y59.852 E.61234
G1 X189.43 Y60.387 E.01679
G1 X175.113 Y46.07 E.63608
G1 X174.579 Y46.07 E.01679
G1 X189.43 Y60.921 E.65982
G1 X189.43 Y61.455 E.01679
G1 X174.045 Y46.07 E.68356
G1 X173.51 Y46.07 E.01679
G1 X189.43 Y61.99 E.7073
G1 X189.43 Y62.524 E.01679
G1 X172.976 Y46.07 E.73104
G1 X172.442 Y46.07 E.01679
M73 Q1 S180
G1 X189.43 Y63.058 E.75478
G1 X189.43 Y63.593 E.01679
M73 P1 R180
G1 X171.907 Y46.07 E.77852
G1 X171.373 Y46.07 E.01679
G1 X189.43 Y64.127 E.80226
G1 X189.43 Y64.661 E.01679
G1 X170.839 Y46.07 E.826
G1 X170.304 Y46.07 E.01679
G1 X189.43 Y65.196 E.84974
G1 X189.43 Y65.73 E.01679
G1 X169.77 Y46.07 E.87348
G1 X169.236 Y46.07 E.01679
G1 X189.43 Y66.264 E.89721
G1 X189.43 Y66.799 E.01679
M73 P1 R179
G1 X168.701 Y46.07 E.92095
G1 X168.167 Y46.07 E.01679
G1 X189.43 Y67.333 E.94469
G1 X189.43 Y67.867 E.01679
G1 X167.633 Y46.07 E.96843
G1 X167.098 Y46.07 E.01679
G1 X189.43 Y68.402 E.99217
G1 X189.43 Y68.936 E.01679
G1 X166.564 Y46.07 E1.01591
G1 X166.03 Y46.07 E.01679
G1 X189.43 Y69.47 E1.03965
G1 X189.43 Y70.004 E.01679
M73 Q1 S179
G1 X165.496 Y46.07 E1.06339
G1 X164.961 Y46.07 E.01679
G1 X189.43 Y70.539 E1.08713
G1 X189.43 Y71.073 E.01679
G1 X164.427 Y46.07 E1.11087
G1 X163.893 Y46.07 E.01679
G1 X189.43 Y71.607 E1.13461
G1 X189.43 Y72.142 E.01679
G1 X163.358 Y46.07 E1.15835
G1 X162.824 Y46.07 E.01679
G1 X189.43 Y72.676 E1.18209
G1 X189.43 Y73.21 E.01679
G1 X162.29 Y46.07 E1.20583
G1 X161.755 Y46.07 E.01679
G1 X189.43 Y73.745 E1.22957
G1 X189.43 Y74.279 E.01679
G1 X161.221 Y46.07 E1.2533
G1 X160.687 Y46.07 E.01679
G1 X189.43 Y74.813 E1.27704
G1 X189.43 Y75.348 E.01679
G1 X160.152 Y46.07 E1.30078
G1 X159.618 Y46.07 E.01679
G1 X189.43 Y75.882 E1.32452
G1 X189.43 Y76.416 E.01679
G1 X159.084 Y46.07 E1.34826
G1 X158.549 Y46.07 E.01679
G1 X189.43 Y76.951 E1.372
G1 X189.43 Y77.485 E.01679
G1 X158.015 Y46.07 E1.39574
G1 X157.481 Y46.07 E.01679
G1 X189.43 Y78.019 E1.41948
G1 X189.43 Y78.554 E.01679
G1 X156.946 Y46.07 E1.44322
G1 X156.412 Y46.07 E.01679
G1 X189.43 Y79.088 E1.46696
G1 X189.43 Y79.622 E.01679
G1 X155.878 Y46.07 E1.4907
G1 X155.343 Y46.07 E.01679
G1 X189.43 Y80.157 E1.51444
G1 X189.43 Y80.691 E.01679
G1 X154.809 Y46.07 E1.53818
G1 X154.275 Y46.07 E.01679
G1 X189.43 Y81.225 E1.56192
G1 X189.43 Y81.76 E.01679
G1 X153.74 Y46.07 E1.58566
G1 X153.206 Y46.07 E.01679
G1 X189.43 Y82.294 E1.60939
G1 X189.43 Y82.828 E.01679
M73 P1 R178
G1 X152.672 Y46.07 E1.63313
G1 X152.138 Y46.07 E.01679
G1 X189.43 Y83.363 E1.65687
G1 X189.43 Y83.897 E.01679
G1 X151.603 Y46.07 E1.68061
G1 X151.069 Y46.07 E.01679
M73 Q1 S178
G1 X189.43 Y84.431 E1.70435
G1 X189.43 Y84.965 E.01679
G1 X150.535 Y46.07 E1.72809
G1 X150 Y46.07 E.01679
G1 X189.43 Y85.5 E1.75183
G1 X189.43 Y86.034 E.01679
G1 X149.466 Y46.07 E1.77557
G1 X148.932 Y46.07 E.01679
G1 X189.43 Y86.568 E1.79931
G1 X189.43 Y87.103 E.01679
G1 X148.397 Y46.07 E1.82305
G1 X147.863 Y46.07 E.01679
G1 X189.43 Y87.637 E1.84679
G1 X189.43 Y88.171 E.01679
G1 X147.329 Y46.07 E1.87053
G1 X146.794 Y46.07 E.01679
G1 X189.43 Y88.706 E1.89427
G1 X189.43 Y89.24 E.01679
G1 X146.26 Y46.07 E1.91801
G1 X145.726 Y46.07 E.01679
G1 X189.43 Y89.774 E1.94175
G1 X189.43 Y90.309 E.01679
M73 P2 R178
M73 Q2 S178
G1 X145.191 Y46.07 E1.96548
G1 X144.657 Y46.07 E.01679
G1 X189.43 Y90.843 E1.98922
G1 X189.43 Y91.377 E.01679
G1 X144.123 Y46.07 E2.01296
G1 X143.588 Y46.07 E.01679
G1 X189.43 Y91.912 E2.0367
G1 X189.43 Y92.446 E.01679
G1 X143.054 Y46.07 E2.06044
G1 X142.52 Y46.07 E.01679
G1 X189.43 Y92.98 E2.08418
G1 X189.43 Y93.515 E.01679
M73 P2 R177
G1 X141.985 Y46.07 E2.10792
G1 X141.451 Y46.07 E.01679
G1 X189.43 Y94.049 E2.13166
G1 X189.43 Y94.583 E.01679
G1 X140.917 Y46.07 E2.1554
G1 X140.382 Y46.07 E.01679
M73 Q2 S177
G1 X189.43 Y95.118 E2.17914
G1 X189.43 Y95.652 E.01679
G1 X139.848 Y46.07 E2.20288
G1 X139.314 Y46.07 E.01679
G1 X189.43 Y96.186 E2.22662
G1 X189.43 Y96.721 E.01679
G1 X138.779 Y46.07 E2.25036
G1 X138.245 Y46.07 E.01679
G1 X189.43 Y97.255 E2.2741
G1 X189.43 Y97.789 E.01679
G1 X137.711 Y46.07 E2.29784
G1 X137.177 Y46.07 E.01679
G1 X189.43 Y98.323 E2.32157
G1 X189.43 Y98.858 E.01679
G1 X136.642 Y46.07 E2.34531
G1 X136.108 Y46.07 E.01679
G1 X189.43 Y99.392 E2.36905
G1 X189.43 Y99.926 E.01679
G1 X135.574 Y46.07 E2.39279
G1 X135.039 Y46.07 E.01679
G1 X189.43 Y100.461 E2.41653
G1 X189.43 Y100.995 E.01679
G1 X134.505 Y46.07 E2.44027
G1 X133.971 Y46.07 E.01679
G1 X189.43 Y101.529 E2.46401
G1 X189.43 Y102.064 E.01679
M73 P2 R176
G1 X133.436 Y46.07 E2.48775
G1 X132.902 Y46.07 E.01679
G1 X189.43 Y102.598 E2.51149
G1 X189.43 Y103.132 E.01679
G1 X132.368 Y46.07 E2.53523
G1 X131.833 Y46.07 E.01679
M73 Q2 S176
G1 X189.43 Y103.667 E2.55897
G1 X189.43 Y104.201 E.01679
G1 X131.299 Y46.07 E2.58271
G1 X130.765 Y46.07 E.01679
G1 X189.43 Y104.735 E2.60645
G1 X189.43 Y105.27 E.01679
G1 X130.23 Y46.07 E2.63019
G1 X129.696 Y46.07 E.01679
M73 P3 R176
M73 Q3 S176
G1 X189.43 Y105.804 E2.65393
G1 X189.43 Y106.338 E.01679
G1 X129.162 Y46.07 E2.67766
G1 X128.627 Y46.07 E.01679
G1 X189.43 Y106.873 E2.7014
G1 X189.43 Y107.407 E.01679
G1 X128.093 Y46.07 E2.72514
G1 X127.559 Y46.07 E.01679
G1 X189.43 Y107.941 E2.74888
G1 X189.43 Y108.476 E.01679
G1 X127.024 Y46.07 E2.77262
G1 X126.49 Y46.07 E.01679
G1 X189.43 Y109.01 E2.79636
G1 X189.43 Y109.544 E.01679
G1 X125.956 Y46.07 E2.8201
G1 X125.421 Y46.07 E.01679
M73 P3 R175
G1 X189.43 Y110.079 E2.84384
G1 X189.43 Y110.613 E.01679
M73 Q3 S175
G1 X124.887 Y46.07 E2.86758
G1 X124.353 Y46.07 E.01679
G1 X189.43 Y111.147 E2.89132
G1 X189.43 Y111.682 E.01679
G1 X123.818 Y46.07 E2.91506
G1 X123.284 Y46.07 E.01679
G1 X189.43 Y112.216 E2.9388
G1 X189.43 Y112.75 E.01679
G1 X122.75 Y46.07 E2.96254
G1 X122.216 Y46.07 E.01679
G1 X189.43 Y113.284 E2.98628
G1 X189.43 Y113.819 E.01679
G1 X121.681 Y46.07 E3.01002
G1 X121.147 Y46.07 E.01679
G1 X189.43 Y114.353 E3.03375
G1 X189.43 Y114.887 E.01679
G1 X120.613 Y46.07 E3.05749
G1 X120.078 Y46.07 E.01679
G1 X189.43 Y115.422 E3.08123
G1 X189.43 Y115.956 E.01679
G1 X119.544 Y46.07 E3.10497
G1 X119.01 Y46.07 E.01679
M73 P3 R174
G1 X189.43 Y116.49 E3.12871
G1 X189.43 Y117.025 E.01679
G1 X118.475 Y46.07 E3.15245
G1 X117.941 Y46.07 E.01679
M73 Q3 S174
G1 X189.43 Y117.559 E3.17619
G1 X189.43 Y118.093 E.01679
G1 X117.407 Y46.07 E3.19993
G1 X116.872 Y46.07 E.01679
M73 P4 R174
M73 Q4 S174
G1 X189.43 Y118.628 E3.22367
G1 X189.43 Y119.162 E.01679
G1 X116.338 Y46.07 E3.24741
G1 X115.804 Y46.07 E.01679
G1 X189.43 Y119.696 E3.27115
G1 X189.43 Y120.231 E.01679
G1 X115.269 Y46.07 E3.29489
G1 X114.735 Y46.07 E.01679
G1 X189.43 Y120.765 E3.31863
G1 X189.43 Y121.299 E.01679
G1 X114.201 Y46.07 E3.34237
G1 X113.666 Y46.07 E.01679
G1 X189.43 Y121.834 E3.36611
G1 X189.43 Y122.368 E.01679
G1 X113.132 Y46.07 E3.38984
G1 X112.598 Y46.07 E.01679
M73 P4 R173
G1 X189.43 Y122.902 E3.41358
G1 X189.43 Y123.437 E.01679
M73 Q4 S173
G1 X112.063 Y46.07 E3.43732
G1 X111.529 Y46.07 E.01679
G1 X189.43 Y123.971 E3.46106
G1 X189.43 Y124.505 E.01679
G1 X110.995 Y46.07 E3.4848
G1 X110.46 Y46.07 E.01679
G1 X189.43 Y125.04 E3.50854
G1 X189.43 Y125.574 E.01679
G1 X109.926 Y46.07 E3.53228
G1 X109.392 Y46.07 E.01679
G1 X189.43 Y126.108 E3.55602
G1 X189.43 Y126.643 E.01679
G1 X108.858 Y46.07 E3.57976
G1 X108.323 Y46.07 E.01679
G1 X189.43 Y127.177 E3.6035
G1 X189.43 Y127.711 E.01679
G1 X107.789 Y46.07 E3.62724
G1 X107.255 Y46.07 E.01679
M73 P4 R172
G1 X189.43 Y128.245 E3.65098
G1 X189.43 Y128.78 E.01679
G1 X106.72 Y46.07 E3.67472
G1 X106.186 Y46.07 E.01679
M73 P5 R172
M73 Q5 S172
G1 X189.43 Y129.314 E3.69846
G1 X189.43 Y129.848 E.01679
G1 X105.652 Y46.07 E3.7222
G1 X105.117 Y46.07 E.01679
G1 X189.43 Y130.383 E3.74593
G1 X189.43 Y130.917 E.01679
G1 X104.583 Y46.07 E3.76967
G1 X104.049 Y46.07 E.01679
G1 X189.43 Y131.451 E3.79341
G1 X189.43 Y131.986 E.01679
G1 X103.514 Y46.07 E3.81715
G1 X102.98 Y46.07 E.01679
G1 X189.43 Y132.52 E3.84089
G1 X189.43 Y133.054 E.01679
G1 X102.446 Y46.07 E3.86463
G1 X101.911 Y46.07 E.01679
M73 P5 R171
G1 X189.43 Y133.589 E3.88837
G1 X189.43 Y134.123 E.01679
G1 X101.377 Y46.07 E3.91211
G1 X100.843 Y46.07 E.01679
M73 Q5 S171
G1 X189.43 Y134.657 E3.93585
G1 X189.43 Y135.192 E.01679
G1 X100.308 Y46.07 E3.95959
G1 X99.774 Y46.07 E.01679
G1 X189.43 Y135.726 E3.98333
G1 X189.43 Y136.26 E.01679
G1 X99.24 Y46.07 E4.00707
G1 X98.705 Y46.07 E.01679
G1 X189.43 Y136.795 E4.03081
G1 X189.43 Y137.329 E.01679
G1 X98.171 Y46.07 E4.05455
G1 X97.637 Y46.07 E.01679
G1 X189.43 Y137.863 E4.07829
G1 X189.43 Y138.398 E.01679
M73 P6 R171
M73 Q6 S171
G1 X97.102 Y46.07 E4.10202
G1 X96.568 Y46.07 E.01679
M73 P6 R170
G1 X189.43 Y138.932 E4.12576
G1 X189.43 Y139.466 E.01679
M73 Q6 S170
G1 X96.034 Y46.07 E4.1495
G1 X95.499 Y46.07 E.01679
G1 X189.43 Y140.001 E4.17324
G1 X189.43 Y140.535 E.01679
G1 X94.965 Y46.07 E4.19698
G1 X94.431 Y46.07 E.01679
G1 X189.43 Y141.069 E4.22072
G1 X189.43 Y141.603 E.01679
G1 X93.897 Y46.07 E4.24446
G1 X93.362 Y46.07 E.01679
G1 X189.43 Y142.138 E4.2682
G1 X189.43 Y142.672 E.01679
G1 X92.828 Y46.07 E4.29194
G1 X92.294 Y46.07 E.01679
G1 X189.43 Y143.206 E4.31568
G1 X189.43 Y143.741 E.01679
M73 P6 R169
G1 X91.759 Y46.07 E4.33942
G1 X91.225 Y46.07 E.01679
M73 Q6 S169
G1 X189.43 Y144.275 E4.36316
G1 X189.43 Y144.809 E.01679
G1 X90.691 Y46.07 E4.3869
G1 X90.156 Y46.07 E.01679
G1 X189.43 Y145.344 E4.41064
G1 X189.43 Y145.878 E.01679
G1 X89.622 Y46.07 E4.43438
G1 X89.088 Y46.07 E.01679
G1 X189.43 Y146.412 E4.45811
G1 X189.43 Y146.947 E.01679
M73 P7 R169
M73 Q7 S169
G1 X88.553 Y46.07 E4.48185
G1 X88.019 Y46.07 E.01679
G1 X189.43 Y147.481 E4.50559
G1 X189.43 Y148.015 E.01679
M73 P7 R168
G1 X87.485 Y46.07 E4.52933
G1 X86.95 Y46.07 E.01679
M73 Q7 S168
G1 X189.43 Y148.55 E4.55307
G1 X189.43 Y149.084 E.01679
G1 X86.416 Y46.07 E4.57681
G1 X85.882 Y46.07 E.01679
G1 X189.43 Y149.618 E4.60055
G1 X189.43 Y150.153 E.01679
G1 X85.347 Y46.07 E4.62429
G1 X84.813 Y46.07 E.01679
G1 X189.43 Y150.687 E4.64803
G1 X189.43 Y151.221 E.01679
G1 X84.279 Y46.07 E4.67177
G1 X83.744 Y46.07 E.01679
G1 X189.43 Y151.756 E4.69551
G1 X189.43 Y152.29 E.01679
M73 P7 R167
G1 X83.21 Y46.07 E4.71925
G1 X82.676 Y46.07 E.01679
M73 Q7 S167
G1 X189.43 Y152.824 E4.74299
G1 X189.43 Y153.359 E.01679
G1 X82.141 Y46.07 E4.76673
G1 X81.607 Y46.07 E.01679
G1 X189.43 Y153.893 E4.79047
G1 X189.43 Y154.427 E.01679
G1 X81.073 Y46.07 E4.8142
G1 X80.538 Y46.07 E.01679
M73 P8 R167
M73 Q8 S167
G1 X189.43 Y154.962 E4.83794
G1 X189.43 Y155.496 E.01679
G1 X80.004 Y46.07 E4.86168
G1 X79.47 Y46.07 E.01679
G1 X189.43 Y156.03 E4.88542
G1 X189.43 Y156.564 E.01679
M73 P8 R166
G1 X78.936 Y46.07 E4.90916
G1 X78.401 Y46.07 E.01679
M73 Q8 S166
G1 X189.43 Y157.099 E4.9329
G1 X189.43 Y157.633 E.01679
G1 X77.867 Y46.07 E4.95664
G1 X77.333 Y46.07 E.01679
G1 X189.43 Y158.167 E4.98038
G1 X189.43 Y158.702 E.01679
G1 X76.798 Y46.07 E5.00412
G1 X76.264 Y46.07 E.01679
G1 X189.43 Y159.236 E5.02786
G1 X189.43 Y159.77 E.01679
G1 X75.73 Y46.07 E5.0516
G1 X75.195 Y46.07 E.01679
G1 X189.43 Y160.305 E5.07534
G1 X189.43 Y160.839 E.01679
M73 P8 R165
G1 X74.661 Y46.07 E5.09908
G1 X74.127 Y46.07 E.01679
M73 Q8 S165
G1 X189.43 Y161.373 E5.12282
G1 X189.43 Y161.908 E.01679
G1 X73.592 Y46.07 E5.14656
G1 X73.058 Y46.07 E.01679
M73 P9 R165
M73 Q9 S165
G1 X189.6 Y162.612 E5.17783
M204 S1000
;WIPE_START
G1 F8640
G1 X187.272 Y160.284 E-.76
;WIPE_END
G1 E-.04 F2100
G1 Z.6 F720
G1 X197.903 Y162.9 F10800
G1 Z.2 F720
G1 E.8 F2100
M204 S800
G1 F1200
G1 X198.43 Y163.427 E.02341
G1 X198.43 Y163.93 E.0158
G1 X198.399 Y163.93 E.00099
G1 X197.538 Y163.07 E.03822
G1 X197.004 Y163.07 E.01679
G1 X197.864 Y163.93 E.03822
G1 X197.33 Y163.93 E.01679
G1 X196.47 Y163.07 E.03822
