; generated by PrusaSlicer 2.8.0+win64 on 2024-11-27 at 08:54:16 UTC


;
;
; 

; external perimeters extrusion width = 0.60mm
; perimeters extrusion width = 0.50mm
; infill extrusion width = 0.50mm
; solid infill extrusion width = 0.50mm
; top infill extrusion width = 0.45mm
; first layer extrusion width = 0.42mm

; external perimeters extrusion width = 0.60mm
; perimeters extrusion width = 0.50mm
; infill extrusion width = 0.50mm
; solid infill extrusion width = 0.50mm
; top infill extrusion width = 0.45mm
; first layer extrusion width = 0.42mm

; external perimeters extrusion width = 0.60mm
; perimeters extrusion width = 0.50mm
; infill extrusion width = 0.50mm
; solid infill extrusion width = 0.50mm
; top infill extrusion width = 0.45mm
; first layer extrusion width = 0.42mm

; external perimeters extrusion width = 0.60mm
; perimeters extrusion width = 0.50mm
; infill extrusion width = 0.50mm
; solid infill extrusion width = 0.50mm
; top infill extrusion width = 0.45mm
; first layer extrusion width = 0.42mm

; external perimeters extrusion width = 0.60mm
; perimeters extrusion width = 0.50mm
; infill extrusion width = 0.50mm
; solid infill extrusion width = 0.50mm
; top infill extrusion width = 0.45mm
; first layer extrusion width = 0.42mm

; external perimeters extrusion width = 0.60mm
; perimeters extrusion width = 0.50mm
; infill extrusion width = 0.50mm
; solid infill extrusion width = 0.50mm
; top infill extrusion width = 0.45mm
; first layer extrusion width = 0.42mm

M73 P0 R24
M73 Q0 S24
M201 X1000 Y1000 Z200 E5000 ; sets maximum accelerations, mm/sec^2
M203 X200 Y200 Z12 E120 ; sets maximum feedrates, mm / sec
M204 S1250 T1250 ; sets acceleration (S) and retract acceleration (R), mm/sec^2
M205 X8.00 Y8.00 Z0.40 E4.50 ; sets the jerk limits, mm/sec
M205 S0 T0 ; sets the minimum extruding and travel feed rate, mm/sec

; printing object Hacken Trennwand skadis Breite.stl id:3 copy 0
; stop printing object Hacken Trennwand skadis Breite.stl id:3 copy 0
; printing object Hacken Trennwand skadis Breite.stl id:1 copy 0
; stop printing object Hacken Trennwand skadis Breite.stl id:1 copy 0
; printing object Hacken Trennwand skadis Breite.stl id:0 copy 0
; stop printing object Hacken Trennwand skadis Breite.stl id:0 copy 0
; printing object Hacken Trennwand skadis Breite.stl id:2 copy 0
; stop printing object Hacken Trennwand skadis Breite.stl id:2 copy 0
; printing object Hacken Trennwand skadis Breite.stl id:4 copy 0
; stop printing object Hacken Trennwand skadis Breite.stl id:4 copy 0
; printing object Hacken Trennwand skadis Breite.stl id:5 copy 0
; stop printing object Hacken Trennwand skadis Breite.stl id:5 copy 0

;TYPE:Custom
M862.3 P "MK3S" ; printer model check
M862.1 P0.4 ; nozzle diameter check
M115 U3.13.3 ; tell printer latest fw version
G90 ; use absolute coordinates
M83 ; extruder relative mode
M104 S215 ; set extruder temp
M140 S60 ; set bed temp
M190 S60 ; wait for bed temp
M109 S215 ; wait for extruder temp
G28 W ; home all without mesh bed level
G80 X80.6655 Y86.5148 W100.047 H79.7782 ; mesh bed levelling

G1 Z0.2 F720
G1 Y-3 F1000 ; go outside print area
G92 E0
G1 X60 E9 F1000 ; intro line
G1 X100 E12.5 F1000 ; intro line

G92 E0
M221 S95

; Don't change E values below. Excessive value can damage the printer.

M907 E538 ; set extruder motor current
G21 ; set units to millimeters
G90 ; use absolute coordinates
M83 ; use relative distances for extrusion

M900 K0.05 ; Filament gcode LA 1.5
M900 K30 ; Filament gcode LA 1.0




M107
;LAYER_CHANGE
;Z:0.2
;HEIGHT:0.2
G1 E-.8 F2100
G1 Z.6 F720
G1 X81.245 Y87.644 F10800
G1 Z.2 F720
G1 E.8 F2100
M204 S800
;TYPE:Skirt/Brim
;WIDTH:0.42
G1 F1200
G1 X82.278 Y86.841 E.04102
G1 X83.043 Y86.703 E.02437
G1 X98.05 Y86.703 E.47053
G1 X128.626 Y86.815 E.9587
G1 X162.333 Y88.755 E1.05861
G1 X163.557 Y89.217 E.04102
G1 X164.284 Y90.248 E.03955
G1 X172.351 Y114.499 E.80134
G1 X180.479 Y154.021 E1.26512
G1 X180.524 Y162.462 E.26467
M73 P1 R24
M73 Q1 S24
G1 X180.133 Y163.71 E.04101
G1 X179.1 Y164.512 E.041
G1 X178.433 Y164.648 E.02134
G1 X145.79 Y166.102 E1.02451
G1 X134.193 Y166.104 E.36362
G1 X99.957 Y163.839 E1.07579
G1 X98.737 Y163.367 E.04102
G1 X98.23 Y162.789 E.02411
G1 X86.73 Y143.789 E.69635
G1 X86.433 Y142.951 E.02788
G1 X80.854 Y101.892 E1.29921
G1 X80.854 Y88.892 E.40761
M73 P1 R23
G1 X81.227 Y87.701 E.03913
M204 S1000
;WIPE_START
G1 F8640
G1 X81.245 Y87.644 E-.0138
G1 X82.278 Y86.841 E-.30211
G1 X83.043 Y86.703 E-.17949
G1 X84.362 Y86.703 E-.3046
;WIPE_END
G1 Z.6 F720
; printing object Hacken Trennwand skadis Breite.stl id:3 copy 0
G1 X102.513 Y159.29 F10800
G1 Z.2 F720
G1 E.8 F2100
M204 S800
;TYPE:Perimeter
;WIDTH:0.419999
G1 F1200
G1 X102.88 Y159.443 E.01247
G1 X107.823 Y159.443 E.15498
G1 X108.163 Y159.329 E.01124
G1 X108.346 Y159.094 E.00934
G1 X108.389 Y158.877 E.00694
G1 X108.389 Y154.443 E.13902
G1 X110.815 Y154.443 E.07607
G1 X110.815 Y155.655 E.038
G1 X110.815 Y160.868 E.16345
G1 X100.889 Y160.868 E.31122
G1 X100.889 Y132.434 E.89153
G1 X100.853 Y132.235 E.00634
G1 X100.776 Y132.095 E.00501
G1 X100.59 Y131.935 E.00769
G1 X100.323 Y131.868 E.00863
G1 X91.38 Y131.868 E.2804
G1 X91.283 Y131.877 E.00305
G1 X90.981 Y132.034 E.01067
G1 X90.815 Y132.434 E.01358
G1 X90.815 Y141.868 E.2958
G1 X89.389 Y141.868 E.04471
G1 X89.389 Y130.443 E.35822
G1 X102.815 Y130.443 E.42096
G1 X102.815 Y131.893 E.04546
M73 P2 R23
M73 Q2 S24
G1 X102.509 Y132.008 E.01025
G1 X102.351 Y132.235 E.00867
G1 X102.315 Y132.434 E.00634
G1 X102.323 Y158.975 E.83217
G1 X102.469 Y159.255 E.0099
M204 S1000
G1 X102.469 Y159.255 F10800
G1 X102.734 Y158.978
M204 S800
;TYPE:External perimeter
G1 F1200
G1 X102.747 Y159.01 E.00108
G1 X102.88 Y159.065 E.00451
G1 X107.823 Y159.065 E.15498
G1 X107.937 Y159.028 E.00376
G1 X108.012 Y158.877 E.00529
G1 X108.012 Y154.065 E.15088
G1 X111.192 Y154.065 E.09971
G1 X111.192 Y155.655 E.04985
G1 X111.192 Y161.245 E.17527
G1 X100.512 Y161.245 E.33486
G1 X100.512 Y132.434 E.90335
G1 X100.474 Y132.321 E.00374
G1 X100.323 Y132.245 E.0053
G1 X91.38 Y132.245 E.2804
G1 X91.247 Y132.301 E.00452
G1 X91.192 Y132.434 E.00451
G1 X91.192 Y142.245 E.30762
G1 X89.012 Y142.245 E.06835
G1 X89.012 Y130.065 E.38189
M73 Q2 S23
G1 X103.192 Y130.065 E.4446
G1 X103.192 Y132.245 E.06835
G1 X102.88 Y132.245 E.00978
G1 X102.757 Y132.292 E.00413
G1 X102.692 Y132.434 E.0049
G1 X102.692 Y158.877 E.8291
G1 X102.711 Y158.922 E.00153
M204 S1000
;WIPE_START
G1 F8640
G1 X102.734 Y158.978 E-.01398
G1 X102.747 Y159.01 E-.00798
G1 X102.88 Y159.065 E-.03323
G1 X106.106 Y159.065 E-.74481
;WIPE_END
G1 Z.6 F720
G1 X102.645 Y131.382 F10800
G1 Z.2 F720
G1 E.8 F2100
M204 S800
;TYPE:Solid infill
;WIDTH:0.423419
G1 F1200
G1 X102.045 Y130.782 E.02685
G1 X101.507 Y130.782 E.01702
G1 X102.418 Y131.692 E.04074
G1 X102.299 Y131.737 E.00403
G1 X102.128 Y131.94 E.0084
G1 X100.969 Y130.782 E.05184
G1 X100.431 Y130.782 E.01702
G1 X101.99 Y132.341 E.06976
G1 X101.976 Y132.865 E.01658
G1 X99.893 Y130.782 E.0932
G1 X99.355 Y130.782 E.01702
G1 X100.102 Y131.529 E.03342
G1 X99.564 Y131.529 E.01702
G1 X98.817 Y130.782 E.03342
G1 X98.279 Y130.782 E.01702
G1 X99.026 Y131.529 E.03342
G1 X98.488 Y131.529 E.01702
G1 X97.74 Y130.782 E.03345
G1 X97.202 Y130.782 E.01702
G1 X97.949 Y131.529 E.03342
G1 X97.411 Y131.529 E.01702
G1 X96.664 Y130.782 E.03342
G1 X96.126 Y130.782 E.01702
G1 X96.873 Y131.529 E.03342
G1 X96.335 Y131.529 E.01702
G1 X95.588 Y130.782 E.03342
G1 X95.05 Y130.782 E.01702
G1 X95.797 Y131.529 E.03342
G1 X95.259 Y131.529 E.01702
G1 X94.512 Y130.782 E.03342
G1 X93.974 Y130.782 E.01702
G1 X94.721 Y131.529 E.03342
G1 X94.183 Y131.529 E.01702
G1 X93.436 Y130.782 E.03342
G1 X92.898 Y130.782 E.01702
G1 X93.645 Y131.529 E.03342
G1 X93.107 Y131.529 E.01702
G1 X92.359 Y130.782 E.03345
G1 X91.821 Y130.782 E.01702
G1 X92.568 Y131.529 E.03342
G1 X92.03 Y131.529 E.01702
G1 X91.283 Y130.782 E.03342
G1 X90.745 Y130.782 E.01702
G1 X91.492 Y131.529 E.03342
G1 X91.207 Y131.544 E.00903
G1 X91.05 Y131.625 E.00559
G1 X90.207 Y130.782 E.03772
G1 X89.728 Y130.782 E.01515
G1 X89.728 Y130.841 E.00187
G1 X90.714 Y131.827 E.04412
G1 X90.557 Y132.208 E.01304
G1 X89.728 Y131.38 E.03707
G1 X89.728 Y131.918 E.01702
G1 X90.475 Y132.665 E.03342
G1 X90.475 Y133.203 E.01702
G1 X89.728 Y132.456 E.03342
G1 X89.728 Y132.994 E.01702
G1 X90.475 Y133.741 E.03342
G1 X90.475 Y134.279 E.01702
G1 X89.728 Y133.532 E.03342
G1 X89.728 Y134.07 E.01702
G1 X90.475 Y134.817 E.03342
G1 X90.475 Y135.355 E.01702
G1 X89.728 Y134.608 E.03342
G1 X89.728 Y135.146 E.01702
G1 X90.475 Y135.893 E.03342
G1 X90.475 Y136.431 E.01702
G1 X89.728 Y135.684 E.03342
G1 X89.728 Y136.222 E.01702
G1 X90.475 Y136.97 E.03345
G1 X90.475 Y137.508 E.01702
G1 X89.728 Y136.761 E.03342
G1 X89.728 Y137.299 E.01702
G1 X90.475 Y138.046 E.03342
G1 X90.475 Y138.584 E.01702
G1 X89.728 Y137.837 E.03342
G1 X89.728 Y138.375 E.01702
G1 X90.475 Y139.122 E.03342
G1 X90.475 Y139.66 E.01702
G1 X89.728 Y138.913 E.03342
G1 X89.728 Y139.451 E.01702
G1 X90.475 Y140.198 E.03342
G1 X90.475 Y140.736 E.01702
G1 X89.728 Y139.989 E.03342
G1 X89.728 Y140.527 E.01702
G1 X90.475 Y141.274 E.03342
G1 X90.475 Y141.529 E.00807
G1 X90.192 Y141.529 E.00895
G1 X89.559 Y140.896 E.02832
M204 S1000
;WIPE_START
G1 F8640
G1 X90.192 Y141.529 E-.2067
G1 X90.475 Y141.529 E-.06535
G1 X90.475 Y141.274 E-.05888
G1 X89.728 Y140.527 E-.24393
G1 X89.728 Y139.989 E-.12423
G1 X90.037 Y140.298 E-.10091
;WIPE_END
G1 Z.6 F720
G1 X101.059 Y132.486 F10800
G1 Z.2 F720
G1 E.8 F2100
M204 S800
G1 F1200
G1 X101.976 Y133.403 E.04103
G1 X101.976 Y133.941 E.01702
G1 X101.228 Y133.194 E.03345
G1 X101.228 Y133.732 E.01702
G1 X101.976 Y134.48 E.03347
G1 X101.977 Y135.018 E.01702
G1 X101.228 Y134.27 E.03349
G1 X101.228 Y134.808 E.01702
G1 X101.977 Y135.556 E.03349
M73 Q3 S23
G1 X101.977 Y136.095 E.01705
G1 X101.228 Y135.346 E.03351
G1 X101.228 Y135.884 E.01702
G1 X101.977 Y136.633 E.03351
M73 P3 R23
G1 X101.977 Y137.171 E.01702
G1 X101.228 Y136.422 E.03351
G1 X101.228 Y136.96 E.01702
G1 X101.978 Y137.71 E.03356
G1 X101.978 Y138.248 E.01702
G1 X101.228 Y137.498 E.03356
G1 X101.228 Y138.037 E.01705
G1 X101.978 Y138.786 E.03354
G1 X101.978 Y139.325 E.01705
G1 X101.228 Y138.575 E.03356
G1 X101.228 Y139.113 E.01702
G1 X101.979 Y139.863 E.03358
G1 X101.979 Y140.401 E.01702
G1 X101.228 Y139.651 E.03358
G1 X101.228 Y140.189 E.01702
G1 X101.979 Y140.94 E.0336
G1 X101.979 Y141.478 E.01702
G1 X101.228 Y140.727 E.0336
G1 X101.228 Y141.265 E.01702
G1 X101.98 Y142.016 E.03362
G1 X101.98 Y142.555 E.01705
G1 X101.228 Y141.803 E.03365
G1 X101.228 Y142.341 E.01702
G1 X101.98 Y143.093 E.03365
G1 X101.98 Y143.631 E.01702
G1 X101.228 Y142.88 E.03362
G1 X101.228 Y143.418 E.01702
G1 X101.98 Y144.17 E.03365
G1 X101.981 Y144.708 E.01702
G1 X101.228 Y143.956 E.03367
G1 X101.228 Y144.494 E.01702
G1 X101.981 Y145.246 E.03367
G1 X101.981 Y145.785 E.01705
G1 X101.228 Y145.032 E.03369
G1 X101.228 Y145.57 E.01702
G1 X101.981 Y146.323 E.03369
G1 X101.982 Y146.861 E.01702
G1 X101.228 Y146.108 E.03371
G1 X101.228 Y146.646 E.01702
G1 X101.982 Y147.4 E.03374
G1 X101.982 Y147.938 E.01702
G1 X101.228 Y147.184 E.03374
G1 X101.228 Y147.722 E.01702
G1 X101.982 Y148.476 E.03374
G1 X101.983 Y149.015 E.01705
G1 X101.228 Y148.261 E.03376
G1 X101.228 Y148.799 E.01702
G1 X101.983 Y149.553 E.03376
G1 X101.983 Y150.091 E.01702
G1 X101.228 Y149.337 E.03376
G1 X101.228 Y149.875 E.01702
G1 X101.983 Y150.63 E.03378
G1 X101.983 Y151.168 E.01702
G1 X101.228 Y150.413 E.03378
G1 X101.228 Y150.951 E.01702
G1 X101.984 Y151.706 E.0338
G1 X101.984 Y152.245 E.01705
G1 X101.228 Y151.489 E.03383
G1 X101.228 Y152.027 E.01702
G1 X101.984 Y152.783 E.03383
G1 X101.984 Y153.321 E.01702
G1 X101.228 Y152.565 E.03383
G1 X101.228 Y153.104 E.01705
G1 X101.985 Y153.86 E.03385
G1 X101.985 Y154.398 E.01702
G1 X101.228 Y153.642 E.03385
G1 X101.228 Y154.18 E.01702
G1 X101.985 Y154.936 E.03385
G1 X101.985 Y155.475 E.01705
G1 X101.228 Y154.718 E.03387
G1 X101.228 Y155.256 E.01702
G1 X101.986 Y156.013 E.03389
G1 X101.986 Y156.551 E.01702
G1 X101.228 Y155.794 E.03389
G1 X101.228 Y156.332 E.01702
G1 X101.986 Y157.09 E.03392
G1 X101.986 Y157.628 E.01702
G1 X101.228 Y156.87 E.03392
G1 X101.228 Y157.408 E.01702
G1 X101.986 Y158.166 E.03392
G1 X101.987 Y158.705 E.01705
G1 X101.059 Y157.777 E.04152
M204 S1000
;WIPE_START
G1 F8640
G1 X101.987 Y158.705 E-.30303
G1 X101.986 Y158.166 E-.12446
G1 X101.228 Y157.408 E-.24752
G1 X101.228 Y156.87 E-.12423
G1 X101.23 Y156.872 E-.00076
;WIPE_END
G1 Z.6 F720
G1 X110.271 Y154.612 F10800
G1 Z.2 F720
G1 E.8 F2100
M204 S800
G1 F1200
G1 X110.475 Y154.817 E.00915
G1 X110.475 Y155.355 E.01702
G1 X109.902 Y154.782 E.02564
G1 X109.364 Y154.782 E.01702
G1 X110.475 Y155.893 E.04971
G1 X110.475 Y156.431 E.01702
G1 X108.826 Y154.782 E.07378
G1 X108.728 Y154.782 E.0031
G1 X108.728 Y155.222 E.01392
G1 X110.475 Y156.97 E.07819
G1 X110.475 Y157.508 E.01702
G1 X108.728 Y155.761 E.07817
G1 X108.728 Y156.299 E.01702
G1 X110.475 Y158.046 E.07817
G1 X110.475 Y158.584 E.01702
G1 X108.728 Y156.837 E.07817
G1 X108.728 Y157.375 E.01702
G1 X110.475 Y159.122 E.07817
G1 X110.475 Y159.66 E.01702
G1 X108.728 Y157.913 E.07817
G1 X108.728 Y158.451 E.01702
G1 X110.475 Y160.198 E.07817
G1 X110.475 Y160.529 E.01047
G1 X110.268 Y160.529 E.00655
G1 X108.72 Y158.981 E.06926
G1 X108.657 Y159.235 E.00828
G1 X108.561 Y159.36 E.00499
G1 X109.73 Y160.529 E.05231
G1 X109.192 Y160.529 E.01702
G1 X108.298 Y159.635 E.04
G1 X107.991 Y159.768 E.01059
G1 X107.901 Y159.776 E.00286
G1 X108.654 Y160.529 E.03369
G1 X108.116 Y160.529 E.01702
G1 X107.369 Y159.782 E.03342
G1 X106.831 Y159.782 E.01702
G1 X107.578 Y160.529 E.03342
G1 X107.04 Y160.529 E.01702
G1 X106.292 Y159.782 E.03345
G1 X105.754 Y159.782 E.01702
G1 X106.501 Y160.529 E.03342
G1 X105.963 Y160.529 E.01702
G1 X105.216 Y159.782 E.03342
G1 X104.678 Y159.782 E.01702
G1 X105.425 Y160.529 E.03342
G1 X104.887 Y160.529 E.01702
G1 X104.14 Y159.782 E.03342
G1 X103.602 Y159.782 E.01702
G1 X104.349 Y160.529 E.03342
G1 X103.811 Y160.529 E.01702
G1 X102.894 Y159.612 E.04103
M204 S1000
;WIPE_START
G1 F8640
G1 X103.811 Y160.529 E-.29944
G1 X104.349 Y160.529 E-.12423
G1 X103.602 Y159.782 E-.24393
G1 X104.14 Y159.782 E-.12423
G1 X104.165 Y159.807 E-.00817
;WIPE_END
G1 Z.6 F720
G1 X103.442 Y160.699 F10800
G1 Z.2 F720
G1 E.8 F2100
M204 S800
G1 F1200
G1 X101.228 Y158.485 E.09906
G1 X101.228 Y159.023 E.01702
G1 X102.735 Y160.529 E.06741
G1 X102.197 Y160.529 E.01702
G1 X101.228 Y159.561 E.04333
G1 X101.228 Y160.099 E.01702
G1 X101.828 Y160.699 E.02685
M204 S1000
;WIPE_START
G1 F8640
G1 X101.228 Y160.099 E-.19593
G1 X101.228 Y159.561 E-.12423
G1 X102.197 Y160.529 E-.31626
G1 X102.735 Y160.529 E-.12423
G1 X102.614 Y160.409 E-.03935
;WIPE_END
G1 Z.6 F720
; stop printing object Hacken Trennwand skadis Breite.stl id:3 copy 0
; printing object Hacken Trennwand skadis Breite.stl id:4 copy 0
G1 X136.604 Y161.551 F10800
G1 Z.2 F720
G1 E.8 F2100
M204 S800
;TYPE:Perimeter
;WIDTH:0.419999
G1 F1200
G1 X136.971 Y161.703 E.01245
G1 X141.914 Y161.703 E.15498
G1 X142.254 Y161.59 E.01123
G1 X142.436 Y161.354 E.00934
G1 X142.48 Y161.137 E.00694
G1 X142.48 Y156.703 E.13902
G1 X144.905 Y156.703 E.07603
G1 X144.905 Y157.916 E.03803
G1 X144.905 Y163.129 E.16345
G1 X134.98 Y163.129 E.31119
G1 X134.98 Y134.694 E.89156
G1 X134.944 Y134.496 E.00631
G1 X134.866 Y134.355 E.00505
G1 X134.68 Y134.195 E.00769
G1 X134.414 Y134.129 E.00859
G1 X125.471 Y134.129 E.2804
G1 X125.373 Y134.137 E.00308
G1 X125.071 Y134.295 E.01069
G1 X124.905 Y134.694 E.01355
G1 X124.905 Y144.129 E.29583
G1 X123.48 Y144.129 E.04468
G1 X123.48 Y132.703 E.35825
G1 X136.905 Y132.703 E.42093
G1 X136.905 Y134.153 E.04546
G1 X136.599 Y134.268 E.01025
G1 X136.441 Y134.496 E.0087
G1 X136.405 Y134.694 E.00631
G1 X136.414 Y161.235 E.83217
G1 X136.56 Y161.515 E.0099
M73 P4 R23
M73 Q4 S23
M204 S1000
G1 X136.56 Y161.515 F10800
G1 X136.824 Y161.238
M204 S800
;TYPE:External perimeter
G1 F1200
G1 X136.838 Y161.271 E.00112
G1 X136.971 Y161.326 E.00451
G1 X141.914 Y161.326 E.15498
G1 X142.027 Y161.288 E.00374
G1 X142.103 Y161.137 E.0053
G1 X142.103 Y156.326 E.15085
