; generated by PrusaSlicer 2.4.1+win64 on 2024-02-20 at 15:27:54 UTC


;
;
; 

; external perimeters extrusion width = 0.60mm
; perimeters extrusion width = 0.50mm
; infill extrusion width = 0.50mm
; solid infill extrusion width = 0.50mm
; top infill extrusion width = 0.45mm
; first layer extrusion width = 0.42mm

M73 P0 R24
M73 Q0 S24
M201 X1000 Y1000 Z200 E5000 ; sets maximum accelerations, mm/sec^2
M203 X200 Y200 Z12 E120 ; sets maximum feedrates, mm / sec
M204 P1250 R1250 T1250 ; sets acceleration (P, T) and retract acceleration (R), mm/sec^2
M205 X8.00 Y8.00 Z0.40 E4.50 ; sets the jerk limits, mm/sec
M205 S0 T0 ; sets the minimum extruding and travel feed rate, mm/sec
M107
;TYPE:Custom
M862.3 P "MK3S" ; printer model check
M862.1 P0.4 ; nozzle diameter check
M115 U3.11.0 ; tell printer latest fw version
G90 ; use absolute coordinates
M83 ; extruder relative mode
M104 S215 ; set extruder temp
M140 S60 ; set bed temp
M190 S60 ; wait for bed temp
M109 S215 ; wait for extruder temp
G28 W ; home all without mesh bed level
G80 ; mesh bed leveling

G1 Z0.2 F720
G1 Y-3 F1000 ; go outside print area
G92 E0
G1 X60 E9 F1000 ; intro line
G1 X100 E12.5 F1000 ; intro line

G92 E0
M221 S95

; Don't change E values below. Excessive value can damage the printer.

M907 E538 ; set extruder motor current
G21 ; set units to millimeters
G90 ; use absolute coordinates
M83 ; use relative distances for extrusion
M900 K0.05 ; Filament gcode LA 1.5
M900 K30 ; Filament gcode LA 1.0
M107
;LAYER_CHANGE
;Z:0.2
;HEIGHT:0.2
;BEFORE_LAYER_CHANGE
G92 E0.0
;0.2


G1 E-.8 F2100
G1 Z.4 F720
;AFTER_LAYER_CHANGE
;0.2
G1 X102.515 Y83.693 F10800
G1 Z.2 F720
G1 E.8 F2100
M204 S800
;TYPE:Skirt/Brim
;WIDTH:0.42
G1 F1200
G1 X103.56 Y82.817 E.04278
G1 X104.5 Y82.623 E.03008
G1 X145.5 Y82.623 E1.28553
G1 X146.807 Y83.015 E.04278
G1 X147.683 Y84.06 E.04278
G1 X147.877 Y85 E.03008
G1 X147.877 Y125 E1.25417
G1 X147.485 Y126.307 E.04278
G1 X146.44 Y127.183 E.04278
G1 X145.5 Y127.377 E.03008
G1 X104.5 Y127.377 E1.28553
G1 X103.193 Y126.985 E.04278
G1 X102.317 Y125.94 E.04278
G1 X102.123 Y125 E.03008
G1 X102.123 Y85 E1.25417
G1 X102.497 Y83.75 E.0409
M204 S1000
; printing object MiniSdCardHalterung.stl id:0 copy 0
;WIPE_START
M73 P1 R24
M73 Q1 S24
G1 F8640
G1 X103.56 Y82.817 E-.32671
G1 X104.5 Y82.623 E-.22155
G1 X105.417 Y82.623 E-.21174
;WIPE_END
G1 E-.04 F2100
G1 Z.6 F720
G1 X118.71 Y109.21 F10800
G1 Z.2 F720
G1 E.8 F2100
M204 S800
;TYPE:Perimeter
G1 F1200
G1 X131.289 Y109.21 E.39441
G1 X131.289 Y111.789 E.08087
G1 X118.71 Y111.789 E.39441
G1 X118.71 Y109.27 E.07899
M204 S1000
G1 X119.087 Y109.587 F10800
M204 S800
;TYPE:External perimeter
G1 F1200
G1 X130.912 Y109.587 E.37076
G1 X130.912 Y111.412 E.05722
G1 X119.087 Y111.412 E.37076
G1 X119.087 Y109.647 E.05534
M204 S1000
G1 X118.905 Y109.231 F10800
;WIPE_START
G1 F8640
G1 X122.378 Y109.63 E-.76
;WIPE_END
G1 E-.04 F2100
G1 Z.6 F720
G1 X118.71 Y120.211 F10800
G1 Z.2 F720
G1 E.8 F2100
M204 S800
;TYPE:Perimeter
G1 F1200
G1 X131.289 Y120.211 E.39441
G1 X131.289 Y122.789 E.08084
G1 X118.71 Y122.789 E.39441
G1 X118.71 Y120.271 E.07895
M204 S1000
G1 X119.087 Y120.588 F10800
M204 S800
;TYPE:External perimeter
G1 F1200
G1 X130.912 Y120.588 E.37076
G1 X130.912 Y122.412 E.05719
G1 X119.087 Y122.412 E.37076
G1 X119.087 Y120.648 E.05531
M204 S1000
G1 X118.905 Y120.232 F10800
G1 X118.289 Y120.211
M204 S800
;TYPE:Perimeter
G1 F1200
G1 X118.289 Y122.789 E.08084
G1 X105.71 Y122.789 E.39441
G1 X105.71 Y120.211 E.08084
G1 X118.229 Y120.211 E.39253
M204 S1000
G1 X117.912 Y120.588 F10800
M204 S800
;TYPE:External perimeter
G1 F1200
G1 X117.912 Y122.412 E.05719
G1 X106.087 Y122.412 E.37076
G1 X106.087 Y120.588 E.05719
G1 X117.852 Y120.588 E.36888
M204 S1000
G1 X118.311 Y120.568 F10800
;WIPE_START
G1 F8640
G1 X117.912 Y122.412 E-.42139
G1 X116.446 Y122.412 E-.33861
;WIPE_END
G1 E-.04 F2100
G1 Z.6 F720
G1 X118.289 Y111.789 F10800
G1 Z.2 F720
G1 E.8 F2100
M204 S800
;TYPE:Perimeter
G1 F1200
G1 X105.71 Y111.789 E.39441
G1 X105.71 Y109.21 E.08087
G1 X118.289 Y109.21 E.39441
G1 X118.289 Y111.729 E.07899
M204 S1000
G1 X117.912 Y111.412 F10800
M204 S800
;TYPE:External perimeter
G1 F1200
G1 X106.087 Y111.412 E.37076
G1 X106.087 Y109.587 E.05722
G1 X117.912 Y109.587 E.37076
G1 X117.912 Y111.352 E.05534
M204 S1000
G1 X118.094 Y111.768 F10800
;WIPE_START
M73 Q2 S24
G1 F8640
G1 X114.621 Y111.369 E-.76
;WIPE_END
G1 E-.04 F2100
G1 Z.6 F720
G1 X118.289 Y99.789 F10800
M73 P2 R24
G1 Z.2 F720
G1 E.8 F2100
M204 S800
;TYPE:Perimeter
G1 F1200
G1 X105.71 Y99.789 E.39441
G1 X105.71 Y97.21 E.08087
G1 X118.289 Y97.21 E.39441
G1 X118.289 Y99.729 E.07899
M204 S1000
G1 X117.912 Y99.412 F10800
M204 S800
;TYPE:External perimeter
G1 F1200
G1 X106.087 Y99.412 E.37076
G1 X106.087 Y97.587 E.05722
G1 X117.912 Y97.587 E.37076
G1 X117.912 Y99.352 E.05534
M204 S1000
G1 X118.094 Y99.768 F10800
;WIPE_START
G1 F8640
G1 X114.621 Y99.369 E-.76
;WIPE_END
G1 E-.04 F2100
G1 Z.6 F720
G1 X118.289 Y89.789 F10800
G1 Z.2 F720
G1 E.8 F2100
M204 S800
;TYPE:Perimeter
G1 F1200
G1 X105.71 Y89.789 E.39441
G1 X105.71 Y87.21 E.08087
G1 X118.289 Y87.21 E.39441
G1 X118.289 Y89.729 E.07899
M204 S1000
G1 X117.912 Y89.412 F10800
M204 S800
;TYPE:External perimeter
G1 F1200
G1 X106.087 Y89.412 E.37076
G1 X106.087 Y87.587 E.05722
G1 X117.912 Y87.587 E.37076
G1 X117.912 Y89.352 E.05534
M204 S1000
G1 X118.094 Y89.768 F10800
G1 X118.71 Y89.789
M204 S800
;TYPE:Perimeter
G1 F1200
G1 X118.71 Y87.21 E.08087
G1 X131.289 Y87.21 E.39441
G1 X131.289 Y89.789 E.08087
G1 X118.77 Y89.789 E.39253
M204 S1000
G1 X119.087 Y89.412 F10800
M204 S800
;TYPE:External perimeter
G1 F1200
G1 X119.087 Y87.587 E.05722
G1 X130.912 Y87.587 E.37076
G1 X130.912 Y89.412 E.05722
G1 X119.147 Y89.412 E.36888
M204 S1000
G1 X118.688 Y89.432 F10800
;WIPE_START
G1 F8640
G1 X119.087 Y87.587 E-.42163
G1 X120.552 Y87.587 E-.33837
;WIPE_END
G1 E-.04 F2100
G1 Z.6 F720
G1 X118.71 Y97.21 F10800
G1 Z.2 F720
G1 E.8 F2100
M204 S800
;TYPE:Perimeter
G1 F1200
G1 X131.289 Y97.21 E.39441
G1 X131.289 Y99.789 E.08087
G1 X118.71 Y99.789 E.39441
G1 X118.71 Y97.27 E.07899
M204 S1000
G1 X119.087 Y97.587 F10800
M204 S800
;TYPE:External perimeter
G1 F1200
G1 X130.912 Y97.587 E.37076
G1 X130.912 Y99.412 E.05722
G1 X119.087 Y99.412 E.37076
G1 X119.087 Y97.647 E.05534
M204 S1000
G1 X118.905 Y97.231 F10800
;WIPE_START
G1 F8640
G1 X122.378 Y97.63 E-.76
;WIPE_END
G1 E-.04 F2100
G1 Z.6 F720
G1 X131.71 Y89.789 F10800
G1 Z.2 F720
G1 E.8 F2100
M204 S800
;TYPE:Perimeter
G1 F1200
G1 X131.71 Y87.21 E.08087
G1 X144.29 Y87.21 E.39444
G1 X144.29 Y89.789 E.08087
G1 X131.77 Y89.789 E.39256
M204 S1000
M73 Q3 S24
G1 X132.087 Y89.412 F10800
M204 S800
;TYPE:External perimeter
M73 P3 R24
G1 F1200
G1 X132.087 Y87.587 E.05722
G1 X143.913 Y87.587 E.3708
G1 X143.913 Y89.412 E.05722
G1 X132.147 Y89.412 E.36891
M204 S1000
G1 X131.688 Y89.432 F10800
;WIPE_START
G1 F8640
G1 X132.087 Y87.587 E-.42163
G1 X133.552 Y87.587 E-.33837
;WIPE_END
G1 E-.04 F2100
G1 Z.6 F720
G1 X131.71 Y97.21 F10800
G1 Z.2 F720
G1 E.8 F2100
M204 S800
;TYPE:Perimeter
G1 F1200
G1 X144.29 Y97.21 E.39444
G1 X144.29 Y99.789 E.08087
G1 X131.71 Y99.789 E.39444
G1 X131.71 Y97.27 E.07899
M204 S1000
G1 X132.087 Y97.587 F10800
M204 S800
;TYPE:External perimeter
G1 F1200
G1 X143.913 Y97.587 E.3708
G1 X143.913 Y99.412 E.05722
G1 X132.087 Y99.412 E.3708
G1 X132.087 Y97.647 E.05534
M204 S1000
G1 X131.905 Y97.231 F10800
;WIPE_START
G1 F8640
G1 X135.378 Y97.63 E-.76
;WIPE_END
G1 E-.04 F2100
G1 Z.6 F720
G1 X131.71 Y109.21 F10800
G1 Z.2 F720
M73 P3 R23
G1 E.8 F2100
M204 S800
;TYPE:Perimeter
G1 F1200
G1 X144.29 Y109.21 E.39444
G1 X144.29 Y111.789 E.08087
G1 X131.71 Y111.789 E.39444
G1 X131.71 Y109.27 E.07899
M204 S1000
G1 X132.087 Y109.587 F10800
M204 S800
;TYPE:External perimeter
G1 F1200
G1 X143.913 Y109.587 E.3708
G1 X143.913 Y111.412 E.05722
G1 X132.087 Y111.412 E.3708
G1 X132.087 Y109.647 E.05534
M204 S1000
G1 X131.905 Y109.231 F10800
;WIPE_START
G1 F8640
G1 X135.378 Y109.63 E-.76
;WIPE_END
G1 E-.04 F2100
G1 Z.6 F720
G1 X131.71 Y120.211 F10800
G1 Z.2 F720
G1 E.8 F2100
M204 S800
;TYPE:Perimeter
G1 F1200
G1 X144.29 Y120.211 E.39444
G1 X144.29 Y122.789 E.08084
M73 Q3 S23
G1 X131.71 Y122.789 E.39444
G1 X131.71 Y120.271 E.07895
M204 S1000
G1 X132.087 Y120.588 F10800
M204 S800
;TYPE:External perimeter
G1 F1200
G1 X143.913 Y120.588 E.3708
G1 X143.913 Y122.412 E.05719
G1 X132.087 Y122.412 E.3708
G1 X132.087 Y120.648 E.05531
M204 S1000
G1 X131.905 Y120.232 F10800
;WIPE_START
G1 F8640
G1 X135.378 Y120.631 E-.76
;WIPE_END
G1 E-.04 F2100
G1 Z.6 F720
G1 X144.713 Y124.213 F10800
G1 Z.2 F720
G1 E.8 F2100
M204 S800
;TYPE:Perimeter
G1 F1200
G1 X105.287 Y124.213 E1.23617
G1 X105.287 Y85.787 E1.20482
M73 P4 R23
M73 Q4 S23
G1 X144.713 Y85.787 E1.23617
G1 X144.713 Y124.153 E1.20293
M204 S1000
G1 X145.09 Y124.59 F10800
M204 S800
;TYPE:External perimeter
G1 F1200
G1 X104.91 Y124.59 E1.25982
G1 X104.91 Y85.41 E1.22846
G1 X145.09 Y85.41 E1.25982
G1 X145.09 Y124.53 E1.22658
M204 S1000
G1 X144.703 Y124.488 F10800
;WIPE_START
G1 F8640
G1 X141.799 Y124.535 E-.76
;WIPE_END
G1 E-.04 F2100
G1 Z.6 F720
G1 X144.6 Y86.664 F10800
G1 Z.2 F720
G1 E.8 F2100
M204 S800
;TYPE:Solid infill
;WIDTH:0.420732
G1 F1200
G1 X144.006 Y86.07 E.0264
G1 X143.471 Y86.07 E.01679
G1 X144.329 Y86.927 E.03809
G1 X143.794 Y86.927 E.01679
M73 Q5 S23
G1 X142.937 Y86.07 E.03809
G1 X142.403 Y86.07 E.01679
G1 X143.26 Y86.927 E.03809
G1 X142.726 Y86.927 E.01679
M73 P5 R23
G1 X141.868 Y86.07 E.03809
G1 X141.334 Y86.07 E.01679
G1 X142.191 Y86.927 E.03809
G1 X141.657 Y86.927 E.01679
G1 X140.8 Y86.07 E.03809
G1 X140.266 Y86.07 E.01679
G1 X141.123 Y86.927 E.03809
G1 X140.588 Y86.927 E.01679
G1 X139.731 Y86.07 E.03809
G1 X139.197 Y86.07 E.01679
G1 X140.054 Y86.927 E.03809
G1 X139.52 Y86.927 E.01679
G1 X138.663 Y86.07 E.03809
G1 X138.128 Y86.07 E.01679
G1 X138.986 Y86.927 E.03809
G1 X138.451 Y86.927 E.01679
G1 X137.594 Y86.07 E.03809
G1 X137.06 Y86.07 E.01679
G1 X137.917 Y86.927 E.03809
G1 X137.383 Y86.927 E.01679
G1 X136.525 Y86.07 E.03809
G1 X135.991 Y86.07 E.01679
G1 X136.848 Y86.927 E.03809
G1 X136.314 Y86.927 E.01679
G1 X135.457 Y86.07 E.03809
G1 X134.922 Y86.07 E.01679
G1 X135.78 Y86.927 E.03809
G1 X135.245 Y86.927 E.01679
G1 X134.388 Y86.07 E.03809
G1 X133.854 Y86.07 E.01679
G1 X134.711 Y86.927 E.03809
G1 X134.177 Y86.927 E.01679
G1 X133.32 Y86.07 E.03809
G1 X132.785 Y86.07 E.01679
G1 X133.642 Y86.927 E.03809
G1 X133.108 Y86.927 E.01679
G1 X132.251 Y86.07 E.03809
G1 X131.717 Y86.07 E.01679
G1 X132.574 Y86.927 E.03809
G1 X132.04 Y86.927 E.01679
G1 X131.182 Y86.07 E.03809
G1 X130.648 Y86.07 E.01679
G1 X131.505 Y86.927 E.03809
G1 X130.971 Y86.927 E.01679
G1 X130.114 Y86.07 E.03809
G1 X129.579 Y86.07 E.01679
G1 X130.437 Y86.927 E.03809
G1 X129.902 Y86.927 E.01679
G1 X129.045 Y86.07 E.03809
G1 X128.511 Y86.07 E.01679
G1 X129.368 Y86.927 E.03809
G1 X128.834 Y86.927 E.01679
G1 X127.976 Y86.07 E.03809
G1 X127.442 Y86.07 E.01679
G1 X128.299 Y86.927 E.03809
G1 X127.765 Y86.927 E.01679
G1 X126.908 Y86.07 E.03809
G1 X126.374 Y86.07 E.01679
G1 X127.231 Y86.927 E.03809
G1 X126.696 Y86.927 E.01679
G1 X125.839 Y86.07 E.03809
G1 X125.305 Y86.07 E.01679
G1 X126.162 Y86.927 E.03809
G1 X125.628 Y86.927 E.01679
G1 X124.771 Y86.07 E.03809
G1 X124.236 Y86.07 E.01679
G1 X125.094 Y86.927 E.03809
G1 X124.559 Y86.927 E.01679
G1 X123.702 Y86.07 E.03809
G1 X123.168 Y86.07 E.01679
G1 X124.025 Y86.927 E.03809
G1 X123.491 Y86.927 E.01679
G1 X122.633 Y86.07 E.03809
G1 X122.099 Y86.07 E.01679
G1 X122.956 Y86.927 E.03809
G1 X122.422 Y86.927 E.01679
G1 X121.565 Y86.07 E.03809
G1 X121.03 Y86.07 E.01679
G1 X121.888 Y86.927 E.03809
G1 X121.353 Y86.927 E.01679
G1 X120.496 Y86.07 E.03809
G1 X119.962 Y86.07 E.01679
G1 X120.819 Y86.927 E.03809
G1 X120.285 Y86.927 E.01679
G1 X119.428 Y86.07 E.03809
G1 X118.893 Y86.07 E.01679
G1 X119.75 Y86.927 E.03809
G1 X119.216 Y86.927 E.01679
G1 X118.359 Y86.07 E.03809
G1 X117.825 Y86.07 E.01679
G1 X118.682 Y86.927 E.03809
G1 X118.148 Y86.927 E.01679
G1 X117.29 Y86.07 E.03809
G1 X116.756 Y86.07 E.01679
G1 X117.613 Y86.927 E.03809
G1 X117.079 Y86.927 E.01679
G1 X116.222 Y86.07 E.03809
G1 X115.687 Y86.07 E.01679
G1 X116.545 Y86.927 E.03809
G1 X116.01 Y86.927 E.01679
G1 X115.153 Y86.07 E.03809
G1 X114.619 Y86.07 E.01679
G1 X115.476 Y86.927 E.03809
G1 X114.942 Y86.927 E.01679
G1 X114.084 Y86.07 E.03809
G1 X113.55 Y86.07 E.01679
G1 X114.407 Y86.927 E.03809
G1 X113.873 Y86.927 E.01679
G1 X113.016 Y86.07 E.03809
G1 X112.482 Y86.07 E.01679
G1 X113.339 Y86.927 E.03809
G1 X112.805 Y86.927 E.01679
G1 X111.947 Y86.07 E.03809
G1 X111.413 Y86.07 E.01679
G1 X112.27 Y86.927 E.03809
G1 X111.736 Y86.927 E.01679
G1 X110.879 Y86.07 E.03809
G1 X110.344 Y86.07 E.01679
G1 X111.202 Y86.927 E.03809
G1 X110.667 Y86.927 E.01679
G1 X109.81 Y86.07 E.03809
G1 X109.276 Y86.07 E.01679
G1 X110.133 Y86.927 E.03809
G1 X109.599 Y86.927 E.01679
G1 X108.741 Y86.07 E.03809
G1 X108.207 Y86.07 E.01679
G1 X109.064 Y86.927 E.03809
G1 X108.53 Y86.927 E.01679
G1 X107.673 Y86.07 E.03809
G1 X107.138 Y86.07 E.01679
G1 X107.996 Y86.927 E.03809
G1 X107.461 Y86.927 E.01679
G1 X106.604 Y86.07 E.03809
G1 X106.07 Y86.07 E.01679
G1 X106.927 Y86.927 E.03809
G1 X106.393 Y86.927 E.01679
G1 X105.57 Y86.104 E.03656
G1 X105.57 Y86.638 E.01679
G1 X106.028 Y87.097 E.02036
M204 S1000
;WIPE_START
G1 F8640
G1 X105.57 Y86.638 E-.14966
G1 X105.57 Y86.104 E-.12337
G1 X106.393 Y86.927 E-.26873
G1 X106.927 Y86.927 E-.12337
G1 X106.637 Y86.637 E-.09486
;WIPE_END
G1 E-.04 F2100
G1 Z.6 F720
G1 X144.098 Y89.902 F10800
G1 Z.2 F720
G1 E.8 F2100
M204 S800
G1 F1200
G1 X144.43 Y90.234 E.01476
G1 X144.43 Y90.769 E.01679
G1 X143.733 Y90.072 E.03096
G1 X143.199 Y90.072 E.01679
G1 X144.43 Y91.303 E.0547
G1 X144.43 Y91.837 E.01679
G1 X142.665 Y90.072 E.07844
G1 X142.13 Y90.072 E.01679
G1 X144.43 Y92.372 E.10218
G1 X144.43 Y92.906 E.01679
G1 X141.596 Y90.072 E.12591
G1 X141.062 Y90.072 E.01679
G1 X144.43 Y93.44 E.14965
G1 X144.43 Y93.975 E.01679
G1 X140.527 Y90.072 E.17339
G1 X139.993 Y90.072 E.01679
G1 X144.43 Y94.509 E.19713
G1 X144.43 Y95.043 E.01679
G1 X139.459 Y90.072 E.22087
G1 X138.924 Y90.072 E.01679
G1 X144.43 Y95.578 E.2446
G1 X144.43 Y96.112 E.01679
G1 X138.39 Y90.072 E.26834
G1 X137.856 Y90.072 E.01679
G1 X144.43 Y96.646 E.29208
G1 X144.43 Y96.927 E.00883
G1 X144.177 Y96.927 E.00796
G1 X137.322 Y90.072 E.30456
G1 X136.787 Y90.072 E.01679
G1 X143.642 Y96.927 E.30456
G1 X143.108 Y96.927 E.01679
G1 X136.253 Y90.072 E.30456
G1 X135.719 Y90.072 E.01679
G1 X142.574 Y96.927 E.30456
G1 X142.04 Y96.927 E.01679
G1 X135.184 Y90.072 E.30456
G1 X134.65 Y90.072 E.01679
G1 X141.505 Y96.927 E.30456
G1 X140.971 Y96.927 E.01679
G1 X134.116 Y90.072 E.30456
G1 X133.581 Y90.072 E.01679
M73 P6 R23
M73 Q6 S23
G1 X140.437 Y96.927 E.30456
G1 X139.902 Y96.927 E.01679
G1 X133.047 Y90.072 E.30456
G1 X132.513 Y90.072 E.01679
G1 X139.368 Y96.927 E.30456
G1 X138.834 Y96.927 E.01679
G1 X131.978 Y90.072 E.30456
G1 X131.444 Y90.072 E.01679
G1 X138.299 Y96.927 E.30456
G1 X137.765 Y96.927 E.01679
G1 X130.91 Y90.072 E.30456
G1 X130.376 Y90.072 E.01679
G1 X137.231 Y96.927 E.30456
G1 X136.696 Y96.927 E.01679
G1 X129.841 Y90.072 E.30456
G1 X129.307 Y90.072 E.01679
G1 X136.162 Y96.927 E.30456
G1 X135.628 Y96.927 E.01679
G1 X128.773 Y90.072 E.30456
G1 X128.238 Y90.072 E.01679
G1 X135.094 Y96.927 E.30456
G1 X134.559 Y96.927 E.01679
G1 X127.704 Y90.072 E.30456
G1 X127.17 Y90.072 E.01679
G1 X134.025 Y96.927 E.30456
G1 X133.491 Y96.927 E.01679
G1 X126.635 Y90.072 E.30456
G1 X126.101 Y90.072 E.01679
G1 X132.956 Y96.927 E.30456
G1 X132.422 Y96.927 E.01679
G1 X125.567 Y90.072 E.30456
G1 X125.032 Y90.072 E.01679
G1 X131.888 Y96.927 E.30456
G1 X131.353 Y96.927 E.01679
G1 X124.498 Y90.072 E.30456
G1 X123.964 Y90.072 E.01679
G1 X130.819 Y96.927 E.30456
G1 X130.285 Y96.927 E.01679
G1 X123.43 Y90.072 E.30456
G1 X122.895 Y90.072 E.01679
G1 X129.75 Y96.927 E.30456
G1 X129.216 Y96.927 E.01679
G1 X122.361 Y90.072 E.30456
G1 X121.827 Y90.072 E.01679
G1 X128.682 Y96.927 E.30456
G1 X128.148 Y96.927 E.01679
G1 X121.292 Y90.072 E.30456
G1 X120.758 Y90.072 E.01679
G1 X127.613 Y96.927 E.30456
G1 X127.079 Y96.927 E.01679
