; generated by PrusaSlicer 2.8.0+win64 on 2024-11-12 at 12:27:14 UTC


;
;
; 

; external perimeters extrusion width = 0.60mm
; perimeters extrusion width = 0.50mm
; infill extrusion width = 0.50mm
; solid infill extrusion width = 0.50mm
; top infill extrusion width = 0.45mm
; first layer extrusion width = 0.42mm

M73 P0 R71
M73 Q0 S71
M201 X1000 Y1000 Z200 E5000 ; sets maximum accelerations, mm/sec^2
M203 X200 Y200 Z12 E120 ; sets maximum feedrates, mm / sec
M204 S1250 T1250 ; sets acceleration (S) and retract acceleration (R), mm/sec^2
M205 X8.00 Y8.00 Z0.40 E4.50 ; sets the jerk limits, mm/sec
M205 S0 T0 ; sets the minimum extruding and travel feed rate, mm/sec

; printing object niveaDeoStaender (1).stl id:0 copy 0
; stop printing object niveaDeoStaender (1).stl id:0 copy 0

;TYPE:Custom
M862.3 P "MK3S" ; printer model check
M862.1 P0.4 ; nozzle diameter check
M115 U3.13.3 ; tell printer latest fw version
G90 ; use absolute coordinates
M83 ; extruder relative mode
M104 S215 ; set extruder temp
M140 S60 ; set bed temp
M190 S60 ; wait for bed temp
M109 S215 ; wait for extruder temp
G28 W ; home all without mesh bed level
G80 X97.6229 Y77.6229 W54.7542 H54.7542 ; mesh bed levelling

G1 Z0.2 F720
G1 Y-3 F1000 ; go outside print area
G92 E0
G1 X60 E9 F1000 ; intro line
G1 X100 E12.5 F1000 ; intro line

G92 E0
M221 S95

; Don't change E values below. Excessive value can damage the printer.

M907 E538 ; set extruder motor current
G21 ; set units to millimeters
G90 ; use absolute coordinates
M83 ; use relative distances for extrusion

M900 K0.05 ; Filament gcode LA 1.5
M900 K30 ; Filament gcode LA 1.0




M107
;LAYER_CHANGE
;Z:0.2
;HEIGHT:0.2
G1 E-.8 F2100
G1 Z.6 F720
G1 X98.202 Y78.752 F10800
G1 Z.2 F720
G1 E.8 F2100
M204 S800
;TYPE:Skirt/Brim
;WIDTH:0.42
G1 F1200
G1 X99.235 Y77.949 E.04102
G1 X100 Y77.811 E.02437
G1 X150 Y77.811 E1.56771
G1 X151.248 Y78.202 E.04101
G1 X152.051 Y79.235 E.04102
G1 X152.189 Y80 E.02437
G1 X152.189 Y130 E1.56771
G1 X151.798 Y131.248 E.04101
G1 X150.765 Y132.051 E.04102
G1 X150 Y132.189 E.02437
G1 X100 Y132.189 E1.56771
G1 X98.752 Y131.798 E.04101
G1 X97.949 Y130.765 E.04102
M73 P0 R70
G1 X97.811 Y130 E.02437
G1 X97.811 Y80 E1.56771
G1 X98.184 Y78.809 E.03913
M204 S1000
;WIPE_START
G1 F8640
G1 X98.202 Y78.752 E-.0138
G1 X99.235 Y77.949 E-.30211
G1 X100 Y77.811 E-.17949
G1 X101.319 Y77.811 E-.3046
;WIPE_END
G1 Z.6 F720
; printing object niveaDeoStaender (1).stl id:0 copy 0
G1 X149.213 Y80.787 F10800
G1 Z.2 F720
G1 E.8 F2100
M204 S800
;TYPE:Perimeter
;WIDTH:0.419999
G1 F1200
G1 X149.213 Y105 E.75918
G1 X149.213 Y129.213 E.75918
G1 X100.787 Y129.213 E1.51836
G1 X100.787 Y80.787 E1.51836
G1 X149.153 Y80.787 E1.51648
M204 S1000
G1 X149.59 Y80.41 F10800
M204 S800
;TYPE:External perimeter
G1 F1200
G1 X149.59 Y105 E.771
G1 X149.59 Y129.59 E.771
G1 X100.41 Y129.59 E1.542
G1 X100.41 Y80.41 E1.542
G1 X149.53 Y80.41 E1.54012
M204 S1000
;WIPE_START
G1 F8640
G1 X149.59 Y80.41 E-.01385
G1 X149.59 Y83.815 E-.78615
;WIPE_END
G1 Z.6 F720
G1 X149.043 Y81.721 F10800
G1 Z.2 F720
G1 E.8 F2100
M204 S800
;TYPE:Solid infill
;WIDTH:0.421019
G1 F1200
G1 X148.448 Y81.126 E.02645
G1 X147.914 Y81.126 E.01679
G1 X148.874 Y82.086 E.04268
G1 X148.874 Y82.621 E.01682
G1 X147.379 Y81.126 E.06647
G1 X146.844 Y81.126 E.01682
G1 X148.874 Y83.156 E.09026
G1 X148.874 Y83.69 E.01679
G1 X146.31 Y81.126 E.114
G1 X145.775 Y81.126 E.01682
G1 X148.874 Y84.225 E.13779
G1 X148.874 Y84.76 E.01682
G1 X145.24 Y81.126 E.16157
G1 X144.706 Y81.126 E.01679
G1 X148.874 Y85.295 E.18534
G1 X148.874 Y85.829 E.01679
G1 X144.171 Y81.126 E.2091
G1 X143.636 Y81.126 E.01682
G1 X148.874 Y86.364 E.23289
G1 X148.874 Y86.899 E.01682
G1 X143.101 Y81.126 E.25668
G1 X142.567 Y81.126 E.01679
G1 X148.874 Y87.433 E.28042
G1 X148.874 Y87.968 E.01682
G1 X142.032 Y81.126 E.30421
G1 X141.497 Y81.126 E.01682
G1 X148.874 Y88.503 E.32799
G1 X148.874 Y89.037 E.01679
M73 P1 R70
M73 Q1 S71
G1 X140.963 Y81.126 E.35174
G1 X140.428 Y81.126 E.01682
G1 X148.874 Y89.572 E.37552
G1 X148.874 Y90.107 E.01682
G1 X139.893 Y81.126 E.39931
G1 X139.358 Y81.126 E.01682
G1 X148.874 Y90.642 E.4231
G1 X148.874 Y91.176 E.01679
G1 X138.824 Y81.126 E.44684
G1 X138.289 Y81.126 E.01682
G1 X148.874 Y91.711 E.47063
G1 X148.874 Y92.246 E.01682
G1 X137.754 Y81.126 E.49441
G1 X137.22 Y81.126 E.01679
M73 Q1 S70
G1 X148.874 Y92.78 E.51815
G1 X148.874 Y93.315 E.01682
G1 X136.685 Y81.126 E.54194
G1 X136.15 Y81.126 E.01682
G1 X148.874 Y93.85 E.56573
G1 X148.874 Y94.385 E.01682
G1 X135.615 Y81.126 E.58952
G1 X135.081 Y81.126 E.01679
G1 X148.874 Y94.919 E.61326
G1 X148.874 Y95.454 E.01682
G1 X134.546 Y81.126 E.63705
G1 X134.011 Y81.126 E.01682
G1 X148.874 Y95.989 E.66083
G1 X148.874 Y96.523 E.01679
G1 X133.477 Y81.126 E.68457
G1 X132.942 Y81.126 E.01682
G1 X148.874 Y97.058 E.70836
G1 X148.874 Y97.593 E.01682
G1 X132.407 Y81.126 E.73215
G1 X131.872 Y81.126 E.01682
G1 X148.874 Y98.128 E.75594
G1 X148.874 Y98.662 E.01679
G1 X131.338 Y81.126 E.77968
G1 X130.803 Y81.126 E.01682
G1 X148.874 Y99.197 E.80346
G1 X148.874 Y99.732 E.01682
G1 X130.268 Y81.126 E.82725
G1 X129.734 Y81.126 E.01679
G1 X148.874 Y100.266 E.85099
G1 X148.874 Y100.801 E.01682
G1 X129.199 Y81.126 E.87478
G1 X128.664 Y81.126 E.01682
G1 X148.874 Y101.336 E.89857
G1 X148.874 Y101.871 E.01682
G1 X128.129 Y81.126 E.92235
G1 X127.595 Y81.126 E.01679
G1 X148.874 Y102.405 E.9461
G1 X148.874 Y102.94 E.01682
G1 X127.06 Y81.126 E.96988
G1 X126.525 Y81.126 E.01682
G1 X148.874 Y103.475 E.99367
G1 X148.874 Y104.009 E.01679
G1 X125.991 Y81.126 E1.01741
G1 X125.456 Y81.126 E.01682
M73 P1 R69
G1 X148.874 Y104.544 E1.0412
G1 X148.874 Y105.079 E.01682
G1 X124.921 Y81.126 E1.06499
G1 X124.386 Y81.126 E.01682
G1 X148.874 Y105.614 E1.08877
G1 X148.874 Y106.148 E.01679
G1 X123.852 Y81.126 E1.11252
G1 X123.317 Y81.126 E.01682
G1 X148.874 Y106.683 E1.1363
G1 X148.874 Y107.218 E.01682
G1 X122.782 Y81.126 E1.16009
G1 X122.248 Y81.126 E.01679
M73 P2 R69
M73 Q2 S70
G1 X148.874 Y107.752 E1.18383
G1 X148.874 Y108.287 E.01682
G1 X121.713 Y81.126 E1.20762
G1 X121.178 Y81.126 E.01682
G1 X148.874 Y108.822 E1.23141
G1 X148.874 Y109.357 E.01682
G1 X120.643 Y81.126 E1.25519
G1 X120.109 Y81.126 E.01679
G1 X148.874 Y109.891 E1.27894
G1 X148.874 Y110.426 E.01682
G1 X119.574 Y81.126 E1.30272
G1 X119.039 Y81.126 E.01682
G1 X148.874 Y110.961 E1.32651
G1 X148.874 Y111.495 E.01679
G1 X118.505 Y81.126 E1.35025
G1 X117.97 Y81.126 E.01682
G1 X148.874 Y112.03 E1.37404
G1 X148.874 Y112.565 E.01682
G1 X117.435 Y81.126 E1.39783
G1 X116.9 Y81.126 E.01682
G1 X148.874 Y113.1 E1.42161
G1 X148.874 Y113.634 E.01679
M73 Q2 S69
G1 X116.366 Y81.126 E1.44536
G1 X115.831 Y81.126 E.01682
G1 X148.874 Y114.169 E1.46914
G1 X148.874 Y114.704 E.01682
G1 X115.296 Y81.126 E1.49293
G1 X114.762 Y81.126 E.01679
G1 X148.874 Y115.238 E1.51667
G1 X148.874 Y115.773 E.01682
G1 X114.227 Y81.126 E1.54046
G1 X113.692 Y81.126 E.01682
G1 X148.874 Y116.308 E1.56425
G1 X148.874 Y116.843 E.01682
G1 X113.157 Y81.126 E1.58803
G1 X112.623 Y81.126 E.01679
G1 X148.874 Y117.377 E1.61178
G1 X148.874 Y117.912 E.01682
M73 P3 R69
M73 Q3 S69
G1 X112.088 Y81.126 E1.63556
G1 X111.553 Y81.126 E.01682
G1 X148.874 Y118.447 E1.65935
G1 X148.874 Y118.981 E.01679
G1 X111.019 Y81.126 E1.68309
G1 X110.484 Y81.126 E.01682
M73 P3 R68
G1 X148.874 Y119.516 E1.70688
G1 X148.874 Y120.051 E.01682
G1 X109.949 Y81.126 E1.73067
G1 X109.414 Y81.126 E.01682
G1 X148.874 Y120.586 E1.75445
G1 X148.874 Y121.12 E.01679
G1 X108.88 Y81.126 E1.7782
G1 X108.345 Y81.126 E.01682
G1 X148.874 Y121.655 E1.80198
G1 X148.874 Y122.19 E.01682
G1 X107.81 Y81.126 E1.82577
G1 X107.276 Y81.126 E.01679
G1 X148.874 Y122.724 E1.84951
G1 X148.874 Y123.259 E.01682
G1 X106.741 Y81.126 E1.8733
G1 X106.206 Y81.126 E.01682
G1 X148.874 Y123.794 E1.89709
G1 X148.874 Y124.329 E.01682
G1 X105.671 Y81.126 E1.92087
G1 X105.137 Y81.126 E.01679
G1 X148.874 Y124.863 E1.94461
G1 X148.874 Y125.398 E.01682
M73 Q3 S68
G1 X104.602 Y81.126 E1.9684
G1 X104.067 Y81.126 E.01682
M73 P4 R68
M73 Q4 S68
G1 X148.874 Y125.933 E1.99219
G1 X148.874 Y126.467 E.01679
G1 X103.533 Y81.126 E2.01593
G1 X102.998 Y81.126 E.01682
G1 X148.874 Y127.002 E2.03972
G1 X148.874 Y127.537 E.01682
G1 X102.463 Y81.126 E2.0635
G1 X101.928 Y81.126 E.01682
G1 X148.874 Y128.072 E2.08729
G1 X148.874 Y128.606 E.01679
G1 X101.394 Y81.126 E2.11103
G1 X101.126 Y81.126 E.00843
G1 X101.126 Y81.394 E.00843
G1 X148.606 Y128.874 E2.11103
G1 X148.071 Y128.874 E.01682
M73 P4 R67
G1 X101.126 Y81.929 E2.08725
G1 X101.126 Y82.463 E.01679
G1 X147.537 Y128.874 E2.0635
G1 X147.002 Y128.874 E.01682
G1 X101.126 Y82.998 E2.03972
G1 X101.126 Y83.533 E.01682
G1 X146.467 Y128.874 E2.01593
G1 X145.933 Y128.874 E.01679
G1 X101.126 Y84.067 E1.99219
G1 X101.126 Y84.602 E.01682
G1 X145.398 Y128.874 E1.9684
G1 X144.863 Y128.874 E.01682
M73 P5 R67
M73 Q5 S68
G1 X101.126 Y85.137 E1.94461
G1 X101.126 Y85.672 E.01682
G1 X144.328 Y128.874 E1.92083
G1 X143.794 Y128.874 E.01679
G1 X101.126 Y86.206 E1.89709
G1 X101.126 Y86.741 E.01682
G1 X143.259 Y128.874 E1.8733
G1 X142.724 Y128.874 E.01682
M73 Q5 S67
G1 X101.126 Y87.276 E1.84951
G1 X101.126 Y87.81 E.01679
G1 X142.19 Y128.874 E1.82577
G1 X141.655 Y128.874 E.01682
G1 X101.126 Y88.345 E1.80198
G1 X101.126 Y88.88 E.01682
G1 X141.12 Y128.874 E1.7782
G1 X140.585 Y128.874 E.01682
G1 X101.126 Y89.415 E1.75441
G1 X101.126 Y89.949 E.01679
G1 X140.051 Y128.874 E1.73067
G1 X139.516 Y128.874 E.01682
G1 X101.126 Y90.484 E1.70688
G1 X101.126 Y91.019 E.01682
G1 X138.981 Y128.874 E1.68309
G1 X138.447 Y128.874 E.01679
G1 X101.126 Y91.553 E1.65935
G1 X101.126 Y92.088 E.01682
G1 X137.912 Y128.874 E1.63556
G1 X137.377 Y128.874 E.01682
M73 P5 R66
G1 X101.126 Y92.623 E1.61178
G1 X101.126 Y93.158 E.01682
M73 P6 R66
M73 Q6 S67
G1 X136.842 Y128.874 E1.58799
G1 X136.308 Y128.874 E.01679
G1 X101.126 Y93.692 E1.56425
G1 X101.126 Y94.227 E.01682
G1 X135.773 Y128.874 E1.54046
G1 X135.238 Y128.874 E.01682
G1 X101.126 Y94.762 E1.51667
G1 X101.126 Y95.296 E.01679
G1 X134.704 Y128.874 E1.49293
G1 X134.169 Y128.874 E.01682
G1 X101.126 Y95.831 E1.46914
G1 X101.126 Y96.366 E.01682
G1 X133.634 Y128.874 E1.44536
G1 X133.099 Y128.874 E.01682
G1 X101.126 Y96.901 E1.42157
G1 X101.126 Y97.435 E.01679
G1 X132.565 Y128.874 E1.39783
G1 X132.03 Y128.874 E.01682
G1 X101.126 Y97.97 E1.37404
G1 X101.126 Y98.505 E.01682
G1 X131.495 Y128.874 E1.35025
G1 X130.961 Y128.874 E.01679
G1 X101.126 Y99.039 E1.32651
G1 X101.126 Y99.574 E.01682
G1 X130.426 Y128.874 E1.30272
G1 X129.891 Y128.874 E.01682
M73 Q6 S66
G1 X101.126 Y100.109 E1.27894
G1 X101.126 Y100.644 E.01682
G1 X129.357 Y128.874 E1.25517
G1 X128.822 Y128.874 E.01682
G1 X101.126 Y101.178 E1.23141
G1 X101.126 Y101.713 E.01682
G1 X128.287 Y128.874 E1.20762
G1 X127.752 Y128.874 E.01682
G1 X101.126 Y102.248 E1.18383
G1 X101.126 Y102.782 E.01679
M73 P7 R66
G1 X127.218 Y128.874 E1.16009
G1 X126.683 Y128.874 E.01682
M73 Q7 S66
G1 X101.126 Y103.317 E1.1363
G1 X101.126 Y103.852 E.01682
G1 X126.148 Y128.874 E1.11252
G1 X125.614 Y128.874 E.01679
G1 X101.126 Y104.386 E1.08877
G1 X101.126 Y104.921 E.01682
G1 X125.079 Y128.874 E1.06499
G1 X124.544 Y128.874 E.01682
G1 X101.126 Y105.456 E1.0412
G1 X101.126 Y105.991 E.01682
G1 X124.009 Y128.874 E1.01741
G1 X123.475 Y128.874 E.01679
G1 X101.126 Y106.525 E.99367
G1 X101.126 Y107.06 E.01682
G1 X122.94 Y128.874 E.96988
G1 X122.405 Y128.874 E.01682
G1 X101.126 Y107.595 E.9461
G1 X101.126 Y108.129 E.01679
M73 P7 R65
G1 X121.871 Y128.874 E.92235
G1 X121.336 Y128.874 E.01682
G1 X101.126 Y108.664 E.89857
G1 X101.126 Y109.199 E.01682
G1 X120.801 Y128.874 E.87478
G1 X120.266 Y128.874 E.01682
G1 X101.126 Y109.734 E.85099
G1 X101.126 Y110.268 E.01679
G1 X119.732 Y128.874 E.82725
G1 X119.197 Y128.874 E.01682
G1 X101.126 Y110.803 E.80346
G1 X101.126 Y111.338 E.01682
G1 X118.662 Y128.874 E.77968
G1 X118.128 Y128.874 E.01679
G1 X101.126 Y111.872 E.75594
G1 X101.126 Y112.407 E.01682
G1 X117.593 Y128.874 E.73215
G1 X117.058 Y128.874 E.01682
G1 X101.126 Y112.942 E.70836
G1 X101.126 Y113.477 E.01682
G1 X116.523 Y128.874 E.68457
G1 X115.989 Y128.874 E.01679
G1 X101.126 Y114.011 E.66083
G1 X101.126 Y114.546 E.01682
G1 X115.454 Y128.874 E.63705
G1 X114.919 Y128.874 E.01682
G1 X101.126 Y115.081 E.61326
G1 X101.126 Y115.615 E.01679
G1 X114.385 Y128.874 E.58952
G1 X113.85 Y128.874 E.01682
G1 X101.126 Y116.15 E.56573
G1 X101.126 Y116.685 E.01682
G1 X113.315 Y128.874 E.54194
G1 X112.78 Y128.874 E.01682
G1 X101.126 Y117.22 E.51815
G1 X101.126 Y117.754 E.01679
G1 X112.246 Y128.874 E.49441
G1 X111.711 Y128.874 E.01682
G1 X101.126 Y118.289 E.47063
G1 X101.126 Y118.824 E.01682
G1 X111.176 Y128.874 E.44684
G1 X110.642 Y128.874 E.01679
G1 X101.126 Y119.358 E.4231
G1 X101.126 Y119.893 E.01682
G1 X110.107 Y128.874 E.39931
G1 X109.572 Y128.874 E.01682
G1 X101.126 Y120.428 E.37552
G1 X101.126 Y120.963 E.01682
M73 P8 R65
G1 X109.037 Y128.874 E.35174
G1 X108.503 Y128.874 E.01679
G1 X101.126 Y121.497 E.32799
G1 X101.126 Y122.032 E.01682
G1 X107.968 Y128.874 E.30421
G1 X107.433 Y128.874 E.01682
G1 X101.126 Y122.567 E.28042
G1 X101.126 Y123.101 E.01679
M73 Q8 S66
G1 X106.899 Y128.874 E.25668
G1 X106.364 Y128.874 E.01682
G1 X101.126 Y123.636 E.23289
G1 X101.126 Y124.171 E.01682
G1 X105.829 Y128.874 E.2091
G1 X105.294 Y128.874 E.01682
G1 X101.126 Y124.706 E.18532
G1 X101.126 Y125.24 E.01679
G1 X104.76 Y128.874 E.16157
G1 X104.225 Y128.874 E.01682
G1 X101.126 Y125.775 E.13779
G1 X101.126 Y126.31 E.01682
G1 X103.69 Y128.874 E.114
G1 X103.156 Y128.874 E.01679
G1 X101.126 Y126.844 E.09026
G1 X101.126 Y127.379 E.01682
G1 X102.621 Y128.874 E.06647
G1 X102.086 Y128.874 E.01682
G1 X101.126 Y127.914 E.04268
G1 X101.126 Y128.449 E.01682
G1 X101.721 Y129.043 E.02643
M204 S1000
M106 S84.15
;LAYER_CHANGE
;Z:0.5
;HEIGHT:0.3
;BEFORE_LAYER_CHANGE
G92 E0.0
;0.5


;WIPE_START
G1 F8640
G1 X101.126 Y128.449 E-.19413
G1 X101.126 Y127.914 E-.12353
G1 X102.086 Y128.874 E-.31348
G1 X102.621 Y128.874 E-.12353
G1 X102.482 Y128.735 E-.04533
;WIPE_END
G1 Z.5 F720
;AFTER_LAYER_CHANGE
;0.5
M104 S210 ; set temperature
; stop printing object niveaDeoStaender (1).stl id:0 copy 0
G1 Z.9
G1 X102.482 Y132.189 F10800
G1 Z.5 F720
G1 E.8 F2100
;TYPE:Skirt/Brim
;WIDTH:0.42
G1 F2700
G1 X100 Y132.189 E.11009
G1 X98.752 Y131.798 E.05801
G1 X97.949 Y130.765 E.05803
G1 X97.811 Y130 E.03448
M73 Q8 S65
G1 X97.811 Y80 E2.21774
G1 X98.202 Y78.752 E.05801
G1 X99.235 Y77.949 E.05803
G1 X100 Y77.811 E.03448
G1 X150 Y77.811 E2.21774
G1 X151.248 Y78.202 E.05801
G1 X152.051 Y79.235 E.05803
G1 X152.189 Y80 E.03448
G1 X152.189 Y130 E2.21774
G1 X151.798 Y131.248 E.05801
G1 X150.765 Y132.051 E.05803
G1 X150 Y132.189 E.03448
G1 X102.542 Y132.189 E2.10499
;WIPE_START
G1 F8640
G1 X102.482 Y132.189 E-.01385
G1 X100 Y132.189 E-.5731
G1 X99.119 Y131.913 E-.21305
;WIPE_END
G1 Z.9 F720
; printing object niveaDeoStaender (1).stl id:0 copy 0
G1 X149.214 Y80.786 F10800
G1 Z.5 F720
G1 E.8 F2100
M204 S800
;TYPE:Perimeter
;WIDTH:0.5
G1 F3000
G1 X149.214 Y105 E1.31561
G1 X149.214 Y129.214 E1.31561
G1 X100.786 Y129.214 E2.63123
G1 X100.786 Y80.786 E2.63123
G1 X149.154 Y80.786 E2.62797
M204 S1000
G1 X149.154 Y80.786 F10800
G1 X149.7 Y80.3
M204 S800
;TYPE:External perimeter
;WIDTH:0.6
G1 F2099.997
G1 X149.7 Y105 E1.65009
G1 X149.7 Y129.7 E1.65009
G1 X100.3 Y129.7 E3.30018
G1 X100.3 Y80.3 E3.30018
G1 X149.64 Y80.3 E3.29618
M204 S1000
;WIPE_START
G1 F8640
G1 X149.7 Y80.3 E-.01385
G1 X149.7 Y83.705 E-.78615
;WIPE_END
G1 Z.9 F720
G1 X101.296 Y81.213 F10800
G1 Z.5 F720
G1 E.8 F2100
;TYPE:Solid infill
;WIDTH:0.605691
G1 F4800
G1 X101.248 Y81.165 E.00458
G1 X101.183 Y81.183 E.00455
G1 X101.165 Y81.248 E.00455
G1 X101.213 Y81.296 E.00458
G1 X101.278 Y81.278 E.00455
;WIDTH:0.5
G1 X101.178 Y81.974 E.0382
G1 X101.974 Y81.178 E.06116
G1 X102.59 Y81.178 E.03347
G1 X101.178 Y82.59 E.1085
G1 X101.178 Y83.206 E.03347
G1 X103.206 Y81.178 E.15583
G1 X103.822 Y81.178 E.03347
G1 X101.178 Y83.822 E.20316
G1 X101.178 Y84.438 E.03347
G1 X104.438 Y81.178 E.25049
G1 X105.054 Y81.178 E.03347
G1 X101.178 Y85.054 E.29782
G1 X101.178 Y85.671 E.03352
G1 X105.671 Y81.178 E.34523
G1 X106.287 Y81.178 E.03347
