; generated by PrusaSlicer 2.4.1+win64 on 2024-02-29 at 17:36:08 UTC


;
;
; 

; external perimeters extrusion width = 0.60mm
; perimeters extrusion width = 0.50mm
; infill extrusion width = 0.50mm
; solid infill extrusion width = 0.50mm
; top infill extrusion width = 0.45mm
; first layer extrusion width = 0.42mm

M73 P0 R70
M73 Q0 S70
M201 X1000 Y1000 Z200 E5000 ; sets maximum accelerations, mm/sec^2
M203 X200 Y200 Z12 E120 ; sets maximum feedrates, mm / sec
M204 P1250 R1250 T1250 ; sets acceleration (P, T) and retract acceleration (R), mm/sec^2
M205 X8.00 Y8.00 Z0.40 E4.50 ; sets the jerk limits, mm/sec
M205 S0 T0 ; sets the minimum extruding and travel feed rate, mm/sec
M107
;TYPE:Custom
M862.3 P "MK3S" ; printer model check
M862.1 P0.4 ; nozzle diameter check
M115 U3.11.0 ; tell printer latest fw version
G90 ; use absolute coordinates
M83 ; extruder relative mode
M104 S215 ; set extruder temp
M140 S60 ; set bed temp
M190 S60 ; wait for bed temp
M109 S215 ; wait for extruder temp
G28 W ; home all without mesh bed level
G80 ; mesh bed leveling

G1 Z0.2 F720
G1 Y-3 F1000 ; go outside print area
G92 E0
G1 X60 E9 F1000 ; intro line
G1 X100 E12.5 F1000 ; intro line

G92 E0
M221 S95

; Don't change E values below. Excessive value can damage the printer.

M907 E538 ; set extruder motor current
G21 ; set units to millimeters
G90 ; use absolute coordinates
M83 ; use relative distances for extrusion
M900 K0.05 ; Filament gcode LA 1.5
M900 K30 ; Filament gcode LA 1.0
M107
;LAYER_CHANGE
;Z:0.2
;HEIGHT:0.2
;BEFORE_LAYER_CHANGE
G92 E0.0
;0.2


G1 E-.8 F2100
G1 Z.4 F720
;AFTER_LAYER_CHANGE
;0.2
G1 X97.515 Y88.193 F10800
G1 Z.2 F720
G1 E.8 F2100
M204 S800
;TYPE:Skirt/Brim
;WIDTH:0.42
G1 F1200
G1 X98.56 Y87.317 E.04278
G1 X99.5 Y87.123 E.03008
G1 X150.5 Y87.123 E1.59907
G1 X151.807 Y87.515 E.04278
G1 X152.683 Y88.56 E.04278
G1 X152.877 Y89.5 E.03008
G1 X152.877 Y120.5 E.97198
G1 X152.485 Y121.807 E.04278
G1 X151.44 Y122.683 E.04278
G1 X150.5 Y122.877 E.03008
G1 X99.5 Y122.877 E1.59907
G1 X98.193 Y122.485 E.04278
G1 X97.317 Y121.44 E.04278
G1 X97.123 Y120.5 E.03008
G1 X97.123 Y89.5 E.97198
G1 X97.497 Y88.25 E.0409
M204 S1000
; printing object SDcardholder.stl id:0 copy 0
;WIPE_START
G1 F8640
G1 X98.56 Y87.317 E-.32671
G1 X99.5 Y87.123 E-.22155
G1 X100.417 Y87.123 E-.21174
;WIPE_END
G1 E-.04 F2100
G1 Z.6 F720
G1 X100.287 Y90.287 F10800
G1 Z.2 F720
G1 E.8 F2100
M204 S800
;TYPE:Perimeter
G1 F1200
G1 X149.713 Y90.287 E1.54971
G1 X149.713 Y119.713 E.92263
G1 X100.287 Y119.713 E1.54971
G1 X100.287 Y90.347 E.92075
M204 S1000
M73 P0 R69
G1 X99.91 Y89.91 F10800
M204 S800
;TYPE:External perimeter
G1 F1200
G1 X150.09 Y89.91 E1.57336
G1 X150.09 Y120.09 E.94627
G1 X99.91 Y120.09 E1.57336
G1 X99.91 Y89.97 E.94439
M204 S1000
G1 X100.304 Y89.982 F10800
;WIPE_START
G1 F8640
G1 X103.201 Y89.966 E-.76
;WIPE_END
G1 E-.04 F2100
G1 Z.6 F720
G1 X148.837 Y90.4 F10800
G1 Z.2 F720
G1 E.8 F2100
M204 S800
;TYPE:Solid infill
;WIDTH:0.420402
G1 F1200
G1 X149.43 Y90.994 E.02634
G1 X149.43 Y91.527 E.01676
G1 X148.473 Y90.57 E.04251
G1 X147.939 Y90.57 E.01676
G1 X149.43 Y92.061 E.0662
G1 X149.43 Y92.595 E.01676
G1 X147.405 Y90.57 E.0899
G1 X146.871 Y90.57 E.01676
G1 X149.43 Y93.129 E.1136
G1 X149.43 Y93.663 E.01676
G1 X146.337 Y90.57 E.13729
G1 X145.803 Y90.57 E.01676
M73 Q0 S69
G1 X149.43 Y94.197 E.16099
G1 X149.43 Y94.731 E.01676
G1 X145.269 Y90.57 E.18469
G1 X144.736 Y90.57 E.01676
G1 X149.43 Y95.264 E.20838
G1 X149.43 Y95.798 E.01676
G1 X144.202 Y90.57 E.23208
G1 X143.668 Y90.57 E.01676
G1 X149.43 Y96.332 E.25578
G1 X149.43 Y96.866 E.01676
G1 X143.134 Y90.57 E.27947
G1 X142.6 Y90.57 E.01676
G1 X149.43 Y97.4 E.30317
G1 X149.43 Y97.934 E.01676
G1 X142.066 Y90.57 E.32687
G1 X141.533 Y90.57 E.01676
G1 X149.43 Y98.467 E.35056
G1 X149.43 Y99.001 E.01676
G1 X140.999 Y90.57 E.37426
G1 X140.465 Y90.57 E.01676
G1 X149.43 Y99.535 E.39796
G1 X149.43 Y100.069 E.01676
G1 X139.931 Y90.57 E.42165
G1 X139.397 Y90.57 E.01676
G1 X149.43 Y100.603 E.44535
G1 X149.43 Y101.137 E.01676
G1 X138.863 Y90.57 E.46905
G1 X138.33 Y90.57 E.01676
G1 X149.43 Y101.67 E.49274
G1 X149.43 Y102.204 E.01676
M73 P1 R69
M73 Q1 S69
G1 X137.796 Y90.57 E.51644
G1 X137.262 Y90.57 E.01676
G1 X149.43 Y102.738 E.54014
G1 X149.43 Y103.272 E.01676
G1 X136.728 Y90.57 E.56383
G1 X136.194 Y90.57 E.01676
G1 X149.43 Y103.806 E.58753
G1 X149.43 Y104.34 E.01676
G1 X135.66 Y90.57 E.61123
G1 X135.127 Y90.57 E.01676
G1 X149.43 Y104.873 E.63492
G1 X149.43 Y105.407 E.01676
G1 X134.593 Y90.57 E.65862
G1 X134.059 Y90.57 E.01676
G1 X149.43 Y105.941 E.68232
G1 X149.43 Y106.475 E.01676
G1 X133.525 Y90.57 E.70601
G1 X132.991 Y90.57 E.01676
G1 X149.43 Y107.009 E.72971
G1 X149.43 Y107.543 E.01676
G1 X132.457 Y90.57 E.75341
G1 X131.923 Y90.57 E.01676
G1 X149.43 Y108.077 E.7771
G1 X149.43 Y108.61 E.01676
G1 X131.39 Y90.57 E.8008
G1 X130.856 Y90.57 E.01676
G1 X149.43 Y109.144 E.8245
G1 X149.43 Y109.678 E.01676
G1 X130.322 Y90.57 E.84819
G1 X129.788 Y90.57 E.01676
G1 X149.43 Y110.212 E.87189
G1 X149.43 Y110.746 E.01676
G1 X129.254 Y90.57 E.89559
G1 X128.72 Y90.57 E.01676
G1 X149.43 Y111.28 E.91928
G1 X149.43 Y111.813 E.01676
G1 X128.187 Y90.57 E.94298
G1 X127.653 Y90.57 E.01676
G1 X149.43 Y112.347 E.96668
G1 X149.43 Y112.881 E.01676
G1 X127.119 Y90.57 E.99037
G1 X126.585 Y90.57 E.01676
G1 X149.43 Y113.415 E1.01407
G1 X149.43 Y113.949 E.01676
G1 X126.051 Y90.57 E1.03776
G1 X125.517 Y90.57 E.01676
G1 X149.43 Y114.483 E1.06146
G1 X149.43 Y115.016 E.01676
G1 X124.984 Y90.57 E1.08516
G1 X124.45 Y90.57 E.01676
G1 X149.43 Y115.55 E1.10885
G1 X149.43 Y116.084 E.01676
G1 X123.916 Y90.57 E1.13255
G1 X123.382 Y90.57 E.01676
G1 X149.43 Y116.618 E1.15625
G1 X149.43 Y117.152 E.01676
G1 X122.848 Y90.57 E1.17994
G1 X122.314 Y90.57 E.01676
M73 P1 R68
G1 X149.43 Y117.686 E1.20364
G1 X149.43 Y118.219 E.01676
M73 P2 R68
M73 Q2 S69
G1 X121.781 Y90.57 E1.22734
G1 X121.247 Y90.57 E.01676
G1 X149.43 Y118.753 E1.25103
G1 X149.43 Y119.287 E.01676
G1 X120.713 Y90.57 E1.27473
G1 X120.179 Y90.57 E.01676
G1 X149.039 Y119.43 E1.28108
G1 X148.505 Y119.43 E.01676
G1 X119.645 Y90.57 E1.28108
G1 X119.111 Y90.57 E.01676
M73 Q2 S68
G1 X147.972 Y119.43 E1.28108
G1 X147.438 Y119.43 E.01676
G1 X118.577 Y90.57 E1.28108
G1 X118.044 Y90.57 E.01676
G1 X146.904 Y119.43 E1.28108
G1 X146.37 Y119.43 E.01676
G1 X117.51 Y90.57 E1.28108
G1 X116.976 Y90.57 E.01676
G1 X145.836 Y119.43 E1.28108
G1 X145.302 Y119.43 E.01676
G1 X116.442 Y90.57 E1.28108
G1 X115.908 Y90.57 E.01676
G1 X144.769 Y119.43 E1.28108
G1 X144.235 Y119.43 E.01676
G1 X115.374 Y90.57 E1.28108
G1 X114.841 Y90.57 E.01676
G1 X143.701 Y119.43 E1.28108
G1 X143.167 Y119.43 E.01676
G1 X114.307 Y90.57 E1.28108
G1 X113.773 Y90.57 E.01676
G1 X142.633 Y119.43 E1.28108
G1 X142.099 Y119.43 E.01676
G1 X113.239 Y90.57 E1.28108
G1 X112.705 Y90.57 E.01676
G1 X141.565 Y119.43 E1.28108
G1 X141.032 Y119.43 E.01676
G1 X112.171 Y90.57 E1.28108
G1 X111.638 Y90.57 E.01676
G1 X140.498 Y119.43 E1.28108
G1 X139.964 Y119.43 E.01676
G1 X111.104 Y90.57 E1.28108
G1 X110.57 Y90.57 E.01676
M73 P3 R68
M73 Q3 S68
G1 X139.43 Y119.43 E1.28108
G1 X138.896 Y119.43 E.01676
G1 X110.036 Y90.57 E1.28108
G1 X109.502 Y90.57 E.01676
G1 X138.362 Y119.43 E1.28108
G1 X137.829 Y119.43 E.01676
G1 X108.968 Y90.57 E1.28108
G1 X108.435 Y90.57 E.01676
G1 X137.295 Y119.43 E1.28108
G1 X136.761 Y119.43 E.01676
G1 X107.901 Y90.57 E1.28108
G1 X107.367 Y90.57 E.01676
G1 X136.227 Y119.43 E1.28108
G1 X135.693 Y119.43 E.01676
M73 P3 R67
G1 X106.833 Y90.57 E1.28108
G1 X106.299 Y90.57 E.01676
G1 X135.159 Y119.43 E1.28108
G1 X134.626 Y119.43 E.01676
G1 X105.765 Y90.57 E1.28108
G1 X105.231 Y90.57 E.01676
G1 X134.092 Y119.43 E1.28108
G1 X133.558 Y119.43 E.01676
G1 X104.698 Y90.57 E1.28108
G1 X104.164 Y90.57 E.01676
G1 X133.024 Y119.43 E1.28108
G1 X132.49 Y119.43 E.01676
M73 Q3 S67
G1 X103.63 Y90.57 E1.28108
G1 X103.096 Y90.57 E.01676
G1 X131.956 Y119.43 E1.28108
G1 X131.423 Y119.43 E.01676
G1 X102.562 Y90.57 E1.28108
G1 X102.028 Y90.57 E.01676
G1 X130.889 Y119.43 E1.28108
G1 X130.355 Y119.43 E.01676
G1 X101.495 Y90.57 E1.28108
G1 X100.961 Y90.57 E.01676
G1 X129.821 Y119.43 E1.28108
G1 X129.287 Y119.43 E.01676
G1 X100.57 Y90.713 E1.27473
G1 X100.57 Y91.247 E.01676
M73 P4 R67
M73 Q4 S67
G1 X128.753 Y119.43 E1.25103
G1 X128.219 Y119.43 E.01676
G1 X100.57 Y91.781 E1.22734
G1 X100.57 Y92.314 E.01676
G1 X127.686 Y119.43 E1.20364
G1 X127.152 Y119.43 E.01676
G1 X100.57 Y92.848 E1.17994
G1 X100.57 Y93.382 E.01676
G1 X126.618 Y119.43 E1.15625
G1 X126.084 Y119.43 E.01676
G1 X100.57 Y93.916 E1.13255
G1 X100.57 Y94.45 E.01676
G1 X125.55 Y119.43 E1.10886
G1 X125.016 Y119.43 E.01676
G1 X100.57 Y94.984 E1.08516
G1 X100.57 Y95.517 E.01676
G1 X124.483 Y119.43 E1.06146
G1 X123.949 Y119.43 E.01676
G1 X100.57 Y96.051 E1.03777
G1 X100.57 Y96.585 E.01676
G1 X123.415 Y119.43 E1.01407
G1 X122.881 Y119.43 E.01676
G1 X100.57 Y97.119 E.99037
G1 X100.57 Y97.653 E.01676
G1 X122.347 Y119.43 E.96668
G1 X121.813 Y119.43 E.01676
G1 X100.57 Y98.187 E.94298
G1 X100.57 Y98.72 E.01676
G1 X121.28 Y119.43 E.91928
G1 X120.746 Y119.43 E.01676
G1 X100.57 Y99.254 E.89559
G1 X100.57 Y99.788 E.01676
G1 X120.212 Y119.43 E.87189
G1 X119.678 Y119.43 E.01676
G1 X100.57 Y100.322 E.84819
G1 X100.57 Y100.856 E.01676
G1 X119.144 Y119.43 E.8245
G1 X118.61 Y119.43 E.01676
M73 P4 R66
G1 X100.57 Y101.39 E.8008
G1 X100.57 Y101.923 E.01676
G1 X118.077 Y119.43 E.7771
G1 X117.543 Y119.43 E.01676
G1 X100.57 Y102.457 E.75341
G1 X100.57 Y102.991 E.01676
G1 X117.009 Y119.43 E.72971
G1 X116.475 Y119.43 E.01676
G1 X100.57 Y103.525 E.70601
G1 X100.57 Y104.059 E.01676
G1 X115.941 Y119.43 E.68232
G1 X115.407 Y119.43 E.01676
G1 X100.57 Y104.593 E.65862
G1 X100.57 Y105.127 E.01676
G1 X114.873 Y119.43 E.63492
G1 X114.34 Y119.43 E.01676
M73 P5 R66
M73 Q5 S67
G1 X100.57 Y105.66 E.61123
G1 X100.57 Y106.194 E.01676
G1 X113.806 Y119.43 E.58753
G1 X113.272 Y119.43 E.01676
G1 X100.57 Y106.728 E.56383
G1 X100.57 Y107.262 E.01676
M73 Q5 S66
G1 X112.738 Y119.43 E.54014
G1 X112.204 Y119.43 E.01676
G1 X100.57 Y107.796 E.51644
G1 X100.57 Y108.33 E.01676
G1 X111.67 Y119.43 E.49274
G1 X111.137 Y119.43 E.01676
G1 X100.57 Y108.863 E.46905
G1 X100.57 Y109.397 E.01676
G1 X110.603 Y119.43 E.44535
G1 X110.069 Y119.43 E.01676
G1 X100.57 Y109.931 E.42165
G1 X100.57 Y110.465 E.01676
G1 X109.535 Y119.43 E.39796
G1 X109.001 Y119.43 E.01676
G1 X100.57 Y110.999 E.37426
G1 X100.57 Y111.533 E.01676
G1 X108.467 Y119.43 E.35056
G1 X107.934 Y119.43 E.01676
G1 X100.57 Y112.066 E.32687
G1 X100.57 Y112.6 E.01676
G1 X107.4 Y119.43 E.30317
G1 X106.866 Y119.43 E.01676
G1 X100.57 Y113.134 E.27947
G1 X100.57 Y113.668 E.01676
G1 X106.332 Y119.43 E.25578
G1 X105.798 Y119.43 E.01676
G1 X100.57 Y114.202 E.23208
G1 X100.57 Y114.736 E.01676
G1 X105.264 Y119.43 E.20838
G1 X104.731 Y119.43 E.01676
G1 X100.57 Y115.269 E.18469
G1 X100.57 Y115.803 E.01676
G1 X104.197 Y119.43 E.16099
G1 X103.663 Y119.43 E.01676
G1 X100.57 Y116.337 E.13729
G1 X100.57 Y116.871 E.01676
G1 X103.129 Y119.43 E.1136
G1 X102.595 Y119.43 E.01676
G1 X100.57 Y117.405 E.0899
G1 X100.57 Y117.939 E.01676
G1 X102.061 Y119.43 E.0662
G1 X101.527 Y119.43 E.01676
G1 X100.57 Y118.473 E.04251
G1 X100.57 Y119.006 E.01676
G1 X101.163 Y119.6 E.02634
M204 S1000
; stop printing object SDcardholder.stl id:0 copy 0
M106 S84.15
;LAYER_CHANGE
;Z:0.5
;HEIGHT:0.3
;BEFORE_LAYER_CHANGE
G92 E0.0
;0.5


;WIPE_START
G1 F8640
G1 X100.57 Y119.006 E-.19379
G1 X100.57 Y118.473 E-.12327
G1 X101.527 Y119.43 E-.3127
G1 X102.061 Y119.43 E-.12327
G1 X102.04 Y119.409 E-.00698
;WIPE_END
G1 E-.04 F2100
G1 Z.6 F720
;AFTER_LAYER_CHANGE
;0.5
M104 S210 ; set temperature
G1 X102.04 Y122.877 F10800
G1 Z.5 F720
G1 E.8 F2100
;TYPE:Skirt/Brim
;WIDTH:0.42
G1 F2700
G1 X99.5 Y122.877 E.11266
G1 X98.193 Y122.485 E.06052
G1 X97.317 Y121.44 E.06052
G1 X97.123 Y120.5 E.04256
G1 X97.123 Y89.5 E1.375
G1 X97.515 Y88.193 E.06052
G1 X98.56 Y87.317 E.06052
G1 X99.5 Y87.123 E.04256
G1 X150.5 Y87.123 E2.2621
G1 X151.807 Y87.515 E.06052
G1 X152.683 Y88.56 E.06052
G1 X152.877 Y89.5 E.04256
G1 X152.877 Y120.5 E1.375
G1 X152.485 Y121.807 E.06052
G1 X151.44 Y122.683 E.06052
G1 X150.5 Y122.877 E.04256
G1 X102.1 Y122.877 E2.14678
; printing object SDcardholder.stl id:0 copy 0
;WIPE_START
G1 F8640
G1 X99.5 Y122.877 E-.60033
G1 X98.838 Y122.679 E-.15967
;WIPE_END
G1 E-.04 F2100
G1 Z.9 F720
G1 X100.286 Y119.714 F10800
G1 Z.5 F720
G1 E.8 F2100
M204 S800
;TYPE:Perimeter
;WIDTH:0.5
G1 F3000
G1 X100.286 Y90.286 E1.59895
G1 X149.714 Y90.286 E2.68561
G1 X149.714 Y119.714 E1.59895
G1 X100.346 Y119.714 E2.68235
M204 S1000
G1 X99.8 Y120.2 F10800
M204 S800
;TYPE:External perimeter
;WIDTH:0.6
G1 F2100
G1 X99.8 Y89.8 E2.03088
G1 X150.2 Y89.8 E3.36699
G1 X150.2 Y120.2 E2.03088
G1 X99.86 Y120.2 E3.36298
M204 S1000
G1 X99.934 Y119.823 F10800
;WIPE_START
G1 F8640
G1 X99.854 Y116.909 E-.76
;WIPE_END
G1 E-.04 F2100
G1 Z.9 F720
G1 X149.584 Y118.701 F10800
G1 Z.5 F720
G1 E.8 F2100
;TYPE:Solid infill
;WIDTH:0.501016
G1 F4800
G1 X148.897 Y119.388 E.05289
G1 X148.279 Y119.388 E.03363
G1 X149.388 Y118.279 E.08535
G1 X149.388 Y117.662 E.03363
G1 X147.662 Y119.388 E.13291
G1 X147.044 Y119.388 E.03363
G1 X149.388 Y117.044 E.18047
G1 X149.388 Y116.427 E.03363
G1 X146.427 Y119.388 E.22802
G1 X145.809 Y119.388 E.03363
G1 X149.388 Y115.809 E.27558
G1 X149.388 Y115.192 E.03363
G1 X145.192 Y119.388 E.32314
G1 X144.575 Y119.388 E.03363
G1 X149.388 Y114.575 E.3707
G1 X149.388 Y113.957 E.03363
G1 X143.957 Y119.388 E.41825
G1 X143.34 Y119.388 E.03363
G1 X149.388 Y113.34 E.46581
G1 X149.388 Y112.722 E.03363
G1 X142.722 Y119.388 E.51337
G1 X142.105 Y119.388 E.03363
G1 X149.388 Y112.105 E.56093
G1 X149.388 Y111.487 E.03363
G1 X141.487 Y119.388 E.60849
G1 X140.87 Y119.388 E.03363
G1 X149.388 Y110.87 E.65604
G1 X149.388 Y110.252 E.03363
G1 X140.252 Y119.388 E.7036
G1 X139.635 Y119.388 E.03363
G1 X149.388 Y109.635 E.75116
G1 X149.388 Y109.017 E.03363
G1 X139.017 Y119.388 E.79872
G1 X138.4 Y119.388 E.03363
G1 X149.388 Y108.4 E.84628
G1 X149.388 Y107.782 E.03363
G1 X137.782 Y119.388 E.89383
G1 X137.165 Y119.388 E.03363
G1 X149.388 Y107.165 E.94139
G1 X149.388 Y106.547 E.03363
G1 X136.547 Y119.388 E.98895
G1 X135.93 Y119.388 E.03363
G1 X149.388 Y105.93 E1.03651
G1 X149.388 Y105.312 E.03363
G1 X135.312 Y119.388 E1.08407
G1 X134.695 Y119.388 E.03363
G1 X149.388 Y104.695 E1.13162
G1 X149.388 Y104.077 E.03363
G1 X134.077 Y119.388 E1.17918
G1 X133.46 Y119.388 E.03363
G1 X149.388 Y103.46 E1.22674
G1 X149.388 Y102.842 E.03363
G1 X132.842 Y119.388 E1.2743
G1 X132.225 Y119.388 E.03363
G1 X149.388 Y102.225 E1.32185
G1 X149.388 Y101.607 E.03363
G1 X131.607 Y119.388 E1.36941
G1 X130.99 Y119.388 E.03363
G1 X149.388 Y100.99 E1.41697
G1 X149.388 Y100.372 E.03363
G1 X130.372 Y119.388 E1.46453
G1 X129.755 Y119.388 E.03363
G1 X149.388 Y99.755 E1.51209
G1 X149.388 Y99.137 E.03363
G1 X129.137 Y119.388 E1.55964
G1 X128.52 Y119.388 E.03363
G1 X149.388 Y98.52 E1.6072
G1 X149.388 Y97.902 E.03363
G1 X127.902 Y119.388 E1.65476
G1 X127.285 Y119.388 E.03363
G1 X149.388 Y97.285 E1.70232
G1 X149.388 Y96.667 E.03363
G1 X126.667 Y119.388 E1.74988
G1 X126.05 Y119.388 E.03363
G1 X149.388 Y96.05 E1.79743
G1 X149.388 Y95.432 E.03363
G1 X125.432 Y119.388 E1.84499
G1 X124.815 Y119.388 E.03363
G1 X149.388 Y94.815 E1.89255
G1 X149.388 Y94.197 E.03363
G1 X124.197 Y119.388 E1.94011
G1 X123.58 Y119.388 E.03363
G1 X149.388 Y93.58 E1.98766
G1 X149.388 Y92.962 E.03363
M73 P6 R66
G1 X122.962 Y119.388 E2.03522
G1 X122.345 Y119.388 E.03363
M73 Q6 S66
G1 X149.388 Y92.345 E2.08278
G1 X149.388 Y91.727 E.03363
G1 X121.727 Y119.388 E2.13034
G1 X121.11 Y119.388 E.03363
G1 X149.388 Y91.11 E2.1779
G1 X149.388 Y90.612 E.02709
G1 X149.268 Y90.612 E.00654
G1 X120.492 Y119.388 E2.2162
G1 X119.875 Y119.388 E.03363
G1 X148.65 Y90.612 E2.2162
G1 X148.033 Y90.612 E.03363
G1 X119.257 Y119.388 E2.2162
G1 X118.64 Y119.388 E.03363
G1 X147.415 Y90.612 E2.2162
G1 X146.798 Y90.612 E.03363
G1 X118.022 Y119.388 E2.2162
G1 X117.405 Y119.388 E.03363
G1 X146.18 Y90.612 E2.2162
G1 X145.563 Y90.612 E.03363
G1 X116.787 Y119.388 E2.2162
G1 X116.17 Y119.388 E.03363
G1 X144.945 Y90.612 E2.2162
