; generated by PrusaSlicer 2.4.1+win64 on 2024-03-06 at 09:06:02 UTC


;
;
; 

; external perimeters extrusion width = 0.60mm
; perimeters extrusion width = 0.50mm
; infill extrusion width = 0.50mm
; solid infill extrusion width = 0.50mm
; top infill extrusion width = 0.45mm
; first layer extrusion width = 0.42mm

M73 P0 R144
M73 Q0 S145
M201 X1000 Y1000 Z200 E5000 ; sets maximum accelerations, mm/sec^2
M203 X200 Y200 Z12 E120 ; sets maximum feedrates, mm / sec
M204 P1250 R1250 T1250 ; sets acceleration (P, T) and retract acceleration (R), mm/sec^2
M205 X8.00 Y8.00 Z0.40 E4.50 ; sets the jerk limits, mm/sec
M205 S0 T0 ; sets the minimum extruding and travel feed rate, mm/sec
M107
;TYPE:Custom
M862.3 P "MK3S" ; printer model check
M862.1 P0.4 ; nozzle diameter check
M115 U3.11.0 ; tell printer latest fw version
G90 ; use absolute coordinates
M83 ; extruder relative mode
M104 S215 ; set extruder temp
M140 S60 ; set bed temp
M190 S60 ; wait for bed temp
M109 S215 ; wait for extruder temp
G28 W ; home all without mesh bed level
G80 ; mesh bed leveling

G1 Z0.2 F720
G1 Y-3 F1000 ; go outside print area
G92 E0
G1 X60 E9 F1000 ; intro line
G1 X100 E12.5 F1000 ; intro line

G92 E0
M221 S95

; Don't change E values below. Excessive value can damage the printer.

M907 E538 ; set extruder motor current
G21 ; set units to millimeters
G90 ; use absolute coordinates
M83 ; use relative distances for extrusion
M900 K0.05 ; Filament gcode LA 1.5
M900 K30 ; Filament gcode LA 1.0
M107
;LAYER_CHANGE
;Z:0.2
;HEIGHT:0.2
;BEFORE_LAYER_CHANGE
G92 E0.0
;0.2


G1 E-.8 F2100
G1 Z.4 F720
;AFTER_LAYER_CHANGE
;0.2
G1 X49.501 Y86.817 F10800
G1 Z.2 F720
G1 E.8 F2100
M204 S800
;TYPE:Skirt/Brim
;WIDTH:0.42
G1 F1200
G1 X50.441 Y86.623 E.03008
G1 X199.559 Y86.623 E4.67552
G1 X200.867 Y87.015 E.04278
G1 X201.743 Y88.06 E.04278
G1 X201.937 Y89 E.03008
G1 X201.937 Y121 E1.00334
G1 X201.545 Y122.307 E.04278
G1 X200.499 Y123.183 E.04278
G1 X199.559 Y123.377 E.03008
G1 X50.441 Y123.377 E4.67552
G1 X49.133 Y122.985 E.04278
G1 X48.257 Y121.94 E.04278
G1 X48.063 Y121 E.03008
G1 X48.063 Y89 E1.00334
G1 X48.455 Y87.693 E.04278
G1 X49.455 Y86.855 E.0409
M204 S1000
; printing object USB_Stick_SD_Card_Holder_-_8_USB1_final.STL id:0 copy 0
;WIPE_START
G1 F8640
G1 X50.441 Y86.623 E-.23384
G1 X52.719 Y86.623 E-.52616
;WIPE_END
G1 E-.04 F2100
G1 Z.6 F720
G1 X120.463 Y106.718 F10800
G1 Z.2 F720
G1 E.8 F2100
M204 S800
;TYPE:Perimeter
G1 F1200
G1 X120.632 Y106.16 E.01829
G1 X120.925 Y105.612 E.01946
G1 X121.318 Y105.132 E.01946
G1 X121.798 Y104.739 E.01946
G1 X122.345 Y104.446 E.01946
G1 X122.939 Y104.266 E.01946
G1 X123.524 Y104.208 E.01841
G1 X124.172 Y104.265 E.02038
G1 X124.769 Y104.446 E.01956
G1 X125.316 Y104.739 E.01946
G1 X125.796 Y105.132 E.01946
G1 X126.189 Y105.612 E.01946
G1 X126.482 Y106.16 E.01946
G1 X126.662 Y106.753 E.01946
G1 X126.719 Y107.332 E.01824
G1 X126.719 Y115.01 E.24072
G1 X126.662 Y115.589 E.01824
G1 X126.482 Y116.183 E.01946
G1 X126.189 Y116.73 E.01946
G1 X125.796 Y117.21 E.01946
G1 X125.316 Y117.603 E.01946
G1 X124.769 Y117.896 E.01946
G1 X124.175 Y118.076 E.01946
G1 X123.557 Y118.137 E.01946
G1 X122.939 Y118.076 E.01946
G1 X122.345 Y117.896 E.01946
G1 X121.798 Y117.603 E.01946
G1 X121.318 Y117.21 E.01946
G1 X120.925 Y116.73 E.01946
G1 X120.632 Y116.183 E.01946
G1 X120.452 Y115.589 E.01946
G1 X120.395 Y115.01 E.01824
G1 X120.395 Y107.332 E.24072
G1 X120.45 Y106.776 E.01752
M204 S1000
G1 X120.824 Y106.827 F10800
M204 S800
;TYPE:External perimeter
G1 F1200
G1 X120.982 Y106.305 E.01713
G1 X121.24 Y105.823 E.01713
G1 X121.586 Y105.4 E.01713
G1 X122.009 Y105.054 E.01713
G1 X122.49 Y104.796 E.01713
G1 X123.013 Y104.638 E.01713
G1 X123.526 Y104.587 E.01615
G1 X124.1 Y104.637 E.01806
G1 X124.624 Y104.796 E.01717
G1 X125.105 Y105.054 E.01713
G1 X125.528 Y105.4 E.01713
G1 X125.874 Y105.823 E.01713
G1 X126.132 Y106.305 E.01713
G1 X126.29 Y106.827 E.01713
G1 X126.342 Y107.351 E.0165
G1 X126.342 Y114.991 E.23956
G1 X126.29 Y115.515 E.0165
G1 X126.132 Y116.038 E.01713
G1 X125.874 Y116.519 E.01713
G1 X125.528 Y116.942 E.01713
G1 X125.105 Y117.288 E.01713
G1 X124.624 Y117.546 E.01713
G1 X124.101 Y117.705 E.01713
G1 X123.557 Y117.758 E.01713
G1 X123.013 Y117.705 E.01713
G1 X122.49 Y117.546 E.01713
G1 X122.009 Y117.288 E.01713
G1 X121.586 Y116.942 E.01713
G1 X121.24 Y116.519 E.01713
G1 X120.982 Y116.038 E.01713
G1 X120.824 Y115.515 E.01713
G1 X120.772 Y114.991 E.0165
G1 X120.772 Y107.351 E.23956
G1 X120.818 Y106.887 E.01461
M204 S1000
G1 X120.523 Y106.563 F10800
;WIPE_START
G1 F8640
G1 X120.982 Y106.305 E-.13977
G1 X121.24 Y105.823 E-.12615
G1 X121.586 Y105.4 E-.12615
G1 X122.009 Y105.054 E-.12615
G1 X122.49 Y104.796 E-.12615
G1 X122.97 Y104.651 E-.11562
;WIPE_END
G1 E-.04 F2100
G1 Z.6 F720
G1 X112.666 Y106.79 F10800
G1 Z.2 F720
G1 E.8 F2100
M204 S800
;TYPE:Perimeter
G1 F1200
G1 X112.719 Y107.332 E.01708
G1 X112.719 Y115.01 E.24072
G1 X112.662 Y115.589 E.01824
G1 X112.482 Y116.183 E.01946
G1 X112.189 Y116.73 E.01946
G1 X111.796 Y117.21 E.01946
G1 X111.316 Y117.603 E.01946
G1 X110.769 Y117.896 E.01946
G1 X110.175 Y118.076 E.01946
G1 X109.557 Y118.137 E.01946
G1 X108.939 Y118.076 E.01946
G1 X108.345 Y117.896 E.01946
G1 X107.798 Y117.603 E.01946
G1 X107.318 Y117.21 E.01946
G1 X106.925 Y116.73 E.01946
G1 X106.632 Y116.183 E.01946
G1 X106.452 Y115.589 E.01946
G1 X106.395 Y115.01 E.01824
G1 X106.395 Y107.332 E.24072
G1 X106.452 Y106.753 E.01824
G1 X106.632 Y106.16 E.01946
G1 X106.925 Y105.612 E.01946
G1 X107.318 Y105.132 E.01946
G1 X107.798 Y104.739 E.01946
G1 X108.345 Y104.446 E.01946
G1 X108.939 Y104.266 E.01946
G1 X109.524 Y104.208 E.01842
G1 X110.172 Y104.265 E.02038
G1 X110.769 Y104.446 E.01956
G1 X111.316 Y104.739 E.01946
G1 X111.796 Y105.132 E.01946
G1 X112.189 Y105.612 E.01946
G1 X112.482 Y106.16 E.01946
G1 X112.655 Y106.732 E.01874
M204 S1000
G1 X112.29 Y106.827 F10800
M204 S800
;TYPE:External perimeter
G1 F1200
G1 X112.342 Y107.351 E.0165
G1 X112.342 Y114.991 E.23956
G1 X112.29 Y115.515 E.0165
G1 X112.132 Y116.038 E.01713
G1 X111.874 Y116.519 E.01713
G1 X111.528 Y116.942 E.01713
G1 X111.105 Y117.288 E.01713
G1 X110.624 Y117.546 E.01713
G1 X110.101 Y117.705 E.01713
G1 X109.557 Y117.758 E.01713
G1 X109.013 Y117.705 E.01713
G1 X108.49 Y117.546 E.01713
G1 X108.009 Y117.288 E.01713
G1 X107.586 Y116.942 E.01713
G1 X107.24 Y116.519 E.01713
G1 X106.982 Y116.038 E.01713
G1 X106.824 Y115.515 E.01713
G1 X106.772 Y114.991 E.0165
G1 X106.772 Y107.351 E.23956
G1 X106.824 Y106.827 E.0165
G1 X106.982 Y106.305 E.01713
G1 X107.24 Y105.823 E.01713
G1 X107.586 Y105.4 E.01713
G1 X108.009 Y105.054 E.01713
G1 X108.49 Y104.796 E.01713
G1 X109.013 Y104.638 E.01713
G1 X109.526 Y104.587 E.01615
G1 X110.1 Y104.637 E.01806
G1 X110.624 Y104.796 E.01717
G1 X111.105 Y105.054 E.01713
G1 X111.528 Y105.4 E.01713
G1 X111.874 Y105.823 E.01713
G1 X112.132 Y106.305 E.01713
G1 X112.273 Y106.77 E.01525
M204 S1000
G1 X112.669 Y106.956 F10800
;WIPE_START
G1 F8640
G1 X112.342 Y107.351 E-.13509
G1 X112.342 Y110.057 E-.62491
;WIPE_END
G1 E-.04 F2100
G1 Z.6 F720
M73 Q0 S144
G1 X98.651 Y106.718 F10800
G1 Z.2 F720
G1 E.8 F2100
M204 S800
;TYPE:Perimeter
G1 F1200
G1 X98.719 Y107.332 E.01938
G1 X98.719 Y115.01 E.24072
G1 X98.662 Y115.589 E.01824
G1 X98.482 Y116.183 E.01946
G1 X98.189 Y116.73 E.01946
G1 X97.796 Y117.21 E.01946
G1 X97.316 Y117.603 E.01946
G1 X96.769 Y117.896 E.01946
G1 X96.175 Y118.076 E.01946
G1 X95.557 Y118.137 E.01946
G1 X94.939 Y118.076 E.01946
G1 X94.345 Y117.896 E.01946
G1 X93.798 Y117.603 E.01946
G1 X93.318 Y117.21 E.01946
G1 X92.925 Y116.73 E.01946
G1 X92.632 Y116.183 E.01946
G1 X92.452 Y115.589 E.01946
G1 X92.395 Y115.01 E.01824
G1 X92.395 Y107.332 E.24072
G1 X92.452 Y106.753 E.01824
G1 X92.632 Y106.16 E.01946
G1 X92.925 Y105.612 E.01946
G1 X93.318 Y105.132 E.01946
G1 X93.798 Y104.739 E.01946
G1 X94.345 Y104.446 E.01946
G1 X94.939 Y104.266 E.01946
G1 X95.524 Y104.208 E.01842
G1 X96.172 Y104.265 E.02038
G1 X96.769 Y104.446 E.01956
G1 X97.316 Y104.739 E.01946
G1 X97.796 Y105.132 E.01946
G1 X98.189 Y105.612 E.01946
G1 X98.482 Y106.16 E.01946
G1 X98.634 Y106.66 E.01641
M204 S1000
G1 X98.29 Y106.827 F10800
M204 S800
;TYPE:External perimeter
G1 F1200
G1 X98.342 Y107.351 E.0165
G1 X98.342 Y114.991 E.23956
G1 X98.29 Y115.515 E.0165
G1 X98.132 Y116.038 E.01713
G1 X97.874 Y116.519 E.01713
G1 X97.528 Y116.942 E.01713
G1 X97.105 Y117.288 E.01713
G1 X96.624 Y117.546 E.01713
G1 X96.101 Y117.705 E.01713
G1 X95.557 Y117.758 E.01713
G1 X95.013 Y117.705 E.01713
G1 X94.49 Y117.546 E.01713
G1 X94.009 Y117.288 E.01713
G1 X93.586 Y116.942 E.01713
G1 X93.24 Y116.519 E.01713
G1 X92.982 Y116.038 E.01713
G1 X92.824 Y115.515 E.01713
G1 X92.772 Y114.991 E.0165
G1 X92.772 Y107.351 E.23956
G1 X92.824 Y106.827 E.0165
M73 P0 R143
G1 X92.982 Y106.305 E.01713
G1 X93.24 Y105.823 E.01713
G1 X93.586 Y105.4 E.01713
G1 X94.009 Y105.054 E.01713
G1 X94.49 Y104.796 E.01713
G1 X95.013 Y104.638 E.01713
G1 X95.526 Y104.587 E.01615
G1 X96.1 Y104.637 E.01806
G1 X96.624 Y104.796 E.01717
G1 X97.105 Y105.054 E.01713
G1 X97.528 Y105.4 E.01713
G1 X97.874 Y105.823 E.01713
G1 X98.132 Y106.305 E.01713
G1 X98.273 Y106.77 E.01525
M204 S1000
G1 X98.669 Y106.956 F10800
;WIPE_START
G1 F8640
G1 X98.342 Y107.351 E-.13509
G1 X98.342 Y110.057 E-.62491
;WIPE_END
G1 E-.04 F2100
G1 Z.6 F720
G1 X88.528 Y96.813 F10800
G1 Z.2 F720
G1 E.8 F2100
M204 S800
;TYPE:Perimeter
G1 F1200
G1 X88.528 Y113.247 E.51528
G1 X84.313 Y113.247 E.13213
G1 X84.313 Y96.813 E.51528
G1 X88.468 Y96.813 E.13025
M204 S1000
G1 X88.151 Y97.19 F10800
M204 S800
;TYPE:External perimeter
G1 F1200
G1 X88.151 Y112.87 E.49164
G1 X84.691 Y112.87 E.10849
G1 X84.691 Y97.19 E.49164
G1 X88.091 Y97.19 E.1066
M204 S1000
G1 X88.51 Y97.016 F10800
;WIPE_START
G1 F8640
G1 X88.103 Y100.481 E-.76
;WIPE_END
G1 E-.04 F2100
G1 Z.6 F720
G1 X83.888 Y96.813 F10800
G1 Z.2 F720
G1 E.8 F2100
M204 S800
;TYPE:Perimeter
G1 F1200
G1 X83.888 Y113.247 E.51528
G1 X79.673 Y113.247 E.13213
G1 X79.673 Y96.813 E.51528
G1 X83.828 Y96.813 E.13025
M204 S1000
G1 X83.511 Y97.19 F10800
M204 S800
;TYPE:External perimeter
G1 F1200
G1 X83.511 Y112.87 E.49164
G1 X80.051 Y112.87 E.10849
G1 X80.051 Y97.19 E.49164
G1 X83.451 Y97.19 E.1066
M204 S1000
G1 X83.87 Y97.016 F10800
;WIPE_START
G1 F8640
G1 X83.463 Y100.481 E-.76
;WIPE_END
G1 E-.04 F2100
G1 Z.6 F720
G1 X79.248 Y96.753 F10800
G1 Z.2 F720
G1 E.8 F2100
M204 S800
;TYPE:Perimeter
G1 F1200
G1 X79.248 Y113.187 E.51528
G1 X75.033 Y113.187 E.13213
G1 X75.033 Y96.753 E.51528
G1 X79.188 Y96.753 E.13025
M204 S1000
G1 X78.871 Y97.19 F10800
M204 S800
;TYPE:External perimeter
G1 F1200
G1 X78.871 Y112.81 E.48975
G1 X75.411 Y112.81 E.10849
G1 X75.411 Y97.13 E.49164
G1 X78.871 Y97.13 E.10849
M204 S1000
G1 X79.231 Y97.016 F10800
;WIPE_START
G1 F8640
G1 X78.871 Y100.421 E-.76
;WIPE_END
G1 E-.04 F2100
G1 Z.6 F720
G1 X74.608 Y96.813 F10800
G1 Z.2 F720
G1 E.8 F2100
M204 S800
;TYPE:Perimeter
G1 F1200
G1 X74.608 Y113.247 E.51528
G1 X70.393 Y113.247 E.13213
G1 X70.393 Y96.813 E.51528
G1 X74.548 Y96.813 E.13025
M204 S1000
G1 X74.231 Y97.19 F10800
M204 S800
;TYPE:External perimeter
G1 F1200
G1 X74.231 Y112.87 E.49164
G1 X70.771 Y112.87 E.10849
G1 X70.771 Y97.19 E.49164
G1 X74.171 Y97.19 E.1066
M204 S1000
G1 X74.59 Y97.016 F10800
;WIPE_START
G1 F8640
G1 X74.183 Y100.481 E-.76
;WIPE_END
G1 E-.04 F2100
G1 Z.6 F720
G1 X69.968 Y96.753 F10800
G1 Z.2 F720
G1 E.8 F2100
M204 S800
;TYPE:Perimeter
G1 F1200
G1 X69.968 Y113.187 E.51528
G1 X65.753 Y113.187 E.13213
G1 X65.753 Y96.753 E.51528
G1 X69.908 Y96.753 E.13025
M204 S1000
G1 X69.591 Y97.19 F10800
M204 S800
;TYPE:External perimeter
G1 F1200
G1 X69.591 Y112.81 E.48975
G1 X66.131 Y112.81 E.10849
G1 X66.131 Y97.13 E.49164
G1 X69.591 Y97.13 E.10849
M204 S1000
G1 X69.951 Y97.016 F10800
;WIPE_START
G1 F8640
G1 X69.591 Y100.421 E-.76
;WIPE_END
G1 E-.04 F2100
G1 Z.6 F720
G1 X65.328 Y96.753 F10800
G1 Z.2 F720
G1 E.8 F2100
M204 S800
;TYPE:Perimeter
G1 F1200
G1 X65.328 Y113.187 E.51528
G1 X61.113 Y113.187 E.13213
G1 X61.113 Y96.753 E.51528
G1 X65.268 Y96.753 E.13025
M204 S1000
G1 X64.951 Y97.19 F10800
M204 S800
;TYPE:External perimeter
G1 F1200
G1 X64.951 Y112.81 E.48975
G1 X61.491 Y112.81 E.10849
G1 X61.491 Y97.13 E.49164
G1 X64.951 Y97.13 E.10849
M204 S1000
G1 X65.311 Y97.016 F10800
;WIPE_START
G1 F8640
G1 X64.951 Y100.421 E-.76
;WIPE_END
G1 E-.04 F2100
G1 Z.6 F720
G1 X60.688 Y96.753 F10800
G1 Z.2 F720
G1 E.8 F2100
M204 S800
;TYPE:Perimeter
G1 F1200
G1 X60.688 Y113.187 E.51528
G1 X56.473 Y113.187 E.13213
G1 X56.473 Y96.753 E.51528
G1 X60.628 Y96.753 E.13025
M204 S1000
G1 X60.311 Y97.19 F10800
M204 S800
;TYPE:External perimeter
G1 F1200
G1 X60.311 Y112.81 E.48975
G1 X56.851 Y112.81 E.10849
G1 X56.851 Y97.13 E.49164
G1 X60.311 Y97.13 E.10849
M204 S1000
G1 X60.671 Y97.016 F10800
;WIPE_START
G1 F8640
G1 X60.311 Y100.421 E-.76
;WIPE_END
G1 E-.04 F2100
G1 Z.6 F720
G1 X56.048 Y96.753 F10800
G1 Z.2 F720
G1 E.8 F2100
M204 S800
;TYPE:Perimeter
G1 F1200
G1 X56.048 Y113.187 E.51528
G1 X51.833 Y113.187 E.13213
G1 X51.833 Y96.753 E.51528
G1 X55.988 Y96.753 E.13025
M204 S1000
G1 X55.671 Y97.19 F10800
M204 S800
;TYPE:External perimeter
G1 F1200
G1 X55.671 Y112.81 E.48975
G1 X52.211 Y112.81 E.10849
G1 X52.211 Y97.13 E.49164
G1 X55.671 Y97.13 E.10849
M204 S1000
G1 X56.031 Y97.016 F10800
;WIPE_START
G1 F8640
G1 X55.671 Y100.421 E-.76
;WIPE_END
G1 E-.04 F2100
G1 Z.6 F720
G1 X134.448 Y106.79 F10800
G1 Z.2 F720
G1 E.8 F2100
M204 S800
;TYPE:Perimeter
G1 F1200
G1 X134.632 Y106.16 E.0206
G1 X134.925 Y105.612 E.01946
G1 X135.318 Y105.132 E.01946
G1 X135.798 Y104.739 E.01946
G1 X136.345 Y104.446 E.01946
G1 X136.939 Y104.266 E.01946
G1 X137.524 Y104.208 E.01841
G1 X138.172 Y104.265 E.02038
G1 X138.769 Y104.446 E.01956
G1 X139.316 Y104.739 E.01946
G1 X139.796 Y105.132 E.01946
G1 X140.189 Y105.612 E.01946
G1 X140.482 Y106.16 E.01946
G1 X140.662 Y106.753 E.01946
G1 X140.719 Y107.332 E.01824
G1 X140.719 Y115.01 E.24072
G1 X140.662 Y115.589 E.01824
G1 X140.482 Y116.183 E.01946
G1 X140.189 Y116.73 E.01946
G1 X139.796 Y117.21 E.01946
G1 X139.316 Y117.603 E.01946
G1 X138.769 Y117.896 E.01946
G1 X138.175 Y118.076 E.01946
G1 X137.557 Y118.137 E.01946
G1 X136.939 Y118.076 E.01946
G1 X136.345 Y117.896 E.01946
G1 X135.798 Y117.603 E.01946
G1 X135.318 Y117.21 E.01946
G1 X134.925 Y116.73 E.01946
G1 X134.632 Y116.183 E.01946
G1 X134.452 Y115.589 E.01946
G1 X134.395 Y115.01 E.01824
G1 X134.395 Y107.332 E.24072
G1 X134.442 Y106.85 E.0152
M204 S1000
G1 X134.824 Y106.827 F10800
M204 S800
;TYPE:External perimeter
G1 F1200
G1 X134.982 Y106.305 E.01713
G1 X135.24 Y105.823 E.01713
G1 X135.586 Y105.4 E.01713
G1 X136.009 Y105.054 E.01713
G1 X136.49 Y104.796 E.01713
G1 X137.013 Y104.638 E.01713
G1 X137.526 Y104.587 E.01615
G1 X138.1 Y104.637 E.01806
G1 X138.624 Y104.796 E.01717
G1 X139.105 Y105.054 E.01713
G1 X139.528 Y105.4 E.01713
G1 X139.874 Y105.823 E.01713
G1 X140.132 Y106.305 E.01713
G1 X140.29 Y106.827 E.01713
G1 X140.342 Y107.351 E.0165
G1 X140.342 Y114.991 E.23956
G1 X140.29 Y115.515 E.0165
G1 X140.132 Y116.038 E.01713
G1 X139.874 Y116.519 E.01713
G1 X139.528 Y116.942 E.01713
G1 X139.105 Y117.288 E.01713
G1 X138.624 Y117.546 E.01713
G1 X138.101 Y117.705 E.01713
G1 X137.557 Y117.758 E.01713
G1 X137.013 Y117.705 E.01713
G1 X136.49 Y117.546 E.01713
G1 X136.009 Y117.288 E.01713
G1 X135.586 Y116.942 E.01713
G1 X135.24 Y116.519 E.01713
G1 X134.982 Y116.038 E.01713
G1 X134.824 Y115.515 E.01713
G1 X134.772 Y114.991 E.0165
G1 X134.772 Y107.351 E.23956
G1 X134.818 Y106.887 E.01461
M204 S1000
G1 X134.523 Y106.563 F10800
;WIPE_START
G1 F8640
G1 X134.982 Y106.305 E-.13977
G1 X135.24 Y105.823 E-.12615
G1 X135.586 Y105.4 E-.12615
G1 X136.009 Y105.054 E-.12615
G1 X136.49 Y104.796 E-.12615
G1 X136.97 Y104.651 E-.11562
;WIPE_END
G1 E-.04 F2100
G1 Z.6 F720
G1 X148.448 Y106.79 F10800
G1 Z.2 F720
G1 E.8 F2100
M204 S800
;TYPE:Perimeter
G1 F1200
G1 X148.632 Y106.16 E.0206
G1 X148.925 Y105.612 E.01946
G1 X149.318 Y105.132 E.01946
G1 X149.798 Y104.739 E.01946
G1 X150.345 Y104.446 E.01946
G1 X150.939 Y104.266 E.01946
G1 X151.524 Y104.208 E.01841
G1 X152.172 Y104.265 E.02038
G1 X152.769 Y104.446 E.01956
