; generated by PrusaSlicer 2.4.1+win64 on 2023-12-22 at 13:53:56 UTC


;
;
; 

; external perimeters extrusion width = 0.60mm
; perimeters extrusion width = 0.50mm
; infill extrusion width = 0.50mm
; solid infill extrusion width = 0.50mm
; top infill extrusion width = 0.45mm
; first layer extrusion width = 0.42mm

M73 P0 R4
M73 Q0 S4
M201 X1000 Y1000 Z200 E5000 ; sets maximum accelerations, mm/sec^2
M203 X200 Y200 Z12 E120 ; sets maximum feedrates, mm / sec
M204 P1250 R1250 T1250 ; sets acceleration (P, T) and retract acceleration (R), mm/sec^2
M205 X8.00 Y8.00 Z0.40 E4.50 ; sets the jerk limits, mm/sec
M205 S0 T0 ; sets the minimum extruding and travel feed rate, mm/sec
M107
;TYPE:Custom
M862.3 P "MK3S" ; printer model check
M862.1 P0.4 ; nozzle diameter check
M115 U3.11.0 ; tell printer latest fw version
G90 ; use absolute coordinates
M83 ; extruder relative mode
M104 S215 ; set extruder temp
M140 S60 ; set bed temp
M190 S60 ; wait for bed temp
M109 S215 ; wait for extruder temp
G28 W ; home all without mesh bed level
G80 ; mesh bed leveling

G1 Z0.2 F720
G1 Y-3 F1000 ; go outside print area
G92 E0
G1 X60 E9 F1000 ; intro line
G1 X100 E12.5 F1000 ; intro line

G92 E0
M221 S95

; Don't change E values below. Excessive value can damage the printer.

M907 E538 ; set extruder motor current
G21 ; set units to millimeters
G90 ; use absolute coordinates
M83 ; use relative distances for extrusion
M900 K0.05 ; Filament gcode LA 1.5
M900 K30 ; Filament gcode LA 1.0
M107
;LAYER_CHANGE
;Z:0.2
;HEIGHT:0.2
;BEFORE_LAYER_CHANGE
G92 E0.0
;0.2


M73 P1 R4
M73 Q1 S4
G1 E-.8 F2100
M73 P2 R4
M73 Q2 S4
G1 Z.4 F720
;AFTER_LAYER_CHANGE
;0.2
G1 X114.639 Y98.583 F10800
G1 Z.2 F720
G1 E.8 F2100
M204 S800
;TYPE:Skirt/Brim
;WIDTH:0.42
G1 F1200
G1 X115.941 Y97.458 E.05395
G1 X127.941 Y92.458 E.40761
G1 X129 Y92.246 E.03387
M73 P3 R4
M73 Q3 S4
G1 X133 Y92.246 E.12542
G1 X134.417 Y92.639 E.04612
G1 X135.431 Y93.705 E.04612
G1 X135.754 Y95 E.04186
G1 X135.754 Y115 E.62709
G1 X135.361 Y116.417 E.04612
G1 X134.295 Y117.431 E.04612
G1 X133 Y117.754 E.04186
G1 X129 Y117.754 E.12542
G1 X127.612 Y117.379 E.04507
G1 X115.612 Y110.379 E.43559
G1 X114.586 Y109.326 E.04612
M73 P4 R4
M73 Q4 S4
G1 X114.246 Y108 E.04291
G1 X114.246 Y100 E.25083
G1 X114.623 Y98.64 E.04424
M204 S1000
G1 X114.997 Y98.752 F10800
M204 S800
G1 F1200
G1 X115.015 Y98.693 E.00195
G1 X116.086 Y97.806 E.04361
G1 X128.086 Y92.806 E.40761
G1 X129 Y92.623 E.02923
G1 X133 Y92.623 E.12542
G1 X134.307 Y93.015 E.04278
G1 X135.183 Y94.06 E.04278
G1 X135.377 Y95 E.03008
G1 X135.377 Y115 E.62709
G1 X134.985 Y116.307 E.04278
M73 P5 R4
M73 Q5 S4
G1 X133.94 Y117.183 E.04278
G1 X133 Y117.377 E.03008
G1 X129 Y117.377 E.12542
G1 X127.802 Y117.053 E.0389
G1 X115.802 Y110.053 E.43559
G1 X114.871 Y109.056 E.04278
G1 X114.623 Y108 E.03402
G1 X114.623 Y100 E.25083
G1 X114.979 Y98.81 E.03895
M204 S1000
; printing object skadisHook.stl id:0 copy 0
;WIPE_START
G1 F8640
G1 X115.015 Y98.693 E-.0282
G1 X116.086 Y97.806 E-.32117
G1 X117.727 Y97.122 E-.41063
;WIPE_END
G1 E-.04 F2100
G1 Z.6 F720
G1 X117.787 Y100.787 F10800
M73 Q6 S4
G1 Z.2 F720
G1 E.8 F2100
M204 S800
;TYPE:Perimeter
G1 F1200
G1 X129.787 Y100.787 E.37625
G1 X129.787 Y95.787 E.15677
M73 P6 R4
G1 X132.213 Y95.787 E.07606
G1 X132.213 Y114.213 E.57773
G1 X129.787 Y114.213 E.07606
G1 X129.787 Y103.213 E.3449
G1 X120.213 Y103.213 E.30019
M73 Q7 S4
G1 X120.213 Y107.213 E.12542
M73 P7 R4
G1 X117.787 Y107.213 E.07606
G1 X117.787 Y100.847 E.1996
M204 S1000
G1 X117.41 Y100.41 F10800
M204 S800
;TYPE:External perimeter
G1 F1200
G1 X129.41 Y100.41 E.37625
G1 X129.41 Y95.41 E.15677
G1 X132.59 Y95.41 E.09971
G1 X132.59 Y114.59 E.60138
G1 X129.41 Y114.59 E.09971
M73 P8 R3
M73 Q8 S3
G1 X129.41 Y103.59 E.3449
G1 X120.59 Y103.59 E.27654
G1 X120.59 Y107.59 E.12542
G1 X117.41 Y107.59 E.09971
G1 X117.41 Y100.47 E.22324
M204 S1000
G1 X117.781 Y100.56 F10800
;WIPE_START
M73 Q9 S3
G1 F8640
G1 X120.701 Y100.454 E-.76
;WIPE_END
G1 E-.04 F2100
G1 Z.6 F720
G1 X131.324 Y95.9 F10800
M73 P9 R3
G1 Z.2 F720
G1 E.8 F2100
M204 S800
;TYPE:Solid infill
;WIDTH:0.426181
G1 F1200
G1 X131.93 Y96.506 E.0273
G1 X131.93 Y97.048 E.01727
G1 X130.952 Y96.07 E.04408
G1 X130.41 Y96.07 E.01727
G1 X131.93 Y97.59 E.06851
G1 X131.93 Y98.132 E.01727
G1 X130.07 Y96.272 E.08384
G1 X130.07 Y96.814 E.01727
G1 X131.93 Y98.674 E.08384
G1 X131.93 Y99.216 E.01727
G1 X130.07 Y97.356 E.08384
G1 X130.07 Y97.898 E.01727
G1 X131.93 Y99.758 E.08384
G1 X131.93 Y100.3 E.01727
G1 X130.07 Y98.44 E.08384
G1 X130.07 Y98.982 E.01727
G1 X131.93 Y100.842 E.08384
G1 X131.93 Y101.384 E.01727
G1 X130.07 Y99.524 E.08384
G1 X130.07 Y100.066 E.01727
G1 X131.93 Y101.926 E.08384
G1 X131.93 Y102.468 E.01727
G1 X130.07 Y100.608 E.08384
G1 X130.07 Y101.07 E.01473
G1 X129.99 Y101.07 E.00255
G1 X131.93 Y103.01 E.08744
G1 X131.93 Y103.552 E.01727
M73 Q10 S3
G1 X129.448 Y101.07 E.11187
G1 X128.906 Y101.07 E.01727
G1 X131.93 Y104.094 E.1363
M73 P10 R3
G1 X131.93 Y104.636 E.01727
G1 X128.364 Y101.07 E.16072
G1 X127.822 Y101.07 E.01727
G1 X129.682 Y102.93 E.08384
G1 X130.07 Y102.93 E.01236
G1 X130.07 Y103.318 E.01236
G1 X131.93 Y105.178 E.08384
G1 X131.93 Y105.72 E.01727
G1 X130.07 Y103.86 E.08384
G1 X130.07 Y104.402 E.01727
G1 X131.93 Y106.262 E.08384
G1 X131.93 Y106.804 E.01727
G1 X130.07 Y104.944 E.08384
G1 X130.07 Y105.486 E.01727
G1 X131.93 Y107.346 E.08384
G1 X131.93 Y107.888 E.01727
G1 X130.07 Y106.028 E.08384
G1 X130.07 Y106.57 E.01727
G1 X131.93 Y108.43 E.08384
G1 X131.93 Y108.972 E.01727
G1 X130.07 Y107.112 E.08384
G1 X130.07 Y107.654 E.01727
G1 X131.93 Y109.514 E.08384
G1 X131.93 Y110.056 E.01727
M73 Q11 S3
G1 X130.07 Y108.196 E.08384
G1 X130.07 Y108.738 E.01727
G1 X131.93 Y110.598 E.08384
G1 X131.93 Y111.14 E.01727
M73 P11 R3
G1 X130.07 Y109.28 E.08384
G1 X130.07 Y109.822 E.01727
G1 X131.93 Y111.682 E.08384
G1 X131.93 Y112.224 E.01727
G1 X130.07 Y110.364 E.08384
G1 X130.07 Y110.906 E.01727
G1 X131.93 Y112.766 E.08384
G1 X131.93 Y113.308 E.01727
G1 X130.07 Y111.448 E.08384
G1 X130.07 Y111.99 E.01727
G1 X131.93 Y113.85 E.08384
G1 X131.93 Y113.93 E.00254
G1 X131.468 Y113.93 E.01473
G1 X130.07 Y112.532 E.06301
G1 X130.07 Y113.074 E.01727
G1 X130.926 Y113.93 E.03858
G1 X130.384 Y113.93 E.01727
G1 X129.9 Y113.446 E.0218
M204 S1000
;WIPE_START
G1 F8640
G1 X130.384 Y113.93 E-.15796
G1 X130.926 Y113.93 E-.12515
G1 X130.07 Y113.074 E-.27954
G1 X130.07 Y112.532 E-.12515
G1 X130.291 Y112.753 E-.0722
;WIPE_END
G1 E-.04 F2100
G1 Z.6 F720
G1 X129.31 Y103.1 F10800
G1 Z.2 F720
G1 E.8 F2100
M204 S800
G1 F1200
G1 X127.28 Y101.07 E.09149
G1 X126.738 Y101.07 E.01727
G1 X128.598 Y102.93 E.08384
G1 X128.056 Y102.93 E.01727
G1 X126.196 Y101.07 E.08384
M73 Q12 S3
G1 X125.654 Y101.07 E.01727
G1 X127.514 Y102.93 E.08384
G1 X126.972 Y102.93 E.01727
M73 P12 R3
G1 X125.112 Y101.07 E.08384
G1 X124.57 Y101.07 E.01727
G1 X126.43 Y102.93 E.08384
G1 X125.888 Y102.93 E.01727
G1 X124.028 Y101.07 E.08384
G1 X123.486 Y101.07 E.01727
G1 X125.346 Y102.93 E.08384
G1 X124.804 Y102.93 E.01727
G1 X122.944 Y101.07 E.08384
G1 X122.402 Y101.07 E.01727
G1 X124.262 Y102.93 E.08384
G1 X123.72 Y102.93 E.01727
G1 X121.86 Y101.07 E.08384
G1 X121.318 Y101.07 E.01727
G1 X123.178 Y102.93 E.08384
G1 X122.636 Y102.93 E.01727
G1 X120.776 Y101.07 E.08384
G1 X120.234 Y101.07 E.01727
G1 X122.094 Y102.93 E.08384
G1 X121.552 Y102.93 E.01727
G1 X119.692 Y101.07 E.08384
G1 X119.15 Y101.07 E.01727
G1 X121.01 Y102.93 E.08384
G1 X120.468 Y102.93 E.01727
G1 X118.608 Y101.07 E.08384
G1 X118.07 Y101.07 E.01714
G1 X119.93 Y102.934 E.08393
G1 X119.93 Y103.476 E.01727
M73 Q13 S3
G1 X118.07 Y101.616 E.08384
G1 X118.07 Y102.158 E.01727
G1 X119.93 Y104.018 E.08384
M73 P13 R3
G1 X119.93 Y104.56 E.01727
G1 X118.07 Y102.7 E.08384
G1 X118.07 Y103.242 E.01727
G1 X119.93 Y105.102 E.08384
G1 X119.93 Y105.644 E.01727
G1 X118.07 Y103.784 E.08384
G1 X118.07 Y104.326 E.01727
G1 X119.93 Y106.186 E.08384
G1 X119.93 Y106.728 E.01727
G1 X118.07 Y104.868 E.08384
G1 X118.07 Y105.41 E.01727
G1 X119.59 Y106.93 E.0685
G1 X119.048 Y106.93 E.01727
G1 X118.07 Y105.952 E.04407
G1 X118.07 Y106.494 E.01727
G1 X118.675 Y107.1 E.02729
M204 S1000
; stop printing object skadisHook.stl id:0 copy 0
M106 S84.15
;LAYER_CHANGE
;Z:0.5
;HEIGHT:0.3
;BEFORE_LAYER_CHANGE
G92 E0.0
;0.5


;WIPE_START
G1 F8640
G1 X118.07 Y106.494 E-.19776
G1 X118.07 Y105.952 E-.12515
G1 X119.048 Y106.93 E-.31934
G1 X119.558 Y106.93 E-.11775
;WIPE_END
G1 E-.04 F2100
G1 Z.6 F720
;AFTER_LAYER_CHANGE
;0.5
M104 S210 ; set temperature
G1 X117.055 Y111.221 F10800
G1 Z.5 F720
G1 E.8 F2100
;TYPE:Skirt/Brim
;WIDTH:0.42
G1 F2038
G1 X115.612 Y110.379 E.07408
G1 X114.586 Y109.326 E.06524
G1 X114.246 Y108 E.0607
G1 X114.246 Y100 E.35484
G1 X114.639 Y98.583 E.06524
G1 X115.941 Y97.458 E.07632
G1 X127.941 Y92.458 E.57661
M73 Q14 S3
G1 X129 Y92.246 E.04792
M73 P14 R3
G1 X133 Y92.246 E.17742
G1 X134.417 Y92.639 E.06524
G1 X135.431 Y93.705 E.06524
G1 X135.754 Y95 E.05921
G1 X135.754 Y115 E.8871
G1 X135.361 Y116.417 E.06524
G1 X134.295 Y117.431 E.06524
G1 X133 Y117.754 E.05921
G1 X129 Y117.754 E.17742
G1 X127.612 Y117.379 E.06376
G1 X117.107 Y111.251 E.53945
G1 X117.297 Y110.925 F10800
G1 F2038
G1 X115.802 Y110.053 E.07675
G1 X114.871 Y109.056 E.06052
G1 X114.623 Y108 E.04813
G1 X114.623 Y100 E.35484
G1 X115.015 Y98.693 E.06052
G1 X116.086 Y97.806 E.06169
G1 X128.086 Y92.806 E.57661
G1 X129 Y92.623 E.04135
M73 Q15 S3
G1 X133 Y92.623 E.17742
G1 X134.307 Y93.015 E.06052
M73 P15 R3
G1 X135.183 Y94.06 E.06052
G1 X135.377 Y95 E.04256
G1 X135.377 Y115 E.8871
G1 X134.985 Y116.307 E.06052
G1 X133.94 Y117.183 E.06052
G1 X133 Y117.377 E.04256
G1 X129 Y117.377 E.17742
G1 X127.802 Y117.053 E.05503
G1 X117.349 Y110.955 E.53679
; printing object skadisHook.stl id:0 copy 0
;WIPE_START
G1 F8640
G1 X115.802 Y110.053 E-.41338
G1 X114.871 Y109.056 E-.31505
G1 X114.839 Y108.923 E-.03157
;WIPE_END
G1 E-.04 F2100
G1 Z.9 F720
G1 X117.786 Y107.214 F10800
G1 Z.5 F720
G1 E.8 F2100
M204 S800
;TYPE:Perimeter
;WIDTH:0.5
G1 F2038
G1 X117.786 Y100.786 E.34929
G1 X129.786 Y100.786 E.65199
G1 X129.786 Y95.786 E.27166
M73 Q16 S3
G1 X132.214 Y95.786 E.13196
M73 P16 R3
G1 X132.214 Y114.214 E1.00129
G1 X129.786 Y114.214 E.13196
G1 X129.786 Y103.214 E.59766
G1 X120.214 Y103.214 E.52003
G1 X120.214 Y107.214 E.21733
G1 X117.846 Y107.214 E.1287
M204 S1000
G1 X117.349 Y107.7 F10800
M204 S800
;TYPE:External perimeter
;WIDTH:0.6
G1 F2038
G1 X117.3 Y107.7 E.00325
G1 X117.3 Y100.3 E.49436
G1 X129.3 Y100.3 E.80166
G1 X129.3 Y95.3 E.33403
M73 Q17 S3
G1 X132.7 Y95.3 E.22714
G1 X132.7 Y114.7 E1.29603
M73 P17 R3
G1 X129.3 Y114.7 E.22714
G1 X129.3 Y103.7 E.73486
G1 X120.7 Y103.7 E.57453
G1 X120.7 Y107.7 E.26722
G1 X117.409 Y107.7 E.21988
M204 S1000
G1 X117.313 Y107.667 F10800
;WIPE_START
G1 F8640
G1 X117.3 Y107.7 E-.02509
G1 X117.3 Y104.517 E-.73491
;WIPE_END
G1 E-.04 F2100
G1 Z.9 F720
G1 X132.084 Y113.192 F10800
G1 Z.5 F720
G1 E.8 F2100
;TYPE:Solid infill
;WIDTH:0.505067
G1 F2038
G1 X131.388 Y113.888 E.05405
G1 X130.765 Y113.888 E.03426
G1 X131.888 Y112.765 E.08726
G1 X131.888 Y112.142 E.03426
M73 Q18 S3
G1 X130.142 Y113.888 E.1357
G1 X130.112 Y113.888 E.00163
G1 X130.112 Y113.294 E.03263
G1 X131.888 Y111.519 E.138
G1 X131.888 Y110.895 E.03426
G1 X130.112 Y112.671 E.138
M73 P18 R3
G1 X130.112 Y112.048 E.03426
G1 X131.888 Y110.272 E.138
G1 X131.888 Y109.649 E.03426
G1 X130.112 Y111.424 E.138
G1 X130.112 Y110.801 E.03426
G1 X131.888 Y109.026 E.138
G1 X131.888 Y108.403 E.03426
G1 X130.112 Y110.178 E.138
G1 X130.112 Y109.555 E.03426
G1 X131.888 Y107.779 E.138
G1 X131.888 Y107.156 E.03426
G1 X130.112 Y108.931 E.138
G1 X130.112 Y108.308 E.03426
G1 X131.888 Y106.533 E.138
G1 X131.888 Y105.91 E.03426
G1 X130.112 Y107.685 E.138
G1 X130.112 Y107.062 E.03426
G1 X131.888 Y105.286 E.138
G1 X131.888 Y104.663 E.03426
G1 X130.112 Y106.439 E.138
G1 X130.112 Y105.815 E.03426
G1 X131.888 Y104.04 E.138
G1 X131.888 Y103.417 E.03426
G1 X130.112 Y105.192 E.138
G1 X130.112 Y104.569 E.03426
G1 X131.888 Y102.794 E.138
G1 X131.888 Y102.17 E.03426
G1 X130.112 Y103.946 E.138
G1 X130.112 Y103.322 E.03426
G1 X131.888 Y101.547 E.138
G1 X131.888 Y100.924 E.03426
G1 X129.924 Y102.888 E.15265
G1 X129.301 Y102.888 E.03426
G1 X131.888 Y100.301 E.20109
G1 X131.888 Y99.677 E.03426
G1 X128.677 Y102.888 E.24954
M73 Q19 S3
G1 X128.054 Y102.888 E.03426
G1 X131.888 Y99.054 E.29798
G1 X131.888 Y98.431 E.03426
M73 P19 R3
G1 X130.112 Y100.206 E.138
G1 X130.112 Y99.583 E.03426
G1 X131.888 Y97.808 E.138
G1 X131.888 Y97.185 E.03426
G1 X130.112 Y98.96 E.138
G1 X130.112 Y98.337 E.03426
G1 X131.888 Y96.561 E.138
G1 X131.888 Y96.112 E.02468
G1 X131.713 Y96.112 E.00958
G1 X130.112 Y97.713 E.12446
G1 X130.112 Y97.09 E.03426
G1 X131.09 Y96.112 E.07601
G1 X130.467 Y96.112 E.03426
G1 X129.916 Y96.663 E.04281
;WIPE_START
G1 F8640
G1 X130.467 Y96.112 E-.17983
G1 X131.09 Y96.112 E-.1439
G1 X130.112 Y97.09 E-.31932
G1 X130.112 Y97.597 E-.11695
;WIPE_END
G1 E-.04 F2100
G1 Z.9 F720
G1 X129.402 Y100.916 F10800
G1 Z.5 F720
G1 E.8 F2100
G1 F2038
G1 X127.431 Y102.888 E.15324
G1 X126.808 Y102.888 E.03426
G1 X128.583 Y101.112 E.138
G1 X127.96 Y101.112 E.03426
G1 X126.185 Y102.888 E.138
G1 X125.561 Y102.888 E.03426
G1 X127.337 Y101.112 E.138
G1 X126.713 Y101.112 E.03426
G1 X124.938 Y102.888 E.138
G1 X124.315 Y102.888 E.03426
G1 X126.09 Y101.112 E.138
G1 X125.467 Y101.112 E.03426
G1 X123.692 Y102.888 E.138
G1 X123.068 Y102.888 E.03426
G1 X124.844 Y101.112 E.138
G1 X124.221 Y101.112 E.03426
M73 Q20 S3
G1 X122.445 Y102.888 E.138
G1 X121.822 Y102.888 E.03426
G1 X123.597 Y101.112 E.138
G1 X122.974 Y101.112 E.03426
G1 X121.199 Y102.888 E.138
M73 P20 R3
G1 X120.576 Y102.888 E.03426
G1 X122.547 Y100.916 E.15324
;WIPE_START
G1 F8640
G1 X120.576 Y102.888 E-.64374
G1 X121.079 Y102.888 E-.11626
;WIPE_END
G1 E-.04 F2100
G1 Z.9 F720
G1 X119.496 Y107.084 F10800
G1 Z.5 F720
G1 E.8 F2100
G1 F2038
G1 X119.888 Y106.692 E.03047
G1 X119.888 Y106.068 E.03426
G1 X119.068 Y106.888 E.06368
G1 X118.445 Y106.888 E.03426
G1 X119.888 Y105.445 E.11213
G1 X119.888 Y104.822 E.03426
G1 X118.112 Y106.597 E.138
G1 X118.112 Y105.974 E.03426
G1 X119.888 Y104.199 E.138
G1 X119.888 Y103.576 E.03426
G1 X118.112 Y105.351 E.138
G1 X118.112 Y104.728 E.03426
G1 X121.728 Y101.112 E.28103
G1 X121.104 Y101.112 E.03426
G1 X118.112 Y104.104 E.23258
G1 X118.112 Y103.481 E.03426
G1 X120.481 Y101.112 E.18414
G1 X119.858 Y101.112 E.03426
G1 X118.112 Y102.858 E.13569
G1 X118.112 Y102.235 E.03426
G1 X119.235 Y101.112 E.08725
G1 X118.612 Y101.112 E.03426
G1 X117.916 Y101.808 E.05404
; stop printing object skadisHook.stl id:0 copy 0
M106 S170.85
;LAYER_CHANGE
;Z:0.8
;HEIGHT:0.3
;BEFORE_LAYER_CHANGE
G92 E0.0
;0.8


;WIPE_START
G1 F8640
G1 X118.612 Y101.112 E-.22702
G1 X119.235 Y101.112 E-.1439
G1 X118.112 Y102.235 E-.36652
G1 X118.112 Y102.332 E-.02255
;WIPE_END
G1 E-.04 F2100
G1 Z.9 F720
;AFTER_LAYER_CHANGE
;0.8
G1 X114.246 Y102.332 F10800
M73 Q21 S3
G1 Z.8 F720
G1 E.8 F2100
;TYPE:Skirt/Brim
;WIDTH:0.42
G1 F2026
G1 X114.246 Y100 E.10345
G1 X114.639 Y98.583 E.06524
M73 P21 R3
G1 X115.941 Y97.458 E.07632
G1 X127.941 Y92.458 E.57661
G1 X129 Y92.246 E.04792
G1 X133 Y92.246 E.17742
G1 X134.417 Y92.639 E.06524
G1 X135.431 Y93.705 E.06524
G1 X135.754 Y95 E.05921
G1 X135.754 Y115 E.8871
G1 X135.361 Y116.417 E.06524
G1 X134.295 Y117.431 E.06524
G1 X133 Y117.754 E.05921
G1 X129 Y117.754 E.17742
G1 X127.612 Y117.379 E.06376
G1 X115.612 Y110.379 E.6162
G1 X114.586 Y109.326 E.06524
G1 X114.246 Y108 E.0607
G1 X114.246 Y102.392 E.24872
G1 X114.623 Y102.392 F10800
M73 Q22 S3
G1 F2026
G1 X114.623 Y100 E.10612
G1 X115.015 Y98.693 E.06052
G1 X116.086 Y97.806 E.06169
G1 X128.086 Y92.806 E.57661
G1 X129 Y92.623 E.04135
M73 P22 R3
G1 X133 Y92.623 E.17742
G1 X134.307 Y93.015 E.06052
G1 X135.183 Y94.06 E.06052
G1 X135.377 Y95 E.04256
G1 X135.377 Y115 E.8871
G1 X134.985 Y116.307 E.06052
G1 X133.94 Y117.183 E.06052
G1 X133 Y117.377 E.04256
G1 X129 Y117.377 E.17742
G1 X127.802 Y117.053 E.05503
G1 X115.802 Y110.053 E.6162
G1 X114.871 Y109.056 E.06052
G1 X114.623 Y108 E.04813
G1 X114.623 Y102.452 E.24606
; printing object skadisHook.stl id:0 copy 0
;WIPE_START
