; generated by PrusaSlicer 2.4.1+win64 on 2023-12-22 at 10:20:37 UTC


;
;
; 

; external perimeters extrusion width = 0.60mm
; perimeters extrusion width = 0.50mm
; infill extrusion width = 0.50mm
; solid infill extrusion width = 0.50mm
; top infill extrusion width = 0.45mm
; first layer extrusion width = 0.42mm

M73 P0 R6
M73 Q0 S6
M201 X1000 Y1000 Z200 E5000 ; sets maximum accelerations, mm/sec^2
M203 X200 Y200 Z12 E120 ; sets maximum feedrates, mm / sec
M204 P1250 R1250 T1250 ; sets acceleration (P, T) and retract acceleration (R), mm/sec^2
M205 X8.00 Y8.00 Z0.40 E4.50 ; sets the jerk limits, mm/sec
M205 S0 T0 ; sets the minimum extruding and travel feed rate, mm/sec
M107
;TYPE:Custom
M862.3 P "MK3S" ; printer model check
M862.1 P0.4 ; nozzle diameter check
M115 U3.11.0 ; tell printer latest fw version
G90 ; use absolute coordinates
M83 ; extruder relative mode
M104 S215 ; set extruder temp
M140 S60 ; set bed temp
M190 S60 ; wait for bed temp
M109 S215 ; wait for extruder temp
G28 W ; home all without mesh bed level
G80 ; mesh bed leveling

G1 Z0.2 F720
G1 Y-3 F1000 ; go outside print area
G92 E0
G1 X60 E9 F1000 ; intro line
G1 X100 E12.5 F1000 ; intro line

G92 E0
M221 S95

; Don't change E values below. Excessive value can damage the printer.

M907 E538 ; set extruder motor current
G21 ; set units to millimeters
G90 ; use absolute coordinates
M83 ; use relative distances for extrusion
M900 K0.05 ; Filament gcode LA 1.5
M900 K30 ; Filament gcode LA 1.0
M107
;LAYER_CHANGE
;Z:0.2
;HEIGHT:0.2
;BEFORE_LAYER_CHANGE
G92 E0.0
;0.2


M73 P1 R6
G1 E-.8 F2100
M73 Q1 S6
G1 Z.4 F720
;AFTER_LAYER_CHANGE
;0.2
G1 X115.497 Y78.98 F10800
G1 Z.2 F720
G1 E.8 F2100
M204 S800
;TYPE:Skirt/Brim
;WIDTH:0.42
G1 F1200
G1 X115.756 Y78.602 E.01437
G1 X117.245 Y78.073 E.04953
G1 X142.555 Y78.073 E.7936
G1 X143.861 Y78.468 E.04278
M73 P2 R6
M73 Q2 S6
G1 X144.735 Y79.516 E.04278
G1 X144.927 Y80.437 E.02951
G1 X144.927 Y88.057 E.23892
G1 X144.82 Y88.95 E.02818
G1 X144.621 Y89.567 E.02035
G1 X121.385 Y127.895 E1.40534
G1 X120.307 Y129.241 E.05408
M73 Q3 S6
G1 X118.991 Y130.352 E.05398
G1 X117.428 Y131.214 E.05597
M73 P3 R6
G1 X115.782 Y131.732 E.05409
G1 X114.067 Y131.923 E.05413
G1 X112.334 Y131.775 E.05454
G1 X110.662 Y131.292 E.05454
G1 X109.118 Y130.492 E.05454
G1 X108.231 Y129.835 E.0346
G1 X107.165 Y128.769 E.04727
G1 X106.518 Y127.898 E.03403
G1 X105.787 Y126.528 E.04869
G1 X105.425 Y125.512 E.0338
G1 X105.131 Y124.034 E.04726
G1 X105.073 Y123.05 E.03091
G1 X105.111 Y121.513 E.04819
G1 X110.068 Y95.204 E.83942
G1 X114.986 Y79.728 E.50914
G1 X115.463 Y79.03 E.02653
M204 S1000
; printing object Hook_Straight_small.stl id:0 copy 0
;WIPE_START
G1 F8640
G1 X115.756 Y78.602 E-.11967
G1 X117.245 Y78.073 E-.36478
G1 X118.438 Y78.073 E-.27555
;WIPE_END
G1 E-.04 F2100
G1 Z.6 F720
G1 X118.603 Y81.801 F10800
G1 Z.2 F720
G1 E.8 F2100
M204 S800
;TYPE:External perimeter
M73 Q4 S6
G1 F1200
G1 X141.199 Y81.799 E.70848
G1 X141.21 Y88.001 E.19447
M73 P4 R6
G1 X141.169 Y88.158 E.00508
G1 X141.131 Y88.215 E.00215
G1 X141.044 Y88.275 E.00331
G1 X140.955 Y88.291 E.00284
G1 X140.832 Y88.266 E.00394
G1 X140.747 Y88.188 E.00362
G1 X140.69 Y88.001 E.00613
G1 X140.707 Y82.294 E.17895
G1 X119.095 Y82.294 E.67764
G1 X119.106 Y94.996 E.39827
G1 X119.078 Y95.513 E.01623
G1 X119.099 Y97.553 E.06398
G1 X119.108 Y122.297 E.77582
G1 X119.101 Y123.194 E.02812
M73 P5 R6
M73 Q5 S6
G1 X119.074 Y123.557 E.01141
G1 X119 Y124.055 E.01579
G1 X118.877 Y124.545 E.01584
G1 X118.707 Y125.02 E.01584
G1 X118.491 Y125.477 E.01584
G1 X118.231 Y125.911 E.01584
G1 X117.93 Y126.316 E.01584
G1 X117.591 Y126.691 E.01584
G1 X117.216 Y127.03 E.01585
G1 X116.821 Y127.324 E.01544
G1 X116.377 Y127.591 E.01623
G1 X115.902 Y127.814 E.01645
G1 X115.445 Y127.977 E.01522
G1 X114.945 Y128.102 E.01615
G1 X114.455 Y128.174 E.01555
G1 X113.95 Y128.199 E.01585
G1 X113.445 Y128.174 E.01584
G1 X112.946 Y128.1 E.01584
G1 X112.455 Y127.977 E.01584
G1 X111.98 Y127.807 E.01584
G1 X111.523 Y127.591 E.01584
G1 X111.09 Y127.331 E.01584
G1 X110.684 Y127.03 E.01584
G1 X110.309 Y126.691 E.01584
G1 X109.97 Y126.316 E.01585
G1 X109.676 Y125.921 E.01544
G1 X109.409 Y125.477 E.01623
G1 X109.186 Y125.003 E.01645
G1 X109.023 Y124.545 E.01522
G1 X108.899 Y124.046 E.01615
G1 X108.826 Y123.551 E.01567
G1 X108.794 Y123.04 E.01606
G1 X108.79 Y122.098 E.02954
G1 X108.831 Y121.942 E.00504
G1 X108.869 Y121.885 E.00215
G1 X108.956 Y121.825 E.00331
G1 X109.045 Y121.809 E.00284
G1 X109.168 Y121.834 E.00394
G1 X109.269 Y121.937 E.00451
G1 X109.31 Y122.099 E.00525
G1 X109.316 Y123.405 E.04096
G1 X109.39 Y123.948 E.01717
G1 X109.502 Y124.399 E.01456
G1 X109.65 Y124.814 E.01381
G1 X109.851 Y125.241 E.0148
G1 X110.091 Y125.641 E.01463
G1 X110.357 Y125.999 E.01398
G1 X110.664 Y126.337 E.01429
G1 X111.002 Y126.643 E.0143
G1 X111.368 Y126.915 E.0143
G1 X111.759 Y127.149 E.0143
G1 X112.171 Y127.344 E.0143
G1 X112.601 Y127.498 E.0143
G1 X113.043 Y127.609 E.0143
G1 X113.494 Y127.675 E.0143
G1 X113.95 Y127.698 E.0143
G1 X114.405 Y127.675 E.0143
G1 X114.849 Y127.61 E.01407
G1 X115.299 Y127.498 E.01452
G1 X115.714 Y127.35 E.01382
G1 X116.141 Y127.149 E.0148
G1 X116.541 Y126.909 E.01463
G1 X116.899 Y126.643 E.01398
G1 X117.236 Y126.337 E.01429
G1 X117.543 Y125.999 E.0143
G1 X117.814 Y125.632 E.0143
G1 X118.049 Y125.241 E.0143
G1 X118.244 Y124.829 E.0143
M73 P5 R5
G1 X118.398 Y124.399 E.0143
G1 X118.508 Y123.957 E.0143
G1 X118.576 Y123.502 E.01441
G1 X118.594 Y123.061 E.01384
G1 X118.595 Y96.303 E.83897
G1 X113.998 Y96.306 E.14415
M73 P6 R5
M73 Q6 S6
G1 X113.839 Y96.267 E.00512
G1 X113.785 Y96.232 E.00204
G1 X113.725 Y96.145 E.00331
G1 X113.709 Y96.056 E.00284
G1 X113.734 Y95.932 E.00394
G1 X113.812 Y95.847 E.00362
G1 X113.994 Y95.794 E.00596
G1 X118.595 Y95.796 E.14424
G1 X118.603 Y81.861 E.43692
M204 S1000
G1 X118.926 Y82.037 F10800
M73 Q6 S5
G1 X118.859 Y82.057
M204 S800
;TYPE:Gap fill
;WIDTH:0.177543
G1 F1200
G1 X118.906 Y82.048 E.00054
M204 S1000
M204 S800
;WIDTH:0.16124
G1 X140.896 Y82.046 E.21635
M204 S1000
M204 S800
;WIDTH:0.179477
G1 X140.943 Y82.055 E.00054
M204 S1000
M204 S800
;WIDTH:0.179478
G1 X140.954 Y82.105 E.00058
M204 S1000
M204 S800
;WIDTH:0.185962
G1 X140.95 Y87.968 E.06973
M204 S1000
M204 S800
;WIDTH:0.185963
G1 X140.934 Y88.094 E.00152
M204 S1000
;WIPE_START
G1 F8640
G1 X140.95 Y87.968 E-.02942
;WIPE_END
G1 E-.77058 F2100
G1 Z.6 F720
G1 X118.859 Y82.057 F10800
G1 Z.2 F720
G1 E.8 F2100
M204 S800
;WIDTH:0.177541
G1 F1200
G1 X118.849 Y82.105 E.00055
M204 S1000
M204 S800
;WIDTH:0.176295
G1 X118.851 Y94.989 E.14289
M204 S1000
M204 S800
;WIDTH:0.176295
G1 X118.837 Y95.506 E.00573
M204 S1000
M204 S800
;WIDTH:0.149287
M73 P7 R5
M73 Q7 S5
G1 X118.837 Y95.509 E.00003
M204 S1000
M204 S800
;WIDTH:0.15434
G1 X118.839 Y95.985 E.00441
M204 S1000
M204 S800
;WIDTH:0.192487
G1 X118.821 Y96.05 E.00084
M204 S1000
M204 S800
;WIDTH:0.192486
G1 X118.784 Y96.05 E.00046
M204 S1000
M204 S800
;WIDTH:0.172802
G1 X118.783 Y96.05 E0
M204 S1000
M204 S800
;WIDTH:0.177071
G1 X114.028 Y96.05 E.05304
M204 S1000
M204 S800
;WIDTH:0.177072
G1 X113.906 Y96.035 E.00138
M204 S1000
;WIPE_START
G1 F8640
G1 X114.028 Y96.05 E-.02856
;WIPE_END
G1 E-.77144 F2100
G1 Z.6 F720
G1 X118.821 Y96.05 F10800
G1 Z.2 F720
G1 E.8 F2100
M204 S800
;WIDTH:0.192487
G1 F1200
G1 X118.84 Y96.115 E.00084
M204 S1000
M204 S800
;WIDTH:0.169939
G1 X118.847 Y97.555 E.01521
M204 S1000
M204 S800
;WIDTH:0.179612
G1 X118.851 Y122.296 E.28121
M204 S1000
M204 S800
;WIDTH:0.17961
G1 X118.848 Y123.065 E.00874
M204 S1000
M204 S800
;WIDTH:0.173397
G1 X118.848 Y123.068 E.00003
M204 S1000
M204 S800
;WIDTH:0.177251
G1 X118.845 Y123.183 E.00129
M204 S1000
M204 S800
;WIDTH:0.177253
G1 X118.825 Y123.522 E.0038
M204 S1000
M204 S800
;WIDTH:0.166192
G1 X118.825 Y123.529 E.00007
M204 S1000
G1 X118.825 Y123.529 F10800
M204 S800
;WIDTH:0.166192
G1 F1200
G1 X118.755 Y124.003 E.00491
M204 S1000
M204 S800
;WIDTH:0.166259
G1 X118.754 Y124.006 E.00003
M204 S1000
M204 S800
;WIDTH:0.16626
G1 X118.753 Y124.009 E.00003
M204 S1000
M204 S800
;WIDTH:0.166198
G1 X118.638 Y124.469 E.00487
M204 S1000
M204 S800
;WIDTH:0.16627
G1 X118.637 Y124.472 E.00003
M204 S1000
M204 S800
;WIDTH:0.166272
G1 X118.636 Y124.475 E.00003
M204 S1000
M204 S800
;WIDTH:0.1662
G1 X118.476 Y124.922 E.00487
M204 S1000
M204 S800
;WIDTH:0.166273
G1 X118.475 Y124.925 E.00003
M204 S1000
M204 S800
;WIDTH:0.166272
G1 X118.474 Y124.927 E.00003
M204 S1000
M204 S800
;WIDTH:0.166201
G1 X118.271 Y125.356 E.00487
M204 S1000
M204 S800
;WIDTH:0.166277
G1 X118.27 Y125.359 E.00003
M204 S1000
M204 S800
;WIDTH:0.166276
G1 X118.268 Y125.362 E.00003
M204 S1000
M204 S800
;WIDTH:0.166208
G1 X118.024 Y125.769 E.00487
M204 S1000
M204 S800
;WIDTH:0.166282
G1 X118.023 Y125.771 E.00003
M204 S1000
M204 S800
;WIDTH:0.166281
G1 X118.021 Y125.774 E.00003
M204 S1000
M204 S800
;WIDTH:0.166206
G1 X117.738 Y126.155 E.00487
M204 S1000
M204 S800
;WIDTH:0.16626
G1 X117.736 Y126.158 E.00003
M204 S1000
M204 S800
;WIDTH:0.16626
G1 X117.734 Y126.16 E.00003
M204 S1000
M204 S800
;WIDTH:0.166189
G1 X117.416 Y126.511 E.00486
M204 S1000
M204 S800
;WIDTH:0.166264
G1 X117.414 Y126.514 E.00003
M204 S1000
M204 S800
;WIDTH:0.166263
G1 X117.411 Y126.516 E.00003
M204 S1000
M204 S800
;WIDTH:0.166199
G1 X117.06 Y126.834 E.00486
M204 S1000
M204 S800
;WIDTH:0.166313
G1 X117.057 Y126.837 E.00004
M204 S1000
M204 S800
;WIDTH:0.166313
G1 X117.055 Y126.838 E.00002
M204 S1000
M204 S800
;WIDTH:0.166273
G1 X116.683 Y127.115 E.00476
M204 S1000
M204 S800
;WIDTH:0.16629
G1 X116.682 Y127.116 E.00002
M204 S1000
M204 S800
;WIDTH:0.166291
G1 X116.678 Y127.118 E.00005
M204 S1000
M204 S800
;WIDTH:0.16612
G1 X116.261 Y127.368 E.00497
M204 S1000
M204 S800
;WIDTH:0.166176
G1 X116.259 Y127.37 E.00003
M204 S1000
M204 S800
;WIDTH:0.166175
G1 X116.256 Y127.371 E.00004
M204 S1000
M204 S800
;WIDTH:0.166076
G1 X115.812 Y127.58 E.00503
M204 S1000
M204 S800
;WIDTH:0.166317
G1 X115.807 Y127.583 E.00006
M204 S1000
M204 S800
;WIDTH:0.166317
G1 X115.806 Y127.583 E.00001
M204 S1000
M204 S800
;WIDTH:0.166319
G1 X115.374 Y127.737 E.00471
M204 S1000
M204 S800
;WIDTH:0.166331
G1 X115.373 Y127.737 E.00001
M204 S1000
M204 S800
;WIDTH:0.166331
G1 X115.368 Y127.738 E.00005
M204 S1000
M204 S800
;WIDTH:0.166146
G1 X114.901 Y127.855 E.00494
M204 S1000
M204 S800
;WIDTH:0.166283
G1 X114.897 Y127.856 E.00004
M204 S1000
M204 S800
;WIDTH:0.166282
G1 X114.895 Y127.856 E.00002
M204 S1000
M204 S800
;WIDTH:0.166254
G1 X114.433 Y127.924 E.00479
M204 S1000
M204 S800
;WIDTH:0.1663
G1 X114.43 Y127.925 E.00002
M204 S1000
M204 S800
;WIDTH:0.1663
G1 X114.427 Y127.925 E.00004
M204 S1000
M204 S800
;WIDTH:0.166197
G1 X113.953 Y127.948 E.00486
M204 S1000
M204 S800
;WIDTH:0.166272
G1 X113.95 Y127.948 E.00003
M204 S1000
M204 S800
;WIDTH:0.166271
G1 X113.947 Y127.948 E.00003
M204 S1000
M204 S800
;WIDTH:0.166203
G1 X113.473 Y127.925 E.00487
M204 S1000
M204 S800
;WIDTH:0.166276
G1 X113.47 Y127.925 E.00003
M204 S1000
M204 S800
;WIDTH:0.166276
G1 X113.467 Y127.924 E.00003
M204 S1000
M204 S800
;WIDTH:0.166201
G1 X112.997 Y127.855 E.00487
M204 S1000
M204 S800
;WIDTH:0.166274
G1 X112.994 Y127.854 E.00003
M204 S1000
M204 S800
;WIDTH:0.166275
G1 X112.992 Y127.854 E.00003
M204 S1000
M204 S800
;WIDTH:0.166201
G1 X112.531 Y127.738 E.00487
M204 S1000
M204 S800
;WIDTH:0.166271
G1 X112.528 Y127.737 E.00003
M204 S1000
M204 S800
;WIDTH:0.16627
G1 X112.525 Y127.736 E.00003
M204 S1000
M204 S800
;WIDTH:0.166197
G1 X112.078 Y127.577 E.00487
M204 S1000
M204 S800
;WIDTH:0.166264
G1 X112.076 Y127.575 E.00003
M204 S1000
M204 S800
;WIDTH:0.166264
G1 X112.073 Y127.574 E.00003
M204 S1000
M204 S800
;WIDTH:0.166201
G1 X111.644 Y127.371 E.00487
M204 S1000
M204 S800
;WIDTH:0.166274
G1 X111.641 Y127.37 E.00003
M204 S1000
M204 S800
;WIDTH:0.166274
G1 X111.638 Y127.368 E.00003
M204 S1000
M204 S800
;WIDTH:0.166201
G1 X111.231 Y127.124 E.00487
M204 S1000
M204 S800
;WIDTH:0.166275
G1 X111.229 Y127.123 E.00003
M204 S1000
M204 S800
;WIDTH:0.166276
G1 X111.226 Y127.121 E.00003
M204 S1000
M204 S800
;WIDTH:0.166201
G1 X110.845 Y126.838 E.00487
M204 S1000
M204 S800
;WIDTH:0.166271
G1 X110.843 Y126.836 E.00003
M204 S1000
M204 S800
;WIDTH:0.16627
G1 X110.84 Y126.834 E.00003
M204 S1000
M204 S800
;WIDTH:0.166196
G1 X110.489 Y126.516 E.00487
M204 S1000
M204 S800
;WIDTH:0.166262
G1 X110.486 Y126.514 E.00003
M204 S1000
M204 S800
;WIDTH:0.166262
G1 X110.484 Y126.511 E.00003
M204 S1000
M204 S800
;WIDTH:0.166191
G1 X110.166 Y126.16 E.00486
M204 S1000
M204 S800
;WIDTH:0.166307
G1 X110.163 Y126.157 E.00004
M204 S1000
M204 S800
;WIDTH:0.166305
G1 X110.162 Y126.155 E.00002
M204 S1000
M204 S800
;WIDTH:0.166266
G1 X109.885 Y125.783 E.00476
M204 S1000
M204 S800
;WIDTH:0.166277
G1 X109.884 Y125.782 E.00001
M204 S1000
M204 S800
;WIDTH:0.166277
G1 X109.882 Y125.778 E.00005
M204 S1000
M204 S800
;WIDTH:0.166123
G1 X109.632 Y125.362 E.00497
M204 S1000
M204 S800
;WIDTH:0.166184
G1 X109.63 Y125.359 E.00003
M204 S1000
M204 S800
;WIDTH:0.166182
G1 X109.629 Y125.356 E.00004
M204 S1000
M204 S800
;WIDTH:0.166087
G1 X109.42 Y124.912 E.00503
M204 S1000
M204 S800
;WIDTH:0.166324
G1 X109.418 Y124.907 E.00006
M204 S1000
M204 S800
;WIDTH:0.166325
G1 X109.417 Y124.907 E.00001
M204 S1000
M204 S800
;WIDTH:0.166322
G1 X109.263 Y124.474 E.00471
M204 S1000
M204 S800
;WIDTH:0.166322
G1 X109.263 Y124.473 E.00001
M204 S1000
M204 S800
;WIDTH:0.166322
G1 X109.262 Y124.468 E.00005
M204 S1000
M204 S800
;WIDTH:0.166137
G1 X109.145 Y123.999 E.00496
M204 S1000
M204 S800
;WIDTH:0.166148
G1 X109.144 Y123.997 E.00002
M204 S1000
M204 S800
;WIDTH:0.166148
G1 X109.143 Y123.992 E.00005
M204 S1000
M204 S800
;WIDTH:0.17171
G1 X109.077 Y123.525 E.00505
M204 S1000
M204 S800
;WIDTH:0.171708
G1 X109.068 Y123.427 E.00106
M204 S1000
M204 S800
;WIDTH:0.164517
G1 X109.067 Y123.419 E.00008
M204 S1000
M204 S800
;WIDTH:0.186416
G1 X109.054 Y123.031 E.00463
M204 S1000
M204 S800
;WIDTH:0.186415
G1 X109.05 Y122.133 E.01072
M204 S1000
M204 S800
;WIDTH:0.185831
G1 X109.034 Y122.003 E.00156
M204 S1000
; stop printing object Hook_Straight_small.stl id:0 copy 0
M106 S84.15
;LAYER_CHANGE
;Z:0.5
;HEIGHT:0.3
;BEFORE_LAYER_CHANGE
G92 E0.0
;0.5


;WIPE_START
G1 F8640
G1 X109.05 Y122.133 E-.03023
;WIPE_END
G1 E-.76977 F2100
G1 Z.6 F720
;AFTER_LAYER_CHANGE
;0.5
M104 S210 ; set temperature
G1 X105.098 Y122.034 F10800
G1 Z.5 F720
G1 E.8 F2100
;TYPE:Skirt/Brim
;WIDTH:0.42
G1 F2700
G1 X105.111 Y121.513 E.02312
G1 X110.068 Y95.204 E1.18747
G1 X114.986 Y79.728 E.72025
M73 P8 R5
M73 Q8 S5
G1 X115.756 Y78.602 E.06052
G1 X117.245 Y78.073 E.07007
G1 X142.555 Y78.073 E1.12266
G1 X143.861 Y78.468 E.06052
G1 X144.735 Y79.516 E.06052
G1 X144.927 Y80.437 E.04174
G1 X144.927 Y88.057 E.33799
G1 X144.82 Y88.95 E.03986
G1 X144.621 Y89.567 E.02879
G1 X121.385 Y127.895 E1.98804
G1 X120.307 Y129.241 E.0765
G1 X118.991 Y130.352 E.07636
G1 X117.428 Y131.214 E.07918
G1 X115.782 Y131.732 E.07651
G1 X114.067 Y131.923 E.07657
G1 X112.334 Y131.775 E.07715
G1 X110.662 Y131.292 E.07715
G1 X109.118 Y130.492 E.07715
G1 X108.231 Y129.835 E.04895
G1 X107.165 Y128.769 E.06686
G1 X106.518 Y127.898 E.04815
G1 X105.787 Y126.528 E.06888
G1 X105.425 Y125.512 E.04781
G1 X105.131 Y124.034 E.06686
G1 X105.073 Y123.05 E.04373
G1 X105.097 Y122.094 E.04239
; printing object Hook_Straight_small.stl id:0 copy 0
;WIPE_START
G1 F8640
G1 X105.111 Y121.513 E-.13422
G1 X105.613 Y118.85 E-.62578
;WIPE_END
G1 E-.04 F2100
G1 Z.9 F720
G1 X108.99 Y121.628 F10800
G1 Z.5 F720
G1 E.8 F2100
M204 S800
;TYPE:Perimeter
;WIDTH:0.5
G1 F3000
G1 X109.127 Y121.632 E.00743
G1 X109.261 Y121.682 E.00777
G1 X109.378 Y121.784 E.00844
G1 X109.464 Y121.959 E.01061
G1 X109.482 Y122.099 E.00768
G1 X109.48 Y123.069 E.05272
G1 X109.501 Y123.488 E.0228
G1 X109.564 Y123.915 E.02345
G1 X109.672 Y124.347 E.02416
G1 X109.814 Y124.747 E.02309
G1 X110.007 Y125.157 E.02462
G1 X110.238 Y125.542 E.02437
G1 X110.495 Y125.886 E.02334
G1 X110.789 Y126.211 E.02381
G1 X111.114 Y126.506 E.02383
G1 X111.466 Y126.767 E.02384
G1 X111.843 Y126.993 E.02384
M73 Q9 S5
G1 X112.239 Y127.18 E.02384
G1 X112.652 Y127.328 E.02383
G1 X113.078 Y127.435 E.02384
G1 X113.512 Y127.499 E.02384
