; generated by PrusaSlicer 2.4.1+win64 on 2023-12-22 at 10:19:07 UTC


;
;
; 

; external perimeters extrusion width = 0.60mm
; perimeters extrusion width = 0.50mm
; infill extrusion width = 0.50mm
; solid infill extrusion width = 0.50mm
; top infill extrusion width = 0.45mm
; first layer extrusion width = 0.42mm

M73 P0 R6
M73 Q0 S6
M201 X1000 Y1000 Z200 E5000 ; sets maximum accelerations, mm/sec^2
M203 X200 Y200 Z12 E120 ; sets maximum feedrates, mm / sec
M204 P1250 R1250 T1250 ; sets acceleration (P, T) and retract acceleration (R), mm/sec^2
M205 X8.00 Y8.00 Z0.40 E4.50 ; sets the jerk limits, mm/sec
M205 S0 T0 ; sets the minimum extruding and travel feed rate, mm/sec
M107
;TYPE:Custom
M862.3 P "MK3S" ; printer model check
M862.1 P0.4 ; nozzle diameter check
M115 U3.11.0 ; tell printer latest fw version
G90 ; use absolute coordinates
M83 ; extruder relative mode
M104 S215 ; set extruder temp
M140 S60 ; set bed temp
M190 S60 ; wait for bed temp
M109 S215 ; wait for extruder temp
G28 W ; home all without mesh bed level
G80 ; mesh bed leveling

G1 Z0.2 F720
G1 Y-3 F1000 ; go outside print area
G92 E0
G1 X60 E9 F1000 ; intro line
G1 X100 E12.5 F1000 ; intro line

G92 E0
M221 S95

; Don't change E values below. Excessive value can damage the printer.

M907 E538 ; set extruder motor current
G21 ; set units to millimeters
G90 ; use absolute coordinates
M83 ; use relative distances for extrusion
M900 K0.05 ; Filament gcode LA 1.5
M900 K30 ; Filament gcode LA 1.0
M107
;LAYER_CHANGE
;Z:0.2
;HEIGHT:0.2
;BEFORE_LAYER_CHANGE
G92 E0.0
;0.2


G1 E-.8 F2100
M73 P1 R6
M73 Q1 S6
G1 Z.4 F720
;AFTER_LAYER_CHANGE
;0.2
G1 X112.468 Y78.601 F10800
G1 Z.2 F720
G1 E.8 F2100
M204 S800
;TYPE:Skirt/Brim
;WIDTH:0.42
G1 F1200
G1 X113.932 Y78.073 E.04878
G1 X131.57 Y78.071 E.55304
G1 X133.52 Y78.149 E.06117
M73 P2 R6
M73 Q2 S6
G1 X135.07 Y78.372 E.04911
G1 X136.638 Y78.757 E.05065
G1 X138.248 Y79.333 E.05358
G1 X140.278 Y80.355 E.07127
G1 X141.607 Y81.236 E.05002
G1 X142.926 Y82.318 E.05348
G1 X144.048 Y83.448 E.04993
G1 X145.444 Y85.238 E.07119
G1 X146.268 Y86.601 E.04993
G1 X146.998 Y88.146 E.05357
G1 X147.529 Y89.646 E.04992
G1 X148.027 Y91.862 E.07119
G1 X148.194 Y93.554 E.05331
G1 X148.177 Y94.837 E.04023
G1 X148.038 Y95.457 E.01993
G1 X147.794 Y96.068 E.02061
G1 X147.202 Y96.949 E.03329
G1 X116.994 Y129.268 E1.38707
G1 X116.381 Y129.835 E.02617
M73 Q3 S6
G1 X115.51 Y130.482 E.03404
G1 X114.738 Y130.932 E.028
G1 X113.345 Y131.508 E.04726
M73 P3 R6
G1 X112.266 Y131.778 E.03489
G1 X110.779 Y131.923 E.04684
G1 X109.677 Y131.869 E.03461
G1 X108.198 Y131.575 E.04726
G1 X107.159 Y131.203 E.03461
G1 X105.83 Y130.492 E.04725
G1 X104.943 Y129.835 E.03461
G1 X103.731 Y128.591 E.05445
G1 X102.894 Y127.338 E.04726
G1 X102.41 Y126.312 E.03556
G1 X101.98 Y124.883 E.0468
G1 X101.821 Y123.811 E.03397
G1 X101.795 Y121.836 E.06193
G1 X106.791 Y95.133 E.85178
G1 X111.698 Y79.728 E.50693
G1 X112.435 Y78.651 E.0409
M204 S1000
; printing object Hook_small2.stl id:0 copy 0
;WIPE_START
G1 F8640
G1 X113.932 Y78.073 E-.37058
G1 X115.618 Y78.073 E-.38942
;WIPE_END
G1 E-.04 F2100
G1 Z.6 F720
G1 X115.314 Y81.803 F10800
G1 Z.2 F720
G1 E.8 F2100
M204 S800
;TYPE:External perimeter
G1 F1200
G1 X131.981 Y81.794 E.52259
G1 X132.599 Y81.814 E.01938
M73 P4 R6
M73 Q4 S6
G1 X133.213 Y81.86 E.0193
G1 X133.822 Y81.935 E.01924
G1 X134.405 Y82.035 E.01855
G1 X134.996 Y82.167 E.019
G1 X135.616 Y82.338 E.02016
G1 X136.199 Y82.53 E.01923
G1 X136.771 Y82.751 E.01924
G1 X137.307 Y82.988 E.01836
G1 X137.88 Y83.276 E.02012
G1 X138.414 Y83.578 E.01922
G1 X138.957 Y83.923 E.02019
G1 X139.434 Y84.259 E.01829
G1 X139.918 Y84.637 E.01925
G1 X140.382 Y85.038 E.01924
G1 X140.827 Y85.461 E.01924
G1 X141.25 Y85.905 E.01924
G1 X141.651 Y86.37 E.01924
G1 X142.028 Y86.853 E.01924
G1 X142.381 Y87.355 E.01924
G1 X142.71 Y87.873 E.01924
G1 X143.012 Y88.407 E.01924
G1 X143.288 Y88.955 E.01924
G1 X143.537 Y89.516 E.01924
G1 X143.757 Y90.089 E.01924
G1 X143.95 Y90.671 E.01924
G1 X144.114 Y91.263 E.01924
G1 X144.248 Y91.861 E.01924
G1 X144.353 Y92.466 E.01924
G1 X144.428 Y93.075 E.01924
G1 X144.493 Y94.256 E.03711
G1 X144.455 Y94.41 E.00496
G1 X144.419 Y94.465 E.00207
G1 X144.332 Y94.525 E.00331
G1 X144.243 Y94.541 E.00284
G1 X144.12 Y94.516 E.00394
G1 X144.02 Y94.414 E.00448
G1 X143.98 Y94.254 E.00518
G1 X143.971 Y93.713 E.01697
G1 X143.927 Y93.124 E.0185
G1 X143.855 Y92.54 E.01846
G1 X143.754 Y91.96 E.01846
G1 X143.625 Y91.385 E.01846
G1 X143.468 Y90.817 E.01846
G1 X143.284 Y90.258 E.01846
G1 X142.833 Y89.171 E.03689
G1 X142.568 Y88.645 E.01849
G1 X142.278 Y88.132 E.01846
G1 X141.963 Y87.635 E.01846
G1 X141.624 Y87.153 E.01846
G1 X141.262 Y86.689 E.01846
G1 X140.877 Y86.243 E.01846
G1 X140.471 Y85.817 E.01846
G1 X140.044 Y85.411 E.01846
G1 X139.598 Y85.026 E.01846
G1 X139.134 Y84.664 E.01846
G1 X138.676 Y84.34 E.0176
G1 X138.156 Y84.01 E.01933
G1 X137.643 Y83.719 E.01848
G1 X137.094 Y83.444 E.01926
G1 X136.578 Y83.216 E.01766
G1 X136.029 Y83.004 E.01846
G1 X135.47 Y82.819 E.01847
G1 X134.876 Y82.656 E.01932
G1 X134.308 Y82.529 E.01825
G1 X133.748 Y82.433 E.01782
G1 X133.163 Y82.36 E.01846
G1 X132.573 Y82.317 E.01855
G1 X115.806 Y82.294 E.52572
G1 X115.811 Y94.567 E.38479
G1 X115.794 Y96.049 E.04649
M73 P5 R6
M73 Q5 S6
G1 X115.811 Y97.553 E.04717
G1 X115.82 Y122.297 E.77581
G1 X115.813 Y123.194 E.02812
G1 X115.786 Y123.557 E.01141
G1 X115.712 Y124.055 E.01579
G1 X115.589 Y124.545 E.01584
G1 X115.419 Y125.02 E.01584
G1 X115.203 Y125.477 E.01584
G1 X114.943 Y125.911 E.01584
G1 X114.642 Y126.316 E.01584
G1 X114.303 Y126.691 E.01584
G1 X113.928 Y127.03 E.01585
G1 X113.533 Y127.324 E.01544
G1 X113.089 Y127.591 E.01623
G1 X112.615 Y127.814 E.01645
G1 X112.157 Y127.977 E.01522
G1 X111.658 Y128.102 E.01615
G1 X111.167 Y128.174 E.01555
G1 X110.662 Y128.199 E.01585
G1 X110.158 Y128.174 E.01584
G1 X109.658 Y128.1 E.01584
G1 X109.168 Y127.977 E.01584
G1 X108.692 Y127.807 E.01584
G1 X108.235 Y127.591 E.01584
G1 X107.802 Y127.331 E.01584
G1 X107.396 Y127.03 E.01584
G1 X107.022 Y126.691 E.01584
G1 X106.682 Y126.316 E.01585
G1 X106.388 Y125.921 E.01544
G1 X106.122 Y125.477 E.01623
G1 X105.898 Y125.003 E.01645
G1 X105.735 Y124.545 E.01522
G1 X105.611 Y124.046 E.01615
G1 X105.538 Y123.55 E.0157
G1 X105.512 Y123.199 E.01105
G1 X105.503 Y122.092 E.0347
G1 X105.531 Y121.959 E.00426
G1 X105.623 Y121.847 E.00455
G1 X105.724 Y121.812 E.00334
G1 X105.813 Y121.814 E.0028
G1 X105.905 Y121.85 E.00307
G1 X105.992 Y121.961 E.00444
G1 X106.022 Y122.093 E.00424
G1 X106.018 Y123.061 E.03035
G1 X106.037 Y123.508 E.01404
G1 X106.102 Y123.949 E.01398
G1 X106.215 Y124.399 E.01452
G1 X106.362 Y124.814 E.01381
G1 X106.563 Y125.241 E.0148
G1 X106.804 Y125.641 E.01463
G1 X107.07 Y125.999 E.01398
G1 X107.376 Y126.337 E.01429
G1 X107.714 Y126.643 E.0143
G1 X108.08 Y126.915 E.0143
G1 X108.471 Y127.149 E.0143
G1 X108.884 Y127.344 E.0143
G1 X109.313 Y127.498 E.0143
G1 X109.756 Y127.609 E.0143
G1 X110.207 Y127.675 E.0143
G1 X110.662 Y127.698 E.0143
G1 X111.118 Y127.675 E.0143
G1 X111.561 Y127.61 E.01407
G1 X112.011 Y127.498 E.01452
G1 X112.426 Y127.35 E.01381
G1 X112.853 Y127.149 E.0148
G1 X113.253 Y126.909 E.01463
G1 X113.611 Y126.643 E.01398
G1 X113.949 Y126.337 E.01429
G1 X114.255 Y125.999 E.0143
G1 X114.527 Y125.632 E.0143
G1 X114.761 Y125.241 E.0143
G1 X114.956 Y124.829 E.0143
G1 X115.11 Y124.399 E.0143
G1 X115.221 Y123.957 E.0143
G1 X115.288 Y123.502 E.01442
G1 X115.306 Y123.061 E.01384
G1 X115.307 Y96.304 E.83895
G1 X110.704 Y96.304 E.14434
M73 P6 R6
M73 Q6 S6
G1 X110.566 Y96.275 E.00442
G1 X110.47 Y96.201 E.00381
G1 X110.42 Y96.059 E.00474
G1 X110.432 Y95.971 E.00278
G1 X110.477 Y95.886 E.00302
G1 X110.569 Y95.826 E.00345
G1 X110.703 Y95.796 E.00429
G1 X115.307 Y95.793 E.14437
G1 X115.314 Y81.863 E.43678
M204 S1000
G1 X115.637 Y82.038 F10800
G1 X115.569 Y82.059
M204 S800
;TYPE:Gap fill
;WIDTH:0.177369
G1 F1200
G1 X115.56 Y82.106 E.00054
M204 S1000
M204 S800
;WIDTH:0.16942
G1 X115.56 Y94.565 E.13106
M204 S1000
M204 S800
;WIDTH:0.16942
G1 X115.551 Y95.982 E.0149
M204 S1000
M204 S800
;WIDTH:0.193276
G1 X115.531 Y96.048 E.00087
M204 S1000
M204 S800
;WIDTH:0.193676
G1 X115.531 Y96.049 E0
M204 S1000
M204 S800
;WIDTH:0.193675
G1 X115.496 Y96.049 E.00043
M204 S1000
M204 S800
;WIDTH:0.176754
G1 X115.496 Y96.049 E0
M204 S1000
M204 S800
;WIDTH:0.176754
G1 X110.731 Y96.05 E.05303
M204 S1000
M204 S800
;WIDTH:0.173966
G1 X110.615 Y96.063 E.00126
M204 S1000
G1 X110.618 Y96.023 F10800
M204 S800
;WIDTH:0.126635
G1 F1200
G1 X110.654 Y96.045 E.0003
M204 S1000
M204 S800
;WIDTH:0.14243
G1 X110.663 Y96.049 E.00008
M204 S1000
M204 S800
;WIDTH:0.1434
G1 X110.664 Y96.049 E.00001
M204 S1000
M204 S800
;WIDTH:0.148403
G1 X110.96 Y96.116 E.00266
M204 S1000
;WIPE_START
G1 F8640
G1 X110.664 Y96.049 E-.07013
;WIPE_END
G1 E-.72987 F2100
G1 Z.6 F720
G1 X115.531 Y96.049 F10800
G1 Z.2 F720
G1 E.8 F2100
M204 S800
;WIDTH:0.193674
G1 F1200
G1 X115.531 Y96.05 E.00002
M204 S1000
M204 S800
;WIDTH:0.192024
G1 X115.551 Y96.116 E.00085
M204 S1000
M204 S800
;WIDTH:0.169953
G1 X115.559 Y97.555 E.0152
M204 S1000
M204 S800
;WIDTH:0.179632
G1 X115.563 Y122.296 E.28125
M204 S1000
M204 S800
;WIDTH:0.179632
G1 X115.56 Y123.065 E.00874
M204 S1000
M204 S800
;WIDTH:0.173413
M73 P7 R6
M73 Q7 S6
G1 X115.56 Y123.068 E.00003
M204 S1000
M204 S800
;WIDTH:0.177264
G1 X115.557 Y123.183 E.00129
M204 S1000
M204 S800
;WIDTH:0.177263
G1 X115.538 Y123.522 E.0038
M204 S1000
M204 S800
;WIDTH:0.166203
G1 X115.537 Y123.529 E.00007
M204 S1000
G1 X115.537 Y123.529 F10800
M204 S800
;WIDTH:0.166202
G1 F1200
G1 X115.467 Y124.003 E.00491
M204 S1000
M204 S800
;WIDTH:0.166271
G1 X115.466 Y124.006 E.00003
M204 S1000
M204 S800
;WIDTH:0.166271
G1 X115.466 Y124.009 E.00003
M204 S1000
M204 S800
;WIDTH:0.166202
G1 X115.35 Y124.469 E.00487
M204 S1000
M204 S800
;WIDTH:0.166275
G1 X115.349 Y124.472 E.00003
M204 S1000
M204 S800
;WIDTH:0.166275
G1 X115.348 Y124.475 E.00003
M204 S1000
M204 S800
;WIDTH:0.166201
G1 X115.189 Y124.922 E.00487
M204 S1000
M204 S800
;WIDTH:0.166271
G1 X115.188 Y124.925 E.00003
M204 S1000
M204 S800
;WIDTH:0.16627
G1 X115.186 Y124.927 E.00003
M204 S1000
M204 S800
;WIDTH:0.166201
G1 X114.983 Y125.356 E.00487
M204 S1000
M204 S800
;WIDTH:0.166275
G1 X114.982 Y125.359 E.00003
M204 S1000
M204 S800
;WIDTH:0.166275
G1 X114.981 Y125.362 E.00003
M204 S1000
M204 S800
;WIDTH:0.166201
G1 X114.737 Y125.769 E.00487
M204 S1000
M204 S800
;WIDTH:0.166274
G1 X114.735 Y125.771 E.00003
M204 S1000
M204 S800
;WIDTH:0.166274
G1 X114.733 Y125.774 E.00003
M204 S1000
M204 S800
;WIDTH:0.1662
G1 X114.45 Y126.155 E.00487
M204 S1000
M204 S800
;WIDTH:0.166271
G1 X114.449 Y126.158 E.00003
M204 S1000
M204 S800
;WIDTH:0.166272
G1 X114.447 Y126.16 E.00003
M204 S1000
M204 S800
;WIDTH:0.166199
G1 X114.128 Y126.511 E.00487
M204 S1000
M204 S800
;WIDTH:0.166274
G1 X114.126 Y126.514 E.00003
M204 S1000
M204 S800
;WIDTH:0.166273
G1 X114.124 Y126.516 E.00003
M204 S1000
M204 S800
;WIDTH:0.1662
G1 X113.772 Y126.834 E.00486
M204 S1000
M204 S800
;WIDTH:0.166313
G1 X113.769 Y126.837 E.00004
M204 S1000
M204 S800
;WIDTH:0.166313
G1 X113.768 Y126.838 E.00002
M204 S1000
M204 S800
;WIDTH:0.166273
G1 X113.395 Y127.115 E.00476
M204 S1000
M204 S800
;WIDTH:0.166291
G1 X113.394 Y127.116 E.00002
M204 S1000
M204 S800
;WIDTH:0.166289
G1 X113.39 Y127.118 E.00005
M204 S1000
M204 S800
;WIDTH:0.166122
G1 X112.974 Y127.368 E.00497
M204 S1000
M204 S800
;WIDTH:0.166181
G1 X112.971 Y127.37 E.00003
M204 S1000
M204 S800
;WIDTH:0.166181
G1 X112.968 Y127.371 E.00004
M204 S1000
M204 S800
;WIDTH:0.166081
G1 X112.524 Y127.58 E.00503
M204 S1000
M204 S800
;WIDTH:0.166315
G1 X112.519 Y127.583 E.00006
M204 S1000
M204 S800
;WIDTH:0.166314
G1 X112.519 Y127.583 E.00001
M204 S1000
M204 S800
;WIDTH:0.166313
G1 X112.086 Y127.737 E.00471
M204 S1000
M204 S800
;WIDTH:0.166325
G1 X112.085 Y127.737 E.00001
M204 S1000
M204 S800
;WIDTH:0.166325
G1 X112.08 Y127.738 E.00005
M204 S1000
M204 S800
;WIDTH:0.166141
G1 X111.613 Y127.855 E.00494
M204 S1000
M204 S800
;WIDTH:0.16628
G1 X111.609 Y127.856 E.00004
M204 S1000
M204 S800
;WIDTH:0.16628
G1 X111.607 Y127.856 E.00002
M204 S1000
M204 S800
;WIDTH:0.166251
G1 X111.145 Y127.924 E.00479
M204 S1000
M204 S800
;WIDTH:0.1663
G1 X111.143 Y127.925 E.00002
M204 S1000
M204 S800
;WIDTH:0.166298
G1 X111.139 Y127.925 E.00004
M204 S1000
M204 S800
;WIDTH:0.166199
G1 X110.665 Y127.948 E.00486
M204 S1000
M204 S800
;WIDTH:0.166274
G1 X110.662 Y127.948 E.00003
M204 S1000
M204 S800
;WIDTH:0.166273
G1 X110.659 Y127.948 E.00003
M204 S1000
M204 S800
;WIDTH:0.1662
G1 X110.185 Y127.925 E.00487
M204 S1000
M204 S800
;WIDTH:0.166274
G1 X110.182 Y127.925 E.00003
M204 S1000
M204 S800
;WIDTH:0.166273
G1 X110.179 Y127.924 E.00003
M204 S1000
M204 S800
;WIDTH:0.1662
G1 X109.71 Y127.855 E.00487
M204 S1000
M204 S800
;WIDTH:0.166274
G1 X109.707 Y127.854 E.00003
M204 S1000
M204 S800
;WIDTH:0.166274
G1 X109.704 Y127.853 E.00003
M204 S1000
M204 S800
;WIDTH:0.1662
G1 X109.243 Y127.738 E.00487
M204 S1000
M204 S800
;WIDTH:0.166275
G1 X109.24 Y127.737 E.00003
M204 S1000
M204 S800
;WIDTH:0.166274
G1 X109.238 Y127.736 E.00003
M204 S1000
M204 S800
;WIDTH:0.166201
G1 X108.791 Y127.577 E.00487
M204 S1000
M204 S800
;WIDTH:0.166275
G1 X108.788 Y127.575 E.00003
M204 S1000
M204 S800
;WIDTH:0.166274
G1 X108.785 Y127.574 E.00003
M204 S1000
M204 S800
;WIDTH:0.1662
G1 X108.356 Y127.371 E.00487
M204 S1000
M204 S800
;WIDTH:0.166274
G1 X108.353 Y127.37 E.00003
M204 S1000
M204 S800
;WIDTH:0.166274
G1 X108.351 Y127.368 E.00003
M204 S1000
M204 S800
;WIDTH:0.166201
G1 X107.944 Y127.124 E.00487
M204 S1000
M204 S800
;WIDTH:0.166275
G1 X107.941 Y127.123 E.00003
M204 S1000
M204 S800
;WIDTH:0.166274
G1 X107.939 Y127.121 E.00003
M204 S1000
M204 S800
;WIDTH:0.1662
G1 X107.557 Y126.838 E.00487
M204 S1000
M204 S800
;WIDTH:0.166273
G1 X107.555 Y126.836 E.00003
M204 S1000
M204 S800
;WIDTH:0.166273
G1 X107.553 Y126.834 E.00003
M204 S1000
M204 S800
;WIDTH:0.166199
G1 X107.201 Y126.516 E.00487
M204 S1000
M204 S800
;WIDTH:0.166274
G1 X107.199 Y126.514 E.00003
M204 S1000
M204 S800
;WIDTH:0.166272
G1 X107.197 Y126.511 E.00003
M204 S1000
M204 S800
;WIDTH:0.1662
G1 X106.878 Y126.16 E.00486
M204 S1000
M204 S800
;WIDTH:0.166311
G1 X106.876 Y126.157 E.00004
M204 S1000
M204 S800
;WIDTH:0.166311
G1 X106.874 Y126.155 E.00002
M204 S1000
M204 S800
;WIDTH:0.166276
G1 X106.597 Y125.783 E.00476
M204 S1000
M204 S800
;WIDTH:0.166293
G1 X106.597 Y125.782 E.00002
M204 S1000
M204 S800
;WIDTH:0.166292
G1 X106.594 Y125.778 E.00005
M204 S1000
M204 S800
;WIDTH:0.166122
G1 X106.344 Y125.362 E.00497
M204 S1000
M204 S800
;WIDTH:0.166177
G1 X106.343 Y125.359 E.00003
M204 S1000
M204 S800
;WIDTH:0.166177
G1 X106.341 Y125.356 E.00004
M204 S1000
M204 S800
;WIDTH:0.166077
G1 X106.132 Y124.912 E.00503
M204 S1000
M204 S800
;WIDTH:0.166315
G1 X106.13 Y124.907 E.00006
M204 S1000
M204 S800
;WIDTH:0.166314
G1 X106.13 Y124.907 E.00001
M204 S1000
M204 S800
;WIDTH:0.166312
G1 X105.976 Y124.474 E.00471
M204 S1000
M204 S800
;WIDTH:0.166321
G1 X105.975 Y124.473 E.00001
M204 S1000
M204 S800
;WIDTH:0.166321
G1 X105.974 Y124.468 E.00005
M204 S1000
M204 S800
;WIDTH:0.166143
G1 X105.857 Y124.001 E.00494
M204 S1000
M204 S800
;WIDTH:0.166286
G1 X105.856 Y123.997 E.00004
M204 S1000
M204 S800
;WIDTH:0.166286
G1 X105.856 Y123.995 E.00002
M204 S1000
M204 S800
;WIDTH:0.166259
G1 X105.788 Y123.535 E.00477
M204 S1000
M204 S800
;WIDTH:0.166589
G1 X105.788 Y123.529 E.00007
M204 S1000
M204 S800
;WIDTH:0.167232
G1 X105.787 Y123.522 E.00006
M204 S1000
M204 S800
;WIDTH:0.17747
G1 X105.768 Y123.188 E.00375
M204 S1000
M204 S800
;WIDTH:0.177472
G1 X105.764 Y123.067 E.00135
M204 S1000
M204 S800
;WIDTH:0.173277
G1 X105.764 Y123.064 E.00003
M204 S1000
M204 S800
;WIDTH:0.185147
G1 X105.762 Y122.122 E.01114
M204 S1000
M204 S800
;WIDTH:0.185149
G1 X105.762 Y122.118 E.00005
M204 S1000
M204 S800
;WIDTH:0.184294
G1 X105.762 Y122.071 E.00055
M204 S1000
M204 S800
;WIDTH:0.164014
G1 X105.762 Y122.071 E0
M204 S1000
M204 S800
;WIDTH:0.16379
G1 X105.762 Y122.047 E.00024
M204 S1000
;WIPE_START
G1 F8640
G1 X105.762 Y122.071 E-.0055
;WIPE_END
G1 E-.7945 F2100
G1 Z.6 F720
