; generated by PrusaSlicer 2.4.1+win64 on 2023-12-22 at 10:15:14 UTC


;
;
; 

; external perimeters extrusion width = 0.60mm
; perimeters extrusion width = 0.50mm
; infill extrusion width = 0.50mm
; solid infill extrusion width = 0.50mm
; top infill extrusion width = 0.45mm
; first layer extrusion width = 0.42mm

M73 P0 R6
M73 Q0 S6
M201 X1000 Y1000 Z200 E5000 ; sets maximum accelerations, mm/sec^2
M203 X200 Y200 Z12 E120 ; sets maximum feedrates, mm / sec
M204 P1250 R1250 T1250 ; sets acceleration (P, T) and retract acceleration (R), mm/sec^2
M205 X8.00 Y8.00 Z0.40 E4.50 ; sets the jerk limits, mm/sec
M205 S0 T0 ; sets the minimum extruding and travel feed rate, mm/sec
M107
;TYPE:Custom
M862.3 P "MK3S" ; printer model check
M862.1 P0.4 ; nozzle diameter check
M115 U3.11.0 ; tell printer latest fw version
G90 ; use absolute coordinates
M83 ; extruder relative mode
M104 S215 ; set extruder temp
M140 S60 ; set bed temp
M190 S60 ; wait for bed temp
M109 S215 ; wait for extruder temp
G28 W ; home all without mesh bed level
G80 ; mesh bed leveling

G1 Z0.2 F720
G1 Y-3 F1000 ; go outside print area
G92 E0
G1 X60 E9 F1000 ; intro line
G1 X100 E12.5 F1000 ; intro line

G92 E0
M221 S95

; Don't change E values below. Excessive value can damage the printer.

M907 E538 ; set extruder motor current
G21 ; set units to millimeters
G90 ; use absolute coordinates
M83 ; use relative distances for extrusion
M900 K0.05 ; Filament gcode LA 1.5
M900 K30 ; Filament gcode LA 1.0
M107
;LAYER_CHANGE
;Z:0.2
;HEIGHT:0.2
;BEFORE_LAYER_CHANGE
G92 E0.0
;0.2


M73 P1 R5
M73 Q1 S6
G1 E-.8 F2100
M73 Q1 S5
G1 Z.4 F720
;AFTER_LAYER_CHANGE
;0.2
G1 X117.198 Y79.728 F10800
G1 Z.2 F720
G1 E.8 F2100
M204 S800
;TYPE:Skirt/Brim
;WIDTH:0.42
M73 Q2 S5
G1 F1200
G1 X117.968 Y78.601 E.04278
G1 X119.422 Y78.073 E.04849
G1 X126.117 Y78.071 E.20992
G1 X128.02 Y78.149 E.05971
M73 P2 R5
G1 X129.57 Y78.372 E.04911
G1 X131.138 Y78.757 E.05065
G1 X132.642 Y79.289 E.05
G1 X134.081 Y79.964 E.04984
G1 X135.482 Y80.798 E.05111
G1 X136.825 Y81.796 E.05246
G1 X138.001 Y82.87 E.04993
G1 X139.065 Y84.053 E.04991
G1 X140.009 Y85.335 E.04992
G1 X141.128 Y87.311 E.07119
G1 X141.743 Y88.78 E.04992
G1 X142.239 Y90.415 E.05357
G1 X142.544 Y91.977 E.04992
G1 X142.713 Y94.233 E.07094
G1 X142.621 Y95.144 E.0287
G1 X142.206 Y96.24 E.03675
G1 X123.943 Y127.318 E1.13022
G1 X123.095 Y128.589 E.0479
M73 Q3 S5
G1 X122.354 Y129.407 E.03461
G1 X121.204 Y130.352 E.04668
G1 X120.238 Y130.932 E.03531
M73 P3 R5
G1 X119.424 Y131.302 E.02805
G1 X117.995 Y131.732 E.0468
G1 X116.916 Y131.891 E.03419
G1 X115.409 Y131.891 E.04726
G1 X114.317 Y131.73 E.03461
G1 X112.875 Y131.292 E.04725
G1 X111.33 Y130.492 E.05454
G1 X110.443 Y129.835 E.03461
G1 X109.378 Y128.769 E.04726
G1 X108.73 Y127.898 E.03404
G1 X107.999 Y126.528 E.04869
G1 X107.48 Y124.883 E.05409
G1 X107.321 Y123.811 E.03397
G1 X107.285 Y122.05 E.05523
G1 X107.347 Y121.351 E.022
G1 X112.291 Y95.133 E.83653
G1 X117.18 Y79.785 E.50505
M204 S1000
; printing object Hook_Small.stl id:0 copy 0
;WIPE_START
G1 F8640
G1 X117.968 Y78.601 E-.32834
G1 X119.422 Y78.073 E-.35706
G1 X119.745 Y78.073 E-.0746
;WIPE_END
G1 E-.04 F2100
G1 Z.6 F720
G1 X120.815 Y81.803 F10800
M73 Q4 S5
G1 Z.2 F720
G1 E.8 F2100
M204 S800
;TYPE:External perimeter
M73 P4 R5
G1 F1200
G1 X126.481 Y81.794 E.17765
G1 X127.099 Y81.814 E.01937
G1 X127.713 Y81.86 E.0193
G1 X128.322 Y81.935 E.01924
G1 X128.905 Y82.035 E.01855
G1 X129.496 Y82.167 E.019
G1 X130.116 Y82.338 E.02016
G1 X130.699 Y82.53 E.01923
G1 X131.271 Y82.751 E.01924
G1 X131.807 Y82.988 E.01836
G1 X132.38 Y83.276 E.02012
G1 X132.914 Y83.578 E.01922
G1 X133.457 Y83.923 E.02018
G1 X133.934 Y84.259 E.01829
G1 X134.418 Y84.637 E.01925
G1 X134.882 Y85.038 E.01924
G1 X135.327 Y85.461 E.01924
G1 X135.75 Y85.905 E.01924
G1 X136.151 Y86.37 E.01924
G1 X136.528 Y86.853 E.01924
G1 X136.881 Y87.355 E.01924
G1 X137.21 Y87.873 E.01924
G1 X137.512 Y88.407 E.01924
G1 X137.788 Y88.955 E.01924
G1 X138.037 Y89.516 E.01924
G1 X138.257 Y90.089 E.01924
G1 X138.45 Y90.671 E.01924
G1 X138.614 Y91.263 E.01924
G1 X138.748 Y91.861 E.01924
G1 X138.853 Y92.466 E.01924
G1 X138.928 Y93.073 E.01919
G1 X138.994 Y94.257 E.03716
G1 X138.961 Y94.396 E.00448
G1 X138.902 Y94.482 E.00328
G1 X138.824 Y94.528 E.00285
G1 X138.743 Y94.543 E.00256
G1 X138.629 Y94.518 E.00367
G1 X138.582 Y94.489 E.00175
G1 X138.513 Y94.394 E.00368
G1 X138.48 Y94.256 E.00443
G1 X138.471 Y93.713 E.01705
G1 X138.427 Y93.124 E.01851
G1 X138.355 Y92.54 E.01846
G1 X138.254 Y91.96 E.01846
G1 X138.125 Y91.385 E.01846
G1 X137.968 Y90.817 E.01846
G1 X137.784 Y90.258 E.01846
G1 X137.572 Y89.709 E.01846
G1 X137.333 Y89.171 E.01846
G1 X137.068 Y88.645 E.01846
G1 X136.778 Y88.132 E.01846
G1 X136.463 Y87.635 E.01846
G1 X136.124 Y87.153 E.01846
G1 X135.762 Y86.689 E.01846
G1 X135.377 Y86.243 E.01846
G1 X134.971 Y85.817 E.01846
G1 X134.544 Y85.411 E.01846
G1 X134.098 Y85.026 E.01846
G1 X133.634 Y84.664 E.01846
G1 X133.176 Y84.34 E.0176
G1 X132.656 Y84.01 E.01933
G1 X132.143 Y83.719 E.01848
G1 X131.594 Y83.444 E.01926
G1 X131.078 Y83.216 E.01766
G1 X130.529 Y83.004 E.01846
G1 X129.97 Y82.819 E.01847
G1 X129.376 Y82.656 E.01932
G1 X128.808 Y82.529 E.01825
G1 X128.248 Y82.433 E.01782
G1 X127.663 Y82.36 E.01846
G1 X127.074 Y82.317 E.01854
G1 X121.307 Y82.293 E.18081
G1 X121.318 Y94.996 E.39829
G1 X121.291 Y95.514 E.01625
G1 X121.318 Y97.11 E.05007
G1 X121.321 Y122.786 E.80504
G1 X121.285 Y123.56 E.02428
M73 P5 R5
M73 Q5 S5
G1 X121.212 Y124.055 E.01569
G1 X121.089 Y124.545 E.01584
G1 X120.919 Y125.02 E.01584
G1 X120.703 Y125.477 E.01584
G1 X120.443 Y125.911 E.01584
G1 X120.142 Y126.316 E.01584
G1 X119.803 Y126.691 E.01584
G1 X119.428 Y127.03 E.01585
G1 X119.033 Y127.324 E.01544
G1 X118.589 Y127.591 E.01623
G1 X118.115 Y127.814 E.01645
G1 X117.657 Y127.977 E.01522
G1 X117.158 Y128.102 E.01615
G1 X116.667 Y128.174 E.01555
G1 X116.162 Y128.199 E.01585
G1 X115.658 Y128.174 E.01584
G1 X115.158 Y128.1 E.01584
G1 X114.668 Y127.977 E.01584
G1 X114.192 Y127.807 E.01584
G1 X113.735 Y127.591 E.01584
G1 X113.302 Y127.331 E.01584
G1 X112.896 Y127.03 E.01584
G1 X112.522 Y126.691 E.01584
G1 X112.182 Y126.316 E.01585
G1 X111.888 Y125.921 E.01544
G1 X111.622 Y125.477 E.01623
G1 X111.398 Y125.003 E.01645
G1 X111.235 Y124.545 E.01522
G1 X111.111 Y124.046 E.01615
G1 X111.038 Y123.55 E.0157
G1 X111.012 Y123.199 E.01105
G1 X111.003 Y122.095 E.0346
G1 X111.037 Y121.957 E.00447
G1 X111.098 Y121.868 E.00337
G1 X111.176 Y121.822 E.00285
G1 X111.257 Y121.807 E.00256
G1 X111.371 Y121.832 E.00367
G1 X111.418 Y121.862 E.00175
G1 X111.488 Y121.957 E.00371
G1 X111.522 Y122.096 E.00448
G1 X111.518 Y123.061 E.03025
G1 X111.537 Y123.508 E.01404
G1 X111.602 Y123.949 E.01398
G1 X111.715 Y124.399 E.01452
G1 X111.862 Y124.814 E.01381
G1 X112.063 Y125.241 E.0148
G1 X112.304 Y125.641 E.01463
G1 X112.57 Y125.999 E.01398
G1 X112.876 Y126.337 E.01429
G1 X113.214 Y126.643 E.0143
G1 X113.58 Y126.915 E.0143
G1 X113.971 Y127.149 E.0143
G1 X114.384 Y127.344 E.0143
G1 X114.813 Y127.498 E.0143
G1 X115.256 Y127.609 E.0143
G1 X115.707 Y127.675 E.0143
G1 X116.162 Y127.698 E.0143
G1 X116.618 Y127.675 E.0143
G1 X117.061 Y127.61 E.01407
G1 X117.511 Y127.498 E.01452
G1 X117.926 Y127.35 E.01381
G1 X118.353 Y127.149 E.0148
G1 X118.753 Y126.909 E.01463
G1 X119.111 Y126.643 E.01398
G1 X119.449 Y126.337 E.01429
G1 X119.755 Y125.999 E.0143
G1 X120.027 Y125.632 E.0143
G1 X120.261 Y125.241 E.0143
G1 X120.456 Y124.829 E.0143
G1 X120.61 Y124.399 E.0143
G1 X120.721 Y123.957 E.0143
G1 X120.788 Y123.502 E.01442
G1 X120.806 Y123.061 E.01385
G1 X120.807 Y96.304 E.83894
G1 X116.204 Y96.304 E.14434
M73 P6 R5
M73 Q6 S5
G1 X116.066 Y96.275 E.00442
G1 X115.97 Y96.201 E.00381
G1 X115.92 Y96.059 E.00474
G1 X115.932 Y95.971 E.00278
G1 X115.977 Y95.886 E.00302
G1 X116.069 Y95.826 E.00345
G1 X116.203 Y95.796 E.00429
G1 X120.807 Y95.793 E.14436
G1 X120.815 Y81.863 E.43679
M204 S1000
G1 X121.139 Y82.038 F10800
G1 X121.07 Y82.057
M204 S800
;TYPE:Gap fill
;WIDTH:0.176199
G1 F1200
G1 X121.118 Y82.047 E.00054
M204 S1000
M204 S800
;WIDTH:0.186343
G1 X126.477 Y82.054 E.06391
M204 S1000
M204 S800
;WIDTH:0.186343
G1 X127.081 Y82.065 E.0072
M204 S1000
M204 S800
;WIDTH:0.169035
G1 X127.085 Y82.066 E.00004
M204 S1000
M204 S800
;WIDTH:0.169034
G1 X127.086 Y82.066 E0
M204 S1000
M204 S800
G1 X127.686 Y82.11 E.00632
M204 S1000
M204 S800
;WIDTH:0.169053
G1 X127.688 Y82.11 E.00002
M204 S1000
M204 S800
;WIDTH:0.169052
G1 X127.69 Y82.11 E.00002
M204 S1000
M204 S800
;WIDTH:0.169039
G1 X128.283 Y82.183 E.00627
M204 S1000
M204 S800
;WIDTH:0.169073
G1 X128.285 Y82.184 E.00002
M204 S1000
M204 S800
;WIDTH:0.169072
G1 X128.286 Y82.184 E.00001
M204 S1000
M204 S800
;WIDTH:0.169064
G1 X128.855 Y82.282 E.00606
M204 S1000
M204 S800
;WIDTH:0.169072
G1 X128.856 Y82.282 E.00001
M204 S1000
M204 S800
;WIDTH:0.169074
G1 X128.858 Y82.283 E.00002
M204 S1000
M204 S800
;WIDTH:0.169043
G1 X129.435 Y82.411 E.0062
M204 S1000
M204 S800
;WIDTH:0.169046
G1 X129.436 Y82.411 E.00001
M204 S1000
M204 S800
;WIDTH:0.169044
G1 X129.438 Y82.412 E.00003
M204 S1000
M204 S800
;WIDTH:0.168995
G1 X130.041 Y82.578 E.00656
M204 S1000
M204 S800
;WIDTH:0.169037
G1 X130.044 Y82.579 E.00002
M204 S1000
M204 S800
;WIDTH:0.169039
G1 X130.044 Y82.579 E.00001
M204 S1000
M204 S800
;WIDTH:0.169033
G1 X130.613 Y82.767 E.00628
M204 S1000
M204 S800
;WIDTH:0.169051
G1 X130.614 Y82.767 E.00002
M204 S1000
M204 S800
;WIDTH:0.169052
G1 X130.615 Y82.768 E.00002
M204 S1000
M204 S800
;WIDTH:0.169037
G1 X131.173 Y82.983 E.00627
M204 S1000
M204 S800
;WIDTH:0.169078
G1 X131.175 Y82.984 E.00002
M204 S1000
M204 S800
;WIDTH:0.169076
G1 X131.176 Y82.984 E.00001
M204 S1000
M204 S800
;WIDTH:0.169072
G1 X131.7 Y83.215 E.00601
M204 S1000
G1 X131.7 Y83.215 F10800
M204 S800
;WIDTH:0.169069
G1 F1200
G1 X131.702 Y83.217 E.00003
M204 S1000
M204 S800
;WIDTH:0.168997
G1 X132.26 Y83.497 E.00654
M204 S1000
M204 S800
;WIDTH:0.169039
G1 X132.262 Y83.498 E.00002
M204 S1000
M204 S800
;WIDTH:0.169038
G1 X132.263 Y83.498 E.00001
M204 S1000
M204 S800
;WIDTH:0.169035
G1 X132.784 Y83.793 E.00628
M204 S1000
M204 S800
;WIDTH:0.169036
G1 X132.784 Y83.794 E.00001
M204 S1000
M204 S800
;WIDTH:0.169036
G1 X132.786 Y83.795 E.00002
M204 S1000
M204 S800
;WIDTH:0.168993
G1 X133.315 Y84.13 E.00656
M204 S1000
M204 S800
;WIDTH:0.169068
G1 X133.317 Y84.132 E.00003
M204 S1000
G1 X133.317 Y84.132 F10800
M204 S800
;WIDTH:0.16907
G1 F1200
G1 X133.783 Y84.461 E.00598
M204 S1000
M204 S800
;WIDTH:0.169074
G1 X133.784 Y84.461 E.00001
M204 S1000
M204 S800
;WIDTH:0.169072
G1 X133.786 Y84.463 E.00002
M204 S1000
M204 S800
;WIDTH:0.16903
G1 X134.257 Y84.831 E.00627
M204 S1000
M204 S800
;WIDTH:0.169049
G1 X134.258 Y84.831 E.00002
M204 S1000
M204 S800
;WIDTH:0.16905
G1 X134.259 Y84.832 E.00002
M204 S1000
M204 S800
;WIDTH:0.169034
G1 X134.712 Y85.223 E.00627
M204 S1000
M204 S800
;WIDTH:0.169054
G1 X134.713 Y85.224 E.00002
M204 S1000
M204 S800
;WIDTH:0.169054
G1 X134.715 Y85.225 E.00002
M204 S1000
M204 S800
;WIDTH:0.169036
G1 X135.148 Y85.638 E.00627
M204 S1000
M204 S800
;WIDTH:0.169053
G1 X135.149 Y85.639 E.00002
M204 S1000
M204 S800
G1 X135.15 Y85.64 E.00002
M204 S1000
M204 S800
;WIDTH:0.169035
G1 X135.562 Y86.073 E.00627
M204 S1000
M204 S800
;WIDTH:0.169046
G1 X135.563 Y86.074 E.00002
M204 S1000
M204 S800
;WIDTH:0.169047
G1 X135.564 Y86.075 E.00002
M204 S1000
M204 S800
;WIDTH:0.169031
G1 X135.955 Y86.528 E.00627
M204 S1000
M204 S800
;WIDTH:0.16905
G1 X135.956 Y86.529 E.00002
M204 S1000
M204 S800
;WIDTH:0.169048
G1 X135.957 Y86.531 E.00002
M204 S1000
M204 S800
;WIDTH:0.169029
G1 X136.325 Y87.002 E.00627
M204 S1000
M204 S800
;WIDTH:0.16905
G1 X136.326 Y87.003 E.00002
M204 S1000
M204 S800
;WIDTH:0.16905
G1 X136.327 Y87.005 E.00002
M204 S1000
M204 S800
;WIDTH:0.169034
G1 X136.671 Y87.494 E.00627
M204 S1000
M204 S800
;WIDTH:0.169051
G1 X136.672 Y87.495 E.00002
M204 S1000
M204 S800
;WIDTH:0.169051
G1 X136.673 Y87.496 E.00002
M204 S1000
M204 S800
;WIDTH:0.169035
G1 X136.993 Y88.002 E.00627
M204 S1000
M204 S800
;WIDTH:0.169052
G1 X136.994 Y88.003 E.00002
M204 S1000
M204 S800
;WIDTH:0.169052
G1 X136.995 Y88.004 E.00002
M204 S1000
M204 S800
;WIDTH:0.169033
G1 X137.289 Y88.525 E.00627
M204 S1000
M204 S800
;WIDTH:0.169049
G1 X137.29 Y88.526 E.00002
M204 S1000
M204 S800
;WIDTH:0.169047
G1 X137.291 Y88.527 E.00002
M204 S1000
M204 S800
;WIDTH:0.169029
G1 X137.56 Y89.062 E.00627
M204 S1000
M204 S800
;WIDTH:0.169049
G1 X137.56 Y89.063 E.00002
M204 S1000
M204 S800
;WIDTH:0.16905
G1 X137.561 Y89.064 E.00002
M204 S1000
M204 S800
;WIDTH:0.169031
G1 X137.803 Y89.611 E.00627
M204 S1000
M204 S800
;WIDTH:0.169051
G1 X137.804 Y89.613 E.00002
M204 S1000
M204 S800
;WIDTH:0.169049
G1 X137.805 Y89.614 E.00002
M204 S1000
M204 S800
;WIDTH:0.16904
G1 X138.02 Y90.172 E.00627
M204 S1000
M204 S800
;WIDTH:0.169058
G1 X138.02 Y90.174 E.00002
M204 S1000
M204 S800
;WIDTH:0.169056
G1 X138.021 Y90.175 E.00002
M204 S1000
M204 S800
;WIDTH:0.169036
G1 X138.209 Y90.743 E.00627
M204 S1000
M204 S800
;WIDTH:0.169051
G1 X138.209 Y90.744 E.00002
M204 S1000
M204 S800
;WIDTH:0.169052
G1 X138.209 Y90.746 E.00002
M204 S1000
M204 S800
;WIDTH:0.169031
G1 X138.369 Y91.322 E.00627
M204 S1000
M204 S800
;WIDTH:0.169048
G1 X138.369 Y91.324 E.00002
M204 S1000
M204 S800
;WIDTH:0.169049
G1 X138.37 Y91.325 E.00002
M204 S1000
M204 S800
;WIDTH:0.169033
G1 X138.501 Y91.909 E.00627
M204 S1000
M204 S800
;WIDTH:0.169052
G1 X138.501 Y91.91 E.00002
M204 S1000
M204 S800
;WIDTH:0.169054
G1 X138.501 Y91.912 E.00002
M204 S1000
M204 S800
;WIDTH:0.169037
G1 X138.604 Y92.501 E.00627
M204 S1000
M204 S800
;WIDTH:0.169056
G1 X138.604 Y92.503 E.00002
M204 S1000
M204 S800
;WIDTH:0.169056
G1 X138.604 Y92.504 E.00002
M204 S1000
M204 S800
;WIDTH:0.169038
G1 X138.677 Y93.096 E.00626
M204 S1000
M204 S800
;WIDTH:0.169037
G1 X138.677 Y93.098 E.00002
M204 S1000
M204 S800
;WIDTH:0.168937
G1 X138.678 Y93.101 E.00003
M204 S1000
M204 S800
;WIDTH:0.168819
G1 X138.718 Y93.7 E.00628
M204 S1000
M204 S800
;WIDTH:0.160689
G1 X138.718 Y93.703 E.00003
M204 S1000
M204 S800
;WIDTH:0.180123
G1 X138.736 Y94.162 E.00523
M204 S1000
M204 S800
;WIDTH:0.180124
G1 X138.737 Y94.224 E.00071
M204 S1000
M204 S800
;WIDTH:0.179828
G1 X138.752 Y94.35 E.00144
M204 S1000
G1 X138.751 Y94.35 F10800
M204 S800
;WIDTH:0.114509
G1 F1200
G1 X138.745 Y94.314 E.00022
M204 S1000
M204 S800
;WIDTH:0.143296
G1 X138.739 Y94.298 E.00014
M204 S1000
M204 S800
;WIDTH:0.144673
G1 X138.738 Y94.297 E.00001
M204 S1000
M204 S800
;WIDTH:0.150369
G1 X138.663 Y93.924 E.0034
M204 S1000
;WIPE_START
G1 F8640
G1 X138.738 Y94.297 E-.08793
;WIPE_END
G1 E-.71207 F2100
G1 Z.6 F720
G1 X116.46 Y96.116 F10800
G1 Z.2 F720
G1 E.8 F2100
M204 S800
;WIDTH:0.148406
M73 Q7 S5
G1 F1200
G1 X116.164 Y96.049 E.00266
M204 S1000
M204 S800
;WIDTH:0.143397
G1 X116.163 Y96.049 E.00001
M204 S1000
M204 S800
;WIDTH:0.142428
G1 X116.154 Y96.045 E.00008
M204 S1000
M204 S800
;WIDTH:0.126629
G1 X116.118 Y96.023 E.0003
M204 S1000
G1 X116.115 Y96.063 F10800
M204 S800
;WIDTH:0.173966
G1 F1200
G1 X116.231 Y96.05 E.00126
M204 S1000
M204 S800
;WIDTH:0.176756
G1 X120.996 Y96.049 E.05303
M204 S1000
M204 S800
G1 X120.996 Y96.049 E0
M204 S1000
M204 S800
;WIDTH:0.19729
M73 P7 R5
G1 X121.034 Y96.049 E.00049
M204 S1000
;WIPE_START
G1 F8640
G1 X120.996 Y96.049 E-.00886
;WIPE_END
G1 E-.79114 F2100
G1 Z.6 F720
G1 X121.07 Y82.057 F10800
G1 Z.2 F720
G1 E.8 F2100
M204 S800
;WIDTH:0.176199
G1 F1200
G1 X121.061 Y82.104 E.00053
M204 S1000
M204 S800
;WIDTH:0.176323
G1 X121.063 Y94.989 E.14293
M204 S1000
M204 S800
;WIDTH:0.176323
G1 X121.049 Y95.507 E.00575
M204 S1000
M204 S800
;WIDTH:0.149251
G1 X121.049 Y95.511 E.00003
M204 S1000
M204 S800
;WIDTH:0.157542
G1 X121.053 Y95.982 E.00449
M204 S1000
M204 S800
;WIDTH:0.197291
G1 X121.034 Y96.049 E.00089
M204 S1000
M204 S800
;WIDTH:0.197291
G1 X121.054 Y96.116 E.0009
M204 S1000
M204 S800
;WIDTH:0.17674
G1 X121.063 Y97.113 E.01109
M204 S1000
M204 S800
;WIDTH:0.180452
G1 X121.064 Y122.78 E.29353
M204 S1000
M204 S800
;WIDTH:0.18045
G1 X121.057 Y123.065 E.00326
M204 S1000
M204 S800
;WIDTH:0.167347
G1 X121.057 Y123.067 E.00003
M204 S1000
M204 S800
;WIDTH:0.167281
