; generated by PrusaSlicer 2.8.0+win64 on 2024-10-28 at 09:00:44 UTC


;
;
; 

; external perimeters extrusion width = 0.60mm
; perimeters extrusion width = 0.50mm
; infill extrusion width = 0.50mm
; solid infill extrusion width = 0.50mm
; top infill extrusion width = 0.45mm
; first layer extrusion width = 0.42mm

; external perimeters extrusion width = 0.60mm
; perimeters extrusion width = 0.50mm
; infill extrusion width = 0.50mm
; solid infill extrusion width = 0.50mm
; top infill extrusion width = 0.45mm
; first layer extrusion width = 0.42mm

; external perimeters extrusion width = 0.60mm
; perimeters extrusion width = 0.50mm
; infill extrusion width = 0.50mm
; solid infill extrusion width = 0.50mm
; top infill extrusion width = 0.45mm
; first layer extrusion width = 0.42mm

; external perimeters extrusion width = 0.60mm
; perimeters extrusion width = 0.50mm
; infill extrusion width = 0.50mm
; solid infill extrusion width = 0.50mm
; top infill extrusion width = 0.45mm
; first layer extrusion width = 0.42mm

; external perimeters extrusion width = 0.60mm
; perimeters extrusion width = 0.50mm
; infill extrusion width = 0.50mm
; solid infill extrusion width = 0.50mm
; top infill extrusion width = 0.45mm
; first layer extrusion width = 0.42mm

; external perimeters extrusion width = 0.60mm
; perimeters extrusion width = 0.50mm
; infill extrusion width = 0.50mm
; solid infill extrusion width = 0.50mm
; top infill extrusion width = 0.45mm
; first layer extrusion width = 0.42mm

; external perimeters extrusion width = 0.60mm
; perimeters extrusion width = 0.50mm
; infill extrusion width = 0.50mm
; solid infill extrusion width = 0.50mm
; top infill extrusion width = 0.45mm
; first layer extrusion width = 0.42mm

; external perimeters extrusion width = 0.60mm
; perimeters extrusion width = 0.50mm
; infill extrusion width = 0.50mm
; solid infill extrusion width = 0.50mm
; top infill extrusion width = 0.45mm
; first layer extrusion width = 0.42mm

; external perimeters extrusion width = 0.60mm
; perimeters extrusion width = 0.50mm
; infill extrusion width = 0.50mm
; solid infill extrusion width = 0.50mm
; top infill extrusion width = 0.45mm
; first layer extrusion width = 0.42mm

M73 P0 R46
M73 Q0 S47
M201 X1000 Y1000 Z200 E5000 ; sets maximum accelerations, mm/sec^2
M203 X200 Y200 Z12 E120 ; sets maximum feedrates, mm / sec
M204 S1250 T1250 ; sets acceleration (S) and retract acceleration (R), mm/sec^2
M205 X8.00 Y8.00 Z0.40 E4.50 ; sets the jerk limits, mm/sec
M205 S0 T0 ; sets the minimum extruding and travel feed rate, mm/sec

; printing object IKEA_SKADIS_Hook_20mm.stl id:0 copy 0
; stop printing object IKEA_SKADIS_Hook_20mm.stl id:0 copy 0
; printing object IKEA_SKADIS_Hook_20mm.stl id:4 copy 0
; stop printing object IKEA_SKADIS_Hook_20mm.stl id:4 copy 0
; printing object IKEA_SKADIS_Hook_20mm.stl id:3 copy 0
; stop printing object IKEA_SKADIS_Hook_20mm.stl id:3 copy 0
; printing object IKEA_SKADIS_Hook_20mm.stl id:1 copy 0
; stop printing object IKEA_SKADIS_Hook_20mm.stl id:1 copy 0
; printing object IKEA_SKADIS_Hook_20mm.stl id:5 copy 0
; stop printing object IKEA_SKADIS_Hook_20mm.stl id:5 copy 0
; printing object IKEA_SKADIS_Hook_20mm.stl id:2 copy 0
; stop printing object IKEA_SKADIS_Hook_20mm.stl id:2 copy 0
; printing object IKEA_SKADIS_Hook_20mm.stl id:6 copy 0
; stop printing object IKEA_SKADIS_Hook_20mm.stl id:6 copy 0
; printing object IKEA_SKADIS_Hook_20mm.stl id:8 copy 0
; stop printing object IKEA_SKADIS_Hook_20mm.stl id:8 copy 0
; printing object IKEA_SKADIS_Hook_20mm.stl id:7 copy 0
; stop printing object IKEA_SKADIS_Hook_20mm.stl id:7 copy 0

;TYPE:Custom
M862.3 P "MK3S" ; printer model check
M862.1 P0.4 ; nozzle diameter check
M115 U3.13.3 ; tell printer latest fw version
G90 ; use absolute coordinates
M83 ; extruder relative mode
M104 S215 ; set extruder temp
M140 S60 ; set bed temp
M190 S60 ; wait for bed temp
M109 S215 ; wait for extruder temp
G28 W ; home all without mesh bed level
G80 X60.7463 Y47.6832 W127.916 H120.605 ; mesh bed levelling

G1 Z0.2 F720
G1 Y-3 F1000 ; go outside print area
G92 E0
G1 X60 E9 F1000 ; intro line
G1 X100 E12.5 F1000 ; intro line

G92 E0
M221 S95

; Don't change E values below. Excessive value can damage the printer.

M907 E538 ; set extruder motor current
G21 ; set units to millimeters
G90 ; use absolute coordinates
M83 ; use relative distances for extrusion

M900 K0.05 ; Filament gcode LA 1.5
M900 K30 ; Filament gcode LA 1.0




M107
;LAYER_CHANGE
;Z:0.2
;HEIGHT:0.2
G1 E-.8 F2100
G1 Z.6 F720
G1 X61.326 Y50.15 F10800
G1 Z.2 F720
M73 Q0 S46
G1 E.8 F2100
M204 S800
;TYPE:Skirt/Brim
;WIDTH:0.42
G1 F1200
G1 X62.359 Y49.347 E.04102
G1 X63.089 Y49.21 E.02329
G1 X148.868 Y47.872 E2.68987
G1 X154.475 Y47.873 E.1758
G1 X155.468 Y48.023 E.03149
G1 X156.457 Y48.463 E.03394
G1 X183.167 Y65.899 E1.00012
G1 X184.189 Y66.738 E.04146
G1 X185.123 Y67.806 E.04449
G1 X185.842 Y68.975 E.04303
G1 X186.373 Y70.291 E.04449
G1 X186.62 Y71.327 E.03339
G1 X186.734 Y72.415 E.0343
G1 X187.786 Y110.159 E1.1839
G1 X188.474 Y155.02 E1.40675
G1 X188.422 Y155.702 E.02145
G1 X188.232 Y156.449 E.02417
G1 X187.898 Y157.214 E.02617
G1 X187.452 Y157.955 E.02712
G1 X186.404 Y158.784 E.0419
G1 X162.404 Y167.784 E.80367
G1 X161.64 Y167.923 E.02435
G1 X63.142 Y168.099 E3.08834
G1 X61.894 Y167.708 E.04101
G1 X61.091 Y166.675 E.04102
G1 X60.953 Y165.911 E.02434
G1 X60.935 Y51.398 E3.59047
G1 X61.308 Y50.207 E.03913
M73 P1 R46
M73 Q1 S46
M204 S1000
;WIPE_START
G1 F8640
G1 X61.326 Y50.15 E-.0138
G1 X62.359 Y49.347 E-.30211
G1 X63.089 Y49.21 E-.1715
G1 X64.443 Y49.189 E-.31259
;WIPE_END
G1 Z.6 F720
; printing object IKEA_SKADIS_Hook_20mm.stl id:2 copy 0
G1 X152.45 Y119.288 F10800
G1 Z.2 F720
G1 E.8 F2100
M204 S800
;TYPE:Perimeter
;WIDTH:0.419999
G1 F1200
G1 X152.554 Y119.392 E.00461
G1 X150.741 Y119.392 E.05685
G1 X150.741 Y89.571 E.93501
G1 X152.491 Y89.572 E.05487
G1 X152.167 Y89.958 E.0158
G1 X152.167 Y119.005 E.91075
G1 X152.408 Y119.245 E.01066
M204 S1000
;WIPE_START
G1 F8640
G1 X152.45 Y119.288 E-.01388
G1 X152.554 Y119.392 E-.03396
G1 X150.741 Y119.392 E-.41863
G1 X150.741 Y117.948 E-.33353
;WIPE_END
G1 Z.6 F720
G1 X158.416 Y119.392 F10800
G1 Z.2 F720
G1 E.8 F2100
M204 S800
G1 F1200
G1 X158.741 Y119.005 E.01585
G1 X158.741 Y105.668 E.41817
G1 X163.332 Y105.668 E.14395
M73 P1 R45
;WIDTH:0.46693
G1 X163.529 Y105.692 E.007
;WIDTH:0.51386
G1 X163.726 Y105.715 E.00777
;WIDTH:0.56079
G1 X163.923 Y105.739 E.00855
G1 X164.451 Y105.731 E.02274
;WIDTH:0.544382
G1 X179.472 Y105.733 E.62633
;WIDTH:0.548022
G1 X180.011 Y105.768 E.02269
G1 X180.355 Y105.833 E.0147
;WIDTH:0.537271
G1 X181.122 Y106.049 E.03275
;WIDTH:0.549943
G1 X181.618 Y106.258 E.02269
G1 X182.111 Y106.549 E.02414
;WIDTH:0.548064
G1 X182.753 Y107.071 E.03475
G1 X183.324 Y107.739 E.03691
;WIDTH:0.542979
G1 X183.732 Y108.426 E.03322
;WIDTH:0.548113
G1 X183.927 Y108.89 E.02114
G1 X184.05 Y109.292 E.01766
;WIDTH:0.548009
G1 X184.165 Y109.888 E.02549
;WIDTH:0.543124
G1 X184.186 Y110.333 E.01853
;WIDTH:0.538134
G1 X183.701 Y110.333 E.01997
;WIDTH:0.542659
G1 X183.659 Y109.889 E.01853
;WIDTH:0.548113
G1 X183.46 Y109.084 E.03483
G1 X183.221 Y108.523 E.02562
;WIDTH:0.541269
G1 X182.828 Y107.905 E.03035
G1 X182.224 Y107.266 E.03644
;WIDTH:0.540483
G1 X181.634 Y106.838 E.03016
G1 X181.073 Y106.559 E.02592
;WIDTH:0.551932
G1 X180.705 Y106.436 E.01642
G1 X179.974 Y106.272 E.03171
;WIDTH:0.548022
G1 X179.424 Y106.232 E.02316
;WIDTH:0.544382
G1 X164.451 Y106.232 E.62433
;WIDTH:0.545329
G1 X164.41 Y106.233 E.00171
;WIDTH:0.559068
G1 X163.858 Y106.268 E.02374
G1 X163.684 Y106.328 E.0079
;WIDTH:0.512712
G1 X163.509 Y106.388 E.00723
;WIDTH:0.466356
G1 X163.335 Y106.448 E.00648
;WIDTH:0.419999
G1 X162.796 Y106.64 E.01794
G1 X162.004 Y107.09 E.02856
G1 X161.343 Y107.681 E.0278
G1 X161.004 Y108.111 E.01717
G1 X160.724 Y108.581 E.01715
G1 X160.502 Y109.108 E.01793
G1 X160.299 Y109.972 E.02783
G1 X160.267 Y110.478 E.0159
G1 X160.267 Y119.392 E.27949
G1 X158.476 Y119.392 E.05616
M204 S1000
;WIPE_START
G1 F8640
G1 X158.416 Y119.392 E-.01385
G1 X158.741 Y119.005 E-.11669
G1 X158.741 Y116.106 E-.66946
;WIPE_END
G1 Z.6 F720
G1 X152.624 Y119.105 F10800
G1 Z.2 F720
G1 E.8 F2100
M204 S800
;TYPE:External perimeter
;WIDTH:0.469667
G1 F1200
G1 X152.639 Y119.124 E.00086
;WIDTH:0.519335
G1 X152.733 Y119.243 E.00601
G1 X158.176 Y119.243 E.21562
;WIDTH:0.522945
G1 X158.217 Y119.241 E.00164
G1 X158.266 Y119.163 E.00368
;WIDTH:0.48863
G1 X158.315 Y119.084 E.00345
;WIDTH:0.454315
G1 X158.364 Y119.005 E.00318
;WIDTH:0.419999
G1 X158.364 Y105.291 E.42999
G1 X179.446 Y105.291 E.66101
G1 X180.09 Y105.331 E.02023
G1 X180.978 Y105.521 E.02847
G1 X181.797 Y105.851 E.02769
G1 X182.347 Y106.173 E.01998
G1 X183.045 Y106.735 E.0281
G1 X183.626 Y107.395 E.02757
G1 X184.096 Y108.161 E.02818
G1 X184.333 Y108.718 E.01898
G1 X184.483 Y109.208 E.01607
G1 X184.603 Y109.87 E.02109
G1 X184.618 Y110.77 E.02822
G1 X183.301 Y110.77 E.04129
G1 X183.231 Y109.981 E.02484
G1 X183.051 Y109.248 E.02367
G1 X182.849 Y108.752 E.01679
G1 X182.505 Y108.2 E.02039
G1 X181.965 Y107.616 E.02494
G1 X181.438 Y107.229 E.0205
G1 X180.878 Y106.948 E.01964
G1 X180.083 Y106.724 E.0259
G1 X179.457 Y106.671 E.0197
G1 X164.451 Y106.671 E.4705
G1 X163.949 Y106.705 E.01578
G1 X163.456 Y106.805 E.01577
G1 X162.978 Y106.97 E.01586
G1 X162.253 Y107.373 E.02601
G1 X161.66 Y107.893 E.02473
G1 X161.341 Y108.286 E.01587
G1 X161.069 Y108.733 E.01641
G1 X160.868 Y109.198 E.01588
G1 X160.681 Y109.964 E.02472
G1 X160.644 Y110.478 E.01616
G1 X160.644 Y118.629 E.25557
G1 X160.612 Y119.769 E.03576
G1 X159.129 Y119.769 E.0465
;WIDTH:0.469667
G1 X158.652 Y119.744 E.01695
;WIDTH:0.519335
G1 X158.176 Y119.72 E.01888
G1 X152.733 Y119.72 E.21562
G1 X152.256 Y119.744 E.01892
;WIDTH:0.469667
G1 X151.78 Y119.769 E.01691
;WIDTH:0.419999
G1 X150.364 Y119.769 E.0444
G1 X150.364 Y89.194 E.95866
G1 X151.782 Y89.194 E.04446
;WIDTH:0.469276
G1 X152.257 Y89.219 E.01686
;WIDTH:0.518552
G1 X152.733 Y89.244 E.01885
G1 X155.442 Y89.246 E.10714
;WIDTH:0.517744
G1 X155.634 Y89.34 E.00844
G1 X155.682 Y89.535 E.00793
G1 X155.601 Y89.665 E.00605
G1 X155.427 Y89.72 E.0072
;WIDTH:0.518552
G1 X152.733 Y89.72 E.10654
;WIDTH:0.522156
G1 X152.692 Y89.722 E.00164
G1 X152.643 Y89.8 E.00367
;WIDTH:0.488104
G1 X152.593 Y89.879 E.00346
;WIDTH:0.454052
G1 X152.544 Y89.958 E.00318
;WIDTH:0.419999
G1 X152.544 Y119.005 E.91075
;WIDTH:0.469667
G1 X152.587 Y119.058 E.00242
M204 S1000
;WIPE_START
G1 F8640
G1 X152.624 Y119.105 E-.01381
G1 X152.639 Y119.124 E-.00559
G1 X152.733 Y119.243 E-.03502
G1 X155.962 Y119.243 E-.74558
;WIPE_END
G1 Z.6 F720
G1 X162.954 Y105.838 F10800
G1 Z.2 F720
G1 E.8 F2100
M204 S800
;TYPE:Solid infill
;WIDTH:0.427481
G1 F1200
G1 X163.244 Y106.128 E.01311
G1 X162.84 Y106.268 E.01367
G1 X162.58 Y106.008 E.01176
G1 X162.036 Y106.008 E.0174
G1 X162.463 Y106.435 E.01931
G1 X162.112 Y106.628 E.01281
G1 X161.492 Y106.008 E.02804
G1 X160.948 Y106.008 E.0174
G1 X161.778 Y106.837 E.03751
G1 X161.488 Y107.091 E.01233
G1 X160.405 Y106.008 E.04897
G1 X159.861 Y106.008 E.0174
G1 X161.198 Y107.345 E.06046
G1 X160.948 Y107.639 E.01234
G1 X159.317 Y106.008 E.07376
G1 X159.081 Y106.008 E.00755
G1 X159.081 Y106.316 E.00985
G1 X160.712 Y107.947 E.07376
G1 X160.504 Y108.283 E.01264
G1 X159.081 Y106.859 E.06437
G1 X159.081 Y107.403 E.0174
G1 X160.327 Y108.649 E.05635
G1 X160.218 Y108.889 E.00843
G1 X160.178 Y109.044 E.00512
G1 X159.081 Y107.947 E.04961
G1 X159.081 Y108.491 E.0174
G1 X160.066 Y109.477 E.04457
G1 X159.982 Y109.805 E.01083
G1 X159.972 Y109.926 E.00388
G1 X159.081 Y109.035 E.04029
G1 X159.081 Y109.579 E.0174
G1 X159.931 Y110.429 E.03844
G1 X159.928 Y110.97 E.0173
G1 X159.081 Y110.123 E.0383
G1 X159.081 Y110.666 E.01736
G1 X159.928 Y111.514 E.03833
G1 X159.928 Y112.057 E.01736
G1 X159.081 Y111.21 E.0383
G1 X159.081 Y111.754 E.0174
G1 X159.928 Y112.601 E.0383
G1 X159.928 Y113.145 E.0174
G1 X159.081 Y112.298 E.0383
G1 X159.081 Y112.842 E.0174
G1 X159.928 Y113.689 E.0383
G1 X159.928 Y114.233 E.0174
G1 X159.081 Y113.386 E.0383
G1 X159.081 Y113.93 E.0174
G1 X159.928 Y114.777 E.0383
G1 X159.928 Y115.321 E.0174
G1 X159.081 Y114.473 E.03833
G1 X159.081 Y115.017 E.0174
G1 X159.928 Y115.864 E.0383
G1 X159.928 Y116.408 E.0174
G1 X159.081 Y115.561 E.0383
G1 X159.081 Y116.105 E.0174
G1 X159.928 Y116.952 E.0383
G1 X159.928 Y117.496 E.0174
G1 X159.081 Y116.649 E.0383
G1 X159.081 Y117.193 E.0174
G1 X159.928 Y118.04 E.0383
G1 X159.928 Y118.584 E.0174
G1 X159.081 Y117.737 E.0383
G1 X159.081 Y118.28 E.01736
G1 X159.853 Y119.053 E.03493
G1 X159.309 Y119.053 E.0174
G1 X158.911 Y118.655 E.018
M204 S1000
;WIPE_START
G1 F8640
G1 X159.309 Y119.053 E-.12997
G1 X159.853 Y119.053 E-.12561
G1 X159.081 Y118.28 E-.25226
G1 X159.081 Y117.737 E-.12538
G1 X159.592 Y118.248 E-.16678
;WIPE_END
G1 Z.6 F720
G1 X151.432 Y89.741 F10800
G1 Z.2 F720
G1 E.8 F2100
M204 S800
;WIDTH:0.425651
G1 F1200
G1 X151.828 Y90.137 E.01782
G1 X151.828 Y90.678 E.01722
G1 X151.081 Y89.931 E.03362
G1 X151.081 Y90.472 E.01722
G1 X151.828 Y91.219 E.03362
G1 X151.828 Y91.761 E.01725
G1 X151.081 Y91.014 E.03362
G1 X151.081 Y91.555 E.01722
G1 X151.828 Y92.302 E.03362
G1 X151.828 Y92.843 E.01722
G1 X151.081 Y92.096 E.03362
G1 X151.081 Y92.637 E.01722
G1 X151.828 Y93.385 E.03364
G1 X151.828 Y93.926 E.01722
G1 X151.081 Y93.179 E.03362
G1 X151.081 Y93.72 E.01722
G1 X151.828 Y94.467 E.03362
G1 X151.828 Y95.008 E.01722
G1 X151.081 Y94.261 E.03362
G1 X151.081 Y94.802 E.01722
G1 X151.828 Y95.55 E.03364
G1 X151.828 Y96.091 E.01722
G1 X151.081 Y95.344 E.03362
G1 X151.081 Y95.885 E.01722
G1 X151.828 Y96.632 E.03362
G1 X151.828 Y97.173 E.01722
G1 X151.081 Y96.426 E.03362
G1 X151.081 Y96.967 E.01722
G1 X151.828 Y97.715 E.03364
G1 X151.828 Y98.256 E.01722
G1 X151.081 Y97.509 E.03362
G1 X151.081 Y98.05 E.01722
G1 X151.828 Y98.797 E.03362
G1 X151.828 Y99.338 E.01722
G1 X151.081 Y98.591 E.03362
G1 X151.081 Y99.133 E.01725
G1 X151.828 Y99.88 E.03362
G1 X151.828 Y100.421 E.01722
G1 X151.081 Y99.674 E.03362
G1 X151.081 Y100.215 E.01722
G1 X151.828 Y100.962 E.03362
G1 X151.828 Y101.503 E.01722
G1 X151.081 Y100.756 E.03362
G1 X151.081 Y101.298 E.01725
G1 X151.828 Y102.045 E.03362
G1 X151.828 Y102.586 E.01722
G1 X151.081 Y101.839 E.03362
G1 X151.081 Y102.38 E.01722
G1 X151.828 Y103.127 E.03362
G1 X151.828 Y103.669 E.01725
G1 X151.081 Y102.921 E.03364
G1 X151.081 Y103.463 E.01725
G1 X151.828 Y104.21 E.03362
G1 X151.828 Y104.751 E.01722
G1 X151.081 Y104.004 E.03362
G1 X151.081 Y104.545 E.01722
G1 X151.828 Y105.292 E.03362
G1 X151.828 Y105.834 E.01725
G1 X151.081 Y105.086 E.03364
G1 X151.081 Y105.628 E.01725
G1 X151.828 Y106.375 E.03362
G1 X151.828 Y106.916 E.01722
G1 X151.081 Y106.169 E.03362
G1 X151.081 Y106.71 E.01722
G1 X151.828 Y107.457 E.03362
G1 X151.828 Y107.999 E.01725
G1 X151.081 Y107.252 E.03362
G1 X151.081 Y107.793 E.01722
G1 X151.828 Y108.54 E.03362
G1 X151.828 Y109.081 E.01722
G1 X151.081 Y108.334 E.03362
G1 X151.081 Y108.875 E.01722
M73 P2 R45
G1 X151.828 Y109.622 E.03362
G1 X151.828 Y110.164 E.01725
G1 X151.081 Y109.417 E.03362
G1 X151.081 Y109.958 E.01722
G1 X151.828 Y110.705 E.03362
G1 X151.828 Y111.246 E.01722
M73 Q2 S46
G1 X151.081 Y110.499 E.03362
G1 X151.081 Y111.04 E.01722
G1 X151.828 Y111.787 E.03362
G1 X151.828 Y112.329 E.01725
G1 X151.081 Y111.582 E.03362
G1 X151.081 Y112.123 E.01722
G1 X151.828 Y112.87 E.03362
G1 X151.828 Y113.411 E.01722
G1 X151.081 Y112.664 E.03362
G1 X151.081 Y113.205 E.01722
G1 X151.828 Y113.953 E.03364
G1 X151.828 Y114.494 E.01722
G1 X151.081 Y113.747 E.03362
G1 X151.081 Y114.288 E.01722
G1 X151.828 Y115.035 E.03362
G1 X151.828 Y115.576 E.01722
G1 X151.081 Y114.829 E.03362
G1 X151.081 Y115.37 E.01722
G1 X151.828 Y116.118 E.03364
G1 X151.828 Y116.659 E.01722
G1 X151.081 Y115.912 E.03362
G1 X151.081 Y116.453 E.01722
G1 X151.828 Y117.2 E.03362
G1 X151.828 Y117.741 E.01722
G1 X151.081 Y116.994 E.03362
G1 X151.081 Y117.536 E.01725
G1 X151.828 Y118.283 E.03362
G1 X151.828 Y118.824 E.01722
G1 X151.081 Y118.077 E.03362
G1 X151.081 Y118.618 E.01722
G1 X151.685 Y119.222 E.02718
M204 S1000
;WIPE_START
G1 F8640
