; generated by PrusaSlicer 2.8.0+win64 on 2024-10-24 at 06:21:18 UTC


;
;
; 

; external perimeters extrusion width = 0.60mm
; perimeters extrusion width = 0.50mm
; infill extrusion width = 0.50mm
; solid infill extrusion width = 0.50mm
; top infill extrusion width = 0.45mm
; first layer extrusion width = 0.42mm

; external perimeters extrusion width = 0.60mm
; perimeters extrusion width = 0.50mm
; infill extrusion width = 0.50mm
; solid infill extrusion width = 0.50mm
; top infill extrusion width = 0.45mm
; first layer extrusion width = 0.42mm

; external perimeters extrusion width = 0.60mm
; perimeters extrusion width = 0.50mm
; infill extrusion width = 0.50mm
; solid infill extrusion width = 0.50mm
; top infill extrusion width = 0.45mm
; first layer extrusion width = 0.42mm

; external perimeters extrusion width = 0.60mm
; perimeters extrusion width = 0.50mm
; infill extrusion width = 0.50mm
; solid infill extrusion width = 0.50mm
; top infill extrusion width = 0.45mm
; first layer extrusion width = 0.42mm

; external perimeters extrusion width = 0.60mm
; perimeters extrusion width = 0.50mm
; infill extrusion width = 0.50mm
; solid infill extrusion width = 0.50mm
; top infill extrusion width = 0.45mm
; first layer extrusion width = 0.42mm

; external perimeters extrusion width = 0.60mm
; perimeters extrusion width = 0.50mm
; infill extrusion width = 0.50mm
; solid infill extrusion width = 0.50mm
; top infill extrusion width = 0.45mm
; first layer extrusion width = 0.42mm

; external perimeters extrusion width = 0.60mm
; perimeters extrusion width = 0.50mm
; infill extrusion width = 0.50mm
; solid infill extrusion width = 0.50mm
; top infill extrusion width = 0.45mm
; first layer extrusion width = 0.42mm

; external perimeters extrusion width = 0.60mm
; perimeters extrusion width = 0.50mm
; infill extrusion width = 0.50mm
; solid infill extrusion width = 0.50mm
; top infill extrusion width = 0.45mm
; first layer extrusion width = 0.42mm

; external perimeters extrusion width = 0.60mm
; perimeters extrusion width = 0.50mm
; infill extrusion width = 0.50mm
; solid infill extrusion width = 0.50mm
; top infill extrusion width = 0.45mm
; first layer extrusion width = 0.42mm

M73 P0 R42
M73 Q0 S42
M201 X1000 Y1000 Z200 E5000 ; sets maximum accelerations, mm/sec^2
M203 X200 Y200 Z12 E120 ; sets maximum feedrates, mm / sec
M204 S1250 T1250 ; sets acceleration (S) and retract acceleration (R), mm/sec^2
M205 X8.00 Y8.00 Z0.40 E4.50 ; sets the jerk limits, mm/sec
M205 S0 T0 ; sets the minimum extruding and travel feed rate, mm/sec

; printing object IKEA_SKADIS_Hook_10mm.stl id:5 copy 0
; stop printing object IKEA_SKADIS_Hook_10mm.stl id:5 copy 0
; printing object IKEA_SKADIS_Hook_10mm.stl id:8 copy 0
; stop printing object IKEA_SKADIS_Hook_10mm.stl id:8 copy 0
; printing object IKEA_SKADIS_Hook_10mm.stl id:1 copy 0
; stop printing object IKEA_SKADIS_Hook_10mm.stl id:1 copy 0
; printing object IKEA_SKADIS_Hook_10mm.stl id:0 copy 0
; stop printing object IKEA_SKADIS_Hook_10mm.stl id:0 copy 0
; printing object IKEA_SKADIS_Hook_10mm.stl id:6 copy 0
; stop printing object IKEA_SKADIS_Hook_10mm.stl id:6 copy 0
; printing object IKEA_SKADIS_Hook_10mm.stl id:2 copy 0
; stop printing object IKEA_SKADIS_Hook_10mm.stl id:2 copy 0
; printing object IKEA_SKADIS_Hook_10mm.stl id:7 copy 0
; stop printing object IKEA_SKADIS_Hook_10mm.stl id:7 copy 0
; printing object IKEA_SKADIS_Hook_10mm.stl id:3 copy 0
; stop printing object IKEA_SKADIS_Hook_10mm.stl id:3 copy 0
; printing object IKEA_SKADIS_Hook_10mm.stl id:4 copy 0
; stop printing object IKEA_SKADIS_Hook_10mm.stl id:4 copy 0

;TYPE:Custom
M862.3 P "MK3S" ; printer model check
M862.1 P0.4 ; nozzle diameter check
M115 U3.13.3 ; tell printer latest fw version
G90 ; use absolute coordinates
M83 ; extruder relative mode
M104 S215 ; set extruder temp
M140 S60 ; set bed temp
M190 S60 ; wait for bed temp
M109 S215 ; wait for extruder temp
G28 W ; home all without mesh bed level
G80 X70.3709 Y42.5262 W104.84 H125.689 ; mesh bed levelling

G1 Z0.2 F720
G1 Y-3 F1000 ; go outside print area
G92 E0
G1 X60 E9 F1000 ; intro line
G1 X100 E12.5 F1000 ; intro line

G92 E0
M221 S95

; Don't change E values below. Excessive value can damage the printer.

M907 E538 ; set extruder motor current
G21 ; set units to millimeters
G90 ; use absolute coordinates
M83 ; use relative distances for extrusion

M900 K0.05 ; Filament gcode LA 1.5
M900 K30 ; Filament gcode LA 1.0




M107
;LAYER_CHANGE
;Z:0.2
;HEIGHT:0.2
G1 E-.8 F2100
G1 Z.6 F720
G1 X70.95 Y44.642 F10800
G1 Z.2 F720
G1 E.8 F2100
M204 S800
;TYPE:Skirt/Brim
;WIDTH:0.42
G1 F1200
G1 X71.983 Y43.839 E.04102
G1 X72.694 Y43.702 E.0227
G1 X112.617 Y42.715 E1.25214
G1 X118.243 Y42.716 E.1764
G1 X152.977 Y45.631 E1.09289
G1 X153.616 Y45.735 E.0203
G1 X154.253 Y45.953 E.02111
G1 X154.843 Y46.279 E.02114
G1 X155.459 Y46.794 E.02518
G1 X172.701 Y64.717 E.77978
G1 X173.527 Y65.724 E.04084
G1 X174.145 Y66.766 E.03799
G1 X174.543 Y67.702 E.03189
G1 X174.82 Y68.663 E.03136
G1 X174.96 Y69.474 E.0258
G1 X175.023 Y70.513 E.03264
G1 X174.123 Y154.033 E2.61886
G1 X174.057 Y154.742 E.02233
G1 X173.846 Y155.505 E.02482
G1 X173.102 Y156.911 E.04988
G1 X172.468 Y157.531 E.0278
G1 X158.468 Y166.531 E.52184
G1 X157.32 Y166.879 E.03761
G1 X84.673 Y168.027 E2.27808
G1 X73.638 Y168.027 E.34599
G1 X72.39 Y167.636 E.04101
G1 X71.587 Y166.603 E.04102
G1 X71.45 Y165.861 E.02366
G1 X70.559 Y79.252 E2.71571
G1 X70.559 Y45.89 E1.04604
M73 P1 R41
M73 Q1 S42
G1 X70.932 Y44.699 E.03913
M204 S1000
;WIPE_START
G1 F8640
G1 X70.95 Y44.642 E-.0138
G1 X71.983 Y43.839 E-.30211
G1 X72.694 Y43.702 E-.16719
G1 X74.066 Y43.668 E-.3169
;WIPE_END
G1 Z.6 F720
; printing object IKEA_SKADIS_Hook_10mm.stl id:3 copy 0
G1 X75.244 Y77.377 F10800
G1 Z.2 F720
G1 E.8 F2100
M204 S800
;TYPE:Perimeter
;WIDTH:0.419999
G1 F1200
G1 X75.348 Y77.482 E.00463
G1 X73.535 Y77.482 E.05685
G1 X73.535 Y47.661 E.93501
G1 X75.285 Y47.662 E.05487
G1 X74.961 Y48.047 E.01578
G1 X74.961 Y77.095 E.91078
G1 X75.201 Y77.335 E.01064
M204 S1000
;WIPE_START
G1 F8640
G1 X75.244 Y77.377 E-.01388
G1 X75.348 Y77.482 E-.03412
G1 X73.535 Y77.482 E-.41863
G1 X73.535 Y76.038 E-.33337
;WIPE_END
G1 Z.6 F720
G1 X81.21 Y77.482 F10800
G1 Z.2 F720
G1 E.8 F2100
M204 S800
G1 F1200
G1 X81.535 Y77.095 E.01585
G1 X81.535 Y63.758 E.41817
G1 X85.749 Y63.76 E.13213
;WIDTH:0.4581
G1 X85.947 Y63.779 E.00687
;WIDTH:0.496201
G1 X86.145 Y63.798 E.0075
;WIDTH:0.534302
G1 X86.342 Y63.818 E.00809
;WIDTH:0.572402
G1 X86.54 Y63.837 E.00876
G1 X87.246 Y63.822 E.03109
;WIDTH:0.54354
G1 X92.521 Y63.833 E.21958
;WIDTH:0.542498
G1 X93.162 Y63.918 E.02686
;WIDTH:0.548328
G1 X93.81 Y64.091 E.02819
G1 X94.092 Y64.208 E.01283
;WIDTH:0.536701
G1 X94.772 Y64.561 E.03146
;WIDTH:0.547693
G1 X95.203 Y64.859 E.02199
G1 X95.445 Y65.077 E.01367
;WIDTH:0.547492
G1 X95.821 Y65.448 E.02216
;WIDTH:0.54955
G1 X96.193 Y65.936 E.02585
G1 X96.579 Y66.635 E.03364
;WIDTH:0.55238
G1 X96.843 Y67.397 E.03416
G1 X96.983 Y68.195 E.03432
;WIDTH:0.543361
G1 X96.992 Y68.421 E.00941
G1 X96.497 Y68.421 E.0206
G1 X96.447 Y67.966 E.01905
;WIDTH:0.537119
G1 X96.27 Y67.22 E.03151
;WIDTH:0.54928
G1 X96.11 Y66.824 E.01798
;WIDTH:0.54955
G1 X95.762 Y66.201 E.03006
G1 X95.439 Y65.776 E.02249
;WIDTH:0.547693
G1 X94.912 Y65.271 E.03064
G1 X94.327 Y64.873 E.0297
;WIDTH:0.548328
G1 X93.677 Y64.578 E.03
G1 X92.927 Y64.378 E.03262
;WIDTH:0.54354
G1 X92.402 Y64.325 E.02197
G1 X87.246 Y64.322 E.21463
;WIDTH:0.544738
G1 X87.19 Y64.324 E.00234
;WIDTH:0.545367
G1 X86.456 Y64.398 E.03082
G1 X86.231 Y64.482 E.01003
;WIDTH:0.503578
G1 X86.006 Y64.566 E.0092
;WIDTH:0.461789
G1 X85.781 Y64.65 E.00836
;WIDTH:0.419999
G1 X85.282 Y64.875 E.01716
G1 X84.817 Y65.163 E.01715
G1 X84.393 Y65.51 E.01718
G1 X84.001 Y65.931 E.01804
G1 X83.698 Y66.353 E.01629
G1 X83.439 Y66.836 E.01718
G1 X83.239 Y67.372 E.01794
G1 X83.085 Y68.145 E.02471
G1 X83.061 Y68.568 E.01328
G1 X83.061 Y77.482 E.27949
G1 X81.27 Y77.482 E.05616
M204 S1000
;WIPE_START
G1 F8640
G1 X81.21 Y77.482 E-.01385
G1 X81.535 Y77.095 E-.11669
G1 X81.535 Y74.196 E-.66946
;WIPE_END
G1 Z.6 F720
G1 X75.418 Y77.195 F10800
G1 Z.2 F720
G1 E.8 F2100
M204 S800
;TYPE:External perimeter
;WIDTH:0.469667
G1 F1200
G1 X75.432 Y77.214 E.00084
;WIDTH:0.519335
G1 X75.526 Y77.333 E.00601
G1 X80.969 Y77.333 E.21562
;WIDTH:0.522945
G1 X81.011 Y77.331 E.00168
G1 X81.06 Y77.252 E.00371
;WIDTH:0.48863
G1 X81.109 Y77.173 E.00345
;WIDTH:0.454315
G1 X81.158 Y77.095 E.00315
;WIDTH:0.419999
G1 X81.158 Y63.381 E.42999
G1 X92.466 Y63.386 E.35455
G1 X93.126 Y63.456 E.02081
G1 X93.978 Y63.679 E.02761
G1 X94.779 Y64.041 E.02756
G1 X95.498 Y64.526 E.02719
G1 X96.138 Y65.137 E.02774
G1 X96.554 Y65.675 E.02132
G1 X96.948 Y66.381 E.02535
G1 X97.099 Y66.779 E.01335
G1 X97.28 Y67.322 E.01795
G1 X97.421 Y68.177 E.02717
G1 X97.436 Y68.541 E.01142
G1 X97.405 Y68.859 E.01002
G1 X96.095 Y68.859 E.04107
G1 X96.024 Y68.067 E.02493
G1 X95.834 Y67.287 E.02517
G1 X95.566 Y66.699 E.02026
G1 X95.121 Y66.081 E.02388
G1 X94.649 Y65.625 E.02058
G1 X94.129 Y65.267 E.01979
G1 X93.557 Y65.003 E.01975
G1 X92.908 Y64.819 E.02115
G1 X92.402 Y64.764 E.01596
G1 X87.229 Y64.762 E.1622
G1 X86.57 Y64.822 E.02075
G1 X85.96 Y64.986 E.01981
G1 X85.5 Y65.186 E.01573
G1 X85.073 Y65.443 E.01563
G1 X84.683 Y65.754 E.01564
G1 X84.337 Y66.113 E.01563
G1 X84.042 Y66.514 E.01561
G1 X83.79 Y66.972 E.01639
G1 X83.609 Y67.445 E.01588
G1 X83.455 Y68.219 E.02474
G1 X83.438 Y68.568 E.01096
G1 X83.438 Y76.719 E.25557
G1 X83.405 Y77.859 E.03576
G1 X81.922 Y77.859 E.0465
;WIDTH:0.469667
G1 X81.446 Y77.834 E.01691
;WIDTH:0.519335
G1 X80.969 Y77.809 E.01892
G1 X75.526 Y77.809 E.21562
G1 X75.05 Y77.834 E.01888
;WIDTH:0.469667
G1 X74.574 Y77.859 E.01691
;WIDTH:0.419999
G1 X73.158 Y77.859 E.0444
G1 X73.158 Y47.283 E.95869
G1 X74.575 Y47.284 E.04443
;WIDTH:0.469275
G1 X75.051 Y47.309 E.0169
;WIDTH:0.518551
G1 X75.527 Y47.334 E.01885
G1 X78.235 Y47.335 E.1071
;WIDTH:0.517743
G1 X78.427 Y47.43 E.00846
G1 X78.475 Y47.625 E.00793
G1 X78.394 Y47.755 E.00605
G1 X78.22 Y47.81 E.0072
;WIDTH:0.518551
G1 X75.526 Y47.81 E.10654
;WIDTH:0.522155
G1 X75.485 Y47.811 E.00163
G1 X75.436 Y47.89 E.0037
;WIDTH:0.488103
G1 X75.387 Y47.969 E.00344
;WIDTH:0.454051
G1 X75.338 Y48.047 E.00315
;WIDTH:0.419999
G1 X75.338 Y77.095 E.91078
;WIDTH:0.469667
G1 X75.38 Y77.148 E.0024
M204 S1000
;WIPE_START
G1 F8640
G1 X75.418 Y77.195 E-.01396
G1 X75.432 Y77.214 E-.00545
G1 X75.526 Y77.333 E-.03502
G1 X78.755 Y77.333 E-.74557
;WIPE_END
G1 Z.6 F720
G1 X85.369 Y63.93 F10800
G1 Z.2 F720
G1 E.8 F2100
M204 S800
;TYPE:Solid infill
;WIDTH:0.431151
G1 F1200
G1 X85.745 Y64.305 E.01714
G1 X85.362 Y64.472 E.01349
G1 X84.99 Y64.099 E.01701
G1 X84.44 Y64.099 E.01775
G1 X84.995 Y64.654 E.02534
G1 X84.657 Y64.865 E.01286
G1 X83.891 Y64.099 E.03497
G1 X83.342 Y64.099 E.01772
G1 X84.35 Y65.107 E.04602
G1 X84.061 Y65.367 E.01255
G1 X82.793 Y64.098 E.05791
G1 X82.243 Y64.098 E.01775
G1 X83.796 Y65.651 E.0709
G1 X83.558 Y65.962 E.01264
G1 X81.874 Y64.278 E.07688
G1 X81.874 Y64.827 E.01772
G1 X83.345 Y66.298 E.06716
G1 X83.152 Y66.654 E.01307
G1 X81.874 Y65.376 E.05834
G1 X81.874 Y65.925 E.01772
G1 X82.994 Y67.045 E.05113
G1 X82.946 Y67.165 E.00417
G1 X82.88 Y67.48 E.01039
G1 X81.874 Y66.474 E.04593
G1 X81.874 Y67.023 E.01772
G1 X82.784 Y67.933 E.04154
G1 X82.751 Y68.088 E.00512
G1 X82.73 Y68.428 E.011
G1 X81.874 Y67.572 E.03908
G1 X81.874 Y68.121 E.01772
G1 X82.721 Y68.969 E.03869
G1 X82.721 Y69.518 E.01772
G1 X81.874 Y68.671 E.03867
G1 X81.874 Y69.22 E.01772
G1 X82.721 Y70.067 E.03867
G1 X82.721 Y70.616 E.01772
G1 X81.874 Y69.769 E.03867
G1 X81.874 Y70.318 E.01772
G1 X82.721 Y71.165 E.03867
G1 X82.721 Y71.714 E.01772
G1 X81.874 Y70.867 E.03867
G1 X81.874 Y71.416 E.01772
G1 X82.721 Y72.263 E.03867
G1 X82.721 Y72.812 E.01772
G1 X81.874 Y71.965 E.03867
G1 X81.874 Y72.514 E.01772
G1 X82.721 Y73.361 E.03867
G1 X82.721 Y73.91 E.01772
G1 X81.874 Y73.063 E.03867
G1 X81.874 Y73.612 E.01772
G1 X82.721 Y74.459 E.03867
G1 X82.721 Y75.008 E.01772
G1 X81.874 Y74.161 E.03867
G1 X81.874 Y74.71 E.01772
G1 X82.721 Y75.557 E.03867
G1 X82.721 Y76.106 E.01772
G1 X81.874 Y75.259 E.03867
G1 X81.874 Y75.808 E.01772
G1 X82.721 Y76.655 E.03867
G1 X82.721 Y77.143 E.01575
G1 X82.66 Y77.143 E.00197
G1 X81.874 Y76.357 E.03588
G1 X81.874 Y76.906 E.01772
G1 X82.28 Y77.312 E.01854
M204 S1000
;WIPE_START
G1 F8640
G1 X81.874 Y76.906 E-.13258
G1 X81.874 Y76.357 E-.12677
G1 X82.66 Y77.143 E-.25667
G1 X82.721 Y77.143 E-.01409
G1 X82.721 Y76.655 E-.11268
G1 X82.24 Y76.174 E-.15721
;WIPE_END
G1 Z.6 F720
G1 X74.226 Y47.831 F10800
G1 Z.2 F720
G1 E.8 F2100
M204 S800
;WIDTH:0.425651
G1 F1200
G1 X74.621 Y48.227 E.0178
G1 X74.621 Y48.768 E.01722
G1 X73.874 Y48.021 E.03362
G1 X73.874 Y48.562 E.01722
G1 X74.621 Y49.309 E.03362
G1 X74.621 Y49.85 E.01722
G1 X73.874 Y49.103 E.03362
G1 X73.874 Y49.645 E.01725
G1 X74.621 Y50.392 E.03362
G1 X74.621 Y50.933 E.01722
G1 X73.874 Y50.186 E.03362
G1 X73.874 Y50.727 E.01722
G1 X74.621 Y51.474 E.03362
G1 X74.621 Y52.015 E.01722
G1 X73.874 Y51.268 E.03362
G1 X73.874 Y51.81 E.01725
G1 X74.621 Y52.557 E.03362
G1 X74.621 Y53.098 E.01722
G1 X73.874 Y52.351 E.03362
G1 X73.874 Y52.892 E.01722
G1 X74.621 Y53.639 E.03362
G1 X74.621 Y54.181 E.01725
G1 X73.874 Y53.433 E.03364
G1 X73.874 Y53.975 E.01725
M73 Q1 S41
G1 X74.621 Y54.722 E.03362
G1 X74.621 Y55.263 E.01722
G1 X73.874 Y54.516 E.03362
G1 X73.874 Y55.057 E.01722
G1 X74.621 Y55.804 E.03362
G1 X74.621 Y56.346 E.01725
G1 X73.874 Y55.598 E.03364
G1 X73.874 Y56.14 E.01725
G1 X74.621 Y56.887 E.03362
G1 X74.621 Y57.428 E.01722
G1 X73.874 Y56.681 E.03362
G1 X73.874 Y57.222 E.01722
G1 X74.621 Y57.969 E.03362
G1 X74.621 Y58.511 E.01725
G1 X73.874 Y57.764 E.03362
G1 X73.874 Y58.305 E.01722
G1 X74.621 Y59.052 E.03362
G1 X74.621 Y59.593 E.01722
G1 X73.874 Y58.846 E.03362
G1 X73.874 Y59.387 E.01722
G1 X74.621 Y60.134 E.03362
G1 X74.621 Y60.676 E.01725
G1 X73.874 Y59.929 E.03362
G1 X73.874 Y60.47 E.01722
G1 X74.621 Y61.217 E.03362
G1 X74.621 Y61.758 E.01722
G1 X73.874 Y61.011 E.03362
G1 X73.874 Y61.552 E.01722
G1 X74.621 Y62.299 E.03362
G1 X74.621 Y62.841 E.01725
G1 X73.874 Y62.094 E.03362
G1 X73.874 Y62.635 E.01722
G1 X74.621 Y63.382 E.03362
G1 X74.621 Y63.923 E.01722
M73 P2 R41
G1 X73.874 Y63.176 E.03362
G1 X73.874 Y63.717 E.01722
G1 X74.621 Y64.465 E.03364
G1 X74.621 Y65.006 E.01722
G1 X73.874 Y64.259 E.03362
G1 X73.874 Y64.8 E.01722
M73 Q2 S41
G1 X74.621 Y65.547 E.03362
G1 X74.621 Y66.088 E.01722
G1 X73.874 Y65.341 E.03362
G1 X73.874 Y65.882 E.01722
G1 X74.621 Y66.63 E.03364
G1 X74.621 Y67.171 E.01722
G1 X73.874 Y66.424 E.03362
G1 X73.874 Y66.965 E.01722
G1 X74.621 Y67.712 E.03362
G1 X74.621 Y68.253 E.01722
G1 X73.874 Y67.506 E.03362
G1 X73.874 Y68.048 E.01725
G1 X74.621 Y68.795 E.03362
G1 X74.621 Y69.336 E.01722
G1 X73.874 Y68.589 E.03362
G1 X73.874 Y69.13 E.01722
G1 X74.621 Y69.877 E.03362
G1 X74.621 Y70.418 E.01722
G1 X73.874 Y69.671 E.03362
G1 X73.874 Y70.213 E.01725
G1 X74.621 Y70.96 E.03362
G1 X74.621 Y71.501 E.01722
G1 X73.874 Y70.754 E.03362
G1 X73.874 Y71.295 E.01722
G1 X74.621 Y72.042 E.03362
G1 X74.621 Y72.584 E.01725
G1 X73.874 Y71.836 E.03364
G1 X73.874 Y72.378 E.01725
G1 X74.621 Y73.125 E.03362
G1 X74.621 Y73.666 E.01722
G1 X73.874 Y72.919 E.03362
G1 X73.874 Y73.46 E.01722
G1 X74.621 Y74.207 E.03362
G1 X74.621 Y74.749 E.01725
G1 X73.874 Y74.001 E.03364
G1 X73.874 Y74.543 E.01725
G1 X74.621 Y75.29 E.03362
G1 X74.621 Y75.831 E.01722
G1 X73.874 Y75.084 E.03362
G1 X73.874 Y75.625 E.01722
G1 X74.621 Y76.372 E.03362
G1 X74.621 Y76.914 E.01725
G1 X73.874 Y76.166 E.03364
G1 X73.874 Y76.708 E.01725
G1 X74.479 Y77.312 E.02721
M204 S1000
;WIPE_START
G1 F8640
G1 X73.874 Y76.708 E-.1974
G1 X73.874 Y76.166 E-.12515
G1 X74.621 Y76.914 E-.24409
G1 X74.621 Y76.372 E-.12515
G1 X74.29 Y76.041 E-.10821
;WIPE_END
G1 Z.6 F720
; stop printing object IKEA_SKADIS_Hook_10mm.stl id:3 copy 0
; printing object IKEA_SKADIS_Hook_10mm.stl id:4 copy 0
G1 X115.167 Y76.391 F10800
G1 Z.2 F720
G1 E.8 F2100
M204 S800
;TYPE:Perimeter
;WIDTH:0.419999
G1 F1200
G1 X115.271 Y76.495 E.00461
