; generated by PrusaSlicer 2.4.1+win64 on 2023-12-22 at 09:06:02 UTC


;
;
; 

; external perimeters extrusion width = 0.60mm
; perimeters extrusion width = 0.50mm
; infill extrusion width = 0.50mm
; solid infill extrusion width = 0.50mm
; top infill extrusion width = 0.45mm
; first layer extrusion width = 0.42mm

M73 P0 R6
M73 Q0 S6
M201 X1000 Y1000 Z200 E5000 ; sets maximum accelerations, mm/sec^2
M203 X200 Y200 Z12 E120 ; sets maximum feedrates, mm / sec
M204 P1250 R1250 T1250 ; sets acceleration (P, T) and retract acceleration (R), mm/sec^2
M205 X8.00 Y8.00 Z0.40 E4.50 ; sets the jerk limits, mm/sec
M205 S0 T0 ; sets the minimum extruding and travel feed rate, mm/sec
M107
;TYPE:Custom
M862.3 P "MK3S" ; printer model check
M862.1 P0.4 ; nozzle diameter check
M115 U3.11.0 ; tell printer latest fw version
G90 ; use absolute coordinates
M83 ; extruder relative mode
M104 S215 ; set extruder temp
M140 S60 ; set bed temp
M190 S60 ; wait for bed temp
M109 S215 ; wait for extruder temp
G28 W ; home all without mesh bed level
G80 ; mesh bed leveling

G1 Z0.2 F720
G1 Y-3 F1000 ; go outside print area
G92 E0
G1 X60 E9 F1000 ; intro line
G1 X100 E12.5 F1000 ; intro line

G92 E0
M221 S95

; Don't change E values below. Excessive value can damage the printer.

M907 E538 ; set extruder motor current
G21 ; set units to millimeters
G90 ; use absolute coordinates
M83 ; use relative distances for extrusion
M900 K0.05 ; Filament gcode LA 1.5
M900 K30 ; Filament gcode LA 1.0
M107
;LAYER_CHANGE
;Z:0.2
;HEIGHT:0.2
;BEFORE_LAYER_CHANGE
G92 E0.0
;0.2


M73 P1 R6
M73 Q1 S6
G1 E-.8 F2100
G1 Z.4 F720
;AFTER_LAYER_CHANGE
;0.2
G1 X109.639 Y86.901 F10800
G1 Z.2 F720
G1 E.8 F2100
M204 S800
;TYPE:Skirt/Brim
;WIDTH:0.42
G1 F1200
G1 X110.705 Y85.888 E.04612
G1 X112 Y85.565 E.04186
G1 X117.591 Y85.566 E.1753
G1 X118.452 Y85.669 E.02719
M73 Q2 S6
G1 X119.307 Y85.95 E.02822
G1 X119.97 Y86.317 E.02374
G1 X120.589 Y86.818 E.02499
M73 P2 R6
G1 X138.205 Y105.142 E.79697
G1 X139.234 Y106.589 E.05567
G1 X139.96 Y108.226 E.05616
G1 X140.339 Y109.924 E.05454
G1 X140.404 Y110.94 E.03194
G1 X140.358 Y111.647 E.0222
G1 X140.13 Y112.585 E.03028
G1 X139.666 Y113.604 E.0351
G1 X139.286 Y114.217 E.02263
G1 X138.489 Y114.998 E.03498
G1 X124.489 Y123.998 E.52184
G1 X123 Y124.435 E.04867
G1 X112 Y124.435 E.3449
G1 X110.583 Y124.043 E.04612
G1 X109.569 Y122.976 E.04612
G1 X109.246 Y121.681 E.04186
G1 X109.246 Y88.319 E1.04606
M73 Q3 S6
G1 X109.623 Y86.959 E.04424
M204 S1000
M73 P3 R6
G1 X109.997 Y87.071 F10800
M204 S800
G1 F1200
G1 X110.015 Y87.012 E.00195
G1 X111.06 Y86.135 E.04278
G1 X112 Y85.942 E.03008
G1 X117.579 Y85.943 E.17491
G1 X118.216 Y86.006 E.02008
G1 X118.973 Y86.219 E.02467
G1 X119.706 Y86.594 E.0258
G1 X120.324 Y87.087 E.02479
G1 X137.919 Y105.388 E.796
G1 X138.907 Y106.775 E.05338
G1 X139.599 Y108.335 E.05351
G1 X139.964 Y109.964 E.05236
G1 X139.985 Y111.591 E.05102
M73 Q4 S6
G1 X139.775 Y112.459 E.028
G1 X139.38 Y113.341 E.03029
G1 X138.973 Y114.007 E.02448
G1 X138.285 Y114.681 E.03019
G1 X124.285 Y123.681 E.52184
M73 P4 R6
G1 X123 Y124.058 E.042
G1 X112 Y124.058 E.3449
G1 X110.693 Y123.667 E.04278
G1 X109.817 Y122.621 E.04278
G1 X109.623 Y121.681 E.03008
G1 X109.623 Y88.319 E1.04606
G1 X109.979 Y87.129 E.03895
M204 S1000
; printing object IKEA_SKADIS_Hook_10mm.stl id:0 copy 0
;WIPE_START
G1 F8640
G1 X110.015 Y87.012 E-.0282
G1 X111.06 Y86.135 E-.31505
G1 X112 Y85.942 E-.22155
G1 X112.845 Y85.942 E-.1952
;WIPE_END
G1 E-.04 F2100
G1 Z.6 F720
G1 X120.787 Y106.187 F10800
M73 Q5 S6
G1 Z.2 F720
M73 P5 R6
G1 E.8 F2100
M204 S800
;TYPE:Perimeter
G1 F1200
G1 X131.704 Y106.192 E.3423
G1 X132.112 Y106.227 E.01282
G1 X132.488 Y106.291 E.01198
G1 X133.111 Y106.466 E.02028
G1 X133.483 Y106.615 E.01257
G1 X133.848 Y106.799 E.0128
G1 X134.195 Y107.013 E.01281
G1 X134.514 Y107.248 E.01241
G1 X134.83 Y107.526 E.0132
G1 X135.102 Y107.809 E.01228
G1 X135.498 Y108.322 E.02033
G1 X135.701 Y108.652 E.01215
G1 X135.885 Y109.017 E.01281
G1 X136.037 Y109.397 E.01284
G1 X136.157 Y109.787 E.01281
G1 X136.243 Y110.187 E.01281
G1 X136.295 Y110.592 E.01281
G1 X136.309 Y110.911 E.01002
G1 X135.68 Y110.911 E.0197
G1 X135.655 Y110.469 E.01388
G1 X135.554 Y109.951 E.01656
G1 X135.448 Y109.605 E.01134
G1 X135.316 Y109.275 E.01115
G1 X135.156 Y108.958 E.01114
G1 X134.969 Y108.655 E.01115
G1 X134.758 Y108.369 E.01114
G1 X134.524 Y108.103 E.0111
G1 X134.272 Y107.862 E.01094
G1 X133.996 Y107.637 E.01117
G1 X133.696 Y107.434 E.01135
G1 X133.385 Y107.261 E.01116
G1 X133.061 Y107.114 E.01114
G1 X132.72 Y106.994 E.01134
G1 X132.209 Y106.872 E.0165
G1 X131.684 Y106.816 E.01653
G1 X126.485 Y106.813 E.16301
G1 X126.135 Y106.828 E.01099
G1 X125.773 Y106.876 E.01145
G1 X125.416 Y106.955 E.01145
G1 X125.062 Y107.067 E.01166
G1 X124.566 Y107.285 E.01698
G1 X124.098 Y107.569 E.01718
G1 X123.67 Y107.912 E.01718
G1 X123.292 Y108.308 E.01718
G1 X122.968 Y108.75 E.01718
G1 X122.704 Y109.23 E.01718
G1 X122.505 Y109.741 E.01718
G1 X122.377 Y110.266 E.01698
G1 X122.328 Y110.635 E.01166
G1 X122.313 Y110.985 E.01098
G1 X122.313 Y119.911 E.27986
G1 X120.787 Y119.911 E.04784
G1 X120.787 Y106.247 E.42841
M204 S1000
;WIPE_START
G1 F8640
M73 P5 R5
G1 X124.078 Y106.231 E-.76
;WIPE_END
G1 E-.04 F2100
G1 Z.6 F720
G1 X112.787 Y90.09 F10800
G1 Z.2 F720
M73 Q6 S6
G1 E.8 F2100
M204 S800
G1 F1200
M73 P6 R5
G1 X114.213 Y90.09 E.04471
G1 X114.213 Y119.911 E.935
G1 X112.787 Y119.911 E.04471
M73 Q6 S5
G1 X112.787 Y90.15 E.93314
M204 S1000
G1 X112.41 Y89.712 F10800
M204 S800
;TYPE:External perimeter
G1 F1200
G1 X117.515 Y89.715 E.16007
G1 X117.587 Y89.728 E.0023
G1 X117.679 Y89.778 E.00327
G1 X117.757 Y89.878 E.00396
G1 X117.782 Y89.957 E.0026
G1 X117.782 Y90.043 E.00271
G1 X117.757 Y90.122 E.0026
G1 X117.679 Y90.222 E.00396
G1 X117.59 Y90.27 E.00318
G1 X117.476 Y90.288 E.0036
G1 X114.59 Y90.288 E.0905
G1 X114.59 Y119.712 E.92258
M73 Q7 S5
G1 X120.41 Y119.712 E.18248
M73 P7 R5
G1 X120.41 Y105.81 E.43589
G1 X131.72 Y105.815 E.35462
G1 X132.159 Y105.852 E.01382
G1 X132.571 Y105.922 E.0131
G1 X133.233 Y106.108 E.02155
G1 X133.639 Y106.271 E.01371
G1 X134.032 Y106.47 E.0138
G1 X134.407 Y106.701 E.01381
G1 X134.751 Y106.954 E.01341
G1 X135.091 Y107.253 E.01421
G1 X135.388 Y107.562 E.01342
G1 X135.809 Y108.107 E.0216
G1 X136.03 Y108.468 E.01328
G1 X136.229 Y108.861 E.01381
G1 X136.393 Y109.271 E.01384
G1 X136.522 Y109.692 E.01381
G1 X136.615 Y110.123 E.01381
G1 X136.671 Y110.56 E.01381
G1 X136.69 Y110.995 E.01366
G1 X136.664 Y111.288 E.00922
G1 X135.336 Y111.288 E.04165
G1 X135.28 Y110.516 E.02427
G1 X135.188 Y110.042 E.01514
G1 X135.093 Y109.731 E.01021
G1 X134.972 Y109.431 E.01014
G1 X134.826 Y109.142 E.01014
G1 X134.657 Y108.866 E.01014
G1 X134.464 Y108.606 E.01014
G1 X134.252 Y108.364 E.0101
G1 X134.023 Y108.145 E.00995
G1 X133.771 Y107.94 E.01017
G1 X133.498 Y107.756 E.01034
M73 Q8 S5
G1 X133.215 Y107.598 E.01014
G1 X132.921 Y107.465 E.01014
G1 X132.614 Y107.356 E.01021
G1 X132.145 Y107.244 E.01512
G1 X131.664 Y107.193 E.01516
G1 X126.493 Y107.19 E.16213
G1 X126.168 Y107.204 E.01021
M73 P8 R5
G1 X125.838 Y107.248 E.01042
G1 X125.514 Y107.32 E.01042
G1 X125.195 Y107.42 E.01049
G1 X124.741 Y107.62 E.01556
G1 X124.314 Y107.879 E.01563
G1 X123.926 Y108.191 E.01563
G1 X123.581 Y108.551 E.01563
G1 X123.286 Y108.953 E.01563
G1 X123.047 Y109.39 E.01563
G1 X122.866 Y109.854 E.01563
G1 X122.748 Y110.336 E.01556
G1 X122.704 Y110.668 E.01049
G1 X122.69 Y110.993 E.01021
G1 X122.69 Y119.991 E.28212
G1 X122.668 Y120.288 E.00933
G1 X112.41 Y120.288 E.32163
G1 X112.41 Y89.772 E.9568
M204 S1000
G1 X112.776 Y89.874 F10800
;WIPE_START
G1 F8640
G1 X115.701 Y89.736 E-.76
;WIPE_END
G1 E-.04 F2100
G1 Z.6 F720
G1 X113.325 Y90.203 F10800
G1 Z.2 F720
G1 E.8 F2100
M204 S800
;TYPE:Solid infill
;WIDTH:0.425865
G1 F1200
G1 X113.93 Y90.808 E.02727
G1 X113.93 Y91.35 E.01724
G1 X113.07 Y90.49 E.03874
G1 X113.07 Y91.031 E.01724
G1 X113.93 Y91.892 E.03874
G1 X113.93 Y92.433 E.01724
M73 Q9 S5
G1 X113.07 Y91.573 E.03874
G1 X113.07 Y92.114 E.01724
G1 X113.93 Y92.975 E.03874
G1 X113.93 Y93.516 E.01724
G1 X113.07 Y92.656 E.03874
M73 P9 R5
G1 X113.07 Y93.198 E.01724
G1 X113.93 Y94.058 E.03874
G1 X113.93 Y94.599 E.01724
G1 X113.07 Y93.739 E.03874
G1 X113.07 Y94.281 E.01724
G1 X113.93 Y95.141 E.03874
G1 X113.93 Y95.683 E.01724
G1 X113.07 Y94.822 E.03874
G1 X113.07 Y95.364 E.01724
G1 X113.93 Y96.224 E.03874
G1 X113.93 Y96.766 E.01724
G1 X113.07 Y95.905 E.03874
G1 X113.07 Y96.447 E.01724
G1 X113.93 Y97.307 E.03874
G1 X113.93 Y97.849 E.01724
G1 X113.07 Y96.989 E.03874
G1 X113.07 Y97.53 E.01724
G1 X113.93 Y98.39 E.03874
G1 X113.93 Y98.932 E.01724
G1 X113.07 Y98.072 E.03874
G1 X113.07 Y98.613 E.01724
G1 X113.93 Y99.474 E.03874
G1 X113.93 Y100.015 E.01724
G1 X113.07 Y99.155 E.03874
G1 X113.07 Y99.696 E.01724
G1 X113.93 Y100.557 E.03874
G1 X113.93 Y101.098 E.01724
G1 X113.07 Y100.238 E.03874
G1 X113.07 Y100.78 E.01724
G1 X113.93 Y101.64 E.03874
G1 X113.93 Y102.181 E.01724
G1 X113.07 Y101.321 E.03874
G1 X113.07 Y101.863 E.01724
G1 X113.93 Y102.723 E.03874
G1 X113.93 Y103.265 E.01724
G1 X113.07 Y102.404 E.03874
G1 X113.07 Y102.946 E.01724
G1 X113.93 Y103.806 E.03874
G1 X113.93 Y104.348 E.01724
G1 X113.07 Y103.487 E.03874
G1 X113.07 Y104.029 E.01724
G1 X113.93 Y104.889 E.03874
G1 X113.93 Y105.431 E.01724
G1 X113.07 Y104.571 E.03874
G1 X113.07 Y105.112 E.01724
G1 X113.93 Y105.972 E.03874
G1 X113.93 Y106.514 E.01724
G1 X113.07 Y105.654 E.03874
G1 X113.07 Y106.195 E.01724
G1 X113.93 Y107.055 E.03874
G1 X113.93 Y107.597 E.01724
G1 X113.07 Y106.737 E.03874
G1 X113.07 Y107.278 E.01724
G1 X113.93 Y108.139 E.03874
G1 X113.93 Y108.68 E.01724
G1 X113.07 Y107.82 E.03874
G1 X113.07 Y108.361 E.01724
G1 X113.93 Y109.222 E.03874
G1 X113.93 Y109.763 E.01724
G1 X113.07 Y108.903 E.03874
G1 X113.07 Y109.445 E.01724
G1 X113.93 Y110.305 E.03874
G1 X113.93 Y110.846 E.01724
G1 X113.07 Y109.986 E.03874
G1 X113.07 Y110.528 E.01724
G1 X113.93 Y111.388 E.03874
G1 X113.93 Y111.93 E.01724
G1 X113.07 Y111.069 E.03874
G1 X113.07 Y111.611 E.01724
G1 X113.93 Y112.471 E.03874
G1 X113.93 Y113.013 E.01724
M73 Q10 S5
G1 X113.07 Y112.152 E.03874
G1 X113.07 Y112.694 E.01724
G1 X113.93 Y113.554 E.03874
G1 X113.93 Y114.096 E.01724
M73 P10 R5
G1 X113.07 Y113.236 E.03874
G1 X113.07 Y113.777 E.01724
G1 X113.93 Y114.637 E.03874
G1 X113.93 Y115.179 E.01724
G1 X113.07 Y114.319 E.03874
G1 X113.07 Y114.86 E.01724
G1 X113.93 Y115.721 E.03874
G1 X113.93 Y116.262 E.01724
G1 X113.07 Y115.402 E.03874
G1 X113.07 Y115.943 E.01724
G1 X113.93 Y116.804 E.03874
G1 X113.93 Y117.345 E.01724
G1 X113.07 Y116.485 E.03874
G1 X113.07 Y117.027 E.01724
G1 X113.93 Y117.887 E.03874
G1 X113.93 Y118.428 E.01724
G1 X113.07 Y117.568 E.03874
G1 X113.07 Y118.11 E.01724
G1 X113.93 Y118.97 E.03874
G1 X113.93 Y119.511 E.01724
G1 X113.07 Y118.651 E.03874
G1 X113.07 Y119.193 E.01724
G1 X113.675 Y119.798 E.02724
M204 S1000
G1 X114.401 Y120 F10800
M204 S800
;TYPE:Gap fill
;WIDTH:0.24159
G1 F1200
G1 X120.599 Y120 E.10237
M204 S1000
;WIPE_START
G1 F8640
G1 X117.307 Y120 E-.76
;WIPE_END
G1 E-.04 F2100
G1 Z.6 F720
G1 X124.72 Y106.302 F10800
G1 Z.2 F720
G1 E.8 F2100
M204 S800
;TYPE:Solid infill
;WIDTH:0.420477
G1 F1200
G1 X125.158 Y106.74 E.01944
G1 X124.77 Y106.886 E.01301
G1 X124.356 Y106.472 E.0184
G1 X123.822 Y106.471 E.01677
G1 X124.403 Y107.053 E.02582
G1 X124.071 Y107.255 E.0122
G1 X123.287 Y106.471 E.03478
G1 X122.753 Y106.471 E.01677
G1 X123.76 Y107.478 E.04469
G1 X123.465 Y107.717 E.01192
G1 X122.219 Y106.471 E.05534
G1 X121.685 Y106.47 E.01677
G1 X123.204 Y107.99 E.06746
G1 X122.961 Y108.28 E.0119
G1 X121.151 Y106.47 E.08037
G1 X121.07 Y106.47 E.00254
G1 X121.07 Y106.923 E.01423
G1 X122.735 Y108.589 E.07393
G1 X122.545 Y108.932 E.01233
G1 X121.07 Y107.457 E.06548
G1 X121.07 Y107.991 E.01676
G1 X122.375 Y109.296 E.05794
G1 X122.228 Y109.684 E.013
G1 X121.07 Y108.525 E.05143
G1 X121.07 Y109.059 E.01676
G1 X122.123 Y110.113 E.04677
G1 X122.051 Y110.574 E.01467
G1 X121.07 Y109.593 E.04356
M73 Q11 S5
G1 X121.07 Y110.127 E.01676
G1 X122.03 Y111.087 E.04263
G1 X122.03 Y111.621 E.01676
G1 X121.07 Y110.661 E.04263
M73 P11 R5
G1 X121.07 Y111.195 E.01676
G1 X122.03 Y112.155 E.04263
G1 X122.03 Y112.689 E.01676
G1 X121.07 Y111.729 E.04263
G1 X121.07 Y112.263 E.01676
G1 X122.03 Y113.223 E.04263
G1 X122.03 Y113.757 E.01676
G1 X121.07 Y112.797 E.04263
G1 X121.07 Y113.331 E.01676
G1 X122.03 Y114.291 E.04263
G1 X122.03 Y114.825 E.01676
G1 X121.07 Y113.865 E.04263
G1 X121.07 Y114.399 E.01676
G1 X122.03 Y115.359 E.04263
G1 X122.03 Y115.893 E.01676
G1 X121.07 Y114.933 E.04263
G1 X121.07 Y115.467 E.01676
G1 X122.03 Y116.427 E.04263
G1 X122.03 Y116.961 E.01676
G1 X121.07 Y116.001 E.04263
G1 X121.07 Y116.534 E.01676
G1 X122.03 Y117.495 E.04263
G1 X122.03 Y118.029 E.01676
G1 X121.07 Y117.068 E.04263
G1 X121.07 Y117.602 E.01676
G1 X122.03 Y118.563 E.04263
G1 X122.03 Y119.097 E.01676
G1 X121.07 Y118.136 E.04263
G1 X121.07 Y118.67 E.01676
G1 X122.028 Y119.628 E.04252
G1 X121.494 Y119.628 E.01676
G1 X120.9 Y119.035 E.02635
M204 S1000
;WIPE_START
G1 F8640
G1 X121.494 Y119.628 E-.19381
G1 X122.028 Y119.628 E-.12329
G1 X121.07 Y118.67 E-.31275
G1 X121.07 Y118.136 E-.12329
G1 X121.091 Y118.157 E-.00686
;WIPE_END
G1 E-.04 F2100
G1 Z.6 F720
G1 X125.614 Y106.542 F10800
G1 Z.2 F720
G1 E.8 F2100
M204 S800
;TYPE:Gap fill
;WIDTH:0.350102
G1 F1200
G1 X126.101 Y106.51 E.01248
M204 S1000
M204 S800
;WIDTH:0.306172
G1 X126.113 Y106.509 E.00025
M204 S1000
M204 S800
;WIDTH:0.305166
G1 X126.476 Y106.501 E.00792
M204 S1000
M204 S800
;WIDTH:0.289121
G1 X126.481 Y106.501 E.00011
M204 S1000
M204 S800
;WIDTH:0.290012
G1 X131.691 Y106.504 E.10704
M204 S1000
M204 S800
;WIDTH:0.290011
G1 X131.694 Y106.504 E.00007
M204 S1000
M204 S800
;WIDTH:0.289714
G1 X131.707 Y106.505 E.00027
M204 S1000
M204 S800
;WIDTH:0.2971
G1 X132.072 Y106.54 E.00774
M204 S1000
M204 S800
;WIDTH:0.2971
G1 X132.253 Y106.565 E.00388
M204 S1000
M204 S800
;WIDTH:0.285664
G1 X132.269 Y106.568 E.00031
M204 S1000
M204 S800
;WIDTH:0.295638
G1 X132.419 Y106.598 E.00323
M204 S1000
M204 S800
;WIDTH:0.295637
G1 X132.801 Y106.698 E.00829
M204 S1000
M204 S800
;WIDTH:0.279996
G1 X132.813 Y106.701 E.00025
M204 S1000
M204 S800
;WIDTH:0.293604
G1 X133.01 Y106.763 E.0043
M204 S1000
M204 S800
;WIDTH:0.293603
G1 X133.172 Y106.825 E.00362
M204 S1000
M204 S800
;WIDTH:0.286191
G1 X133.182 Y106.828 E.00021
M204 S1000
M204 S800
;WIDTH:0.29406
G1 X133.353 Y106.902 E.0039
M204 S1000
M204 S800
;WIDTH:0.294062
G1 X133.52 Y106.981 E.00386
M204 S1000
M204 S800
;WIDTH:0.28618
G1 X133.53 Y106.986 E.00021
M204 S1000
M204 S800
;WIDTH:0.294061
G1 X133.694 Y107.073 E.00389
M204 S1000
M204 S800
;WIDTH:0.294062
G1 X133.854 Y107.167 E.00388
M204 S1000
M204 S800
;WIDTH:0.286165
G1 X133.863 Y107.173 E.00021
M204 S1000
M204 S800
;WIDTH:0.294244
G1 X134.019 Y107.274 E.00389
M204 S1000
M204 S800
;WIDTH:0.294244
G1 X134.176 Y107.385 E.00402
M204 S1000
M204 S800
;WIDTH:0.286462
G1 X134.185 Y107.391 E.00021
M204 S1000
M204 S800
;WIDTH:0.293984
G1 X134.317 Y107.493 E.00348
M204 S1000
M204 S800
;WIDTH:0.293982
G1 X134.474 Y107.626 E.00429
M204 S1000
M204 S800
;WIDTH:0.285965
G1 X134.482 Y107.633 E.00021
M204 S1000
M204 S800
;WIDTH:0.293973
G1 X134.613 Y107.753 E.00373
M204 S1000
M204 S800
;WIDTH:0.293972
G1 X134.745 Y107.885 E.00389
M204 S1000
M204 S800
;WIDTH:0.286384
G1 X134.752 Y107.892 E.00021
M204 S1000
M204 S800
;WIDTH:0.29351
G1 X134.863 Y108.014 E.00344
M204 S1000
M204 S800
;WIDTH:0.293513
G1 X134.994 Y108.172 E.00428
M204 S1000
M204 S800
;WIDTH:0.280349
G1 X135 Y108.18 E.0002
M204 S1000
M204 S800
;WIDTH:0.287824
G1 X135.224 Y108.477 E.00756
M204 S1000
M204 S800
;WIDTH:0.288481
G1 X135.23 Y108.485 E.00021
M204 S1000
M204 S800
;WIDTH:0.290369
G1 X135.241 Y108.5 E.00037
M204 S1000
M204 S800
;WIDTH:0.290367
G1 X135.426 Y108.801 E.00728
M204 S1000
M204 S800
;WIDTH:0.290137
G1 X135.428 Y108.804 E.00009
M204 S1000
M204 S800
;WIDTH:0.290138
G1 X135.431 Y108.81 E.00013
M204 S1000
M204 S800
;WIDTH:0.290043
G1 X135.598 Y109.142 E.00763
M204 S1000
M204 S800
;WIDTH:0.290118
G1 X135.6 Y109.146 E.00009
M204 S1000
M204 S800
;WIDTH:0.290119
G1 X135.602 Y109.151 E.00013
