; generated by PrusaSlicer 2.4.1+win64 on 2023-12-22 at 09:27:25 UTC


;
;
; 

; external perimeters extrusion width = 0.60mm
; perimeters extrusion width = 0.50mm
; infill extrusion width = 0.50mm
; solid infill extrusion width = 0.50mm
; top infill extrusion width = 0.45mm
; first layer extrusion width = 0.42mm

M73 P0 R7
M73 Q0 S7
M201 X1000 Y1000 Z200 E5000 ; sets maximum accelerations, mm/sec^2
M203 X200 Y200 Z12 E120 ; sets maximum feedrates, mm / sec
M204 P1250 R1250 T1250 ; sets acceleration (P, T) and retract acceleration (R), mm/sec^2
M205 X8.00 Y8.00 Z0.40 E4.50 ; sets the jerk limits, mm/sec
M205 S0 T0 ; sets the minimum extruding and travel feed rate, mm/sec
M107
;TYPE:Custom
M862.3 P "MK3S" ; printer model check
M862.1 P0.4 ; nozzle diameter check
M115 U3.11.0 ; tell printer latest fw version
G90 ; use absolute coordinates
M83 ; extruder relative mode
M104 S215 ; set extruder temp
M140 S60 ; set bed temp
M190 S60 ; wait for bed temp
M109 S215 ; wait for extruder temp
G28 W ; home all without mesh bed level
G80 ; mesh bed leveling

G1 Z0.2 F720
G1 Y-3 F1000 ; go outside print area
G92 E0
G1 X60 E9 F1000 ; intro line
G1 X100 E12.5 F1000 ; intro line

G92 E0
M221 S95

; Don't change E values below. Excessive value can damage the printer.

M907 E538 ; set extruder motor current
G21 ; set units to millimeters
G90 ; use absolute coordinates
M83 ; use relative distances for extrusion
M900 K0.05 ; Filament gcode LA 1.5
M900 K30 ; Filament gcode LA 1.0
M107
;LAYER_CHANGE
;Z:0.2
;HEIGHT:0.2
;BEFORE_LAYER_CHANGE
G92 E0.0
;0.2


G1 E-.8 F2100
M73 P1 R6
M73 Q1 S7
G1 Z.4 F720
;AFTER_LAYER_CHANGE
;0.2
G1 X100.015 Y87.012 F10800
G1 Z.2 F720
M73 Q1 S6
G1 E.8 F2100
M204 S800
;TYPE:Skirt/Brim
;WIDTH:0.42
G1 F1200
G1 X101.06 Y86.135 E.04278
G1 X102 Y85.942 E.03008
G1 X107.579 Y85.943 E.17491
G1 X108.474 Y86.062 E.02833
G1 X109.226 Y86.328 E.02501
G1 X145.103 Y103.272 E1.24404
G1 X146.291 Y103.946 E.04283
M73 P2 R6
M73 Q2 S6
G1 X147.482 Y104.924 E.04832
G1 X148.449 Y106.059 E.04676
G1 X149.228 Y107.397 E.04852
G1 X149.742 Y108.814 E.04727
G1 X149.991 Y110.217 E.04466
G1 X149.984 Y111.601 E.04341
G1 X149.664 Y112.751 E.03742
G1 X148.986 Y113.987 E.04421
G1 X147.608 Y114.979 E.05323
G1 X113.608 Y123.979 E1.10276
G1 X113 Y124.058 E.01923
G1 X102 Y124.058 E.3449
G1 X100.693 Y123.667 E.04278
M73 Q3 S6
G1 X99.817 Y122.621 E.04278
G1 X99.623 Y121.681 E.03008
M73 P3 R6
G1 X99.623 Y88.319 E1.04606
G1 X99.997 Y87.069 E.0409
M204 S1000
; printing object IKEA_SKADIS_Hook_30mm.stl id:0 copy 0
;WIPE_START
G1 F8640
G1 X101.06 Y86.135 E-.32671
G1 X102 Y85.942 E-.22155
G1 X102.917 Y85.942 E-.21174
;WIPE_END
G1 E-.04 F2100
G1 Z.6 F720
G1 X110.787 Y106.187 F10800
G1 Z.2 F720
G1 E.8 F2100
M204 S800
;TYPE:Perimeter
G1 F1200
G1 X141.485 Y106.187 E.96253
G1 X141.908 Y106.205 E.01327
G1 X142.313 Y106.257 E.01281
M73 Q4 S6
G1 X142.707 Y106.342 E.01262
G1 X143.284 Y106.531 E.01906
G1 X143.668 Y106.704 E.01318
G1 X144.024 Y106.902 E.01278
G1 X144.362 Y107.131 E.01279
G1 X144.682 Y107.39 E.01291
G1 X145.11 Y107.818 E.019
G1 X145.364 Y108.132 E.01266
G1 X145.597 Y108.476 E.01302
G1 X145.801 Y108.842 E.01313
M73 P4 R6
G1 X146.038 Y109.399 E.01899
G1 X146.157 Y109.788 E.01273
G1 X146.243 Y110.187 E.0128
G1 X146.295 Y110.589 E.01271
G1 X146.305 Y110.911 E.01011
G1 X145.68 Y110.911 E.01958
G1 X145.655 Y110.475 E.01368
G1 X145.594 Y110.118 E.01138
G1 X145.504 Y109.774 E.01114
G1 X145.384 Y109.433 E.01134
G1 X145.159 Y108.963 E.01632
G1 X144.97 Y108.655 E.01134
G1 X144.758 Y108.369 E.01115
G1 X144.523 Y108.102 E.01116
G1 X144.255 Y107.846 E.01161
G1 X143.85 Y107.534 E.01605
G1 X143.542 Y107.344 E.01133
G1 X143.229 Y107.186 E.01101
G1 X142.895 Y107.051 E.0113
G1 X142.536 Y106.942 E.01176
G1 X142.032 Y106.846 E.01608
G1 X141.521 Y106.813 E.01606
G1 X116.479 Y106.813 E.78519
G1 X115.96 Y106.847 E.0163
G1 X115.594 Y106.912 E.01165
G1 X115.241 Y107.006 E.01145
G1 X114.891 Y107.133 E.01166
G1 X114.406 Y107.373 E.01698
G1 X113.95 Y107.677 E.01718
G1 X113.538 Y108.038 E.01718
G1 X113.181 Y108.445 E.01698
G1 X112.968 Y108.75 E.01166
G1 X112.782 Y109.072 E.01166
G1 X112.564 Y109.567 E.01698
G1 X112.413 Y110.087 E.01698
G1 X112.347 Y110.46 E.01185
G1 X112.313 Y110.979 E.0163
G1 X112.313 Y119.911 E.28007
G1 X110.787 Y119.911 E.04784
G1 X110.787 Y106.247 E.42842
M204 S1000
;WIPE_START
G1 F8640
G1 X114.079 Y106.241 E-.76
;WIPE_END
G1 E-.04 F2100
G1 Z.6 F720
G1 X102.787 Y90.09 F10800
G1 Z.2 F720
G1 E.8 F2100
M204 S800
G1 F1200
G1 X104.213 Y90.09 E.04471
G1 X104.213 Y119.911 E.935
G1 X102.787 Y119.911 E.04471
M73 P5 R6
M73 Q5 S6
G1 X102.787 Y90.15 E.93314
M204 S1000
G1 X102.41 Y89.712 F10800
M204 S800
;TYPE:External perimeter
G1 F1200
G1 X107.515 Y89.715 E.16007
G1 X107.587 Y89.728 E.0023
G1 X107.679 Y89.778 E.00327
G1 X107.757 Y89.878 E.00396
G1 X107.782 Y89.957 E.0026
G1 X107.782 Y90.043 E.00271
G1 X107.757 Y90.122 E.0026
G1 X107.679 Y90.222 E.00396
G1 X107.59 Y90.27 E.00318
G1 X107.476 Y90.288 E.0036
G1 X104.59 Y90.288 E.0905
G1 X104.59 Y119.712 E.92258
G1 X110.41 Y119.712 E.18248
M73 P6 R6
M73 Q6 S6
G1 X110.41 Y105.81 E.43589
G1 X141.493 Y105.81 E.9746
G1 X141.94 Y105.829 E.01402
G1 X142.377 Y105.885 E.01381
G1 X142.806 Y105.977 E.01375
G1 X143.421 Y106.179 E.0203
G1 X143.837 Y106.366 E.01432
G1 X144.222 Y106.581 E.0138
G1 X144.586 Y106.828 E.0138
G1 X144.934 Y107.109 E.01404
G1 X145.391 Y107.566 E.02024
G1 X145.668 Y107.907 E.01379
G1 X145.919 Y108.278 E.01405
G1 X146.14 Y108.676 E.01427
G1 X146.393 Y109.27 E.02023
G1 X146.522 Y109.692 E.01386
G1 X146.615 Y110.123 E.01381
G1 X146.671 Y110.559 E.01378
G1 X146.687 Y111.085 E.01652
G1 X146.66 Y111.288 E.00641
G1 X145.336 Y111.288 E.04153
G1 X145.28 Y110.518 E.0242
G1 X145.225 Y110.197 E.01022
G1 X145.143 Y109.884 E.01014
G1 X145.035 Y109.577 E.01021
G1 X144.828 Y109.144 E.01506
G1 X144.657 Y108.866 E.01021
G1 X144.464 Y108.606 E.01014
G1 X144.251 Y108.363 E.01014
G1 X144.009 Y108.133 E.01047
G1 X143.635 Y107.844 E.0148
G1 X143.358 Y107.674 E.01021
G1 X143.073 Y107.53 E.01001
G1 X142.769 Y107.407 E.01028
G1 X142.445 Y107.309 E.01062
G1 X141.984 Y107.22 E.01471
G1 X141.509 Y107.19 E.01494
G1 X116.491 Y107.19 E.78442
G1 X116.005 Y107.222 E.01527
M73 P7 R6
M73 Q7 S6
G1 X115.675 Y107.28 E.01049
G1 X115.354 Y107.366 E.01042
G1 X115.04 Y107.481 E.01049
G1 X114.595 Y107.7 E.01556
G1 X114.18 Y107.977 E.01563
G1 X113.806 Y108.306 E.01563
G1 X113.478 Y108.679 E.01556
G1 X113.286 Y108.953 E.01049
G1 X113.119 Y109.243 E.01049
G1 X112.919 Y109.697 E.01556
G1 X112.78 Y110.173 E.01556
G1 X112.722 Y110.505 E.01056
G1 X112.69 Y110.991 E.01527
G1 X112.69 Y119.991 E.28219
G1 X112.668 Y120.288 E.00933
G1 X102.41 Y120.288 E.32163
G1 X102.41 Y89.772 E.9568
M204 S1000
G1 X102.776 Y89.874 F10800
;WIPE_START
G1 F8640
G1 X105.701 Y89.736 E-.76
;WIPE_END
G1 E-.04 F2100
G1 Z.6 F720
G1 X103.325 Y90.203 F10800
G1 Z.2 F720
G1 E.8 F2100
M204 S800
;TYPE:Solid infill
;WIDTH:0.425865
M73 Q8 S6
G1 F1200
G1 X103.93 Y90.808 E.02727
G1 X103.93 Y91.35 E.01724
G1 X103.07 Y90.49 E.03874
M73 P8 R6
G1 X103.07 Y91.031 E.01724
G1 X103.93 Y91.892 E.03874
G1 X103.93 Y92.433 E.01724
G1 X103.07 Y91.573 E.03874
G1 X103.07 Y92.114 E.01724
G1 X103.93 Y92.975 E.03874
G1 X103.93 Y93.516 E.01724
G1 X103.07 Y92.656 E.03874
G1 X103.07 Y93.198 E.01724
G1 X103.93 Y94.058 E.03874
G1 X103.93 Y94.599 E.01724
G1 X103.07 Y93.739 E.03874
G1 X103.07 Y94.281 E.01724
G1 X103.93 Y95.141 E.03874
G1 X103.93 Y95.683 E.01724
G1 X103.07 Y94.822 E.03874
G1 X103.07 Y95.364 E.01724
G1 X103.93 Y96.224 E.03874
G1 X103.93 Y96.766 E.01724
G1 X103.07 Y95.905 E.03874
G1 X103.07 Y96.447 E.01724
G1 X103.93 Y97.307 E.03874
G1 X103.93 Y97.849 E.01724
G1 X103.07 Y96.989 E.03874
G1 X103.07 Y97.53 E.01724
G1 X103.93 Y98.39 E.03874
G1 X103.93 Y98.932 E.01724
G1 X103.07 Y98.072 E.03874
G1 X103.07 Y98.613 E.01724
G1 X103.93 Y99.474 E.03874
G1 X103.93 Y100.015 E.01724
G1 X103.07 Y99.155 E.03874
G1 X103.07 Y99.696 E.01724
G1 X103.93 Y100.557 E.03874
G1 X103.93 Y101.098 E.01724
G1 X103.07 Y100.238 E.03874
G1 X103.07 Y100.78 E.01724
G1 X103.93 Y101.64 E.03874
G1 X103.93 Y102.181 E.01724
G1 X103.07 Y101.321 E.03874
G1 X103.07 Y101.863 E.01724
G1 X103.93 Y102.723 E.03874
G1 X103.93 Y103.265 E.01724
G1 X103.07 Y102.404 E.03874
G1 X103.07 Y102.946 E.01724
G1 X103.93 Y103.806 E.03874
G1 X103.93 Y104.348 E.01724
G1 X103.07 Y103.487 E.03874
G1 X103.07 Y104.029 E.01724
G1 X103.93 Y104.889 E.03874
G1 X103.93 Y105.431 E.01724
G1 X103.07 Y104.571 E.03874
G1 X103.07 Y105.112 E.01724
G1 X103.93 Y105.972 E.03874
G1 X103.93 Y106.514 E.01724
G1 X103.07 Y105.654 E.03874
G1 X103.07 Y106.195 E.01724
G1 X103.93 Y107.055 E.03874
G1 X103.93 Y107.597 E.01724
G1 X103.07 Y106.737 E.03874
G1 X103.07 Y107.278 E.01724
G1 X103.93 Y108.139 E.03874
G1 X103.93 Y108.68 E.01724
G1 X103.07 Y107.82 E.03874
G1 X103.07 Y108.361 E.01724
G1 X103.93 Y109.222 E.03874
G1 X103.93 Y109.763 E.01724
G1 X103.07 Y108.903 E.03874
G1 X103.07 Y109.445 E.01724
G1 X103.93 Y110.305 E.03874
G1 X103.93 Y110.846 E.01724
G1 X103.07 Y109.986 E.03874
G1 X103.07 Y110.528 E.01724
G1 X103.93 Y111.388 E.03874
G1 X103.93 Y111.93 E.01724
G1 X103.07 Y111.069 E.03874
G1 X103.07 Y111.611 E.01724
G1 X103.93 Y112.471 E.03874
G1 X103.93 Y113.013 E.01724
G1 X103.07 Y112.152 E.03874
G1 X103.07 Y112.694 E.01724
M73 Q9 S6
G1 X103.93 Y113.554 E.03874
G1 X103.93 Y114.096 E.01724
M73 P9 R6
G1 X103.07 Y113.236 E.03874
G1 X103.07 Y113.777 E.01724
G1 X103.93 Y114.637 E.03874
G1 X103.93 Y115.179 E.01724
G1 X103.07 Y114.319 E.03874
G1 X103.07 Y114.86 E.01724
G1 X103.93 Y115.721 E.03874
G1 X103.93 Y116.262 E.01724
G1 X103.07 Y115.402 E.03874
G1 X103.07 Y115.943 E.01724
G1 X103.93 Y116.804 E.03874
G1 X103.93 Y117.345 E.01724
G1 X103.07 Y116.485 E.03874
G1 X103.07 Y117.027 E.01724
G1 X103.93 Y117.887 E.03874
G1 X103.93 Y118.428 E.01724
G1 X103.07 Y117.568 E.03874
G1 X103.07 Y118.11 E.01724
G1 X103.93 Y118.97 E.03874
G1 X103.93 Y119.511 E.01724
G1 X103.07 Y118.651 E.03874
G1 X103.07 Y119.193 E.01724
G1 X103.675 Y119.798 E.02724
M204 S1000
G1 X104.401 Y120 F10800
M204 S800
;TYPE:Gap fill
;WIDTH:0.24159
G1 F1200
G1 X110.599 Y120 E.10237
M204 S1000
;WIPE_START
G1 F8640
G1 X107.307 Y120 E-.76
;WIPE_END
G1 E-.04 F2100
G1 Z.6 F720
G1 X114.721 Y106.3 F10800
G1 Z.2 F720
G1 E.8 F2100
M204 S800
;TYPE:Solid infill
;WIDTH:0.420538
G1 F1200
G1 X115.157 Y106.736 E.01935
G1 X114.766 Y106.88 E.01306
G1 X114.357 Y106.47 E.0182
G1 X113.823 Y106.47 E.01677
G1 X114.409 Y107.056 E.02603
G1 X114.073 Y107.255 E.01224
G1 X113.289 Y106.47 E.03485
G1 X112.755 Y106.47 E.01677
G1 X113.756 Y107.471 E.04447
G1 X113.472 Y107.721 E.01188
G1 X112.22 Y106.47 E.05555
G1 X111.686 Y106.47 E.01677
G1 X113.206 Y107.989 E.06746
G1 X112.956 Y108.274 E.01188
G1 X111.152 Y106.47 E.0801
G1 X111.07 Y106.47 E.00259
G1 X111.07 Y106.921 E.01418
G1 X112.736 Y108.588 E.074
G1 X112.54 Y108.926 E.01227
G1 X111.07 Y107.455 E.06529
G1 X111.07 Y107.989 E.01677
G1 X112.375 Y109.295 E.05797
G1 X112.298 Y109.471 E.00603
G1 X112.235 Y109.688 E.00711
G1 X111.07 Y108.523 E.05172
G1 X111.07 Y109.057 E.01677
G1 X112.122 Y110.109 E.04671
G1 X112.056 Y110.578 E.01485
G1 X111.07 Y109.592 E.04378
G1 X111.07 Y110.126 E.01677
G1 X112.03 Y111.086 E.04264
G1 X112.03 Y111.62 E.01677
G1 X111.07 Y110.66 E.04264
G1 X111.07 Y111.194 E.01677
G1 X112.03 Y112.154 E.04264
G1 X112.03 Y112.688 E.01677
G1 X111.07 Y111.728 E.04264
G1 X111.07 Y112.262 E.01677
G1 X112.03 Y113.222 E.04264
G1 X112.03 Y113.756 E.01677
M73 Q10 S6
G1 X111.07 Y112.796 E.04264
M73 P10 R6
G1 X111.07 Y113.33 E.01677
G1 X112.03 Y114.29 E.04264
G1 X112.03 Y114.824 E.01677
G1 X111.07 Y113.864 E.04264
G1 X111.07 Y114.398 E.01677
G1 X112.03 Y115.358 E.04264
G1 X112.03 Y115.892 E.01677
G1 X111.07 Y114.932 E.04264
G1 X111.07 Y115.466 E.01677
G1 X112.03 Y116.426 E.04264
G1 X112.03 Y116.96 E.01677
G1 X111.07 Y116 E.04264
G1 X111.07 Y116.534 E.01677
G1 X112.03 Y117.494 E.04264
G1 X112.03 Y118.028 E.01677
G1 X111.07 Y117.068 E.04264
G1 X111.07 Y117.602 E.01677
G1 X112.03 Y118.562 E.04264
G1 X112.03 Y119.096 E.01677
G1 X111.07 Y118.136 E.04264
G1 X111.07 Y118.67 E.01677
G1 X112.028 Y119.628 E.04254
G1 X111.494 Y119.628 E.01677
G1 X110.9 Y119.034 E.02636
M204 S1000
;WIPE_START
G1 F8640
G1 X111.494 Y119.628 E-.19384
G1 X112.028 Y119.628 E-.12331
G1 X111.07 Y118.67 E-.31282
G1 X111.07 Y118.136 E-.12331
G1 X111.09 Y118.157 E-.00672
;WIPE_END
G1 E-.04 F2100
G1 Z.6 F720
G1 X115.621 Y106.544 F10800
G1 Z.2 F720
G1 E.8 F2100
M204 S800
;TYPE:Gap fill
;WIDTH:0.352984
G1 F1200
G1 X115.912 Y106.519 E.00754
M204 S1000
M204 S800
;WIDTH:0.329054
G1 X115.928 Y106.518 E.00037
M204 S1000
M204 S800
;WIDTH:0.327186
G1 X116.464 Y106.5 E.01269
M204 S1000
M204 S800
;WIDTH:0.291952
G1 X116.472 Y106.5 E.00017
M204 S1000
M204 S800
;WIDTH:0.291684
G1 X141.479 Y106.5 E.51726
M204 S1000
M204 S800
;WIDTH:0.291684
G1 X141.527 Y106.501 E.00099
M204 S1000
M204 S800
;WIDTH:0.289647
G1 X141.535 Y106.501 E.00016
M204 S1000
M204 S800
;WIDTH:0.297048
G1 X141.881 Y106.52 E.00733
M204 S1000
M204 S800
;WIDTH:0.297048
G1 X142.064 Y106.537 E.00387
M204 S1000
M204 S800
;WIDTH:0.285423
G1 X142.079 Y106.539 E.00031
M204 S1000
M204 S800
;WIDTH:0.296866
G1 X142.26 Y106.568 E.00387
M204 S1000
M204 S800
;WIDTH:0.296867
G1 X142.604 Y106.638 E.00742
M204 S1000
M204 S800
;WIDTH:0.289374
G1 X142.617 Y106.641 E.00026
M204 S1000
M204 S800
;WIDTH:0.290075
G1 X142.625 Y106.643 E.00017
M204 S1000
M204 S800
;WIDTH:0.290074
G1 X142.992 Y106.759 E.00791
M204 S1000
M204 S800
;WIDTH:0.281677
G1 X143.002 Y106.763 E.00021
M204 S1000
M204 S800
;WIDTH:0.293483
G1 X143.171 Y106.824 E.00375
M204 S1000
M204 S800
;WIDTH:0.293484
G1 X143.352 Y106.901 E.0041
M204 S1000
M204 S800
;WIDTH:0.28571
G1 X143.361 Y106.906 E.00021
M204 S1000
M204 S800
;WIDTH:0.29395
G1 X143.527 Y106.984 E.00382
M204 S1000
M204 S800
;WIDTH:0.293949
G1 X143.689 Y107.071 E.00384
M204 S1000
M204 S800
;WIDTH:0.286185
G1 X143.698 Y107.076 E.00021
M204 S1000
M204 S800
;WIDTH:0.294062
G1 X143.859 Y107.17 E.00389
M204 S1000
M204 S800
;WIDTH:0.29406
G1 X144.021 Y107.275 E.00403
M204 S1000
M204 S800
;WIDTH:0.285971
G1 X144.032 Y107.282 E.00026
M204 S1000
M204 S800
;WIDTH:0.296953
G1 X144.174 Y107.385 E.0037
M204 S1000
M204 S800
;WIDTH:0.296952
G1 X144.453 Y107.606 E.00753
M204 S1000
M204 S800
;WIDTH:0.289034
G1 X144.463 Y107.614 E.00027
M204 S1000
M204 S800
;WIDTH:0.29004
G1 X144.473 Y107.622 E.00025
M204 S1000
M204 S800
;WIDTH:0.290041
G1 X144.742 Y107.885 E.00773
M204 S1000
M204 S800
;WIDTH:0.281705
G1 X144.749 Y107.893 E.0002
M204 S1000
M204 S800
;WIDTH:0.293604
G1 X144.877 Y108.029 E.0039
M204 S1000
M204 S800
;WIDTH:0.293602
G1 X144.996 Y108.17 E.00386
M204 S1000
M204 S800
;WIDTH:0.286083
G1 X145.003 Y108.178 E.00021
M204 S1000
M204 S800
;WIDTH:0.293972
G1 X145.112 Y108.319 E.00373
M204 S1000
M204 S800
;WIDTH:0.293974
G1 X145.224 Y108.477 E.00403
M204 S1000
M204 S800
;WIDTH:0.285979
G1 X145.229 Y108.486 E.00021
M204 S1000
M204 S800
;WIDTH:0.294005
G1 X145.33 Y108.641 E.00386
M204 S1000
M204 S800
;WIDTH:0.294003
G1 X145.428 Y108.809 E.00407
M204 S1000
M204 S800
;WIDTH:0.285452
G1 X145.434 Y108.82 E.00026
M204 S1000
M204 S800
;WIDTH:0.296583
G1 X145.517 Y108.981 E.00381
M204 S1000
M204 S800
;WIDTH:0.296584
G1 X145.665 Y109.309 E.0076
M204 S1000
M204 S800
;WIDTH:0.281106
G1 X145.67 Y109.321 E.00025
M204 S1000
M204 S800
;WIDTH:0.293667
G1 X145.743 Y109.507 E.00417
M204 S1000
M204 S800
;WIDTH:0.293668
G1 X145.799 Y109.678 E.00375
M204 S1000
M204 S800
;WIDTH:0.286078
G1 X145.802 Y109.688 E.00021
M204 S1000
M204 S800
;WIDTH:0.294021
G1 X145.853 Y109.867 E.00388
M204 S1000
M204 S800
;WIDTH:0.29402
G1 X145.896 Y110.047 E.00387
M204 S1000
M204 S800
;WIDTH:0.286143
G1 X145.898 Y110.057 E.00021
M204 S1000
M204 S800
;WIDTH:0.294012
G1 X145.933 Y110.24 E.00388
M204 S1000
M204 S800
;WIDTH:0.294011
G1 X145.962 Y110.434 E.00409
M204 S1000
M204 S800
;WIDTH:0.28586
G1 X145.964 Y110.447 E.00027
M204 S1000
M204 S800
;WIDTH:0.296257
G1 X145.978 Y110.596 E.00315
M204 S1000
M204 S800
;WIDTH:0.296258
G1 X146.11 Y110.712 E.00371
M204 S1000
;WIPE_START
G1 F8640
G1 X145.978 Y110.596 E-.04063
;WIPE_END
G1 E-.75937 F2100
G1 Z.6 F720
