; generated by PrusaSlicer 2.8.0+win64 on 2024-10-28 at 08:59:39 UTC


;
;
; 

; external perimeters extrusion width = 0.60mm
; perimeters extrusion width = 0.50mm
; infill extrusion width = 0.50mm
; solid infill extrusion width = 0.50mm
; top infill extrusion width = 0.45mm
; first layer extrusion width = 0.42mm

; external perimeters extrusion width = 0.60mm
; perimeters extrusion width = 0.50mm
; infill extrusion width = 0.50mm
; solid infill extrusion width = 0.50mm
; top infill extrusion width = 0.45mm
; first layer extrusion width = 0.42mm

; external perimeters extrusion width = 0.60mm
; perimeters extrusion width = 0.50mm
; infill extrusion width = 0.50mm
; solid infill extrusion width = 0.50mm
; top infill extrusion width = 0.45mm
; first layer extrusion width = 0.42mm

; external perimeters extrusion width = 0.60mm
; perimeters extrusion width = 0.50mm
; infill extrusion width = 0.50mm
; solid infill extrusion width = 0.50mm
; top infill extrusion width = 0.45mm
; first layer extrusion width = 0.42mm

; external perimeters extrusion width = 0.60mm
; perimeters extrusion width = 0.50mm
; infill extrusion width = 0.50mm
; solid infill extrusion width = 0.50mm
; top infill extrusion width = 0.45mm
; first layer extrusion width = 0.42mm

; external perimeters extrusion width = 0.60mm
; perimeters extrusion width = 0.50mm
; infill extrusion width = 0.50mm
; solid infill extrusion width = 0.50mm
; top infill extrusion width = 0.45mm
; first layer extrusion width = 0.42mm

; external perimeters extrusion width = 0.60mm
; perimeters extrusion width = 0.50mm
; infill extrusion width = 0.50mm
; solid infill extrusion width = 0.50mm
; top infill extrusion width = 0.45mm
; first layer extrusion width = 0.42mm

; external perimeters extrusion width = 0.60mm
; perimeters extrusion width = 0.50mm
; infill extrusion width = 0.50mm
; solid infill extrusion width = 0.50mm
; top infill extrusion width = 0.45mm
; first layer extrusion width = 0.42mm

; external perimeters extrusion width = 0.60mm
; perimeters extrusion width = 0.50mm
; infill extrusion width = 0.50mm
; solid infill extrusion width = 0.50mm
; top infill extrusion width = 0.45mm
; first layer extrusion width = 0.42mm

M73 P0 R51
M73 Q0 S52
M201 X1000 Y1000 Z200 E5000 ; sets maximum accelerations, mm/sec^2
M203 X200 Y200 Z12 E120 ; sets maximum feedrates, mm / sec
M204 S1250 T1250 ; sets acceleration (S) and retract acceleration (R), mm/sec^2
M205 X8.00 Y8.00 Z0.40 E4.50 ; sets the jerk limits, mm/sec
M205 S0 T0 ; sets the minimum extruding and travel feed rate, mm/sec

; printing object IKEA_SKADIS_Hook_30mm.stl id:4 copy 0
; stop printing object IKEA_SKADIS_Hook_30mm.stl id:4 copy 0
; printing object IKEA_SKADIS_Hook_30mm.stl id:3 copy 0
; stop printing object IKEA_SKADIS_Hook_30mm.stl id:3 copy 0
; printing object IKEA_SKADIS_Hook_30mm.stl id:0 copy 0
; stop printing object IKEA_SKADIS_Hook_30mm.stl id:0 copy 0
; printing object IKEA_SKADIS_Hook_30mm.stl id:1 copy 0
; stop printing object IKEA_SKADIS_Hook_30mm.stl id:1 copy 0
; printing object IKEA_SKADIS_Hook_30mm.stl id:2 copy 0
; stop printing object IKEA_SKADIS_Hook_30mm.stl id:2 copy 0
; printing object IKEA_SKADIS_Hook_30mm.stl id:5 copy 0
; stop printing object IKEA_SKADIS_Hook_30mm.stl id:5 copy 0
; printing object IKEA_SKADIS_Hook_30mm.stl id:7 copy 0
; stop printing object IKEA_SKADIS_Hook_30mm.stl id:7 copy 0
; printing object IKEA_SKADIS_Hook_30mm.stl id:6 copy 0
; stop printing object IKEA_SKADIS_Hook_30mm.stl id:6 copy 0
; printing object IKEA_SKADIS_Hook_30mm.stl id:8 copy 0
; stop printing object IKEA_SKADIS_Hook_30mm.stl id:8 copy 0

;TYPE:Custom
M862.3 P "MK3S" ; printer model check
M862.1 P0.4 ; nozzle diameter check
M115 U3.13.3 ; tell printer latest fw version
G90 ; use absolute coordinates
M83 ; extruder relative mode
M104 S215 ; set extruder temp
M140 S60 ; set bed temp
M190 S60 ; wait for bed temp
M109 S215 ; wait for extruder temp
G28 W ; home all without mesh bed level
G80 X44.6303 Y44.0467 W158.733 H123.372 ; mesh bed levelling

G1 Z0.2 F720
G1 Y-3 F1000 ; go outside print area
G92 E0
G1 X60 E9 F1000 ; intro line
G1 X100 E12.5 F1000 ; intro line

G92 E0
M221 S95

; Don't change E values below. Excessive value can damage the printer.

M907 E538 ; set extruder motor current
G21 ; set units to millimeters
G90 ; use absolute coordinates
M83 ; use relative distances for extrusion

M900 K0.05 ; Filament gcode LA 1.5
M900 K30 ; Filament gcode LA 1.0




M107
;LAYER_CHANGE
;Z:0.2
;HEIGHT:0.2
G1 E-.8 F2100
G1 Z.6 F720
G1 X45.702 Y45.733 F10800
G1 Z.2 F720
G1 E.8 F2100
M204 S800
;TYPE:Skirt/Brim
;WIDTH:0.42
G1 F1200
G1 X46.74 Y44.937 E.04101
G1 X47.48 Y44.804 E.02357
G1 X160.761 Y44.236 E3.55189
G1 X161.513 Y44.325 E.02374
M73 Q0 S51
G1 X162.258 Y44.568 E.02457
G1 X198.533 Y61.706 E1.25792
G1 X199.824 Y62.536 E.04812
G1 X200.965 Y63.615 E.04924
G1 X201.875 Y64.875 E.04873
G1 X202.534 Y66.28 E.04866
G1 X202.903 Y67.671 E.04512
G1 X203.027 Y69.059 E.04369
G1 X203.175 Y111.056 E1.31679
G1 X202.835 Y154.489 E1.36185
G1 X202.752 Y155.189 E.0221
G1 X202.554 Y155.872 E.0223
G1 X201.828 Y157.244 E.04867
G1 X200.559 Y158.157 E.04902
G1 X166.559 Y167.157 E1.10276
G1 X165.999 Y167.23 E.01771
G1 X154.981 Y167.23 E.34546
G1 X46.989 Y166.333 E3.38613
G1 X45.744 Y165.932 E.04101
G1 X44.95 Y164.892 E.04103
G1 X44.819 Y164.145 E.02378
G1 X44.819 Y130.771 E1.04642
G1 X45.303 Y46.979 E2.62728
G1 X45.684 Y45.79 E.03915
M73 P1 R50
M73 Q1 S51
M204 S1000
;WIPE_START
G1 F8640
G1 X45.702 Y45.733 E-.0138
G1 X46.74 Y44.937 E-.30204
G1 X47.48 Y44.804 E-.17361
G1 X48.825 Y44.797 E-.31055
;WIPE_END
G1 Z.6 F720
; printing object IKEA_SKADIS_Hook_30mm.stl id:5 copy 0
G1 X49.988 Y78.48 F10800
G1 Z.2 F720
G1 E.8 F2100
M204 S800
;TYPE:Perimeter
;WIDTH:0.419999
G1 F1200
G1 X50.092 Y78.584 E.00461
G1 X48.279 Y78.584 E.05685
G1 X48.279 Y48.763 E.93501
G1 X50.029 Y48.764 E.05487
G1 X49.705 Y49.15 E.0158
G1 X49.705 Y78.197 E.91075
G1 X49.945 Y78.438 E.01066
M204 S1000
;WIPE_START
G1 F8640
G1 X49.988 Y78.48 E-.01388
G1 X50.092 Y78.584 E-.03396
G1 X48.279 Y78.584 E-.41863
G1 X48.279 Y77.14 E-.33353
;WIPE_END
G1 Z.6 F720
G1 X55.954 Y78.584 F10800
G1 Z.2 F720
G1 E.8 F2100
M204 S800
G1 F1200
G1 X56.279 Y78.197 E.01585
G1 X56.279 Y64.861 E.41814
G1 X60.293 Y64.861 E.12586
;WIDTH:0.462508
G1 X60.497 Y64.882 E.00715
;WIDTH:0.505016
G1 X60.7 Y64.903 E.00784
;WIDTH:0.547524
G1 X60.904 Y64.925 E.00861
;WIDTH:0.590032
G1 X61.107 Y64.946 E.00928
G1 X61.989 Y64.923 E.04014
;WIDTH:0.544382
G1 X87.072 Y64.931 E1.04588
;WIDTH:0.541094
G1 X87.675 Y64.982 E.02507
;WIDTH:0.553122
G1 X88.198 Y65.085 E.02261
G1 X88.757 Y65.269 E.02497
;WIDTH:0.548129
G1 X89.499 Y65.645 E.03494
G1 X90.195 Y66.171 E.03665
;WIDTH:0.542904
G1 X90.729 Y66.764 E.03318
;WIDTH:0.547618
G1 X91.032 Y67.182 E.02167
;WIDTH:0.549413
G1 X91.235 Y67.544 E.01748
G1 X91.464 Y68.083 E.02466
;WIDTH:0.549183
G1 X91.588 Y68.484 E.01767
;WIDTH:0.548011
G1 X91.703 Y69.08 E.02549
;WIDTH:0.543118
G1 X91.723 Y69.526 E.01857
;WIDTH:0.538076
G1 X91.239 Y69.526 E.01993
;WIDTH:0.542662
G1 X91.197 Y69.081 E.01857
;WIDTH:0.549183
G1 X90.998 Y68.281 E.0347
G1 X90.62 Y67.473 E.03755
;WIDTH:0.547991
G1 X90.171 Y66.865 E.03174
G1 X89.746 Y66.444 E.02512
;WIDTH:0.540891
G1 X89.019 Y65.946 E.03649
;WIDTH:0.547502
G1 X88.54 Y65.724 E.02215
;WIDTH:0.553122
G1 X88.059 Y65.575 E.02136
G1 X87.492 Y65.459 E.02455
;WIDTH:0.544382
G1 X86.952 Y65.424 E.02256
G1 X61.989 Y65.424 E1.04088
;WIDTH:0.547015
G1 X61.92 Y65.427 E.00289
;WIDTH:0.590032
G1 X61.137 Y65.491 E.03574
G1 X61.02 Y65.541 E.00579
;WIDTH:0.540175
G1 X60.799 Y65.634 E.00991
;WIDTH:0.500117
G1 X60.577 Y65.727 E.00915
;WIDTH:0.460058
G1 X60.356 Y65.821 E.00833
;WIDTH:0.419999
G1 X59.867 Y66.067 E.01716
G1 X59.414 Y66.375 E.01718
G1 X59.006 Y66.74 E.01716
G1 X58.649 Y67.155 E.01716
G1 X58.338 Y67.635 E.01793
G1 X57.986 Y68.462 E.02818
G1 X57.837 Y69.164 E.0225
G1 X57.805 Y69.671 E.01593
G1 X57.805 Y78.584 E.27946
G1 X56.014 Y78.584 E.05616
M204 S1000
;WIPE_START
G1 F8640
G1 X55.954 Y78.584 E-.01385
G1 X56.279 Y78.197 E-.11669
G1 X56.279 Y75.298 E-.66946
;WIPE_END
G1 Z.6 F720
G1 X50.162 Y78.298 F10800
G1 Z.2 F720
G1 E.8 F2100
M204 S800
;TYPE:External perimeter
;WIDTH:0.469667
G1 F1200
G1 X50.176 Y78.316 E.00081
;WIDTH:0.519335
G1 X50.271 Y78.435 E.00603
G1 X55.713 Y78.435 E.21558
;WIDTH:0.522945
G1 X55.755 Y78.434 E.00168
G1 X55.804 Y78.355 E.00371
;WIDTH:0.48863
G1 X55.853 Y78.276 E.00345
;WIDTH:0.454315
G1 X55.902 Y78.197 E.00318
;WIDTH:0.419999
G1 X55.902 Y64.484 E.42996
G1 X86.981 Y64.484 E.97446
G1 X87.712 Y64.546 E.023
G1 X88.301 Y64.652 E.01876
G1 X88.909 Y64.852 E.02007
G1 X89.713 Y65.255 E.0282
G1 X90.429 Y65.786 E.02795
G1 X90.88 Y66.237 E.02
G1 X91.386 Y66.919 E.02663
G1 X91.632 Y67.35 E.01556
G1 X91.87 Y67.91 E.01908
G1 X92.021 Y68.4 E.01608
G1 X92.141 Y69.062 E.02109
G1 X92.156 Y69.962 E.02822
G1 X90.839 Y69.962 E.04129
G1 X90.768 Y69.174 E.02481
G1 X90.592 Y68.455 E.02321
G1 X90.255 Y67.72 E.02535
G1 X89.852 Y67.171 E.02135
G1 X89.494 Y66.801 E.01614
G1 X88.84 Y66.343 E.02503
G1 X88.23 Y66.072 E.02093
G1 X87.496 Y65.898 E.02365
G1 X86.995 Y65.864 E.01574
G1 X61.989 Y65.864 E.78404
G1 X61.151 Y65.958 E.02644
G1 X60.549 Y66.148 E.01979
G1 X60.098 Y66.368 E.01573
G1 X59.683 Y66.644 E.01563
G1 X59.307 Y66.971 E.01562
G1 X58.962 Y67.364 E.0164
G1 X58.683 Y67.787 E.01589
G1 X58.354 Y68.544 E.02588
G1 X58.217 Y69.16 E.01979
G1 X58.182 Y69.671 E.01606
G1 X58.182 Y77.822 E.25557
G1 X58.149 Y78.962 E.03576
G1 X56.666 Y78.962 E.0465
;WIDTH:0.469667
G1 X56.19 Y78.937 E.01691
;WIDTH:0.519335
G1 X55.713 Y78.912 E.01892
G1 X50.271 Y78.912 E.21558
G1 X49.794 Y78.937 E.01892
;WIDTH:0.469667
G1 X49.318 Y78.962 E.01691
;WIDTH:0.419999
G1 X47.902 Y78.962 E.0444
G1 X47.902 Y48.386 E.95869
G1 X49.319 Y48.387 E.04443
;WIDTH:0.469275
G1 X49.795 Y48.412 E.0169
;WIDTH:0.518551
G1 X50.271 Y48.437 E.01885
G1 X52.979 Y48.438 E.1071
;WIDTH:0.517743
G1 X53.171 Y48.532 E.00844
G1 X53.219 Y48.727 E.00793
G1 X53.138 Y48.857 E.00605
G1 X52.964 Y48.913 E.00722
;WIDTH:0.518551
G1 X50.271 Y48.912 E.10651
;WIDTH:0.522155
G1 X50.229 Y48.914 E.00168
G1 X50.18 Y48.993 E.0037
;WIDTH:0.488103
G1 X50.131 Y49.071 E.00341
;WIDTH:0.454051
G1 X50.082 Y49.15 E.00318
;WIDTH:0.419999
G1 X50.082 Y78.197 E.91075
;WIDTH:0.469667
G1 X50.124 Y78.251 E.00243
M204 S1000
;WIPE_START
G1 F8640
G1 X50.162 Y78.298 E-.01396
G1 X50.176 Y78.316 E-.00527
G1 X50.271 Y78.435 E-.03516
G1 X53.5 Y78.435 E-.74561
;WIPE_END
G1 Z.6 F720
G1 X60.271 Y65.03 F10800
G1 Z.2 F720
G1 E.8 F2100
M204 S800
;TYPE:Solid infill
;WIDTH:0.422671
G1 F1200
G1 X60.573 Y65.333 E.01351
G1 X60.221 Y65.518 E.01256
G1 X59.903 Y65.2 E.0142
G1 X59.366 Y65.2 E.01696
G1 X59.86 Y65.694 E.02206
G1 X59.687 Y65.779 E.00609
G1 X59.52 Y65.891 E.00635
G1 X58.829 Y65.2 E.03086
G1 X58.292 Y65.2 E.01696
G1 X59.206 Y66.114 E.04082
G1 X58.917 Y66.362 E.01202
G1 X57.755 Y65.2 E.05189
G1 X57.218 Y65.2 E.01696
G1 X58.652 Y66.634 E.06404
G1 X58.402 Y66.921 E.01202
G1 X56.681 Y65.2 E.07685
G1 X56.618 Y65.2 E.00199
G1 X56.618 Y65.675 E.015
G1 X58.184 Y67.241 E.06993
G1 X58.097 Y67.37 E.00491
G1 X57.997 Y67.59 E.00763
G1 X56.618 Y66.212 E.06156
G1 X56.618 Y66.749 E.01696
G1 X57.829 Y67.959 E.05406
G1 X57.705 Y68.232 E.00947
G1 X57.677 Y68.345 E.00368
G1 X56.618 Y67.286 E.04729
G1 X56.618 Y67.823 E.01696
G1 X57.573 Y68.777 E.04262
G1 X57.516 Y69.014 E.0077
G1 X57.498 Y69.24 E.00716
G1 X56.618 Y68.36 E.0393
G1 X56.618 Y68.897 E.01696
G1 X57.466 Y69.744 E.03785
G1 X57.466 Y70.281 E.01696
G1 X56.618 Y69.434 E.03785
G1 X56.618 Y69.971 E.01696
G1 X57.466 Y70.818 E.03785
G1 X57.466 Y71.355 E.01696
G1 X56.618 Y70.508 E.03785
G1 X56.618 Y71.045 E.01696
G1 X57.466 Y71.892 E.03785
G1 X57.466 Y72.429 E.01696
G1 X56.618 Y71.582 E.03785
G1 X56.618 Y72.119 E.01696
G1 X57.466 Y72.966 E.03785
G1 X57.466 Y73.503 E.01696
G1 X56.618 Y72.656 E.03785
G1 X56.618 Y73.193 E.01696
G1 X57.466 Y74.04 E.03785
G1 X57.466 Y74.577 E.01696
G1 X56.618 Y73.73 E.03785
G1 X56.618 Y74.267 E.01696
G1 X57.466 Y75.114 E.03785
G1 X57.466 Y75.652 E.01699
G1 X56.618 Y74.804 E.03787
G1 X56.618 Y75.341 E.01696
G1 X57.466 Y76.189 E.03787
G1 X57.466 Y76.726 E.01696
G1 X56.618 Y75.879 E.03785
G1 X56.618 Y76.416 E.01696
G1 X57.466 Y77.263 E.03785
G1 X57.466 Y77.8 E.01696
G1 X56.618 Y76.953 E.03785
G1 X56.618 Y77.49 E.01696
G1 X57.374 Y78.245 E.03374
G1 X56.837 Y78.245 E.01696
G1 X56.449 Y77.857 E.01733
M204 S1000
;WIPE_START
G1 F8640
G1 X56.837 Y78.245 E-.1267
G1 X57.374 Y78.245 E-.12399
G1 X56.618 Y77.49 E-.24671
G1 X56.618 Y76.953 E-.12399
G1 X57.165 Y77.499 E-.17861
;WIPE_END
G1 Z.6 F720
G1 X48.97 Y48.933 F10800
G1 Z.2 F720
G1 E.8 F2100
M204 S800
;WIDTH:0.425651
G1 F1200
G1 X49.366 Y49.329 E.01782
G1 X49.366 Y49.871 E.01725
G1 X48.618 Y49.123 E.03366
G1 X48.618 Y49.665 E.01725
G1 X49.366 Y50.412 E.03364
G1 X49.366 Y50.953 E.01722
G1 X48.618 Y50.206 E.03364
G1 X48.618 Y50.747 E.01722
G1 X49.366 Y51.494 E.03364
G1 X49.366 Y52.036 E.01725
G1 X48.618 Y51.288 E.03366
G1 X48.618 Y51.83 E.01725
G1 X49.366 Y52.577 E.03364
G1 X49.366 Y53.118 E.01722
G1 X48.618 Y52.371 E.03364
G1 X48.618 Y52.912 E.01722
G1 X49.366 Y53.659 E.03364
G1 X49.366 Y54.201 E.01725
G1 X48.618 Y53.453 E.03366
G1 X48.618 Y53.995 E.01725
G1 X49.366 Y54.742 E.03364
G1 X49.366 Y55.283 E.01722
G1 X48.618 Y54.536 E.03364
G1 X48.618 Y55.077 E.01722
G1 X49.366 Y55.824 E.03364
G1 X49.366 Y56.366 E.01725
G1 X48.618 Y55.619 E.03364
G1 X48.618 Y56.16 E.01722
G1 X49.366 Y56.907 E.03364
G1 X49.366 Y57.448 E.01722
G1 X48.618 Y56.701 E.03364
G1 X48.618 Y57.242 E.01722
G1 X49.366 Y57.989 E.03364
G1 X49.366 Y58.531 E.01725
G1 X48.618 Y57.784 E.03364
G1 X48.618 Y58.325 E.01722
G1 X49.366 Y59.072 E.03364
G1 X49.366 Y59.613 E.01722
G1 X48.618 Y58.866 E.03364
G1 X48.618 Y59.407 E.01722
G1 X49.366 Y60.155 E.03366
G1 X49.366 Y60.696 E.01722
G1 X48.618 Y59.949 E.03364
G1 X48.618 Y60.49 E.01722
G1 X49.366 Y61.237 E.03364
G1 X49.366 Y61.778 E.01722
G1 X48.618 Y61.031 E.03364
G1 X48.618 Y61.572 E.01722
G1 X49.366 Y62.32 E.03366
G1 X49.366 Y62.861 E.01722
G1 X48.618 Y62.114 E.03364
G1 X48.618 Y62.655 E.01722
G1 X49.366 Y63.402 E.03364
G1 X49.366 Y63.943 E.01722
G1 X48.618 Y63.196 E.03364
G1 X48.618 Y63.737 E.01722
G1 X49.366 Y64.485 E.03366
G1 X49.366 Y65.026 E.01722
G1 X48.618 Y64.279 E.03364
G1 X48.618 Y64.82 E.01722
G1 X49.366 Y65.567 E.03364
G1 X49.366 Y66.108 E.01722
G1 X48.618 Y65.361 E.03364
G1 X48.618 Y65.903 E.01725
G1 X49.366 Y66.65 E.03364
G1 X49.366 Y67.191 E.01722
G1 X48.618 Y66.444 E.03364
G1 X48.618 Y66.985 E.01722
G1 X49.366 Y67.732 E.03364
G1 X49.366 Y68.273 E.01722
G1 X48.618 Y67.526 E.03364
G1 X48.618 Y68.068 E.01725
G1 X49.366 Y68.815 E.03364
G1 X49.366 Y69.356 E.01722
G1 X48.618 Y68.609 E.03364
G1 X48.618 Y69.15 E.01722
G1 X49.366 Y69.897 E.03364
G1 X49.366 Y70.439 E.01725
G1 X48.618 Y69.691 E.03366
G1 X48.618 Y70.233 E.01725
G1 X49.366 Y70.98 E.03364
G1 X49.366 Y71.521 E.01722
G1 X48.618 Y70.774 E.03364
G1 X48.618 Y71.315 E.01722
G1 X49.366 Y72.062 E.03364
G1 X49.366 Y72.604 E.01725
G1 X48.618 Y71.856 E.03366
G1 X48.618 Y72.398 E.01725
G1 X49.366 Y73.145 E.03364
G1 X49.366 Y73.686 E.01722
G1 X48.618 Y72.939 E.03364
G1 X48.618 Y73.48 E.01722
G1 X49.366 Y74.227 E.03364
G1 X49.366 Y74.769 E.01725
M73 P2 R50
G1 X48.618 Y74.021 E.03366
G1 X48.618 Y74.563 E.01725
G1 X49.366 Y75.31 E.03364
G1 X49.366 Y75.851 E.01722
G1 X48.618 Y75.104 E.03364
G1 X48.618 Y75.645 E.01722
G1 X49.366 Y76.392 E.03364
G1 X49.366 Y76.934 E.01725
G1 X48.618 Y76.187 E.03364
G1 X48.618 Y76.728 E.01722
G1 X49.366 Y77.475 E.03364
G1 X49.366 Y78.016 E.01722
M73 Q2 S51
G1 X48.618 Y77.269 E.03364
G1 X48.618 Y77.81 E.01722
G1 X49.223 Y78.415 E.02723
M204 S1000
;WIPE_START
G1 F8640
G1 X48.618 Y77.81 E-.19756
G1 X48.618 Y77.269 E-.12492
G1 X49.366 Y78.016 E-.24409
G1 X49.366 Y77.475 E-.12492
G1 X49.034 Y77.143 E-.10851
;WIPE_END
G1 Z.6 F720
; stop printing object IKEA_SKADIS_Hook_30mm.stl id:5 copy 0
; printing object IKEA_SKADIS_Hook_30mm.stl id:2 copy 0
G1 X49.731 Y120.149 F10800
G1 Z.2 F720
G1 E.8 F2100
M204 S800
;TYPE:Perimeter
;WIDTH:0.419999
G1 F1200
