; generated by PrusaSlicer 2.8.0+win64 on 2024-10-31 at 06:42:45 UTC


;
;
; 

; external perimeters extrusion width = 0.60mm
; perimeters extrusion width = 0.50mm
; infill extrusion width = 0.50mm
; solid infill extrusion width = 0.50mm
; top infill extrusion width = 0.45mm
; first layer extrusion width = 0.42mm

; external perimeters extrusion width = 0.60mm
; perimeters extrusion width = 0.50mm
; infill extrusion width = 0.50mm
; solid infill extrusion width = 0.50mm
; top infill extrusion width = 0.45mm
; first layer extrusion width = 0.42mm

; external perimeters extrusion width = 0.60mm
; perimeters extrusion width = 0.50mm
; infill extrusion width = 0.50mm
; solid infill extrusion width = 0.50mm
; top infill extrusion width = 0.45mm
; first layer extrusion width = 0.42mm

; external perimeters extrusion width = 0.60mm
; perimeters extrusion width = 0.50mm
; infill extrusion width = 0.50mm
; solid infill extrusion width = 0.50mm
; top infill extrusion width = 0.45mm
; first layer extrusion width = 0.42mm

; external perimeters extrusion width = 0.60mm
; perimeters extrusion width = 0.50mm
; infill extrusion width = 0.50mm
; solid infill extrusion width = 0.50mm
; top infill extrusion width = 0.45mm
; first layer extrusion width = 0.42mm

; external perimeters extrusion width = 0.60mm
; perimeters extrusion width = 0.50mm
; infill extrusion width = 0.50mm
; solid infill extrusion width = 0.50mm
; top infill extrusion width = 0.45mm
; first layer extrusion width = 0.42mm

; external perimeters extrusion width = 0.60mm
; perimeters extrusion width = 0.50mm
; infill extrusion width = 0.50mm
; solid infill extrusion width = 0.50mm
; top infill extrusion width = 0.45mm
; first layer extrusion width = 0.42mm

; external perimeters extrusion width = 0.60mm
; perimeters extrusion width = 0.50mm
; infill extrusion width = 0.50mm
; solid infill extrusion width = 0.50mm
; top infill extrusion width = 0.45mm
; first layer extrusion width = 0.42mm

; external perimeters extrusion width = 0.60mm
; perimeters extrusion width = 0.50mm
; infill extrusion width = 0.50mm
; solid infill extrusion width = 0.50mm
; top infill extrusion width = 0.45mm
; first layer extrusion width = 0.42mm

M73 P0 R48
M73 Q0 S48
M201 X1000 Y1000 Z200 E5000 ; sets maximum accelerations, mm/sec^2
M203 X200 Y200 Z12 E120 ; sets maximum feedrates, mm / sec
M204 S1250 T1250 ; sets acceleration (S) and retract acceleration (R), mm/sec^2
M205 X8.00 Y8.00 Z0.40 E4.50 ; sets the jerk limits, mm/sec
M205 S0 T0 ; sets the minimum extruding and travel feed rate, mm/sec

; printing object Skadis_Universal_Hook.stl id:8 copy 0
; stop printing object Skadis_Universal_Hook.stl id:8 copy 0
; printing object Skadis_Universal_Hook.stl id:7 copy 0
; stop printing object Skadis_Universal_Hook.stl id:7 copy 0
; printing object Skadis_Universal_Hook.stl id:5 copy 0
; stop printing object Skadis_Universal_Hook.stl id:5 copy 0
; printing object Skadis_Universal_Hook.stl id:6 copy 0
; stop printing object Skadis_Universal_Hook.stl id:6 copy 0
; printing object Skadis_Universal_Hook.stl id:3 copy 0
; stop printing object Skadis_Universal_Hook.stl id:3 copy 0
; printing object Skadis_Universal_Hook.stl id:4 copy 0
; stop printing object Skadis_Universal_Hook.stl id:4 copy 0
; printing object Skadis_Universal_Hook.stl id:0 copy 0
; stop printing object Skadis_Universal_Hook.stl id:0 copy 0
; printing object Skadis_Universal_Hook.stl id:1 copy 0
; stop printing object Skadis_Universal_Hook.stl id:1 copy 0
; printing object Skadis_Universal_Hook.stl id:2 copy 0
; stop printing object Skadis_Universal_Hook.stl id:2 copy 0

;TYPE:Custom
M862.3 P "MK3S" ; printer model check
M862.1 P0.4 ; nozzle diameter check
M115 U3.13.3 ; tell printer latest fw version
G90 ; use absolute coordinates
M83 ; extruder relative mode
M104 S215 ; set extruder temp
M140 S60 ; set bed temp
M190 S60 ; wait for bed temp
M109 S215 ; wait for extruder temp
G28 W ; home all without mesh bed level
G80 X83.8926 Y45.9404 W82.6811 H119.833 ; mesh bed levelling

G1 Z0.2 F720
G1 Y-3 F1000 ; go outside print area
G92 E0
G1 X60 E9 F1000 ; intro line
G1 X100 E12.5 F1000 ; intro line

G92 E0
M221 S95

; Don't change E values below. Excessive value can damage the printer.

M907 E538 ; set extruder motor current
G21 ; set units to millimeters
G90 ; use absolute coordinates
M83 ; use relative distances for extrusion

M900 K0.05 ; Filament gcode LA 1.5
M900 K30 ; Filament gcode LA 1.0




M107
;LAYER_CHANGE
;Z:0.2
;HEIGHT:0.2
G1 E-.8 F2100
M73 P0 R47
G1 Z.6 F720
G1 X88.861 Y47.912 F10800
G1 Z.2 F720
G1 E.8 F2100
M204 S800
;TYPE:Skirt/Brim
;WIDTH:0.42
G1 F1200
G1 X89.525 Y47.009 E.03514
G1 X90.317 Y46.456 E.03029
G1 X91.3 Y46.158 E.03221
G1 X107.291 Y46.13 E.50139
G1 X159.829 Y47.782 E1.64811
G1 X161.064 Y48.212 E.041
G1 X161.919 Y49.608 E.05133
G1 X166.376 Y76.368 E.8506
G1 X166.384 Y80.863 E.14094
G1 X165.434 Y118.297 E1.17409
G1 X162.66 Y159.009 E1.27946
G1 X162.34 Y160.105 E.0358
G1 X161.821 Y160.962 E.03141
G1 X159.304 Y163.768 E.11819
G1 X158.788 Y164.19 E.0209
G1 X157.765 Y164.622 E.03482
G1 X157.215 Y164.697 E.0174
G1 X130.965 Y165.583 E.82352
G1 X113.668 Y165.584 E.54234
G1 X88.637 Y165.142 E.78495
G1 X87.975 Y165.084 E.02084
G1 X87.26 Y164.91 E.02307
G1 X86.1 Y164.338 E.04055
G1 X85.162 Y163.486 E.03973
G1 X84.737 Y162.889 E.02298
G1 X84.45 Y162.322 E.01993
G1 X84.19 Y161.51 E.02673
G1 X84.081 Y160.518 E.03129
G1 X84.137 Y110.61 E1.56483
G1 X86.402 Y71.84 E1.21768
G1 X88.608 Y48.759 E.72699
G1 X88.844 Y47.969 E.02585
M73 Q0 S47
M204 S1000
;WIPE_START
G1 F8640
G1 X88.861 Y47.912 E-.01373
G1 X89.525 Y47.009 E-.25881
G1 X90.317 Y46.456 E-.22304
G1 X91.3 Y46.158 E-.23718
G1 X91.591 Y46.157 E-.06724
;WIPE_END
G1 Z.6 F720
; printing object Skadis_Universal_Hook.stl id:5 copy 0
G1 X150.393 Y156.399 F10800
G1 Z.2 F720
G1 E.8 F2100
M204 S800
;TYPE:Perimeter
;WIDTH:0.419999
G1 F1200
G1 X150.293 Y156.52 E.00492
G1 X150.226 Y156.787 E.00863
G1 X150.225 Y159.68 E.09071
G1 X150.201 Y160.304 E.01958
G1 X150.037 Y160.678 E.0128
G1 X149.838 Y160.917 E.00975
G1 X149.514 Y161.131 E.01217
G1 X149.1 Y161.22 E.01328
G1 X140.001 Y161.22 E.28529
G1 X139.489 Y161.143 E.01623
G1 X139.055 Y160.868 E.01611
G1 X138.802 Y160.452 E.01527
G1 X138.743 Y160.165 E.00919
G1 X138.734 Y151.362 E.27601
G1 X140.526 Y151.362 E.05619
G1 X140.525 Y156.581 E.16364
G1 X140.606 Y157.228 E.02044
M73 Q1 S47
G1 X140.761 Y157.707 E.01579
G1 X141.045 Y158.215 E.01825
M73 P1 R47
G1 X141.43 Y158.658 E.0184
G1 X141.912 Y159.02 E.0189
G1 X142.602 Y159.318 E.02357
G1 X143.235 Y159.424 E.02012
G1 X145.585 Y159.43 E.07368
G1 X146.398 Y159.309 E.02577
G1 X146.945 Y159.078 E.01862
G1 X147.46 Y158.716 E.01974
G1 X147.824 Y158.337 E.01648
G1 X148.145 Y157.819 E.01911
G1 X148.355 Y157.225 E.01975
G1 X148.43 Y156.729 E.01573
G1 X148.434 Y133.568 E.7262
G1 X148.298 Y132.716 E.02705
G1 X148.038 Y132.134 E.01999
G1 X147.895 Y131.93 E.00781
G1 X147.439 Y131.415 E.02157
G1 X146.792 Y130.992 E.02424
G1 X146.221 Y130.797 E.01892
G1 X145.586 Y130.72 E.02006
G1 X140.934 Y130.72 E.14586
G1 X140.934 Y128.362 E.07393
G1 X155.293 Y128.362 E.45022
G1 X155.293 Y130.52 E.06766
G1 X150.791 Y130.521 E.14116
G1 X150.558 Y130.571 E.00747
G1 X150.38 Y130.698 E.00686
G1 X150.275 Y130.855 E.00592
G1 X150.226 Y131.087 E.00743
G1 X150.226 Y153.963 E.71726
G1 X150.288 Y154.221 E.00832
G1 X150.439 Y154.406 E.00749
G1 X150.582 Y154.489 E.00518
G1 X150.791 Y154.529 E.00667
G1 X159.225 Y154.53 E.26444
G1 X159.225 Y158.304 E.11833
G1 X159.195 Y158.587 E.00892
G1 X159.048 Y158.857 E.00964
G1 X157.434 Y160.651 E.07566
G1 X157.434 Y156.787 E.12115
G1 X157.285 Y156.404 E.01289
G1 X157.105 Y156.273 E.00698
G1 X156.868 Y156.221 E.00761
G1 X150.791 Y156.221 E.19054
G1 X150.582 Y156.261 E.00667
G1 X150.439 Y156.344 E.00518
G1 X150.432 Y156.353 E.00036
M204 S1000
G1 X150.432 Y156.353 F10800
G1 X150.652 Y156.684
M204 S800
;TYPE:External perimeter
G1 F1200
G1 X150.603 Y156.787 E.00358
G1 X150.59 Y160.23 E.10795
G1 X150.452 Y160.728 E.0162
G1 X150.239 Y161.062 E.01242
G1 X149.956 Y161.32 E.01201
G1 X149.665 Y161.478 E.01038
G1 X149.126 Y161.597 E.01731
G1 X140.001 Y161.598 E.28611
G1 X139.36 Y161.502 E.02032
G1 X138.956 Y161.283 E.01441
G1 X138.696 Y161.022 E.01155
G1 X138.442 Y160.578 E.01604
G1 X138.366 Y160.203 E.012
G1 X138.357 Y150.991 E.28884
G1 X140.903 Y150.991 E.07983
G1 X140.902 Y156.581 E.17527
G1 X140.98 Y157.179 E.01891
G1 X141.093 Y157.53 E.01156
G1 X141.334 Y157.973 E.01581
G1 X141.665 Y158.363 E.01604
G1 X142.07 Y158.677 E.01607
G1 X142.669 Y158.947 E.0206
G1 X143.236 Y159.047 E.01805
G1 X145.586 Y159.053 E.07368
G1 X146.261 Y158.957 E.02138
G1 X146.728 Y158.769 E.01578
G1 X147.243 Y158.408 E.01972
G1 X147.509 Y158.129 E.01209
G1 X147.79 Y157.694 E.01624
G1 X147.999 Y157.099 E.01977
G1 X148.053 Y156.729 E.01172
G1 X148.057 Y133.568 E.7262
G1 X147.954 Y132.87 E.02212
G1 X147.694 Y132.288 E.01999
G1 X147.226 Y131.726 E.02293
G1 X146.661 Y131.346 E.02135
G1 X146.173 Y131.171 E.01625
G1 X145.586 Y131.097 E.01855
G1 X140.617 Y131.097 E.1558
G1 X140.557 Y131.041 E.00257
G1 X140.557 Y127.991 E.09563
G1 X155.67 Y127.985 E.47386
G1 X155.67 Y130.898 E.09133
G1 X150.791 Y130.898 E.15298
G1 X150.654 Y130.957 E.00468
G1 X150.603 Y131.087 E.00438
G1 X150.603 Y153.963 E.71726
G1 X150.674 Y154.111 E.00515
G1 X150.791 Y154.152 E.00389
G1 X159.552 Y154.153 E.27469
G1 X159.602 Y154.215 E.0025
G1 X159.602 Y158.304 E.12821
G1 X159.556 Y158.713 E.0129
G1 X159.358 Y159.077 E.01299
G1 X157.137 Y161.545 E.1041
G1 X157.078 Y161.577 E.0021
G1 X157.057 Y161.528 E.00167
G1 X157.057 Y156.787 E.14865
G1 X157.007 Y156.659 E.00431
G1 X156.868 Y156.598 E.00476
G1 X150.791 Y156.598 E.19054
G1 X150.683 Y156.636 E.00359
M204 S1000
;WIPE_START
G1 F8640
G1 X150.652 Y156.684 E-.01319
G1 X150.603 Y156.787 E-.02634
G1 X150.591 Y160.081 E-.76047
;WIPE_END
G1 Z.6 F720
G1 X155.123 Y129.298 F10800
G1 Z.2 F720
G1 E.8 F2100
M204 S800
;TYPE:Solid infill
;WIDTH:0.421751
G1 F1200
G1 X154.527 Y128.701 E.02657
G1 X153.991 Y128.701 E.01688
G1 X154.953 Y129.664 E.04288
G1 X154.953 Y130.182 E.01632
G1 X154.935 Y130.182 E.00057
G1 X153.455 Y128.701 E.06595
G1 X152.92 Y128.701 E.01685
G1 X154.401 Y130.183 E.066
G1 X153.867 Y130.184 E.01682
G1 X152.384 Y128.701 E.06606
G1 X151.848 Y128.701 E.01688
G1 X153.332 Y130.186 E.06613
G1 X152.798 Y130.187 E.01682
G1 X151.312 Y128.701 E.0662
G1 X150.777 Y128.701 E.01685
G1 X152.264 Y130.189 E.06626
G1 X151.73 Y130.19 E.01682
G1 X150.241 Y128.701 E.06633
G1 X149.705 Y128.701 E.01688
G1 X151.195 Y130.192 E.0664
G1 X150.661 Y130.193 E.01682
G1 X149.169 Y128.701 E.06647
G1 X148.634 Y128.701 E.01685
G1 X150.286 Y130.353 E.07359
G1 X150.133 Y130.462 E.00592
G1 X150.023 Y130.627 E.00625
G1 X148.098 Y128.701 E.08578
G1 X147.562 Y128.701 E.01688
G1 X149.892 Y131.032 E.10382
G1 X149.887 Y131.562 E.0167
G1 X147.026 Y128.701 E.12745
G1 X146.491 Y128.701 E.01685
G1 X149.887 Y132.098 E.15131
G1 X149.887 Y132.634 E.01688
G1 X145.955 Y128.701 E.17518
G1 X145.419 Y128.701 E.01688
G1 X149.888 Y133.17 E.19908
G1 X149.888 Y133.706 E.01688
G1 X148.486 Y132.304 E.06246
G1 X148.344 Y131.986 E.01097
G1 X148.224 Y131.794 E.00713
G1 X147.761 Y131.242 E.02269
G1 X147.101 Y130.772 E.02552
G1 X146.825 Y130.643 E.0096
G1 X144.883 Y128.701 E.08651
G1 X144.348 Y128.701 E.01685
G1 X146.085 Y130.439 E.0774
G1 X145.491 Y130.381 E.0188
G1 X143.812 Y128.701 E.07482
G1 X143.276 Y128.701 E.01688
G1 X144.956 Y130.381 E.07484
G1 X144.42 Y130.381 E.01688
G1 X142.74 Y128.701 E.07484
G1 X142.205 Y128.701 E.01685
G1 X143.884 Y130.381 E.07482
G1 X143.348 Y130.381 E.01688
G1 X141.669 Y128.701 E.07482
G1 X141.273 Y128.701 E.01247
G1 X141.273 Y128.842 E.00444
G1 X142.813 Y130.381 E.06858
G1 X142.277 Y130.381 E.01688
G1 X141.273 Y129.377 E.04473
G1 X141.274 Y129.913 E.01688
G1 X141.911 Y130.551 E.0284
M204 S1000
;WIPE_START
G1 F8640
G1 X141.274 Y129.913 E-.20817
G1 X141.273 Y129.377 E-.12376
G1 X142.277 Y130.381 E-.32785
G1 X142.813 Y130.381 E-.12376
G1 X142.763 Y130.331 E-.01646
;WIPE_END
G1 Z.6 F720
G1 X148.513 Y132.867 F10800
G1 Z.2 F720
G1 E.8 F2100
M204 S800
G1 F1200
G1 X149.888 Y134.242 E.06125
G1 X149.888 Y134.778 E.01688
G1 X148.774 Y133.663 E.04965
G1 X148.774 Y134.199 E.01688
G1 X149.889 Y135.314 E.04967
G1 X149.889 Y135.85 E.01688
G1 X148.774 Y134.735 E.04967
G1 X148.773 Y135.27 E.01685
G1 X149.889 Y136.386 E.04972
G1 X149.889 Y136.922 E.01688
G1 X148.773 Y135.806 E.04972
G1 X148.773 Y136.342 E.01688
G1 X149.89 Y137.458 E.04974
G1 X149.89 Y137.994 E.01688
G1 X148.773 Y136.877 E.04976
G1 X148.773 Y137.413 E.01688
G1 X149.89 Y138.53 E.04976
G1 X149.89 Y139.066 E.01688
G1 X148.773 Y137.948 E.04978
G1 X148.773 Y138.484 E.01688
G1 X149.891 Y139.602 E.0498
G1 X149.891 Y140.138 E.01688
G1 X148.773 Y139.02 E.0498
G1 X148.773 Y139.555 E.01685
G1 X149.891 Y140.674 E.04983
G1 X149.891 Y141.21 E.01688
G1 X148.772 Y140.091 E.04985
G1 X148.772 Y140.627 E.01688
G1 X149.892 Y141.746 E.04987
G1 X149.892 Y142.282 E.01688
G1 X148.772 Y141.162 E.04989
G1 X148.772 Y141.698 E.01688
G1 X149.892 Y142.818 E.04989
G1 X149.893 Y143.354 E.01688
G1 X148.772 Y142.233 E.04994
G1 X148.772 Y142.769 E.01688
G1 X149.893 Y143.89 E.04994
G1 X149.893 Y144.426 E.01688
G1 X148.772 Y143.305 E.04994
G1 X148.772 Y143.84 E.01685
G1 X149.893 Y144.962 E.04996
G1 X149.894 Y145.498 E.01688
G1 X148.771 Y144.376 E.05
G1 X148.771 Y144.912 E.01688
G1 X149.894 Y146.034 E.05
G1 X149.894 Y146.57 E.01688
G1 X148.771 Y145.447 E.05003
G1 X148.771 Y145.983 E.01688
G1 X149.894 Y147.106 E.05003
G1 X149.895 Y147.642 E.01688
G1 X148.771 Y146.519 E.05005
G1 X148.771 Y147.054 E.01685
G1 X149.895 Y148.178 E.05007
G1 X149.895 Y148.714 E.01688
G1 X148.771 Y147.59 E.05007
G1 X148.771 Y148.125 E.01685
G1 X149.895 Y149.25 E.05009
G1 X149.896 Y149.786 E.01688
G1 X148.771 Y148.661 E.05012
G1 X148.77 Y149.197 E.01688
G1 X149.896 Y150.322 E.05014
G1 X149.896 Y150.858 E.01688
G1 X148.77 Y149.732 E.05016
G1 X148.77 Y150.268 E.01688
G1 X149.896 Y151.394 E.05016
G1 X149.897 Y151.93 E.01688
G1 X148.77 Y150.804 E.05018
G1 X148.77 Y151.339 E.01685
G1 X149.897 Y152.466 E.05021
G1 X149.897 Y153.002 E.01688
G1 X148.77 Y151.875 E.05021
G1 X148.77 Y152.41 E.01685
G1 X150.067 Y153.708 E.0578
M204 S1000
;WIPE_START
G1 F8640
G1 X148.77 Y152.41 E-.42369
G1 X148.77 Y151.875 E-.12353
G1 X149.544 Y152.649 E-.25278
;WIPE_END
G1 Z.6 F720
G1 X159.055 Y155.196 F10800
G1 Z.2 F720
G1 E.8 F2100
M204 S800
G1 F1200
G1 X158.729 Y154.869 E.01454
G1 X158.193 Y154.869 E.01688
G1 X158.886 Y155.562 E.03087
G1 X158.886 Y156.098 E.01688
G1 X157.657 Y154.869 E.05475
G1 X157.121 Y154.869 E.01688
G1 X158.886 Y156.633 E.0786
G1 X158.886 Y157.169 E.01688
G1 X156.585 Y154.869 E.10248
G1 X156.05 Y154.869 E.01685
G1 X158.886 Y157.705 E.12634
G1 X158.886 Y158.241 E.01688
G1 X157.773 Y157.128 E.04958
G1 X157.773 Y157.664 E.01688
G1 X158.769 Y158.66 E.04437
G1 X158.516 Y158.942 E.01193
G1 X157.773 Y158.2 E.03308
G1 X157.773 Y158.735 E.01685
G1 X158.262 Y159.224 E.02178
G1 X158.008 Y159.506 E.01196
G1 X157.604 Y159.102 E.018
M204 S1000
;WIPE_START
G1 F8640
G1 X158.008 Y159.506 E-.13192
G1 X158.262 Y159.224 E-.08763
G1 X157.773 Y158.735 E-.15968
G1 X157.773 Y158.2 E-.12353
G1 X158.516 Y158.942 E-.24246
G1 X158.675 Y158.765 E-.05478
;WIPE_END
G1 Z.6 F720
G1 X156.697 Y156.051 F10800
G1 Z.2 F720
G1 E.8 F2100
M204 S800
G1 F1200
G1 X155.514 Y154.869 E.05268
G1 X154.978 Y154.869 E.01688
G1 X155.991 Y155.882 E.04513
G1 X155.455 Y155.882 E.01688
G1 X154.442 Y154.869 E.04513
G1 X153.906 Y154.868 E.01688
G1 X154.92 Y155.882 E.04517
G1 X154.384 Y155.882 E.01688
G1 X153.371 Y154.868 E.04515
G1 X152.835 Y154.868 E.01688
G1 X153.848 Y155.882 E.04515
G1 X153.312 Y155.882 E.01688
G1 X152.299 Y154.868 E.04515
G1 X151.763 Y154.868 E.01688
G1 X152.777 Y155.882 E.04517
G1 X152.241 Y155.882 E.01688
G1 X151.058 Y154.699 E.0527
M204 S1000
;WIPE_START
G1 F8640
G1 X152.241 Y155.882 E-.3863
G1 X152.777 Y155.882 E-.12376
G1 X151.889 Y154.994 E-.28994
;WIPE_END
G1 Z.6 F720
G1 X151.875 Y156.051 F10800
G1 Z.2 F720
G1 E.8 F2100
M204 S800
G1 F1200
G1 X150.671 Y154.848 E.05361
