; generated by PrusaSlicer 2.4.1+win64 on 2023-12-22 at 10:05:48 UTC


;
;
; 

; external perimeters extrusion width = 0.60mm
; perimeters extrusion width = 0.50mm
; infill extrusion width = 0.50mm
; solid infill extrusion width = 0.50mm
; top infill extrusion width = 0.45mm
; first layer extrusion width = 0.42mm

M73 P0 R7
M73 Q0 S7
M201 X1000 Y1000 Z200 E5000 ; sets maximum accelerations, mm/sec^2
M203 X200 Y200 Z12 E120 ; sets maximum feedrates, mm / sec
M204 P1250 R1250 T1250 ; sets acceleration (P, T) and retract acceleration (R), mm/sec^2
M205 X8.00 Y8.00 Z0.40 E4.50 ; sets the jerk limits, mm/sec
M205 S0 T0 ; sets the minimum extruding and travel feed rate, mm/sec
M107
;TYPE:Custom
M862.3 P "MK3S" ; printer model check
M862.1 P0.4 ; nozzle diameter check
M115 U3.11.0 ; tell printer latest fw version
G90 ; use absolute coordinates
M83 ; extruder relative mode
M104 S215 ; set extruder temp
M140 S60 ; set bed temp
M190 S60 ; wait for bed temp
M109 S215 ; wait for extruder temp
G28 W ; home all without mesh bed level
G80 ; mesh bed leveling

G1 Z0.2 F720
G1 Y-3 F1000 ; go outside print area
G92 E0
G1 X60 E9 F1000 ; intro line
G1 X100 E12.5 F1000 ; intro line

G92 E0
M221 S95

; Don't change E values below. Excessive value can damage the printer.

M907 E538 ; set extruder motor current
G21 ; set units to millimeters
G90 ; use absolute coordinates
M83 ; use relative distances for extrusion
M900 K0.05 ; Filament gcode LA 1.5
M900 K30 ; Filament gcode LA 1.0
M107
;LAYER_CHANGE
;Z:0.2
;HEIGHT:0.2
;BEFORE_LAYER_CHANGE
G92 E0.0
;0.2


G1 E-.8 F2100
M73 P1 R7
M73 Q1 S7
G1 Z.4 F720
;AFTER_LAYER_CHANGE
;0.2
G1 X108.761 Y77.795 F10800
G1 Z.2 F720
G1 E.8 F2100
M204 S800
;TYPE:Skirt/Brim
;WIDTH:0.42
G1 F1200
G1 X109.773 Y76.435 E.05313
G1 X111.138 Y75.021 E.06163
G1 X112.46 Y73.962 E.05313
G1 X114.139 Y72.939 E.06163
G1 X115.686 Y72.249 E.05313
G1 X117.569 Y71.684 E.06163
G1 X119.241 Y71.408 E.05313
G1 X120.866 Y71.331 E.05101
G1 X122.489 Y71.439 E.05101
G1 X124.21 Y71.761 E.05489
G1 X125.964 Y72.322 E.05775
G1 X127.442 Y73.002 E.05101
G1 X128.834 Y73.845 E.05101
G1 X130.171 Y74.886 E.05313
G1 X131.556 Y76.28 E.06163
G1 X132.549 Y77.569 E.05101
G1 X133.42 Y79.022 E.05312
M73 Q2 S7
G1 X134.208 Y80.823 E.06163
G1 X140.982 Y100.799 E.66136
M73 P2 R7
G1 X141.094 Y101.315 E.01655
G1 X143.582 Y125.063 E.74868
G1 X143.514 Y125.926 E.02714
G1 X141.587 Y133.081 E.23234
G1 X141.233 Y133.994 E.03071
M73 P2 R6
G1 X140.722 Y134.937 E.03362
G1 X139.739 Y136.193 E.04999
G1 X138.528 Y137.229 E.04999
G1 X137.135 Y138.006 E.04999
G1 X135.617 Y138.492 E.04999
G1 X134.421 Y138.655 E.03785
G1 X133.121 Y138.627 E.04076
G1 X131.933 Y138.414 E.03785
G1 X130.852 Y138.051 E.03574
G1 X129.697 Y137.455 E.04076
G1 X128.775 Y136.785 E.03574
G1 X127.913 Y135.94 E.03785
G1 X127.223 Y135.033 E.03574
G1 X126.776 Y134.258 E.02803
G1 X106.768 Y94.13 E1.40593
G1 X106.494 Y93.356 E.02573
M73 P3 R6
M73 Q3 S6
G1 X106.417 Y92.652 E.02221
G1 X106.418 Y85.456 E.22563
G1 X106.586 Y83.449 E.06317
G1 X106.872 Y82.066 E.04426
G1 X107.323 Y80.632 E.04713
G1 X107.948 Y79.203 E.0489
G1 X108.731 Y77.846 E.04913
M204 S1000
; printing object Skadis_Hook.stl id:0 copy 0
;WIPE_START
G1 F8640
G1 X109.773 Y76.435 E-.405
G1 X110.84 Y75.329 E-.355
;WIPE_END
G1 E-.04 F2100
G1 Z.6 F720
G1 X131.37 Y102.906 F10800
G1 Z.2 F720
G1 E.8 F2100
M204 S800
;TYPE:Perimeter
G1 F1200
G1 X131.379 Y131.431 E.8944
G1 X138.243 Y131.431 E.21521
M73 P4 R6
M73 Q4 S6
G1 X138.128 Y131.861 E.01395
G1 X138.008 Y132.215 E.01171
G1 X137.801 Y132.67 E.01567
G1 X137.546 Y133.095 E.01553
G1 X137.245 Y133.488 E.01554
G1 X136.898 Y133.847 E.01566
G1 X136.618 Y134.085 E.01152
G1 X136.318 Y134.298 E.01152
G1 X135.884 Y134.546 E.01567
G1 X135.429 Y134.741 E.01553
G1 X134.954 Y134.884 E.01553
G1 X134.467 Y134.971 E.01553
G1 X133.97 Y135.003 E.0156
G1 X133.549 Y134.985 E.01322
G1 X133.112 Y134.923 E.01385
G1 X132.63 Y134.801 E.01558
G1 X132.165 Y134.625 E.0156
G1 X131.789 Y134.434 E.01323
G1 X131.412 Y134.195 E.01398
G1 X131.124 Y133.971 E.01144
G1 X130.762 Y133.626 E.01566
G1 X130.445 Y133.246 E.01553
G1 X130.17 Y132.829 E.01567
G1 X130.001 Y132.507 E.01139
G1 X129.814 Y132.044 E.01566
G1 X129.68 Y131.563 E.01566
G1 X129.619 Y131.207 E.01132
G1 X129.582 Y130.625 E.01827
G1 X129.578 Y85.39 E1.41831
G1 X129.539 Y84.782 E.01911
G1 X129.454 Y84.14 E.0203
G1 X129.295 Y83.408 E.02349
G1 X129.151 Y82.917 E.01604
G1 X128.892 Y82.217 E.0234
G1 X128.682 Y81.755 E.01591
G1 X128.448 Y81.31 E.01578
G1 X128.189 Y80.878 E.01578
G1 X127.906 Y80.462 E.01578
G1 X127.598 Y80.059 E.01591
G1 X127.103 Y79.5 E.0234
G1 X126.74 Y79.145 E.01591
G1 X126.358 Y78.812 E.01591
G1 X125.762 Y78.362 E.0234
G1 X125.337 Y78.085 E.01591
G1 X124.896 Y77.834 E.01591
G1 X124.223 Y77.511 E.0234
G1 X123.751 Y77.324 E.01591
G1 X123.27 Y77.164 E.01591
G1 X122.542 Y76.98 E.02353
G1 X121.801 Y76.858 E.02353
G1 X121.296 Y76.811 E.01591
G1 X120.789 Y76.793 E.01591
M73 Q5 S6
G1 X120.039 Y76.819 E.02353
G1 X119.294 Y76.91 E.02353
G1 X118.796 Y77.007 E.01591
G1 X118.304 Y77.132 E.01591
G1 X117.595 Y77.366 E.0234
G1 X117.126 Y77.56 E.01591
M73 P5 R6
G1 X116.669 Y77.779 E.01591
G1 X116.017 Y78.151 E.02353
G1 X115.396 Y78.58 E.02367
G1 X114.813 Y79.06 E.02367
G1 X114.277 Y79.585 E.02353
G1 X113.941 Y79.965 E.01591
G1 X113.626 Y80.364 E.01591
G1 X113.204 Y80.984 E.02354
G1 X112.837 Y81.639 E.02353
G1 X112.62 Y82.098 E.01591
G1 X112.43 Y82.568 E.01591
G1 X112.201 Y83.278 E.0234
G1 X112.079 Y83.771 E.01591
G1 X111.987 Y84.266 E.01578
G1 X111.922 Y84.765 E.01578
G1 X111.886 Y85.271 E.0159
G1 X111.879 Y92.293 E.22016
G1 X110.087 Y92.293 E.05618
G1 X110.083 Y85.497 E.21305
G1 X110.109 Y84.888 E.01912
G1 X110.169 Y84.286 E.01898
G1 X110.263 Y83.688 E.01898
G1 X110.391 Y83.096 E.01898
G1 X110.553 Y82.511 E.01903
G1 X110.856 Y81.658 E.02838
G1 X111.099 Y81.102 E.01902
G1 X111.373 Y80.562 E.01898
G1 X111.677 Y80.039 E.01898
G1 X112.009 Y79.535 E.01891
G1 X112.453 Y78.948 E.02309
G1 X112.966 Y78.357 E.02451
G1 X113.39 Y77.93 E.01889
G1 X113.838 Y77.528 E.01885
G1 X114.561 Y76.965 E.02873
G1 X115.061 Y76.631 E.01885
G1 X115.582 Y76.323 E.01898
G1 X116.118 Y76.047 E.01891
G1 X116.793 Y75.752 E.02309
G1 X117.529 Y75.489 E.02452
G1 X118.109 Y75.324 E.01889
G1 X118.695 Y75.192 E.01885
G1 X119.601 Y75.056 E.02873
G1 X120.199 Y75.009 E.01878
G1 X120.935 Y74.999 E.02309
G1 X121.711 Y75.041 E.02438
G1 X122.614 Y75.164 E.02857
G1 X123.33 Y75.319 E.02296
G1 X124.081 Y75.537 E.02451
G1 X124.644 Y75.741 E.01876
G1 X125.48 Y76.114 E.02873
G1 X126.007 Y76.395 E.01872
G1 X126.783 Y76.883 E.02873
G1 X127.264 Y77.236 E.01872
G1 X127.96 Y77.826 E.0286
G1 X128.599 Y78.471 E.02847
G1 X129.185 Y79.17 E.0286
G1 X129.534 Y79.654 E.01872
G1 X130.016 Y80.433 E.02873
G1 X130.294 Y80.962 E.01872
G1 X130.659 Y81.798 E.0286
G1 X130.951 Y82.658 E.02847
G1 X131.168 Y83.539 E.02847
G1 X131.31 Y84.436 E.02847
G1 X131.374 Y85.346 E.02859
G1 X131.37 Y102.846 E.54871
M204 S1000
G1 X131.747 Y102.906 F10800
M204 S800
;TYPE:External perimeter
G1 F1200
G1 X138.32 Y102.892 E.20611
G1 X138.32 Y103.397 E.01582
M73 Q6 S6
G1 X131.747 Y103.383 E.20611
G1 X131.756 Y131.054 E.86763
M73 P6 R6
G1 X138.245 Y131.054 E.20346
G1 X139.958 Y124.662 E.2075
G1 X140.347 Y125.039 E.017
G1 X138.489 Y131.971 E.22502
G1 X138.359 Y132.354 E.01269
G1 X138.135 Y132.845 E.01693
G1 X137.858 Y133.307 E.01688
G1 X137.531 Y133.734 E.01688
G1 X137.156 Y134.123 E.01693
G1 X136.849 Y134.383 E.01262
G1 X136.521 Y134.616 E.01262
G1 X136.053 Y134.884 E.01693
G1 X135.558 Y135.096 E.01688
G1 X135.042 Y135.251 E.01688
G1 X134.512 Y135.346 E.01688
G1 X133.974 Y135.381 E.0169
G1 X133.514 Y135.361 E.01443
G1 X133.039 Y135.294 E.01507
G1 X132.516 Y135.161 E.0169
G1 X132.012 Y134.97 E.0169
G1 X131.602 Y134.762 E.01443
G1 X131.195 Y134.503 E.01512
G1 X130.878 Y134.257 E.01259
G1 X130.487 Y133.885 E.01693
G1 X130.142 Y133.472 E.01688
G1 X129.844 Y133.021 E.01693
G1 X129.658 Y132.666 E.01257
G1 X129.456 Y132.165 E.01693
G1 X129.312 Y131.645 E.01693
G1 X129.244 Y131.251 E.01255
G1 X129.205 Y130.637 E.01928
G1 X129.201 Y85.402 E1.4183
G1 X129.164 Y84.819 E.01833
M73 P7 R6
M73 Q7 S6
G1 X129.082 Y84.205 E.01942
G1 X128.929 Y83.501 E.02259
G1 X128.793 Y83.036 E.0152
G1 X128.543 Y82.361 E.02256
G1 X128.343 Y81.921 E.01515
G1 X128.119 Y81.494 E.01511
G1 X127.871 Y81.081 E.01511
G1 X127.6 Y80.683 E.01511
G1 X127.306 Y80.299 E.01515
G1 X126.829 Y79.76 E.02256
G1 X126.484 Y79.422 E.01515
G1 X126.12 Y79.104 E.01515
G1 X125.546 Y78.671 E.02256
G1 X125.14 Y78.408 E.01515
G1 X124.721 Y78.168 E.01515
G1 X124.072 Y77.856 E.02256
G1 X123.622 Y77.679 E.01515
G1 X123.164 Y77.527 E.01515
G1 X122.465 Y77.349 E.02261
G1 X121.753 Y77.232 E.02261
G1 X121.272 Y77.187 E.01515
G1 X120.789 Y77.17 E.01515
G1 X120.068 Y77.196 E.02261
G1 X119.353 Y77.283 E.02261
G1 X118.878 Y77.375 E.01515
G1 X118.41 Y77.494 E.01515
G1 X117.727 Y77.72 E.02256
G1 X117.28 Y77.904 E.01515
G1 X116.844 Y78.113 E.01515
G1 X116.218 Y78.471 E.02261
G1 X115.623 Y78.881 E.02266
G1 X115.066 Y79.341 E.02266
G1 X114.55 Y79.845 E.02261
G1 X114.23 Y80.207 E.01515
G1 X113.931 Y80.587 E.01515
G1 X113.525 Y81.183 E.02261
G1 X113.172 Y81.812 E.02261
G1 X112.966 Y82.249 E.01515
G1 X112.785 Y82.697 E.01515
G1 X112.563 Y83.382 E.02256
G1 X112.448 Y83.851 E.01515
G1 X112.359 Y84.325 E.01511
G1 X112.298 Y84.802 E.01511
G1 X112.264 Y85.284 E.01515
G1 X112.251 Y92.647 E.23084
G1 X112.205 Y92.67 E.00162
G1 X109.727 Y92.666 E.07769
G1 X109.711 Y92.638 E.00101
G1 X109.706 Y85.49 E.22414
G1 X109.733 Y84.861 E.01972
G1 X109.795 Y84.238 E.01965
G1 X109.893 Y83.618 E.01965
G1 X110.025 Y83.006 E.01966
G1 X110.193 Y82.401 E.01967
G1 X110.507 Y81.516 E.02945
G1 X110.758 Y80.941 E.01967
G1 X111.042 Y80.382 E.01965
G1 X111.356 Y79.84 E.01965
G1 X111.701 Y79.317 E.01963
G1 X112.16 Y78.71 E.02387
G1 X112.689 Y78.101 E.02531
G1 X113.13 Y77.657 E.01962
G1 X113.596 Y77.238 E.01961
G1 X114.34 Y76.66 E.02957
G1 X114.86 Y76.312 E.01961
G1 X115.4 Y75.993 E.01965
G1 X115.956 Y75.706 E.01963
G1 X116.654 Y75.401 E.02387
G1 X117.414 Y75.129 E.02531
G1 X118.016 Y74.958 E.01962
M73 Q8 S6
G1 X118.626 Y74.821 E.01961
G1 X119.559 Y74.681 E.02957
G1 X120.181 Y74.632 E.01958
M73 P8 R6
G1 X120.943 Y74.622 E.02387
G1 X121.747 Y74.666 E.02526
G1 X122.68 Y74.793 E.02951
G1 X123.423 Y74.954 E.02383
G1 X124.198 Y75.178 E.02531
G1 X124.785 Y75.391 E.01958
G1 X125.646 Y75.775 E.02957
G1 X126.197 Y76.069 E.01956
G1 X126.995 Y76.571 E.02957
G1 X127.498 Y76.94 E.01956
G1 X128.216 Y77.549 E.02952
G1 X128.878 Y78.216 E.02948
G1 X129.482 Y78.939 E.02952
G1 X129.848 Y79.444 E.01956
G1 X130.344 Y80.246 E.02957
G1 X130.634 Y80.799 E.01956
G1 X131.011 Y81.661 E.02952
G1 X131.313 Y82.552 E.02948
G1 X131.538 Y83.464 E.02947
G1 X131.685 Y84.393 E.02948
G1 X131.751 Y85.332 E.02952
G1 X131.747 Y102.846 E.54913
M204 S1000
G1 X131.748 Y103.306 F10800
G1 X131.558 Y103.095
M204 S800
;TYPE:Gap fill
;WIDTH:0.0971424
G1 F1200
G1 X131.585 Y103.122 E.00017
M204 S1000
M204 S800
;WIDTH:0.14181
G1 X131.608 Y103.144 E.00026
M204 S1000
M204 S800
;WIDTH:0.169378
G1 X138.132 Y103.144 E.0686
M204 S1000
;WIPE_START
G1 F8640
G1 X134.84 Y103.144 E-.76
;WIPE_END
G1 E-.04 F2100
G1 Z.6 F720
G1 X140.097 Y125.059 F10800
G1 Z.2 F720
G1 E.8 F2100
M204 S800
;WIDTH:0.139625
G1 F1200
G1 X138.439 Y131.243 E.05148
M204 S1000
;WIPE_START
G1 F8640
G1 X139.291 Y128.064 E-.76
;WIPE_END
G1 E-.04 F2100
G1 Z.6 F720
G1 X129.419 Y79.688 F10800
G1 Z.2 F720
G1 E.8 F2100
M204 S800
;TYPE:Solid infill
;WIDTH:0.423388
G1 F1200
G1 X127.751 Y78.021 E.07461
G1 X127.089 Y77.458 E.02749
G1 X126.624 Y77.117 E.01825
G1 X125.796 Y76.603 E.03082
G1 X129.775 Y80.583 E.17804
M73 Q9 S6
G1 X130.039 Y81.085 E.01793
M73 P9 R6
G1 X130.272 Y81.617 E.01839
G1 X124.755 Y76.101 E.24681
G1 X124.538 Y76.004 E.00754
G1 X123.894 Y75.777 E.02159
G1 X130.59 Y82.473 E.29959
G1 X130.679 Y82.737 E.00881
G1 X130.798 Y83.22 E.01573
G1 X128.613 Y81.034 E.09779
G1 X128.136 Y80.296 E.0278
G1 X127.816 Y79.879 E.01663
G1 X127.308 Y79.305 E.02425
G1 X126.932 Y78.938 E.01663
G1 X126.536 Y78.592 E.01662
G1 X125.925 Y78.13 E.02425
G1 X125.341 Y77.762 E.02183
G1 X123.148 Y75.569 E.09811
G1 X122.47 Y75.43 E.02188
G1 X124.263 Y77.222 E.08018
G1 X123.848 Y77.058 E.01411
G1 X123.418 Y76.916 E.01432
G1 X121.848 Y75.345 E.07026
G1 X121.265 Y75.3 E.0185
G1 X122.69 Y76.725 E.06376
G1 X122.036 Y76.61 E.02101
G1 X120.711 Y75.285 E.05926
G1 X120.212 Y75.292 E.01581
G1 X120.182 Y75.294 E.00093
G1 X121.427 Y76.539 E.05568
G1 X120.862 Y76.512 E.01788
G1 X119.683 Y75.333 E.05275
G1 X119.213 Y75.401 E.01505
G1 X120.338 Y76.526 E.05034
G1 X119.833 Y76.559 E.01599
G1 X118.745 Y75.471 E.0487
G1 X118.305 Y75.569 E.01425
G1 X119.354 Y76.618 E.0469
G1 X118.897 Y76.699 E.01468
G1 X117.881 Y75.683 E.04547
G1 X117.47 Y75.81 E.0136
G1 X118.46 Y76.8 E.04429
G1 X118.042 Y76.92 E.01376
G1 X117.074 Y75.952 E.04333
G1 X116.689 Y76.106 E.01309
G1 X117.638 Y77.054 E.04243
G1 X117.249 Y77.203 E.01318
G1 X116.315 Y76.269 E.04178
G1 X115.956 Y76.449 E.01269
G1 X116.874 Y77.367 E.04108
G1 X116.512 Y77.543 E.01273
G1 X115.607 Y76.637 E.04053
G1 X115.268 Y76.837 E.01243
G1 X116.17 Y77.739 E.04034
G1 X115.83 Y77.937 E.01245
G1 X114.943 Y77.05 E.03968
G1 X114.627 Y77.272 E.01222
G1 X115.512 Y78.157 E.03957
G1 X115.196 Y78.379 E.01222
G1 X114.325 Y77.507 E.03898
G1 X114.022 Y77.743 E.01213
G1 X114.901 Y78.622 E.03932
G1 X114.607 Y78.866 E.01209
G1 X113.738 Y77.997 E.03888
G1 X113.462 Y78.259 E.01204
M73 Q10 S6
G1 X114.336 Y79.132 E.03908
G1 X114.064 Y79.399 E.01204
G1 X113.194 Y78.529 E.03893
G1 X112.942 Y78.816 E.01206
M73 P10 R6
G1 X113.811 Y79.685 E.03888
G1 X113.569 Y79.98 E.01209
G1 X112.692 Y79.103 E.03922
G1 X112.459 Y79.408 E.01214
G1 X113.337 Y80.286 E.03927
G1 X113.119 Y80.606 E.01225
G1 X112.229 Y79.716 E.03985
G1 X112.015 Y80.04 E.01229
G1 X112.908 Y80.934 E.03998
G1 X112.715 Y81.278 E.0125
G1 X111.81 Y80.373 E.04049
G1 X111.622 Y80.697 E.01186
G1 X111.613 Y80.714 E.00061
G1 X112.528 Y81.63 E.04095
G1 X112.356 Y81.996 E.0128
G1 X111.432 Y81.071 E.04136
G1 X111.261 Y81.439 E.01281
G1 X112.202 Y82.379 E.04209
G1 X112.064 Y82.78 E.01341
G1 X111.1 Y81.816 E.04314
G1 X110.959 Y82.213 E.01333
G1 X111.933 Y83.187 E.04356
G1 X111.826 Y83.618 E.01404
G1 X110.819 Y82.611 E.04503
G1 X110.702 Y83.032 E.01383
G1 X111.736 Y84.066 E.04625
G1 X111.667 Y84.535 E.01499
G1 X110.6 Y83.468 E.04773
G1 X110.513 Y83.919 E.01453
G1 X111.62 Y85.026 E.04954
G1 X111.603 Y85.547 E.01649
G1 X110.443 Y84.387 E.05191
G1 X110.394 Y84.876 E.01555
G1 X111.603 Y86.085 E.05407
G1 X111.602 Y86.622 E.017
G1 X110.371 Y85.391 E.05511
G1 X110.366 Y85.924 E.01688
G1 X111.602 Y87.16 E.05529
G1 X111.601 Y87.697 E.017
G1 X110.366 Y86.463 E.05524
G1 X110.367 Y87.001 E.01703
G1 X111.601 Y88.235 E.0552
G1 X111.6 Y88.772 E.017
G1 X110.367 Y87.539 E.05516
G1 X110.367 Y88.078 E.01703
G1 X111.599 Y89.31 E.05512
G1 X111.599 Y89.847 E.017
G1 X110.368 Y88.616 E.05508
G1 X110.368 Y89.155 E.01703
G1 X111.598 Y90.385 E.05504
G1 X111.598 Y90.922 E.017
G1 X110.369 Y89.693 E.055
G1 X110.369 Y90.232 E.01703
G1 X111.597 Y91.46 E.05496
G1 X111.597 Y91.997 E.017
G1 X110.369 Y90.77 E.05492
G1 X110.37 Y91.308 E.01703
G1 X111.071 Y92.01 E.03137
G1 X110.533 Y92.01 E.01702
G1 X110.2 Y91.677 E.01488
M204 S1000
;WIPE_START
G1 F8640
G1 X110.533 Y92.01 E-.10862
G1 X111.071 Y92.01 E-.12424
G1 X110.37 Y91.308 E-.22899
G1 X110.369 Y90.77 E-.12432
G1 X110.902 Y91.302 E-.17382
;WIPE_END
G1 E-.04 F2100
G1 Z.6 F720
G1 X128.815 Y81.774 F10800
G1 Z.2 F720
G1 E.8 F2100
M204 S800
G1 F1200
G1 X130.938 Y83.898 E.09501
G1 X131.033 Y84.53 E.02023
M73 Q11 S6
G1 X129.457 Y82.955 E.07049
G1 X129.569 Y83.338 E.01264
G1 X129.643 Y83.679 E.01102
M73 P11 R6
G1 X131.074 Y85.11 E.06403
G1 X131.092 Y85.356 E.0078
G1 X131.092 Y85.665 E.0098
G1 X129.765 Y84.339 E.05933
G1 X129.833 Y84.945 E.01928
G1 X131.092 Y86.203 E.05631
G1 X131.092 Y86.742 E.01702
G1 X129.861 Y85.511 E.05505
G1 X129.861 Y86.049 E.01702
G1 X131.092 Y87.28 E.05505
G1 X131.092 Y87.818 E.01702
G1 X129.861 Y86.587 E.05505
G1 X129.861 Y87.125 E.01702
G1 X131.092 Y88.356 E.05505
G1 X131.092 Y88.894 E.01702
