; generated by PrusaSlicer 2.4.1+win64 on 2022-10-04 at 12:30:35 UTC


;
;
; 

; external perimeters extrusion width = 0.60mm
; perimeters extrusion width = 0.50mm
; infill extrusion width = 0.50mm
; solid infill extrusion width = 0.50mm
; top infill extrusion width = 0.45mm
; first layer extrusion width = 0.42mm

M73 P0 R118
M73 Q0 S119
M201 X1000 Y1000 Z200 E5000 ; sets maximum accelerations, mm/sec^2
M203 X200 Y200 Z12 E120 ; sets maximum feedrates, mm / sec
M204 P1250 R1250 T1250 ; sets acceleration (P, T) and retract acceleration (R), mm/sec^2
M205 X8.00 Y8.00 Z0.40 E4.50 ; sets the jerk limits, mm/sec
M205 S0 T0 ; sets the minimum extruding and travel feed rate, mm/sec
M107
;TYPE:Custom
M862.3 P "MK3S" ; printer model check
M862.1 P0.4 ; nozzle diameter check
M115 U3.11.0 ; tell printer latest fw version
G90 ; use absolute coordinates
M83 ; extruder relative mode
M104 S215 ; set extruder temp
M140 S60 ; set bed temp
M190 S60 ; wait for bed temp
M109 S215 ; wait for extruder temp
G28 W ; home all without mesh bed level
G80 ; mesh bed leveling

G1 Z0.2 F720
G1 Y-3 F1000 ; go outside print area
G92 E0
G1 X60 E9 F1000 ; intro line
G1 X100 E12.5 F1000 ; intro line

G92 E0
M221 S95

; Don't change E values below. Excessive value can damage the printer.

M907 E538 ; set extruder motor current
G21 ; set units to millimeters
G90 ; use absolute coordinates
M83 ; use relative distances for extrusion
M900 K0.05 ; Filament gcode LA 1.5
M900 K30 ; Filament gcode LA 1.0
M107
;LAYER_CHANGE
;Z:0.2
;HEIGHT:0.2
;BEFORE_LAYER_CHANGE
G92 E0.0
;0.2


G1 E-.8 F2100
G1 Z.4 F720
;AFTER_LAYER_CHANGE
;0.2
G1 X65.515 Y46.193 F10800
G1 Z.2 F720
G1 E.8 F2100
M204 S800
;TYPE:Skirt/Brim
;WIDTH:0.42
G1 F1200
G1 X66.56 Y45.317 E.04278
G1 X67.5 Y45.123 E.03008
G1 X182.5 Y45.123 E3.60574
G1 X183.807 Y45.515 E.04278
G1 X184.683 Y46.56 E.04278
G1 X184.877 Y47.5 E.03008
G1 X184.877 Y162.5 E3.60574
G1 X184.485 Y163.807 E.04278
G1 X183.44 Y164.683 E.04278
G1 X182.5 Y164.877 E.03008
G1 X67.5 Y164.877 E3.60574
G1 X66.193 Y164.485 E.04278
M73 Q0 S118
G1 X65.317 Y163.44 E.04278
G1 X65.123 Y162.5 E.03008
G1 X65.123 Y47.5 E3.60574
G1 X65.497 Y46.25 E.0409
M204 S1000
; printing object Daring Gaaris-Bojo (8).stl id:0 copy 0
;WIPE_START
G1 F8640
G1 X66.56 Y45.317 E-.32671
G1 X67.5 Y45.123 E-.22155
G1 X68.417 Y45.123 E-.21174
;WIPE_END
G1 E-.04 F2100
G1 Z.6 F720
G1 X128.689 Y145.959 F10800
G1 Z.2 F720
G1 E.8 F2100
M204 S800
;TYPE:Perimeter
G1 F1200
G1 X129.359 Y145.618 E.02356
G1 X130.1 Y145.501 E.02352
G1 X130.841 Y145.618 E.02352
G1 X131.511 Y145.959 E.02356
G1 X132.041 Y146.489 E.0235
G1 X132.382 Y147.158 E.02354
G1 X132.5 Y147.9 E.02355
G1 X132.382 Y148.642 E.02355
G1 X132.041 Y149.311 E.02354
G1 X131.511 Y149.841 E.0235
G1 X130.841 Y150.182 E.02356
G1 X130.1 Y150.299 E.02352
G1 X129.359 Y150.182 E.02352
G1 X128.689 Y149.841 E.02356
G1 X128.159 Y149.311 E.0235
G1 X127.818 Y148.641 E.02356
G1 X127.701 Y147.9 E.02352
G1 X127.818 Y147.159 E.02352
G1 X128.159 Y146.489 E.02356
G1 X128.647 Y146.002 E.02162
M204 S1000
G1 X128.914 Y146.268 F10800
M204 S800
;TYPE:External perimeter
G1 F1200
G1 X129.477 Y145.981 E.01981
G1 X130.1 Y145.883 E.01978
G1 X130.723 Y145.981 E.01978
G1 X131.286 Y146.268 E.01981
G1 X131.732 Y146.714 E.01976
G1 X132.019 Y147.276 E.0198
G1 X132.118 Y147.9 E.0198
G1 X132.019 Y148.524 E.0198
G1 X131.732 Y149.086 E.0198
G1 X131.286 Y149.532 E.01976
G1 X130.723 Y149.819 E.01981
G1 X130.1 Y149.917 E.01978
G1 X129.477 Y149.819 E.01978
G1 X128.914 Y149.532 E.01981
G1 X128.468 Y149.086 E.01976
G1 X128.181 Y148.523 E.01981
G1 X128.083 Y147.9 E.01978
G1 X128.181 Y147.277 E.01978
G1 X128.468 Y146.714 E.01981
G1 X128.872 Y146.311 E.01788
M204 S1000
G1 X128.872 Y145.87 F10800
;WIPE_START
G1 F8640
G1 X129.477 Y145.981 E-.15913
G1 X130.1 Y145.883 E-.14568
G1 X130.723 Y145.981 E-.14568
G1 X131.286 Y146.268 E-.14589
G1 X131.732 Y146.714 E-.14554
G1 X131.767 Y146.784 E-.01808
;WIPE_END
G1 E-.04 F2100
G1 Z.6 F720
G1 X92.299 Y148.1 F10800
G1 Z.2 F720
G1 E.8 F2100
M204 S800
;TYPE:Perimeter
G1 F1200
G1 X92.182 Y148.841 E.02352
G1 X91.841 Y149.511 E.02356
G1 X91.311 Y150.041 E.0235
G1 X90.642 Y150.382 E.02354
G1 X89.9 Y150.5 E.02355
G1 X89.158 Y150.382 E.02355
G1 X88.489 Y150.041 E.02354
G1 X87.959 Y149.511 E.0235
G1 X87.618 Y148.842 E.02354
G1 X87.5 Y148.1 E.02355
G1 X87.618 Y147.358 E.02355
G1 X87.959 Y146.689 E.02354
G1 X88.489 Y146.159 E.0235
G1 X89.159 Y145.818 E.02356
G1 X89.9 Y145.701 E.02352
G1 X90.641 Y145.818 E.02352
G1 X91.311 Y146.159 E.02356
G1 X91.841 Y146.689 E.0235
G1 X92.182 Y147.359 E.02356
G1 X92.289 Y148.041 E.02164
M204 S1000
G1 X91.917 Y148.1 F10800
M204 S800
;TYPE:External perimeter
G1 F1200
G1 X91.819 Y148.723 E.01978
G1 X91.532 Y149.286 E.01981
G1 X91.086 Y149.732 E.01976
G1 X90.524 Y150.019 E.0198
G1 X89.9 Y150.118 E.0198
G1 X89.276 Y150.019 E.0198
G1 X88.714 Y149.732 E.0198
G1 X88.268 Y149.286 E.01976
G1 X87.981 Y148.724 E.0198
G1 X87.882 Y148.1 E.0198
G1 X87.981 Y147.476 E.0198
G1 X88.268 Y146.914 E.0198
G1 X88.714 Y146.468 E.01976
G1 X89.277 Y146.181 E.01981
G1 X89.9 Y146.083 E.01978
G1 X90.523 Y146.181 E.01978
G1 X91.086 Y146.468 E.01981
G1 X91.532 Y146.914 E.01976
G1 X91.819 Y147.477 E.01981
G1 X91.908 Y148.041 E.0179
M204 S1000
G1 X92.264 Y148.3 F10800
;WIPE_START
G1 F8640
G1 X91.819 Y148.723 E-.15892
G1 X91.532 Y149.286 E-.14589
G1 X91.086 Y149.732 E-.14554
G1 X90.524 Y150.019 E-.1458
G1 X89.9 Y150.118 E-.14581
G1 X89.823 Y150.106 E-.01804
;WIPE_END
G1 E-.04 F2100
G1 Z.6 F720
G1 X167.501 Y147.9 F10800
G1 Z.2 F720
G1 E.8 F2100
M204 S800
;TYPE:Perimeter
G1 F1200
G1 X167.618 Y147.159 E.02352
G1 X167.959 Y146.489 E.02356
G1 X168.489 Y145.959 E.0235
G1 X169.159 Y145.618 E.02356
G1 X169.9 Y145.501 E.02352
G1 X170.641 Y145.618 E.02352
G1 X171.311 Y145.959 E.02356
G1 X171.841 Y146.489 E.0235
G1 X172.182 Y147.158 E.02354
G1 X172.3 Y147.9 E.02355
G1 X172.182 Y148.642 E.02355
G1 X171.841 Y149.311 E.02354
G1 X171.311 Y149.841 E.0235
G1 X170.641 Y150.182 E.02356
G1 X169.9 Y150.299 E.02352
G1 X169.159 Y150.182 E.02352
G1 X168.489 Y149.841 E.02356
G1 X167.959 Y149.311 E.0235
G1 X167.618 Y148.641 E.02356
G1 X167.511 Y147.959 E.02164
M204 S1000
G1 X167.883 Y147.9 F10800
M204 S800
;TYPE:External perimeter
G1 F1200
G1 X167.981 Y147.277 E.01978
G1 X168.268 Y146.714 E.01981
G1 X168.714 Y146.268 E.01976
G1 X169.277 Y145.981 E.01981
G1 X169.9 Y145.883 E.01978
G1 X170.523 Y145.981 E.01978
G1 X171.086 Y146.268 E.01981
G1 X171.532 Y146.714 E.01976
G1 X171.819 Y147.276 E.0198
G1 X171.918 Y147.9 E.0198
G1 X171.819 Y148.524 E.0198
G1 X171.532 Y149.086 E.0198
G1 X171.086 Y149.532 E.01976
G1 X170.523 Y149.819 E.01981
G1 X169.9 Y149.917 E.01978
G1 X169.277 Y149.819 E.01978
G1 X168.714 Y149.532 E.01981
G1 X168.268 Y149.086 E.01976
G1 X167.981 Y148.523 E.01981
G1 X167.892 Y147.959 E.0179
M204 S1000
G1 X167.536 Y147.7 F10800
;WIPE_START
G1 F8640
G1 X167.981 Y147.277 E-.15892
G1 X168.268 Y146.714 E-.14589
G1 X168.714 Y146.268 E-.14554
G1 X169.277 Y145.981 E-.14589
G1 X169.9 Y145.883 E-.14568
G1 X169.977 Y145.895 E-.01808
;WIPE_END
G1 E-.04 F2100
G1 Z.6 F720
G1 X181.713 Y161.713 F10800
G1 Z.2 F720
G1 E.8 F2100
M204 S800
;TYPE:Perimeter
G1 F1200
G1 X68.287 Y161.713 E3.55639
G1 X68.287 Y48.287 E3.55639
G1 X181.713 Y48.287 E3.55639
G1 X181.713 Y161.653 E3.55451
M204 S1000
G1 X182.09 Y162.09 F10800
M204 S800
;TYPE:External perimeter
M73 P0 R117
G1 F1200
G1 X67.91 Y162.09 E3.58003
G1 X67.91 Y47.91 E3.58003
G1 X182.09 Y47.91 E3.58003
M73 P1 R117
M73 Q1 S118
G1 X182.09 Y162.03 E3.57815
M204 S1000
G1 X181.704 Y161.986 F10800
;WIPE_START
M73 Q1 S117
G1 F8640
G1 X178.799 Y162.032 E-.76
;WIPE_END
G1 E-.04 F2100
G1 Z.6 F720
G1 X180.836 Y48.4 F10800
G1 Z.2 F720
G1 E.8 F2100
M204 S800
;TYPE:Solid infill
;WIDTH:0.420612
G1 F1200
G1 X181.43 Y48.994 E.02638
G1 X181.43 Y49.528 E.01677
G1 X180.472 Y48.57 E.04256
G1 X179.938 Y48.57 E.01677
G1 X181.43 Y50.062 E.06629
G1 X181.43 Y50.596 E.01677
G1 X179.404 Y48.57 E.09001
G1 X178.869 Y48.57 E.01677
G1 X181.43 Y51.131 E.11373
G1 X181.43 Y51.665 E.01677
G1 X178.335 Y48.57 E.13746
G1 X177.801 Y48.57 E.01677
G1 X181.43 Y52.199 E.16118
G1 X181.43 Y52.733 E.01677
G1 X177.267 Y48.57 E.1849
G1 X176.733 Y48.57 E.01677
G1 X181.43 Y53.267 E.20862
G1 X181.43 Y53.801 E.01677
G1 X176.199 Y48.57 E.23235
G1 X175.665 Y48.57 E.01677
G1 X181.43 Y54.335 E.25607
G1 X181.43 Y54.87 E.01677
G1 X175.13 Y48.57 E.27979
G1 X174.596 Y48.57 E.01677
G1 X181.43 Y55.404 E.30352
G1 X181.43 Y55.938 E.01677
G1 X174.062 Y48.57 E.32724
G1 X173.528 Y48.57 E.01677
G1 X181.43 Y56.472 E.35096
G1 X181.43 Y57.006 E.01677
G1 X172.994 Y48.57 E.37469
G1 X172.46 Y48.57 E.01677
G1 X181.43 Y57.54 E.39841
G1 X181.43 Y58.074 E.01677
G1 X171.926 Y48.57 E.42213
G1 X171.391 Y48.57 E.01677
G1 X181.43 Y58.609 E.44585
G1 X181.43 Y59.143 E.01677
G1 X170.857 Y48.57 E.46958
G1 X170.323 Y48.57 E.01677
G1 X181.43 Y59.677 E.4933
G1 X181.43 Y60.211 E.01677
G1 X169.789 Y48.57 E.51702
G1 X169.255 Y48.57 E.01677
G1 X181.43 Y60.745 E.54075
G1 X181.43 Y61.279 E.01677
G1 X168.721 Y48.57 E.56447
G1 X168.187 Y48.57 E.01677
G1 X181.43 Y61.813 E.58819
G1 X181.43 Y62.348 E.01677
G1 X167.652 Y48.57 E.61192
G1 X167.118 Y48.57 E.01677
G1 X181.43 Y62.882 E.63564
G1 X181.43 Y63.416 E.01677
G1 X166.584 Y48.57 E.65936
G1 X166.05 Y48.57 E.01677
G1 X181.43 Y63.95 E.68308
G1 X181.43 Y64.484 E.01677
G1 X165.516 Y48.57 E.70681
G1 X164.982 Y48.57 E.01677
G1 X181.43 Y65.018 E.73053
G1 X181.43 Y65.552 E.01677
G1 X164.448 Y48.57 E.75425
G1 X163.914 Y48.57 E.01677
G1 X181.43 Y66.086 E.77798
G1 X181.43 Y66.621 E.01677
G1 X163.379 Y48.57 E.8017
G1 X162.845 Y48.57 E.01677
G1 X181.43 Y67.155 E.82542
G1 X181.43 Y67.689 E.01677
G1 X162.311 Y48.57 E.84915
G1 X161.777 Y48.57 E.01677
G1 X181.43 Y68.223 E.87287
G1 X181.43 Y68.757 E.01677
G1 X161.243 Y48.57 E.89659
G1 X160.709 Y48.57 E.01677
G1 X181.43 Y69.291 E.92031
G1 X181.43 Y69.825 E.01677
G1 X160.175 Y48.57 E.94404
G1 X159.64 Y48.57 E.01677
G1 X181.43 Y70.36 E.96776
G1 X181.43 Y70.894 E.01677
G1 X159.106 Y48.57 E.99148
G1 X158.572 Y48.57 E.01677
M73 P1 R116
G1 X181.43 Y71.428 E1.01521
G1 X181.43 Y71.962 E.01677
G1 X158.038 Y48.57 E1.03893
G1 X157.504 Y48.57 E.01677
G1 X181.43 Y72.496 E1.06265
G1 X181.43 Y73.03 E.01677
G1 X156.97 Y48.57 E1.08638
G1 X156.436 Y48.57 E.01677
G1 X181.43 Y73.564 E1.1101
G1 X181.43 Y74.099 E.01677
G1 X155.901 Y48.57 E1.13382
G1 X155.367 Y48.57 E.01677
G1 X181.43 Y74.633 E1.15754
G1 X181.43 Y75.167 E.01677
G1 X154.833 Y48.57 E1.18127
G1 X154.299 Y48.57 E.01677
G1 X181.43 Y75.701 E1.20499
G1 X181.43 Y76.235 E.01677
G1 X153.765 Y48.57 E1.22871
G1 X153.231 Y48.57 E.01677
G1 X181.43 Y76.769 E1.25244
G1 X181.43 Y77.303 E.01677
M73 Q1 S116
G1 X152.697 Y48.57 E1.27616
G1 X152.163 Y48.57 E.01677
M73 P2 R116
M73 Q2 S116
G1 X181.43 Y77.837 E1.29988
G1 X181.43 Y78.372 E.01677
G1 X151.628 Y48.57 E1.32361
G1 X151.094 Y48.57 E.01677
G1 X181.43 Y78.906 E1.34733
G1 X181.43 Y79.44 E.01677
G1 X150.56 Y48.57 E1.37105
G1 X150.026 Y48.57 E.01677
G1 X181.43 Y79.974 E1.39477
G1 X181.43 Y80.508 E.01677
G1 X149.492 Y48.57 E1.4185
G1 X148.958 Y48.57 E.01677
G1 X181.43 Y81.042 E1.44222
G1 X181.43 Y81.576 E.01677
G1 X148.424 Y48.57 E1.46594
G1 X147.889 Y48.57 E.01677
G1 X181.43 Y82.111 E1.48967
G1 X181.43 Y82.645 E.01677
G1 X147.355 Y48.57 E1.51339
G1 X146.821 Y48.57 E.01677
G1 X181.43 Y83.179 E1.53711
G1 X181.43 Y83.713 E.01677
G1 X146.287 Y48.57 E1.56084
G1 X145.753 Y48.57 E.01677
G1 X181.43 Y84.247 E1.58456
G1 X181.43 Y84.781 E.01677
G1 X145.219 Y48.57 E1.60828
G1 X144.685 Y48.57 E.01677
G1 X181.43 Y85.315 E1.632
G1 X181.43 Y85.85 E.01677
G1 X144.15 Y48.57 E1.65573
G1 X143.616 Y48.57 E.01677
M73 P2 R115
G1 X181.43 Y86.384 E1.67945
G1 X181.43 Y86.918 E.01677
G1 X143.082 Y48.57 E1.70317
G1 X142.548 Y48.57 E.01677
G1 X181.43 Y87.452 E1.7269
G1 X181.43 Y87.986 E.01677
G1 X142.014 Y48.57 E1.75062
G1 X141.48 Y48.57 E.01677
G1 X181.43 Y88.52 E1.77434
G1 X181.43 Y89.054 E.01677
G1 X140.946 Y48.57 E1.79807
G1 X140.412 Y48.57 E.01677
G1 X181.43 Y89.588 E1.82179
G1 X181.43 Y90.123 E.01677
M73 Q2 S115
G1 X139.877 Y48.57 E1.84551
G1 X139.343 Y48.57 E.01677
G1 X181.43 Y90.657 E1.86923
G1 X181.43 Y91.191 E.01677
G1 X138.809 Y48.57 E1.89296
G1 X138.275 Y48.57 E.01677
G1 X181.43 Y91.725 E1.91668
G1 X181.43 Y92.259 E.01677
G1 X137.741 Y48.57 E1.9404
G1 X137.207 Y48.57 E.01677
M73 P3 R115
M73 Q3 S115
G1 X181.43 Y92.793 E1.96413
G1 X181.43 Y93.327 E.01677
G1 X136.673 Y48.57 E1.98785
G1 X136.138 Y48.57 E.01677
G1 X181.43 Y93.862 E2.01157
G1 X181.43 Y94.396 E.01677
G1 X135.604 Y48.57 E2.0353
G1 X135.07 Y48.57 E.01677
G1 X181.43 Y94.93 E2.05902
G1 X181.43 Y95.464 E.01677
G1 X134.536 Y48.57 E2.08274
G1 X134.002 Y48.57 E.01677
G1 X181.43 Y95.998 E2.10646
G1 X181.43 Y96.532 E.01677
G1 X133.468 Y48.57 E2.13019
G1 X132.934 Y48.57 E.01677
M73 P3 R114
G1 X181.43 Y97.066 E2.15391
G1 X181.43 Y97.601 E.01677
G1 X132.399 Y48.57 E2.17763
G1 X131.865 Y48.57 E.01677
G1 X181.43 Y98.135 E2.20136
G1 X181.43 Y98.669 E.01677
G1 X131.331 Y48.57 E2.22508
G1 X130.797 Y48.57 E.01677
G1 X181.43 Y99.203 E2.2488
G1 X181.43 Y99.737 E.01677
M73 Q3 S114
G1 X130.263 Y48.57 E2.27253
G1 X129.729 Y48.57 E.01677
G1 X181.43 Y100.271 E2.29625
G1 X181.43 Y100.805 E.01677
G1 X129.195 Y48.57 E2.31997
G1 X128.66 Y48.57 E.01677
G1 X181.43 Y101.34 E2.34369
G1 X181.43 Y101.874 E.01677
G1 X128.126 Y48.57 E2.36742
G1 X127.592 Y48.57 E.01677
G1 X181.43 Y102.408 E2.39114
G1 X181.43 Y102.942 E.01677
G1 X127.058 Y48.57 E2.41486
G1 X126.524 Y48.57 E.01677
M73 P4 R114
M73 Q4 S114
G1 X181.43 Y103.476 E2.43859
G1 X181.43 Y104.01 E.01677
G1 X125.99 Y48.57 E2.46231
G1 X125.456 Y48.57 E.01677
G1 X181.43 Y104.544 E2.48603
G1 X181.43 Y105.078 E.01677
G1 X124.922 Y48.57 E2.50976
G1 X124.387 Y48.57 E.01677
M73 P4 R113
G1 X181.43 Y105.613 E2.53348
G1 X181.43 Y106.147 E.01677
G1 X123.853 Y48.57 E2.5572
G1 X123.319 Y48.57 E.01677
G1 X181.43 Y106.681 E2.58092
G1 X181.43 Y107.215 E.01677
G1 X122.785 Y48.57 E2.60465
G1 X122.251 Y48.57 E.01677
M73 Q4 S113
G1 X181.43 Y107.749 E2.62837
G1 X181.43 Y108.283 E.01677
G1 X121.717 Y48.57 E2.65209
G1 X121.183 Y48.57 E.01677
G1 X181.43 Y108.817 E2.67582
G1 X181.43 Y109.352 E.01677
G1 X120.648 Y48.57 E2.69954
G1 X120.114 Y48.57 E.01677
G1 X181.43 Y109.886 E2.72326
G1 X181.43 Y110.42 E.01677
G1 X119.58 Y48.57 E2.74699
G1 X119.046 Y48.57 E.01677
G1 X181.43 Y110.954 E2.77071
G1 X181.43 Y111.488 E.01677
G1 X118.512 Y48.57 E2.79443
G1 X117.978 Y48.57 E.01677
G1 X181.43 Y112.022 E2.81815
G1 X181.43 Y112.556 E.01677
M73 P5 R113
M73 Q5 S113
G1 X117.444 Y48.57 E2.84188
G1 X116.909 Y48.57 E.01677
M73 P5 R112
G1 X181.43 Y113.091 E2.8656
G1 X181.43 Y113.625 E.01677
G1 X116.375 Y48.57 E2.88932
G1 X115.841 Y48.57 E.01677
G1 X181.43 Y114.159 E2.91305
G1 X181.43 Y114.693 E.01677
G1 X115.307 Y48.57 E2.93677
G1 X114.773 Y48.57 E.01677
M73 Q5 S112
G1 X181.43 Y115.227 E2.96049
G1 X181.43 Y115.761 E.01677
G1 X114.239 Y48.57 E2.98422
G1 X113.705 Y48.57 E.01677
G1 X181.43 Y116.295 E3.00794
G1 X181.43 Y116.829 E.01677
G1 X113.171 Y48.57 E3.03166
G1 X112.636 Y48.57 E.01677
G1 X181.43 Y117.364 E3.05538
G1 X181.43 Y117.898 E.01677
G1 X112.102 Y48.57 E3.07911
G1 X111.568 Y48.57 E.01677
G1 X181.43 Y118.432 E3.10283
G1 X181.43 Y118.966 E.01677
G1 X111.034 Y48.57 E3.12655
G1 X110.5 Y48.57 E.01677
M73 P5 R111
G1 X181.43 Y119.5 E3.15028
G1 X181.43 Y120.034 E.01677
G1 X109.966 Y48.57 E3.174
G1 X109.432 Y48.57 E.01677
M73 P6 R111
M73 Q6 S112
G1 X181.43 Y120.568 E3.19772
G1 X181.43 Y121.103 E.01677
G1 X108.897 Y48.57 E3.22145
G1 X108.363 Y48.57 E.01677
M73 Q6 S111
G1 X181.43 Y121.637 E3.24517
G1 X181.43 Y122.171 E.01677
G1 X107.829 Y48.57 E3.26889
G1 X107.295 Y48.57 E.01677
G1 X181.43 Y122.705 E3.29261
G1 X181.43 Y123.239 E.01677
G1 X106.761 Y48.57 E3.31634
G1 X106.227 Y48.57 E.01677
G1 X181.43 Y123.773 E3.34006
G1 X181.43 Y124.307 E.01677
G1 X105.693 Y48.57 E3.36378
G1 X105.158 Y48.57 E.01677
G1 X181.43 Y124.842 E3.38751
G1 X181.43 Y125.376 E.01677
G1 X104.624 Y48.57 E3.41123
G1 X104.09 Y48.57 E.01677
M73 P6 R110
G1 X181.43 Y125.91 E3.43495
G1 X181.43 Y126.444 E.01677
G1 X103.556 Y48.57 E3.45868
G1 X103.022 Y48.57 E.01677
