; generated by PrusaSlicer 2.4.1+win64 on 2022-10-19 at 11:15:45 UTC


;
;
; 

; external perimeters extrusion width = 0.60mm
; perimeters extrusion width = 0.50mm
; infill extrusion width = 0.50mm
; solid infill extrusion width = 0.50mm
; top infill extrusion width = 0.45mm
; first layer extrusion width = 0.42mm

; external perimeters extrusion width = 0.60mm
; perimeters extrusion width = 0.50mm
; infill extrusion width = 0.50mm
; solid infill extrusion width = 0.50mm
; top infill extrusion width = 0.45mm
; first layer extrusion width = 0.42mm

; external perimeters extrusion width = 0.60mm
; perimeters extrusion width = 0.50mm
; infill extrusion width = 0.50mm
; solid infill extrusion width = 0.50mm
; top infill extrusion width = 0.45mm
; first layer extrusion width = 0.42mm

; external perimeters extrusion width = 0.60mm
; perimeters extrusion width = 0.50mm
; infill extrusion width = 0.50mm
; solid infill extrusion width = 0.50mm
; top infill extrusion width = 0.45mm
; first layer extrusion width = 0.42mm

; external perimeters extrusion width = 0.60mm
; perimeters extrusion width = 0.50mm
; infill extrusion width = 0.50mm
; solid infill extrusion width = 0.50mm
; top infill extrusion width = 0.45mm
; first layer extrusion width = 0.42mm

; external perimeters extrusion width = 0.60mm
; perimeters extrusion width = 0.50mm
; infill extrusion width = 0.50mm
; solid infill extrusion width = 0.50mm
; top infill extrusion width = 0.45mm
; first layer extrusion width = 0.42mm

; external perimeters extrusion width = 0.60mm
; perimeters extrusion width = 0.50mm
; infill extrusion width = 0.50mm
; solid infill extrusion width = 0.50mm
; top infill extrusion width = 0.45mm
; first layer extrusion width = 0.42mm

; external perimeters extrusion width = 0.60mm
; perimeters extrusion width = 0.50mm
; infill extrusion width = 0.50mm
; solid infill extrusion width = 0.50mm
; top infill extrusion width = 0.45mm
; first layer extrusion width = 0.42mm

; external perimeters extrusion width = 0.60mm
; perimeters extrusion width = 0.50mm
; infill extrusion width = 0.50mm
; solid infill extrusion width = 0.50mm
; top infill extrusion width = 0.45mm
; first layer extrusion width = 0.42mm

; external perimeters extrusion width = 0.60mm
; perimeters extrusion width = 0.50mm
; infill extrusion width = 0.50mm
; solid infill extrusion width = 0.50mm
; top infill extrusion width = 0.45mm
; first layer extrusion width = 0.42mm

; external perimeters extrusion width = 0.60mm
; perimeters extrusion width = 0.50mm
; infill extrusion width = 0.50mm
; solid infill extrusion width = 0.50mm
; top infill extrusion width = 0.45mm
; first layer extrusion width = 0.42mm

; external perimeters extrusion width = 0.60mm
; perimeters extrusion width = 0.50mm
; infill extrusion width = 0.50mm
; solid infill extrusion width = 0.50mm
; top infill extrusion width = 0.45mm
; first layer extrusion width = 0.42mm

; external perimeters extrusion width = 0.60mm
; perimeters extrusion width = 0.50mm
; infill extrusion width = 0.50mm
; solid infill extrusion width = 0.50mm
; top infill extrusion width = 0.45mm
; first layer extrusion width = 0.42mm

; external perimeters extrusion width = 0.60mm
; perimeters extrusion width = 0.50mm
; infill extrusion width = 0.50mm
; solid infill extrusion width = 0.50mm
; top infill extrusion width = 0.45mm
; first layer extrusion width = 0.42mm

; external perimeters extrusion width = 0.60mm
; perimeters extrusion width = 0.50mm
; infill extrusion width = 0.50mm
; solid infill extrusion width = 0.50mm
; top infill extrusion width = 0.45mm
; first layer extrusion width = 0.42mm

M73 P0 R13
M73 Q0 S13
M201 X1000 Y1000 Z200 E5000 ; sets maximum accelerations, mm/sec^2
M203 X200 Y200 Z12 E120 ; sets maximum feedrates, mm / sec
M204 P1250 R1250 T1250 ; sets acceleration (P, T) and retract acceleration (R), mm/sec^2
M205 X8.00 Y8.00 Z0.40 E4.50 ; sets the jerk limits, mm/sec
M205 S0 T0 ; sets the minimum extruding and travel feed rate, mm/sec
M107
;TYPE:Custom
M862.3 P "MK3S" ; printer model check
M862.1 P0.4 ; nozzle diameter check
M115 U3.11.0 ; tell printer latest fw version
G90 ; use absolute coordinates
M83 ; extruder relative mode
M104 S215 ; set extruder temp
M140 S60 ; set bed temp
M190 S60 ; wait for bed temp
M109 S215 ; wait for extruder temp
G28 W ; home all without mesh bed level
G80 ; mesh bed leveling

G1 Z0.2 F720
G1 Y-3 F1000 ; go outside print area
G92 E0
G1 X60 E9 F1000 ; intro line
G1 X100 E12.5 F1000 ; intro line

G92 E0
M221 S95

; Don't change E values below. Excessive value can damage the printer.

M907 E538 ; set extruder motor current
G21 ; set units to millimeters
G90 ; use absolute coordinates
M83 ; use relative distances for extrusion
M900 K0.05 ; Filament gcode LA 1.5
M900 K30 ; Filament gcode LA 1.0
M107
;LAYER_CHANGE
;Z:0.2
;HEIGHT:0.2
;BEFORE_LAYER_CHANGE
G92 E0.0
;0.2


G1 E-.8 F2100
G1 Z.4 F720
;AFTER_LAYER_CHANGE
;0.2
G1 X102.288 Y91.167 F10800
G1 Z.2 F720
G1 E.8 F2100
M204 S800
;TYPE:Skirt/Brim
;WIDTH:0.42
G1 F1200
G1 X103.094 Y90.592 E.03105
G1 X103.95 Y90.25 E.02889
G1 X104.746 Y90.116 E.02532
G1 X114.309 Y89.397 E.30069
G1 X123.808 Y89.572 E.29786
G1 X143.959 Y91.19 E.63386
M73 P1 R13
M73 Q1 S13
G1 X144.606 Y91.32 E.02069
G1 X145.273 Y91.576 E.0224
G1 X145.925 Y91.977 E.024
G1 X146.489 Y92.494 E.02399
G1 X147.127 Y93.446 E.03593
G1 X147.391 Y94.164 E.024
G1 X147.494 Y94.695 E.01693
G1 X148.213 Y107.269 E.39489
G1 X148.116 Y121.339 E.44118
G1 X147.993 Y122.094 E.024
G1 X147.728 Y122.813 E.024
G1 X147.333 Y123.468 E.024
G1 X146.82 Y124.036 E.024
G1 X146.314 Y124.431 E.02013
G1 X145.668 Y124.777 E.02296
G1 X144.938 Y125.007 E.024
G1 X144.178 Y125.094 E.024
G1 X105.022 Y124.108 E1.2281
G1 X104.102 Y123.968 E.02918
G1 X103.386 Y123.697 E.024
G1 X102.734 Y123.296 E.024
G1 X102.17 Y122.779 E.024
G1 X101.532 Y121.827 E.03593
G1 X101.331 Y121.326 E.01693
G1 X101.165 Y120.579 E.024
G1 X100.819 Y110.805 E.30664
G1 X100.982 Y94.104 E.52367
G1 X101.036 Y93.483 E.01954
G1 X101.23 Y92.743 E.024
G1 X101.684 Y91.863 E.03105
G1 X102.248 Y91.212 E.02701
M204 S1000
; printing object Ikea Mount.stl id:13 copy 0
;WIPE_START
G1 F8640
G1 X103.094 Y90.592 E-.24214
G1 X103.95 Y90.25 E-.21279
G1 X104.746 Y90.116 E-.18649
G1 X105.259 Y90.077 E-.11858
;WIPE_END
G1 E-.04 F2100
G1 Z.6 F720
G1 X132.965 Y116.535 F10800
G1 Z.2 F720
G1 E.8 F2100
M204 S800
;TYPE:Perimeter
G1 F1200
G1 X133.087 Y116.406 E.00557
G1 X133.22 Y116.312 E.00513
G1 X133.382 Y116.238 E.00557
G1 X133.61 Y116.197 E.00725
G1 X133.84 Y116.216 E.00725
G1 X134.008 Y116.274 E.00557
G1 X134.162 Y116.363 E.00557
G1 X134.336 Y116.535 E.00769
G1 X134.41 Y116.649 E.00426
G1 X134.476 Y116.814 E.00557
G1 X134.509 Y116.988 E.00557
G1 X134.513 Y120.524 E.11085
G1 X134.495 Y120.719 E.00616
G1 X134.449 Y120.876 E.00512
G1 X134.374 Y121.021 E.00513
G1 X134.273 Y121.15 E.00513
G1 X134.149 Y121.257 E.00513
G1 X133.996 Y121.346 E.00557
G1 X133.773 Y121.408 E.00725
G1 X133.542 Y121.411 E.00725
G1 X133.355 Y121.366 E.00601
G1 X133.097 Y121.217 E.00936
G1 X132.974 Y121.088 E.00557
G1 X132.886 Y120.95 E.00513
G1 X132.825 Y120.799 E.00513
G1 X132.792 Y120.624 E.00557
G1 X132.788 Y117.089 E.11085
G1 X132.806 Y116.893 E.00616
G1 X132.852 Y116.737 E.00512
G1 X132.931 Y116.584 E.00538
M204 S1000
G1 X132.673 Y116.294 F10800
M204 S800
;TYPE:External perimeter
G1 F1200
M73 Q2 S13
G1 X132.839 Y116.12 E.00754
G1 X133.031 Y115.984 E.00738
G1 X133.25 Y115.884 E.00754
G1 X133.592 Y115.819 E.0109
G1 X133.832 Y115.83 E.00754
G1 X134.165 Y115.93 E.0109
G1 X134.458 Y116.117 E.0109
G1 X134.693 Y116.386 E.01122
G1 X134.839 Y116.707 E.01106
G1 X134.89 Y117.066 E.01136
G1 X134.89 Y120.542 E.10897
G1 X134.867 Y120.791 E.00785
M73 P2 R13
G1 X134.801 Y121.017 E.00738
G1 X134.693 Y121.226 E.00738
G1 X134.547 Y121.411 E.00738
G1 X134.369 Y121.566 E.00738
G1 X134.161 Y121.686 E.00754
G1 X133.827 Y121.783 E.0109
G1 X133.479 Y121.784 E.0109
G1 X133.24 Y121.726 E.0077
G1 X132.928 Y121.563 E.01106
G1 X132.677 Y121.322 E.0109
G1 X132.549 Y121.124 E.00738
G1 X132.462 Y120.905 E.00738
G1 X132.41 Y120.547 E.01136
G1 X132.41 Y117.071 E.10897
G1 X132.434 Y116.822 E.00785
G1 X132.5 Y116.596 E.00738
G1 X132.638 Y116.343 E.00903
M204 S1000
G1 X132.912 Y116.324 F10800
;WIPE_START
G1 F8640
G1 X132.839 Y116.12 E-.06928
G1 X133.031 Y115.984 E-.05438
G1 X133.25 Y115.884 E-.05554
G1 X133.592 Y115.819 E-.08029
G1 X133.832 Y115.83 E-.05554
G1 X134.165 Y115.93 E-.08029
G1 X134.458 Y116.117 E-.08029
G1 X134.693 Y116.386 E-.0826
G1 X134.839 Y116.707 E-.08144
G1 X134.89 Y117.066 E-.08369
G1 X134.89 Y117.225 E-.03664
;WIPE_END
G1 E-.04 F2100
G1 Z.6 F720
G1 X134.396 Y117.011 F10800
G1 Z.2 F720
G1 E.8 F2100
M204 S800
;TYPE:Solid infill
;WIDTH:0.442699
G1 F1200
G1 X133.956 Y116.571 E.02071
G1 X133.894 Y116.535 E.00237
G1 X133.738 Y116.487 E.00544
G1 X133.623 Y116.481 E.00381
G1 X133.51 Y116.497 E.00381
G1 X133.374 Y116.554 E.00489
G1 X134.227 Y117.407 E.04011
G1 X134.228 Y117.973 E.01882
G1 X133.111 Y116.857 E.05247
G1 X133.085 Y116.947 E.00312
G1 X133.071 Y117.382 E.01446
G1 X134.228 Y118.539 E.05442
G1 X134.229 Y119.105 E.01882
G1 X133.071 Y117.948 E.05442
G1 X133.072 Y118.514 E.01882
G1 X134.23 Y119.671 E.05442
G1 X134.23 Y120.237 E.01882
G1 X133.073 Y119.08 E.05442
G1 X133.073 Y119.646 E.01882
G1 X134.188 Y120.761 E.0524
G1 X134.067 Y120.954 E.00758
G1 X133.921 Y121.058 E.00599
G1 X133.074 Y120.212 E.0398
G1 X133.074 Y120.597 E.01281
G1 X133.139 Y120.82 E.00772
G1 X133.177 Y120.881 E.00238
G1 X133.597 Y121.3 E.01972
M204 S1000
; stop printing object Ikea Mount.stl id:13 copy 0
; printing object Ikea Mount.stl id:12 copy 0
;WIPE_START
G1 F8640
G1 X133.177 Y120.881 E-.13699
G1 X133.139 Y120.82 E-.01652
G1 X133.074 Y120.597 E-.0536
G1 X133.074 Y120.212 E-.08897
G1 X133.921 Y121.058 E-.27645
G1 X134.067 Y120.954 E-.04161
G1 X134.188 Y120.761 E-.05262
G1 X133.903 Y120.475 E-.09323
;WIPE_END
G1 E-.04 F2100
G1 Z.6 F720
G1 X125.375 Y120.013 F10800
G1 Z.2 F720
G1 E.8 F2100
M204 S800
;TYPE:Perimeter
;WIDTH:0.42
G1 F1200
G1 X125.329 Y120.17 E.00512
G1 X125.254 Y120.315 E.00513
G1 X125.153 Y120.444 E.00513
G1 X125.029 Y120.551 E.00513
G1 X124.825 Y120.66 E.00725
G1 X124.653 Y120.701 E.00557
G1 X124.476 Y120.71 E.00557
G1 X124.185 Y120.64 E.00936
G1 X123.977 Y120.51 E.00769
G1 X123.854 Y120.382 E.00557
G1 X123.766 Y120.244 E.00513
G1 X123.705 Y120.092 E.00513
G1 X123.668 Y119.831 E.00827
G1 X123.668 Y116.383 E.10813
G1 X123.686 Y116.187 E.00616
G1 X123.732 Y116.031 E.00512
G1 X123.845 Y115.829 E.00725
G1 X123.967 Y115.7 E.00557
G1 X124.1 Y115.605 E.00513
G1 X124.314 Y115.516 E.00725
G1 X124.49 Y115.491 E.00557
G1 X124.667 Y115.5 E.00557
G1 X124.888 Y115.568 E.00725
G1 X125.084 Y115.69 E.00725
G1 X125.216 Y115.829 E.00601
G1 X125.29 Y115.943 E.00426
G1 X125.356 Y116.108 E.00557
G1 X125.393 Y116.369 E.00827
G1 X125.381 Y119.953 E.11239
M204 S1000
G1 X125.747 Y120.085 F10800
M204 S800
;TYPE:External perimeter
G1 F1200
G1 X125.681 Y120.311 E.00738
G1 X125.573 Y120.52 E.00738
G1 X125.427 Y120.705 E.00738
G1 X125.249 Y120.859 E.00738
G1 X124.941 Y121.02 E.0109
G1 X124.707 Y121.076 E.00754
G1 X124.467 Y121.088 E.00754
G1 X124.359 Y121.078 E.00338
G1 X124.02 Y120.98 E.01106
G1 X123.723 Y120.79 E.01106
G1 X123.557 Y120.616 E.00754
G1 X123.429 Y120.418 E.00738
G1 X123.342 Y120.199 E.00738
G1 X123.29 Y119.84 E.01136
G1 X123.29 Y116.365 E.10897
G1 X123.314 Y116.116 E.00785
G1 X123.38 Y115.89 E.00738
G1 X123.553 Y115.588 E.0109
G1 X123.719 Y115.414 E.00754
G1 X123.911 Y115.277 E.00738
G1 X124.13 Y115.177 E.00754
G1 X124.472 Y115.113 E.0109
G1 X124.712 Y115.124 E.00754
G1 X125.045 Y115.223 E.0109
G1 X125.338 Y115.41 E.0109
G1 X125.508 Y115.588 E.0077
G1 X125.63 Y115.778 E.00707
G1 X125.719 Y116.001 E.00754
G1 X125.77 Y116.36 E.01136
G1 X125.77 Y119.835 E.10897
G1 X125.753 Y120.025 E.00597
M204 S1000
G1 X125.524 Y120.161 F10800
;WIPE_START
G1 F8640
G1 X125.681 Y120.311 E-.06801
G1 X125.573 Y120.52 E-.05438
G1 X125.427 Y120.705 E-.05438
G1 X125.249 Y120.859 E-.05438
G1 X124.941 Y121.02 E-.08029
G1 X124.707 Y121.076 E-.05554
G1 X124.467 Y121.088 E-.05555
G1 X124.359 Y121.078 E-.02492
G1 X124.02 Y120.98 E-.08145
G1 X123.723 Y120.79 E-.08145
G1 X123.557 Y120.616 E-.05554
G1 X123.429 Y120.418 E-.05438
G1 X123.365 Y120.258 E-.03972
;WIPE_END
G1 E-.04 F2100
G1 Z.6 F720
G1 X125.276 Y116.305 F10800
G1 Z.2 F720
G1 E.8 F2100
M204 S800
;TYPE:Solid infill
;WIDTH:0.442699
G1 F1200
G1 X124.836 Y115.864 E.02071
G1 X124.774 Y115.829 E.00237
G1 X124.618 Y115.78 E.00544
G1 X124.503 Y115.775 E.00381
G1 X124.39 Y115.791 E.00381
G1 X124.254 Y115.848 E.00489
G1 X125.107 Y116.701 E.04011
G1 X125.108 Y117.267 E.01882
G1 X123.991 Y116.151 E.05247
G1 X123.965 Y116.241 E.00312
G1 X123.951 Y116.675 E.01446
G1 X125.108 Y117.833 E.05442
G1 X125.109 Y118.399 E.01882
G1 X123.951 Y117.242 E.05442
G1 X123.952 Y117.808 E.01882
G1 X125.11 Y118.965 E.05442
G1 X125.11 Y119.531 E.01882
G1 X123.953 Y118.374 E.05442
G1 X123.953 Y118.94 E.01882
G1 X125.068 Y120.054 E.0524
G1 X124.947 Y120.248 E.00758
G1 X124.801 Y120.352 E.00599
G1 X123.954 Y119.506 E.0398
G1 X123.954 Y119.891 E.01281
G1 X124.019 Y120.114 E.00772
G1 X124.057 Y120.174 E.00238
G1 X124.477 Y120.594 E.01972
M204 S1000
; stop printing object Ikea Mount.stl id:12 copy 0
; printing object Ikea Mount.stl id:11 copy 0
;WIPE_START
G1 F8640
G1 X124.057 Y120.174 E-.13699
G1 X124.019 Y120.114 E-.01652
G1 X123.954 Y119.891 E-.0536
G1 X123.954 Y119.506 E-.08897
G1 X124.801 Y120.352 E-.27645
G1 X124.947 Y120.248 E-.04161
G1 X125.068 Y120.054 E-.05262
G1 X124.783 Y119.769 E-.09323
;WIPE_END
G1 E-.04 F2100
G1 Z.6 F720
G1 X115.307 Y120.272 F10800
G1 Z.2 F720
G1 E.8 F2100
M204 S800
;TYPE:Perimeter
;WIDTH:0.42
G1 F1200
G1 X115.261 Y120.428 E.00512
G1 X115.186 Y120.574 E.00513
G1 X115.085 Y120.702 E.00513
G1 X114.961 Y120.809 E.00513
G1 X114.758 Y120.918 E.00725
G1 X114.585 Y120.96 E.00557
G1 X114.408 Y120.968 E.00557
G1 X114.118 Y120.898 E.00936
G1 X113.909 Y120.769 E.00769
G1 X113.787 Y120.64 E.00557
G1 X113.698 Y120.503 E.00513
G1 X113.637 Y120.351 E.00513
G1 X113.6 Y120.09 E.00827
G1 X113.6 Y116.641 E.10813
G1 X113.618 Y116.446 E.00616
G1 X113.664 Y116.289 E.00512
G1 X113.777 Y116.087 E.00725
G1 X113.899 Y115.959 E.00557
G1 X114.033 Y115.864 E.00513
G1 X114.246 Y115.775 E.00725
G1 X114.422 Y115.75 E.00557
G1 X114.599 Y115.758 E.00557
G1 X114.82 Y115.826 E.00725
G1 X115.016 Y115.949 E.00725
G1 X115.148 Y116.087 E.00601
G1 X115.222 Y116.202 E.00426
G1 X115.288 Y116.366 E.00557
G1 X115.326 Y116.627 E.00827
G1 X115.313 Y120.212 E.11239
M204 S1000
G1 X115.679 Y120.343 F10800
M204 S800
;TYPE:External perimeter
G1 F1200
G1 X115.613 Y120.569 E.00738
G1 X115.505 Y120.778 E.00738
G1 X115.359 Y120.964 E.00738
G1 X115.181 Y121.118 E.00738
G1 X114.873 Y121.278 E.0109
G1 X114.639 Y121.335 E.00754
G1 X114.399 Y121.346 E.00754
G1 X114.291 Y121.336 E.00338
G1 X113.952 Y121.238 E.01106
G1 X113.655 Y121.049 E.01106
G1 X113.489 Y120.874 E.00754
G1 X113.361 Y120.676 E.00738
G1 X113.274 Y120.458 E.00738
G1 X113.223 Y120.099 E.01136
G1 X113.223 Y116.623 E.10897
G1 X113.246 Y116.374 E.00785
G1 X113.313 Y116.148 E.00738
G1 X113.485 Y115.847 E.0109
G1 X113.651 Y115.672 E.00754
G1 X113.843 Y115.536 E.00738
G1 X114.062 Y115.436 E.00754
G1 X114.404 Y115.371 E.0109
G1 X114.644 Y115.383 E.00754
G1 X114.977 Y115.482 E.0109
G1 X115.27 Y115.669 E.0109
G1 X115.44 Y115.847 E.0077
G1 X115.562 Y116.036 E.00707
G1 X115.651 Y116.26 E.00754
G1 X115.703 Y116.618 E.01136
G1 X115.703 Y120.094 E.10897
G1 X115.685 Y120.283 E.00597
M204 S1000
G1 X115.456 Y120.42 F10800
;WIPE_START
G1 F8640
G1 X115.613 Y120.569 E-.06801
G1 X115.505 Y120.778 E-.05438
G1 X115.359 Y120.964 E-.05438
G1 X115.181 Y121.118 E-.05438
G1 X114.873 Y121.278 E-.08029
G1 X114.639 Y121.335 E-.05554
G1 X114.399 Y121.346 E-.05555
G1 X114.291 Y121.336 E-.02492
G1 X113.952 Y121.238 E-.08145
G1 X113.655 Y121.049 E-.08145
G1 X113.489 Y120.874 E-.05554
G1 X113.361 Y120.676 E-.05438
G1 X113.298 Y120.517 E-.03972
;WIPE_END
G1 E-.04 F2100
G1 Z.6 F720
G1 X115.208 Y116.563 F10800
G1 Z.2 F720
G1 E.8 F2100
M204 S800
