; generated by PrusaSlicer 2.4.1+win64 on 2022-10-21 at 09:40:37 UTC


;
;
; 

; external perimeters extrusion width = 0.60mm
; perimeters extrusion width = 0.50mm
; infill extrusion width = 0.50mm
; solid infill extrusion width = 0.50mm
; top infill extrusion width = 0.45mm
; first layer extrusion width = 0.42mm

; external perimeters extrusion width = 0.60mm
; perimeters extrusion width = 0.50mm
; infill extrusion width = 0.50mm
; solid infill extrusion width = 0.50mm
; top infill extrusion width = 0.45mm
; first layer extrusion width = 0.42mm

; external perimeters extrusion width = 0.60mm
; perimeters extrusion width = 0.50mm
; infill extrusion width = 0.50mm
; solid infill extrusion width = 0.50mm
; top infill extrusion width = 0.45mm
; first layer extrusion width = 0.42mm

; external perimeters extrusion width = 0.60mm
; perimeters extrusion width = 0.50mm
; infill extrusion width = 0.50mm
; solid infill extrusion width = 0.50mm
; top infill extrusion width = 0.45mm
; first layer extrusion width = 0.42mm

; external perimeters extrusion width = 0.60mm
; perimeters extrusion width = 0.50mm
; infill extrusion width = 0.50mm
; solid infill extrusion width = 0.50mm
; top infill extrusion width = 0.45mm
; first layer extrusion width = 0.42mm

; external perimeters extrusion width = 0.60mm
; perimeters extrusion width = 0.50mm
; infill extrusion width = 0.50mm
; solid infill extrusion width = 0.50mm
; top infill extrusion width = 0.45mm
; first layer extrusion width = 0.42mm

; external perimeters extrusion width = 0.60mm
; perimeters extrusion width = 0.50mm
; infill extrusion width = 0.50mm
; solid infill extrusion width = 0.50mm
; top infill extrusion width = 0.45mm
; first layer extrusion width = 0.42mm

; external perimeters extrusion width = 0.60mm
; perimeters extrusion width = 0.50mm
; infill extrusion width = 0.50mm
; solid infill extrusion width = 0.50mm
; top infill extrusion width = 0.45mm
; first layer extrusion width = 0.42mm

; external perimeters extrusion width = 0.60mm
; perimeters extrusion width = 0.50mm
; infill extrusion width = 0.50mm
; solid infill extrusion width = 0.50mm
; top infill extrusion width = 0.45mm
; first layer extrusion width = 0.42mm

; external perimeters extrusion width = 0.60mm
; perimeters extrusion width = 0.50mm
; infill extrusion width = 0.50mm
; solid infill extrusion width = 0.50mm
; top infill extrusion width = 0.45mm
; first layer extrusion width = 0.42mm

; external perimeters extrusion width = 0.60mm
; perimeters extrusion width = 0.50mm
; infill extrusion width = 0.50mm
; solid infill extrusion width = 0.50mm
; top infill extrusion width = 0.45mm
; first layer extrusion width = 0.42mm

; external perimeters extrusion width = 0.60mm
; perimeters extrusion width = 0.50mm
; infill extrusion width = 0.50mm
; solid infill extrusion width = 0.50mm
; top infill extrusion width = 0.45mm
; first layer extrusion width = 0.42mm

; external perimeters extrusion width = 0.60mm
; perimeters extrusion width = 0.50mm
; infill extrusion width = 0.50mm
; solid infill extrusion width = 0.50mm
; top infill extrusion width = 0.45mm
; first layer extrusion width = 0.42mm

; external perimeters extrusion width = 0.60mm
; perimeters extrusion width = 0.50mm
; infill extrusion width = 0.50mm
; solid infill extrusion width = 0.50mm
; top infill extrusion width = 0.45mm
; first layer extrusion width = 0.42mm

; external perimeters extrusion width = 0.60mm
; perimeters extrusion width = 0.50mm
; infill extrusion width = 0.50mm
; solid infill extrusion width = 0.50mm
; top infill extrusion width = 0.45mm
; first layer extrusion width = 0.42mm

; external perimeters extrusion width = 0.60mm
; perimeters extrusion width = 0.50mm
; infill extrusion width = 0.50mm
; solid infill extrusion width = 0.50mm
; top infill extrusion width = 0.45mm
; first layer extrusion width = 0.42mm

; external perimeters extrusion width = 0.60mm
; perimeters extrusion width = 0.50mm
; infill extrusion width = 0.50mm
; solid infill extrusion width = 0.50mm
; top infill extrusion width = 0.45mm
; first layer extrusion width = 0.42mm

M73 P0 R31
M73 Q0 S31
M201 X1000 Y1000 Z200 E5000 ; sets maximum accelerations, mm/sec^2
M203 X200 Y200 Z12 E120 ; sets maximum feedrates, mm / sec
M204 P1250 R1250 T1250 ; sets acceleration (P, T) and retract acceleration (R), mm/sec^2
M205 X8.00 Y8.00 Z0.40 E4.50 ; sets the jerk limits, mm/sec
M205 S0 T0 ; sets the minimum extruding and travel feed rate, mm/sec
M107
;TYPE:Custom
M862.3 P "MK3S" ; printer model check
M862.1 P0.4 ; nozzle diameter check
M115 U3.11.0 ; tell printer latest fw version
G90 ; use absolute coordinates
M83 ; extruder relative mode
M104 S215 ; set extruder temp
M140 S60 ; set bed temp
M190 S60 ; wait for bed temp
M109 S215 ; wait for extruder temp
G28 W ; home all without mesh bed level
G80 ; mesh bed leveling

G1 Z0.2 F720
G1 Y-3 F1000 ; go outside print area
G92 E0
G1 X60 E9 F1000 ; intro line
G1 X100 E12.5 F1000 ; intro line

G92 E0
M221 S95

; Don't change E values below. Excessive value can damage the printer.

M907 E538 ; set extruder motor current
G21 ; set units to millimeters
G90 ; use absolute coordinates
M83 ; use relative distances for extrusion
M900 K0.05 ; Filament gcode LA 1.5
M900 K30 ; Filament gcode LA 1.0
M107
;LAYER_CHANGE
;Z:0.2
;HEIGHT:0.2
;BEFORE_LAYER_CHANGE
G92 E0.0
;0.2


G1 E-.8 F2100
G1 Z.4 F720
;AFTER_LAYER_CHANGE
;0.2
G1 X107.804 Y72.977 F10800
G1 Z.2 F720
G1 E.8 F2100
M204 S800
;TYPE:Skirt/Brim
;WIDTH:0.42
G1 F1200
G1 X107.864 Y72.888 E.00333
G1 X109.367 Y72.353 E.05004
G1 X138.367 Y72.353 E.90927
G1 X139.674 Y72.744 E.04278
G1 X140.62 Y73.973 E.04863
G1 X147.391 Y94.164 E.66773
G1 X147.514 Y94.898 E.02331
G1 X148.21 Y107.156 E.38495
G1 X148.072 Y121.72 E.45667
G1 X142.442 Y139.411 E.58211
G1 X142.09 Y140.168 E.02618
G1 X141.332 Y141.09 E.03742
G1 X140.327 Y141.733 E.03741
G1 X139.121 Y142.042 E.03903
G1 X131.071 Y143.142 E.25475
G1 X123.029 Y143.757 E.25288
G1 X112.692 Y144.162 E.32437
G1 X111.501 Y144.019 E.0376
G1 X110.793 Y143.789 E.02334
G1 X110.138 Y143.455 E.02305
G1 X109.537 Y143.018 E.02329
G1 X109.017 Y142.498 E.02306
G1 X108.581 Y141.897 E.0233
G1 X108.118 Y140.94 E.03334
G1 X101.331 Y121.326 E.65075
G1 X101.144 Y120.354 E.03104
G1 X100.818 Y110.725 E.30208
G1 X101.013 Y93.639 E.53576
G1 X101.157 Y92.957 E.02183
G1 X107.099 Y74.018 E.62236
G1 X107.77 Y73.026 E.03757
M204 S1000
; printing object KugelbahnHalterung1.stl id:15 copy 0
;WIPE_START
G1 F8640
G1 X107.864 Y72.888 E-.03841
G1 X109.367 Y72.353 E-.36848
G1 X110.896 Y72.353 E-.35311
;WIPE_END
G1 E-.04 F2100
G1 Z.6 F720
G1 X110.154 Y75.517 F10800
G1 Z.2 F720
G1 E.8 F2100
M204 S800
;TYPE:Perimeter
G1 F1200
G1 X111.58 Y75.517 E.04471
G1 X111.58 Y85.074 E.29965
G1 X111.973 Y85.467 E.01745
G1 X112.194 Y85.9 E.01524
G1 X112.27 Y86.38 E.01523
G1 X112.194 Y86.859 E.01523
G1 X111.973 Y87.292 E.01524
G1 X111.629 Y87.636 E.01525
G1 X111.197 Y87.857 E.01524
G1 X110.717 Y87.933 E.01523
G1 X110.237 Y87.857 E.01523
G1 X109.804 Y87.636 E.01524
G1 X109.461 Y87.292 E.01525
G1 X109.24 Y86.859 E.01524
G1 X109.164 Y86.38 E.01523
G1 X109.24 Y85.9 E.01523
G1 X109.461 Y85.467 E.01524
G1 X109.804 Y85.124 E.01525
G1 X110.154 Y84.945 E.0123
M73 P1 R31
M73 Q1 S31
G1 X110.154 Y75.577 E.29374
M204 S1000
G1 X109.777 Y75.14 F10800
M204 S800
;TYPE:External perimeter
G1 F1200
G1 X111.957 Y75.14 E.06835
G1 X111.957 Y84.918 E.30658
G1 X112.282 Y85.243 E.01442
M73 P1 R30
G1 X112.557 Y85.782 E.01898
G1 X112.652 Y86.38 E.01897
G1 X112.557 Y86.978 E.01897
G1 X112.282 Y87.517 E.01898
G1 X111.854 Y87.945 E.01899
G1 X111.315 Y88.22 E.01898
G1 X110.717 Y88.315 E.01897
G1 X110.119 Y88.22 E.01897
G1 X109.58 Y87.945 E.01898
G1 X109.152 Y87.517 E.01899
G1 X108.877 Y86.978 E.01898
G1 X108.782 Y86.38 E.01897
G1 X108.877 Y85.782 E.01897
G1 X109.152 Y85.243 E.01898
G1 X109.58 Y84.815 E.01899
G1 X109.777 Y84.714 E.00693
G1 X109.777 Y75.2 E.29832
M204 S1000
G1 X110.122 Y75.342 F10800
;WIPE_START
G1 F8640
G1 X111.957 Y75.14 E-.50356
G1 X111.957 Y76.25 E-.25644
;WIPE_END
G1 E-.04 F2100
G1 Z.6 F720
G1 X111.467 Y76.407 F10800
G1 Z.2 F720
G1 E.8 F2100
M204 S800
;TYPE:Solid infill
;WIDTH:0.426821
G1 F1200
G1 X110.86 Y75.8 E.0274
G1 X110.437 Y75.8 E.0135
G1 X110.437 Y75.92 E.00383
G1 X111.297 Y76.78 E.03884
G1 X111.297 Y77.323 E.01733
G1 X110.437 Y76.463 E.03884
G1 X110.437 Y77.006 E.01733
G1 X111.297 Y77.866 E.03884
G1 X111.297 Y78.409 E.01733
G1 X110.437 Y77.549 E.03884
G1 X110.437 Y78.091 E.01733
G1 X111.297 Y78.952 E.03884
G1 X111.297 Y79.495 E.01733
G1 X110.437 Y78.634 E.03884
G1 X110.437 Y79.177 E.01733
G1 X111.297 Y80.038 E.03884
G1 X111.297 Y80.58 E.01733
G1 X110.437 Y79.72 E.03884
G1 X110.437 Y80.263 E.01733
G1 X111.297 Y81.123 E.03884
G1 X111.297 Y81.666 E.01733
G1 X110.437 Y80.806 E.03884
G1 X110.437 Y81.349 E.01733
G1 X111.297 Y82.209 E.03884
G1 X111.297 Y82.752 E.01733
G1 X110.437 Y81.892 E.03884
G1 X110.437 Y82.435 E.01733
G1 X111.297 Y83.295 E.03884
G1 X111.297 Y83.838 E.01733
G1 X110.437 Y82.978 E.03884
G1 X110.437 Y83.521 E.01733
G1 X111.297 Y84.381 E.03884
G1 X111.297 Y84.924 E.01733
G1 X110.437 Y84.064 E.03884
G1 X110.437 Y84.606 E.01733
G1 X111.941 Y86.111 E.06791
G1 X111.984 Y86.38 E.0087
G1 X111.94 Y86.653 E.00883
G1 X110.416 Y85.129 E.0688
G1 X110.057 Y85.312 E.01288
G1 X111.785 Y87.04 E.078
G1 X111.742 Y87.124 E.00301
G1 X111.534 Y87.332 E.00939
G1 X109.765 Y85.563 E.07986
G1 X109.692 Y85.636 E.00328
G1 X109.558 Y85.899 E.00944
G1 X111.198 Y87.539 E.07403
G1 X111.108 Y87.585 E.00321
G1 X110.756 Y87.64 E.01137
G1 X109.456 Y86.341 E.05868
G1 X109.512 Y86.771 E.01385
G1 X109.687 Y87.114 E.0123
G1 X110.33 Y87.757 E.02902
M204 S1000
;WIPE_START
G1 F8640
G1 X109.687 Y87.114 E-.20991
G1 X109.512 Y86.771 E-.089
G1 X109.456 Y86.341 E-.1002
G1 X110.562 Y87.446 E-.36088
;WIPE_END
G1 E-.04 F2100
G1 Z.6 F720
G1 X120.154 Y84.587 F10800
G1 Z.2 F720
G1 E.8 F2100
M204 S800
;TYPE:Perimeter
;WIDTH:0.42
G1 F1200
G1 X120.154 Y75.517 E.28438
G1 X121.58 Y75.517 E.04471
G1 X121.58 Y84.543 E.283
G1 X122.183 Y85.146 E.02675
G1 X122.396 Y85.565 E.01474
G1 X122.47 Y86.03 E.01476
G1 X122.396 Y86.495 E.01476
G1 X122.183 Y86.914 E.01474
G1 X121.851 Y87.246 E.01473
G1 X121.432 Y87.459 E.01474
G1 X120.967 Y87.533 E.01476
G1 X120.502 Y87.459 E.01476
G1 X120.083 Y87.246 E.01474
G1 X119.751 Y86.914 E.01473
G1 X119.538 Y86.495 E.01474
G1 X119.464 Y86.03 E.01476
G1 X119.538 Y85.565 E.01476
G1 X119.751 Y85.146 E.01474
G1 X120.154 Y84.743 E.01788
G1 X120.154 Y84.647 E.00302
M204 S1000
G1 X119.777 Y84.587 F10800
M204 S800
;TYPE:External perimeter
G1 F1200
G1 X119.777 Y75.14 E.2962
G1 X121.957 Y75.14 E.06835
G1 X121.957 Y84.387 E.28993
G1 X122.492 Y84.922 E.02373
G1 X122.759 Y85.447 E.01848
G1 X122.852 Y86.03 E.0185
G1 X122.759 Y86.613 E.0185
G1 X122.492 Y87.138 E.01848
G1 X122.075 Y87.555 E.01849
G1 X121.55 Y87.822 E.01848
G1 X120.967 Y87.915 E.0185
G1 X120.384 Y87.822 E.0185
G1 X119.859 Y87.555 E.01848
G1 X119.442 Y87.138 E.01849
G1 X119.175 Y86.613 E.01848
G1 X119.082 Y86.03 E.0185
G1 X119.175 Y85.447 E.0185
G1 X119.442 Y84.922 E.01848
G1 X119.735 Y84.629 E.01298
M204 S1000
G1 X120.157 Y84.461 F10800
;WIPE_START
G1 F8640
G1 X119.749 Y81.338 E-.76
;WIPE_END
G1 E-.04 F2100
G1 Z.6 F720
G1 X120.698 Y75.63 F10800
G1 Z.2 F720
G1 E.8 F2100
M204 S800
;TYPE:Solid infill
;WIDTH:0.423106
G1 F1200
G1 X121.297 Y76.229 E.02679
G1 X121.297 Y76.767 E.017
G1 X120.437 Y75.907 E.03846
G1 X120.437 Y76.444 E.017
G1 X121.297 Y77.305 E.03846
G1 X121.297 Y77.842 E.017
G1 X120.437 Y76.982 E.03846
G1 X120.437 Y77.52 E.017
G1 X121.297 Y78.38 E.03846
G1 X121.297 Y78.918 E.017
G1 X120.437 Y78.057 E.03846
G1 X120.437 Y78.595 E.017
G1 X121.297 Y79.455 E.03846
G1 X121.297 Y79.993 E.017
G1 X120.437 Y79.133 E.03846
G1 X120.437 Y79.67 E.017
G1 X121.297 Y80.531 E.03846
G1 X121.297 Y81.068 E.017
G1 X120.437 Y80.208 E.03846
G1 X120.437 Y80.746 E.017
G1 X121.297 Y81.606 E.03846
G1 X121.297 Y82.144 E.017
G1 X120.437 Y81.283 E.03846
G1 X120.437 Y81.821 E.017
G1 X121.297 Y82.681 E.03846
G1 X121.297 Y83.219 E.017
G1 X120.437 Y82.359 E.03846
G1 X120.437 Y82.896 E.017
G1 X121.297 Y83.757 E.03846
G1 X121.297 Y84.294 E.017
G1 X120.437 Y83.434 E.03846
G1 X120.437 Y83.972 E.017
G1 X122.125 Y85.66 E.07546
G1 X122.184 Y86.03 E.01185
G1 X122.153 Y86.225 E.00625
G1 X120.437 Y84.509 E.07671
G1 X120.437 Y84.86 E.01109
G1 X120.343 Y84.953 E.00418
G1 X122.013 Y86.623 E.07466
G1 X121.951 Y86.745 E.00433
G1 X121.775 Y86.922 E.0079
G1 X120.075 Y85.222 E.076
G1 X119.983 Y85.314 E.00411
G1 X119.863 Y85.549 E.00832
G1 X121.448 Y87.134 E.07085
G1 X121.343 Y87.187 E.00371
G1 X121.016 Y87.239 E.01049
G1 X119.758 Y85.981 E.05623
G1 X119.75 Y86.03 E.00156
G1 X119.81 Y86.406 E.01205
G1 X119.98 Y86.741 E.01187
G1 X120.599 Y87.36 E.02767
M204 S1000
;WIPE_START
G1 F8640
G1 X119.98 Y86.741 E-.20208
G1 X119.81 Y86.406 E-.08674
G1 X119.75 Y86.03 E-.08801
G1 X119.758 Y85.981 E-.0114
G1 X120.896 Y87.12 E-.37178
;WIPE_END
G1 E-.04 F2100
G1 Z.6 F720
G1 X129.58 Y83.997 F10800
G1 Z.2 F720
G1 E.8 F2100
M204 S800
;TYPE:Perimeter
;WIDTH:0.42
G1 F1200
G1 X128.867 Y84.133 E.02277
G1 X128.152 Y83.997 E.0228
G1 X128.154 Y75.517 E.26587
G1 X129.58 Y75.517 E.04471
G1 X129.58 Y83.937 E.264
M204 S1000
;WIPE_START
G1 F8640
G1 X128.867 Y84.133 E-.17082
G1 X128.152 Y83.997 E-.16794
G1 X128.153 Y82.172 E-.42125
;WIPE_END
G1 E-.04 F2100
G1 Z.6 F720
G1 X128.867 Y85.286 F10800
G1 Z.2 F720
G1 E.8 F2100
M204 S800
G1 F1200
G1 X129.235 Y85.559 E.01438
G1 X129.423 Y85.778 E.00907
G1 X129.535 Y86.006 E.00794
G1 X129.57 Y86.23 E.0071
G1 X129.536 Y86.448 E.00693
G1 X129.436 Y86.643 E.00688
G1 X129.281 Y86.799 E.0069
G1 X129.085 Y86.899 E.00688
G1 X128.867 Y86.933 E.00692
G1 X128.649 Y86.899 E.00692
G1 X128.453 Y86.799 E.00688
G1 X128.298 Y86.643 E.0069
G1 X128.198 Y86.448 E.00688
G1 X128.164 Y86.229 E.00693
G1 X128.199 Y86.006 E.0071
G1 X128.31 Y85.778 E.00794
G1 X128.498 Y85.559 E.00907
G1 X128.819 Y85.321 E.0125
M204 S1000
G1 X129.109 Y84.47 F10800
M204 S800
;TYPE:External perimeter
G1 F1200
G1 X129.024 Y84.933 E.01475
G1 X129.494 Y85.281 E.01834
G1 X129.741 Y85.569 E.01189
G1 X129.899 Y85.891 E.01123
G1 X129.952 Y86.23 E.01076
G1 X129.899 Y86.566 E.01067
G1 X129.745 Y86.868 E.01063
G1 X129.505 Y87.108 E.01065
G1 X129.203 Y87.262 E.01063
G1 X128.867 Y87.315 E.01066
G1 X128.531 Y87.262 E.01066
G1 X128.229 Y87.108 E.01063
G1 X127.989 Y86.868 E.01065
G1 X127.835 Y86.566 E.01063
G1 X127.782 Y86.23 E.01067
G1 X127.835 Y85.891 E.01076
G1 X127.993 Y85.569 E.01123
G1 X128.24 Y85.281 E.01189
G1 X128.71 Y84.933 E.01834
G1 X128.624 Y84.47 E.01475
G1 X128.07 Y84.365 E.01769
G1 X127.775 Y84.343 E.00927
G1 X127.777 Y75.14 E.28857
G1 X129.957 Y75.14 E.06835
G1 X129.958 Y84.343 E.28857
G1 X129.664 Y84.365 E.00926
G1 X129.168 Y84.459 E.01581
M204 S1000
G1 X128.71 Y84.442 F10800
;WIPE_START
G1 F8640
G1 X129.024 Y84.933 E-.11434
G1 X129.494 Y85.281 E-.13503
G1 X129.741 Y85.569 E-.08759
G1 X129.899 Y85.891 E-.0827
G1 X129.952 Y86.23 E-.07923
G1 X129.899 Y86.566 E-.07856
G1 X129.745 Y86.868 E-.07829
G1 X129.505 Y87.108 E-.07843
G1 X129.405 Y87.159 E-.02583
;WIPE_END
G1 E-.04 F2100
G1 Z.6 F720
G1 X129.451 Y86.201 F10800
G1 Z.2 F720
G1 E.8 F2100
M204 S800
;TYPE:Solid infill
;WIDTH:0.456686
G1 F1200
G1 X128.947 Y85.697 E.02453
G1 X128.867 Y85.637 E.00343
G1 X128.692 Y85.767 E.00747
G1 X128.572 Y85.907 E.00636
G1 X129.172 Y86.507 E.0292
G1 X129.112 Y86.568 E.00293
G1 X128.997 Y86.626 E.00446
G1 X128.867 Y86.647 E.00452
G1 X128.737 Y86.626 E.00452
G1 X128.674 Y86.594 E.00242
G1 X128.282 Y86.202 E.01908
M204 S1000
;WIPE_START
G1 F8640
G1 X128.674 Y86.594 E-.12802
G1 X128.737 Y86.626 E-.01627
G1 X128.867 Y86.647 E-.03033
G1 X128.997 Y86.626 E-.03033
G1 X129.112 Y86.568 E-.02995
G1 X129.172 Y86.507 E-.01966
G1 X128.572 Y85.907 E-.19597
G1 X128.692 Y85.767 E-.0427
G1 X128.867 Y85.637 E-.05013
G1 X128.947 Y85.697 E-.02303
G1 X129.451 Y86.201 E-.16465
;WIPE_END
G1 E-.06897 F2100
G1 Z.6 F720
G1 X129.467 Y76.435 F10800
G1 Z.2 F720
G1 E.8 F2100
M204 S800
;WIDTH:0.439991
G1 F1200
G1 X128.832 Y75.8 E.02965
G1 X128.437 Y75.8 E.01305
