; generated by PrusaSlicer 2.6.0+win64 on 2024-06-17 at 14:08:06 UTC


;
;
; 

; external perimeters extrusion width = 0.45mm
; perimeters extrusion width = 0.45mm
; infill extrusion width = 0.45mm
; solid infill extrusion width = 0.45mm
; top infill extrusion width = 0.40mm
; first layer extrusion width = 0.42mm

M73 P0 R6
M73 Q0 S6
M201 X1000 Y1000 Z200 E5000 ; sets maximum accelerations, mm/sec^2
M203 X200 Y200 Z12 E120 ; sets maximum feedrates, mm / sec
M204 S1250 T1250 ; sets acceleration (S) and retract acceleration (R), mm/sec^2
M205 X8.00 Y8.00 Z0.40 E4.50 ; sets the jerk limits, mm/sec
M205 S0 T0 ; sets the minimum extruding and travel feed rate, mm/sec
;TYPE:Custom
M862.3 P "MK3S" ; printer model check
M862.1 P0.4 ; nozzle diameter check
M115 U3.12.2 ; tell printer latest fw version
G90 ; use absolute coordinates
M83 ; extruder relative mode
M104 S215 ; set extruder temp
M140 S60 ; set bed temp
M190 S60 ; wait for bed temp
M109 S215 ; wait for extruder temp
G28 W ; home all without mesh bed level
G80 ; mesh bed leveling

G1 Z0.2 F720
G1 Y-3 F1000 ; go outside print area
G92 E0
G1 X60 E9 F1000 ; intro line
G1 X100 E12.5 F1000 ; intro line

G92 E0
M221 S95

; Don't change E values below. Excessive value can damage the printer.
M907 E430 ; set extruder motor current
G21 ; set units to millimeters
G90 ; use absolute coordinates
M83 ; use relative distances for extrusion
M900 K0.05 ; Filament gcode LA 1.5
M900 K30 ; Filament gcode LA 1.0
M107
;LAYER_CHANGE
;Z:0.2
;HEIGHT:0.2
;BEFORE_LAYER_CHANGE
G92 E0.0
;0.2


G1 E-.8 F2100
M73 P1 R6
M73 Q1 S6
G1 Z.4 F720
;AFTER_LAYER_CHANGE
;0.2
G1 X111.139 Y90.083 F10800
G1 Z.2 F720
G1 E.8 F2100
M204 S800
;TYPE:Skirt/Brim
;WIDTH:0.42
G1 F1200
G1 X112.205 Y89.069 E.04613
G1 X113.5 Y88.746 E.04185
G1 X136.5 Y88.746 E.72115
G1 X137.917 Y89.139 E.04611
M73 P2 R6
M73 Q2 S6
G1 X138.931 Y90.205 E.04613
G1 X139.254 Y91.5 E.04185
G1 X139.254 Y118.5 E.84657
G1 X138.861 Y119.917 E.04611
G1 X137.795 Y120.931 E.04613
G1 X136.5 Y121.254 E.04185
G1 X113.5 Y121.254 E.72115
G1 X112.083 Y120.861 E.04611
G1 X111.069 Y119.795 E.04613
G1 X110.746 Y118.5 E.04185
G1 X110.746 Y91.5 E.84657
G1 X111.123 Y90.14 E.04425
M204 S1000
M73 P3 R6
M73 Q3 S6
G1 X111.497 Y90.252 F10800
M204 S800
G1 F1200
G1 X111.515 Y90.193 E.00193
G1 X112.56 Y89.317 E.04275
G1 X113.5 Y89.123 E.03009
G1 X136.5 Y89.123 E.72115
G1 X137.807 Y89.515 E.04278
G1 X138.683 Y90.56 E.04275
G1 X138.877 Y91.5 E.03009
G1 X138.877 Y118.5 E.84657
G1 X138.485 Y119.807 E.04278
G1 X137.44 Y120.683 E.04275
G1 X136.5 Y120.877 E.03009
G1 X113.5 Y120.877 E.72115
G1 X112.193 Y120.485 E.04278
M73 P4 R6
M73 Q4 S6
G1 X111.317 Y119.44 E.04275
G1 X111.123 Y118.5 E.03009
G1 X111.123 Y91.5 E.84657
G1 X111.479 Y90.31 E.03895
M204 S1000
; printing object AbdeckungKellerTuere.stl id:0 copy 0
;WIPE_START
G1 F8640
G1 X111.515 Y90.193 E-.02827
G1 X112.56 Y89.317 E-.31486
G1 X113.5 Y89.123 E-.22162
G1 X114.519 Y89.123 E-.23525
;WIPE_END
G1 Z.6 F720
G1 X135.713 Y117.713 F10800
G1 Z.2 F720
G1 E.8 F2100
M204 S800
;TYPE:Perimeter
;WIDTH:0.419999
G1 F1200
G1 X114.287 Y117.713 E.6718
G1 X114.287 Y92.287 E.79721
M73 Q5 S6
G1 X135.713 Y92.287 E.6718
M73 P5 R6
G1 X135.713 Y117.653 E.79533
M204 S1000
G1 X136.09 Y118.09 F10800
M204 S800
;TYPE:External perimeter
G1 F1200
G1 X113.91 Y118.09 E.69544
G1 X113.91 Y91.91 E.82085
M73 P6 R6
M73 Q6 S6
G1 X136.09 Y91.91 E.69544
G1 X136.09 Y118.03 E.81897
M204 S1000
G1 X135.707 Y117.976 F10800
;WIPE_START
M73 Q7 S6
G1 F8640
G1 X132.625 Y118.039 E-.8
;WIPE_END
G1 Z.6 F720
M73 P7 R6
G1 X134.774 Y92.457 F10800
G1 Z.2 F720
G1 E.8 F2100
M204 S800
;TYPE:Solid infill
;WIDTH:0.423181
G1 F1200
G1 X135.374 Y93.056 E.02681
G1 X135.374 Y93.594 E.01701
G1 X134.406 Y92.626 E.04328
G1 X133.868 Y92.626 E.01701
G1 X135.374 Y94.132 E.06734
G1 X135.374 Y94.669 E.01698
G1 X133.331 Y92.626 E.09135
G1 X132.793 Y92.626 E.01701
G1 X135.374 Y95.207 E.11541
G1 X135.374 Y95.745 E.01701
G1 X132.255 Y92.626 E.13947
G1 X131.717 Y92.626 E.01701
G1 X135.374 Y96.283 E.16353
G1 X135.374 Y96.82 E.01698
G1 X131.18 Y92.626 E.18754
G1 X130.642 Y92.626 E.01701
G1 X135.374 Y97.358 E.2116
G1 X135.374 Y97.896 E.01701
G1 X130.104 Y92.626 E.23565
G1 X129.566 Y92.626 E.01701
G1 X135.374 Y98.434 E.25971
G1 X135.374 Y98.972 E.01701
G1 X129.028 Y92.626 E.28377
G1 X128.491 Y92.626 E.01698
M73 Q8 S6
G1 X135.374 Y99.509 E.30778
G1 X135.374 Y100.047 E.01701
M73 P8 R6
G1 X127.953 Y92.626 E.33184
G1 X127.415 Y92.626 E.01701
G1 X135.374 Y100.585 E.35589
G1 X135.374 Y101.123 E.01701
G1 X126.877 Y92.626 E.37995
G1 X126.34 Y92.626 E.01698
G1 X135.374 Y101.66 E.40396
G1 X135.374 Y102.198 E.01701
G1 X125.802 Y92.626 E.42802
G1 X125.264 Y92.626 E.01701
G1 X135.374 Y102.736 E.45208
G1 X135.374 Y103.274 E.01701
M73 P9 R6
M73 Q9 S6
G1 X124.726 Y92.626 E.47613
G1 X124.189 Y92.626 E.01698
G1 X135.374 Y103.812 E.50017
G1 X135.374 Y104.349 E.01698
G1 X123.651 Y92.626 E.5242
G1 X123.113 Y92.626 E.01701
G1 X135.374 Y104.887 E.54826
G1 X135.374 Y105.425 E.01701
G1 X122.575 Y92.626 E.57232
G1 X122.037 Y92.626 E.01701
M73 P10 R6
M73 Q10 S6
G1 X135.374 Y105.963 E.59637
G1 X135.374 Y106.5 E.01698
G1 X121.5 Y92.626 E.62039
G1 X120.962 Y92.626 E.01701
G1 X135.374 Y107.038 E.64444
G1 X135.374 Y107.576 E.01701
G1 X120.424 Y92.626 E.6685
G1 X119.886 Y92.626 E.01701
M73 P11 R6
M73 Q11 S6
G1 X135.374 Y108.114 E.69256
G1 X135.374 Y108.651 E.01698
G1 X119.349 Y92.626 E.71657
G1 X118.811 Y92.626 E.01701
G1 X135.374 Y109.189 E.74063
G1 X135.374 Y109.727 E.01701
G1 X118.273 Y92.626 E.76468
G1 X117.735 Y92.626 E.01701
M73 P12 R6
M73 Q12 S6
G1 X135.374 Y110.265 E.78874
G1 X135.374 Y110.803 E.01701
G1 X117.197 Y92.626 E.8128
G1 X116.66 Y92.626 E.01698
G1 X135.374 Y111.34 E.83681
G1 X135.374 Y111.878 E.01701
M73 P13 R6
M73 Q13 S6
G1 X116.122 Y92.626 E.86087
G1 X115.584 Y92.626 E.01701
G1 X135.374 Y112.416 E.88493
G1 X135.374 Y112.954 E.01701
M73 P13 R5
M73 Q13 S5
G1 X115.046 Y92.626 E.90898
G1 X114.626 Y92.626 E.01328
M73 P14 R5
M73 Q14 S5
G1 X114.626 Y92.744 E.00373
G1 X135.374 Y113.491 E.92774
G1 X135.374 Y114.029 E.01701
G1 X114.626 Y93.282 E.92774
G1 X114.626 Y93.82 E.01701
G1 X135.374 Y114.567 E.92774
G1 X135.374 Y115.105 E.01701
M73 P15 R5
M73 Q15 S5
G1 X114.626 Y94.358 E.92774
G1 X114.626 Y94.895 E.01698
G1 X135.374 Y115.642 E.92774
G1 X135.374 Y116.18 E.01701
M73 P16 R5
M73 Q16 S5
G1 X114.626 Y95.433 E.92774
G1 X114.626 Y95.971 E.01701
G1 X135.374 Y116.718 E.92774
G1 X135.374 Y117.256 E.01701
G1 X114.626 Y96.509 E.92774
G1 X114.626 Y97.046 E.01698
M73 P17 R5
M73 Q17 S5
G1 X134.954 Y117.374 E.90898
G1 X134.416 Y117.374 E.01701
G1 X114.626 Y97.584 E.88493
G1 X114.626 Y98.122 E.01701
G1 X133.878 Y117.374 E.86087
G1 X133.34 Y117.374 E.01701
M73 P18 R5
M73 Q18 S5
G1 X114.626 Y98.66 E.83681
G1 X114.626 Y99.198 E.01701
G1 X132.802 Y117.374 E.81275
G1 X132.265 Y117.374 E.01698
G1 X114.626 Y99.735 E.78874
G1 X114.626 Y100.273 E.01701
M73 P19 R5
M73 Q19 S5
G1 X131.727 Y117.374 E.76468
G1 X131.189 Y117.374 E.01701
G1 X114.626 Y100.811 E.74063
G1 X114.626 Y101.349 E.01701
G1 X130.651 Y117.374 E.71657
G1 X130.114 Y117.374 E.01698
M73 Q20 S5
G1 X114.626 Y101.886 E.69256
G1 X114.626 Y102.424 E.01701
M73 P20 R5
G1 X129.576 Y117.374 E.6685
G1 X129.038 Y117.374 E.01701
G1 X114.626 Y102.962 E.64444
G1 X114.626 Y103.5 E.01701
G1 X128.5 Y117.374 E.62039
G1 X127.963 Y117.374 E.01698
M73 Q21 S5
G1 X114.626 Y104.037 E.59637
M73 P21 R5
G1 X114.626 Y104.575 E.01701
G1 X127.425 Y117.374 E.57232
G1 X126.887 Y117.374 E.01701
G1 X114.626 Y105.113 E.54826
G1 X114.626 Y105.651 E.01701
G1 X126.349 Y117.374 E.5242
G1 X125.811 Y117.374 E.01701
G1 X114.626 Y106.189 E.50015
G1 X114.626 Y106.726 E.01698
M73 P22 R5
M73 Q22 S5
G1 X125.274 Y117.374 E.47613
G1 X124.736 Y117.374 E.01701
G1 X114.626 Y107.264 E.45208
G1 X114.626 Y107.802 E.01701
G1 X124.198 Y117.374 E.42802
G1 X123.66 Y117.374 E.01701
G1 X114.626 Y108.34 E.40396
G1 X114.626 Y108.877 E.01698
G1 X123.123 Y117.374 E.37995
G1 X122.585 Y117.374 E.01701
M73 Q23 S5
G1 X114.626 Y109.415 E.35589
G1 X114.626 Y109.953 E.01701
M73 P23 R5
G1 X122.047 Y117.374 E.33184
G1 X121.509 Y117.374 E.01701
G1 X114.626 Y110.491 E.30778
G1 X114.626 Y111.028 E.01698
G1 X120.972 Y117.374 E.28377
G1 X120.434 Y117.374 E.01701
G1 X114.626 Y111.566 E.25971
G1 X114.626 Y112.104 E.01701
G1 X119.896 Y117.374 E.23565
G1 X119.358 Y117.374 E.01701
G1 X114.626 Y112.642 E.2116
G1 X114.626 Y113.18 E.01701
G1 X118.82 Y117.374 E.18754
G1 X118.283 Y117.374 E.01698
G1 X114.626 Y113.717 E.16353
G1 X114.626 Y114.255 E.01701
G1 X117.745 Y117.374 E.13947
G1 X117.207 Y117.374 E.01701
M73 Q24 S5
G1 X114.626 Y114.793 E.11541
G1 X114.626 Y115.331 E.01701
M73 P24 R5
G1 X116.669 Y117.374 E.09135
G1 X116.132 Y117.374 E.01698
G1 X114.626 Y115.868 E.06734
G1 X114.626 Y116.406 E.01701
G1 X115.594 Y117.374 E.04328
G1 X115.056 Y117.374 E.01701
G1 X114.457 Y116.774 E.02681
M204 S1000
; stop printing object AbdeckungKellerTuere.stl id:0 copy 0
M106 S84.15
;LAYER_CHANGE
;Z:0.4
;HEIGHT:0.2
;BEFORE_LAYER_CHANGE
G92 E0.0
;0.4


;WIPE_START
G1 F8640
G1 X115.056 Y117.374 E-.19576
G1 X115.594 Y117.374 E-.12423
G1 X114.626 Y116.406 E-.3161
G1 X114.626 Y115.868 E-.12423
G1 X114.748 Y115.99 E-.03968
;WIPE_END
G1 Z.6 F720
;AFTER_LAYER_CHANGE
;0.4
G1 X110.746 Y115.99 F10800
G1 Z.4 F720
G1 E.8 F2100
;TYPE:Skirt/Brim
;WIDTH:0.42
G1 F3000
G1 X110.746 Y91.5 E.76787
G1 X111.139 Y90.083 E.04611
G1 X112.205 Y89.069 E.04613
G1 X113.5 Y88.746 E.04185
G1 X136.5 Y88.746 E.72115
G1 X137.917 Y89.139 E.04611
G1 X138.931 Y90.205 E.04613
G1 X139.254 Y91.5 E.04185
G1 X139.254 Y118.5 E.84657
G1 X138.861 Y119.917 E.04611
G1 X137.795 Y120.931 E.04613
G1 X136.5 Y121.254 E.04185
G1 X113.5 Y121.254 E.72115
G1 X112.083 Y120.861 E.04611
G1 X111.069 Y119.795 E.04613
G1 X110.746 Y118.5 E.04185
G1 X110.746 Y116.05 E.07682
G1 X111.123 Y116.05 F10800
G1 F3000
G1 X111.123 Y91.5 E.76975
G1 X111.515 Y90.193 E.04278
M73 P25 R5
M73 Q25 S5
G1 X112.56 Y89.317 E.04275
G1 X113.5 Y89.123 E.03009
G1 X136.5 Y89.123 E.72115
G1 X137.807 Y89.515 E.04278
G1 X138.683 Y90.56 E.04275
G1 X138.877 Y91.5 E.03009
G1 X138.877 Y118.5 E.84657
G1 X138.485 Y119.807 E.04278
G1 X137.44 Y120.683 E.04275
G1 X136.5 Y120.877 E.03009
G1 X113.5 Y120.877 E.72115
G1 X112.193 Y120.485 E.04278
G1 X111.317 Y119.44 E.04275
G1 X111.123 Y118.5 E.03009
G1 X111.123 Y116.11 E.07494
; printing object AbdeckungKellerTuere.stl id:0 copy 0
;WIPE_START
G1 F8640
G1 X111.123 Y112.645 E-.8
;WIPE_END
G1 Z.8 F720
G1 X135.868 Y117.868 F10800
G1 Z.4 F720
G1 E.8 F2100
M204 S800
;TYPE:Perimeter
;WIDTH:0.449999
G1 F2700
G1 X114.132 Y117.868 E.73574
G1 X114.132 Y92.132 E.87113
G1 X135.868 Y92.132 E.73574
G1 X135.868 Y117.808 E.8691
M204 S1000
M73 P26 R5
M73 Q26 S5
G1 X136.275 Y118.275 F10800
M204 S800
;TYPE:External perimeter
G1 F1500
G1 X113.725 Y118.275 E.76329
G1 X113.725 Y91.725 E.89868
G1 X136.275 Y91.725 E.76329
G1 X136.275 Y118.215 E.89665
M204 S1000
G1 X135.892 Y118.161 F10800
;WIPE_START
M73 P27 R5
M73 Q27 S5
G1 F8640
G1 X132.81 Y118.224 E-.8
;WIPE_END
G1 Z.8 F720
G1 X114.609 Y92.531 F10800
G1 Z.4 F720
G1 E.8 F2100
;TYPE:Solid infill
;WIDTH:0.548766
G1 F4800
G1 X114.564 Y92.487 E.00265
G1 X114.503 Y92.503 E.00265
G1 X114.487 Y92.564 E.00265
G1 X114.531 Y92.609 E.00265
G1 X114.593 Y92.593 E.00269
;WIDTH:0.449999
G1 X115.243 Y92.498 E.02224
G1 X114.432 Y93.315 E.03897
;WIDTH:0.41646
G1 X114.366 Y93.388 E.00306
;WIDTH:0.38292
G1 X114.295 Y93.369 E.00208
G1 X114.314 Y93.44 E.00208
G1 X114.355 Y93.429 E.0012
;WIDTH:0.449999
G1 X114.498 Y93.818 E.01403
G1 X115.818 Y92.498 E.06319
G1 X116.394 Y92.498 E.0195
G1 X114.498 Y94.394 E.09076
G1 X114.498 Y94.97 E.0195
G1 X116.97 Y92.498 E.11833
G1 X117.546 Y92.498 E.0195
G1 X114.498 Y95.546 E.14591
G1 X114.498 Y96.121 E.01946
G1 X118.121 Y92.498 E.17343
G1 X118.697 Y92.498 E.0195
G1 X114.498 Y96.697 E.201
G1 X114.498 Y97.273 E.0195
G1 X119.273 Y92.498 E.22858
G1 X119.848 Y92.498 E.01946
G1 X114.498 Y97.848 E.2561
G1 X114.498 Y98.424 E.0195
G1 X120.424 Y92.498 E.28367
G1 X121 Y92.498 E.0195
G1 X114.498 Y99 E.31125
G1 X114.498 Y99.575 E.01946
G1 X121.575 Y92.498 E.33877
G1 X122.151 Y92.498 E.0195
G1 X114.498 Y100.151 E.36634
G1 X114.498 Y100.727 E.0195
G1 X122.727 Y92.498 E.39392
G1 X123.303 Y92.498 E.0195
G1 X114.498 Y101.303 E.42149
G1 X114.498 Y101.878 E.01946
M73 Q28 S5
G1 X123.878 Y92.498 E.44901
G1 X124.454 Y92.498 E.0195
M73 P28 R5
G1 X114.498 Y102.454 E.47659
G1 X114.498 Y103.03 E.0195
M73 P28 R4
G1 X125.03 Y92.498 E.50416
G1 X125.605 Y92.498 E.01946
M73 Q28 S4
G1 X114.498 Y103.605 E.53169
G1 X114.498 Y104.181 E.0195
G1 X126.181 Y92.498 E.55926
G1 X126.757 Y92.498 E.0195
G1 X114.498 Y104.757 E.58683
G1 X114.498 Y105.332 E.01946
G1 X127.332 Y92.498 E.61436
G1 X127.908 Y92.498 E.0195
G1 X114.498 Y105.908 E.64193
G1 X114.498 Y106.484 E.0195
G1 X128.484 Y92.498 E.6695
G1 X129.059 Y92.498 E.01946
G1 X114.498 Y107.059 E.69703
G1 X114.498 Y107.635 E.0195
G1 X129.635 Y92.498 E.7246
G1 X130.211 Y92.498 E.0195
G1 X114.498 Y108.211 E.75217
G1 X114.498 Y108.787 E.0195
G1 X130.787 Y92.498 E.77974
G1 X131.362 Y92.498 E.01946
M73 Q29 S4
G1 X114.498 Y109.362 E.80727
G1 X114.498 Y109.938 E.0195
M73 P29 R4
G1 X131.938 Y92.498 E.83484
G1 X132.514 Y92.498 E.0195
G1 X114.498 Y110.514 E.86241
G1 X114.498 Y111.089 E.01946
G1 X133.089 Y92.498 E.88994
G1 X133.665 Y92.498 E.0195
G1 X114.498 Y111.665 E.91751
G1 X114.498 Y112.241 E.0195
G1 X134.241 Y92.498 E.94509
G1 X134.816 Y92.498 E.01946
G1 X114.498 Y112.816 E.97261
G1 X114.498 Y113.392 E.0195
G1 X135.392 Y92.498 E1.00018
G1 X135.502 Y92.965 E.01624
G1 X114.498 Y113.968 E1.00542
G1 X114.498 Y114.544 E.0195
G1 X135.502 Y93.54 E1.00545
G1 X135.502 Y94.116 E.0195
M73 P30 R4
M73 Q30 S4
G1 X114.498 Y115.119 E1.00542
G1 X114.498 Y115.695 E.0195
G1 X135.502 Y94.692 E1.00542
G1 X135.502 Y95.268 E.0195
G1 X114.498 Y116.271 E1.00542
G1 X114.498 Y116.846 E.01946
G1 X135.502 Y95.843 E1.00542
G1 X135.502 Y96.419 E.0195
G1 X114.498 Y117.422 E1.00542
G1 X114.543 Y117.538 E.00421
;WIDTH:0.41646
G1 X114.587 Y117.654 E.00385
;WIDTH:0.38292
G1 X114.363 Y117.637 E.00635
;WIDTH:0.449999
G1 X114.995 Y117.502 E.02188
G1 X135.502 Y96.995 E.98166
G1 X135.502 Y97.57 E.01946
G1 X115.57 Y117.502 E.95413
G1 X116.146 Y117.502 E.0195
G1 X135.502 Y98.146 E.92656
G1 X135.502 Y98.722 E.0195
G1 X116.722 Y117.502 E.89899
G1 X117.297 Y117.502 E.01946
M73 P31 R4
M73 Q31 S4
G1 X135.502 Y99.297 E.87146
G1 X135.502 Y99.873 E.0195
G1 X117.873 Y117.502 E.84389
G1 X118.449 Y117.502 E.0195
G1 X135.502 Y100.449 E.81632
G1 X135.502 Y101.024 E.01946
G1 X119.024 Y117.502 E.78879
G1 X119.6 Y117.502 E.0195
G1 X135.502 Y101.6 E.76122
G1 X135.502 Y102.176 E.0195
G1 X120.176 Y117.502 E.73365
G1 X120.752 Y117.502 E.0195
G1 X135.502 Y102.752 E.70607
G1 X135.502 Y103.327 E.01946
G1 X121.327 Y117.502 E.67855
G1 X121.903 Y117.502 E.0195
G1 X135.502 Y103.903 E.65098
G1 X135.502 Y104.479 E.0195
G1 X122.479 Y117.502 E.6234
G1 X123.054 Y117.502 E.01946
G1 X135.502 Y105.054 E.59588
G1 X135.502 Y105.63 E.0195
M73 Q32 S4
G1 X123.63 Y117.502 E.56831
G1 X124.206 Y117.502 E.0195
M73 P32 R4
G1 X135.502 Y106.206 E.54073
G1 X135.502 Y106.781 E.01946
G1 X124.781 Y117.502 E.51321
G1 X125.357 Y117.502 E.0195
G1 X135.502 Y107.357 E.48563
G1 X135.502 Y107.933 E.0195
G1 X125.933 Y117.502 E.45806
G1 X126.509 Y117.502 E.0195
G1 X135.502 Y108.509 E.43049
G1 X135.502 Y109.084 E.01946
G1 X127.084 Y117.502 E.40296
G1 X127.66 Y117.502 E.0195
G1 X135.502 Y109.66 E.37539
G1 X135.502 Y110.236 E.0195
G1 X128.236 Y117.502 E.34782
G1 X128.811 Y117.502 E.01946
G1 X135.502 Y110.811 E.32029
G1 X135.502 Y111.387 E.0195
G1 X129.387 Y117.502 E.29272
G1 X129.963 Y117.502 E.0195
G1 X135.502 Y111.963 E.26515
G1 X135.502 Y112.538 E.01946
G1 X130.538 Y117.502 E.23762
G1 X131.114 Y117.502 E.0195
G1 X135.502 Y113.114 E.21005
G1 X135.502 Y113.69 E.0195
G1 X131.69 Y117.502 E.18248
G1 X132.266 Y117.502 E.0195
G1 X135.502 Y114.266 E.15491
G1 X135.502 Y114.841 E.01946
G1 X132.841 Y117.502 E.12738
G1 X133.417 Y117.502 E.0195
G1 X135.502 Y115.417 E.09981
G1 X135.502 Y115.993 E.0195
G1 X133.993 Y117.502 E.07223
G1 X134.568 Y117.502 E.01946
G1 X135.502 Y116.568 E.04471
