; generated by PrusaSlicer 2.6.0+win64 on 2023-12-18 at 15:39:44 UTC


;
;
; 

; external perimeters extrusion width = 0.60mm
; perimeters extrusion width = 0.50mm
; infill extrusion width = 0.50mm
; solid infill extrusion width = 0.50mm
; top infill extrusion width = 0.45mm
; first layer extrusion width = 0.42mm

M73 P0 R26
M73 Q0 S26
M201 X1000 Y1000 Z200 E5000 ; sets maximum accelerations, mm/sec^2
M203 X200 Y200 Z12 E120 ; sets maximum feedrates, mm / sec
M204 S1250 T1250 ; sets acceleration (S) and retract acceleration (R), mm/sec^2
M205 X8.00 Y8.00 Z0.40 E4.50 ; sets the jerk limits, mm/sec
M205 S0 T0 ; sets the minimum extruding and travel feed rate, mm/sec
;TYPE:Custom
M862.3 P "MK3S" ; printer model check
M862.1 P0.4 ; nozzle diameter check
M115 U3.12.2 ; tell printer latest fw version
G90 ; use absolute coordinates
M83 ; extruder relative mode
M104 S215 ; set extruder temp
M140 S60 ; set bed temp
M190 S60 ; wait for bed temp
M109 S215 ; wait for extruder temp
G28 W ; home all without mesh bed level
G80 ; mesh bed leveling

G1 Z0.2 F720
G1 Y-3 F1000 ; go outside print area
G92 E0
G1 X60 E9 F1000 ; intro line
G1 X100 E12.5 F1000 ; intro line

G92 E0
M221 S95

; Don't change E values below. Excessive value can damage the printer.

M907 E538 ; set extruder motor current
G21 ; set units to millimeters
G90 ; use absolute coordinates
M83 ; use relative distances for extrusion
M900 K0.05 ; Filament gcode LA 1.5
M900 K30 ; Filament gcode LA 1.0
M107
;LAYER_CHANGE
;Z:0.2
;HEIGHT:0.2
;BEFORE_LAYER_CHANGE
G92 E0.0
;0.2


G1 E-.8 F2100
G1 Z.4 F720
;AFTER_LAYER_CHANGE
;0.2
G1 X107.752 Y90.746 F10800
G1 Z.2 F720
G1 E.8 F2100
M204 S800
;TYPE:Skirt/Brim
;WIDTH:0.42
G1 F1200
G1 X109.53 Y88.823 E.08212
G1 X110.896 Y87.63 E.05686
G1 X112.667 Y86.332 E.06885
G1 X114.519 Y85.231 E.06755
G1 X116.9 Y84.134 E.0822
G1 X118.616 Y83.555 E.05678
G1 X120.749 Y83.033 E.06885
G1 X122.884 Y82.724 E.06764
G1 X125.656 Y82.628 E.08697
G1 X127.309 Y82.745 E.05196
G1 X129.48 Y83.078 E.06887
G1 X131.569 Y83.61 E.06759
G1 X134.028 Y84.519 E.0822
G1 X135.65 Y85.323 E.05676
G1 X137.527 Y86.461 E.06882
G1 X139.254 Y87.752 E.06761
G1 X141.177 Y89.53 E.08212
G1 X142.37 Y90.896 E.05686
G1 X143.668 Y92.667 E.06885
G1 X144.769 Y94.519 E.06755
G1 X145.866 Y96.9 E.0822
G1 X146.445 Y98.616 E.05678
G1 X146.967 Y100.749 E.06885
G1 X147.276 Y102.884 E.06764
G1 X147.377 Y105.5 E.08208
G1 X147.255 Y107.309 E.05685
G1 X146.922 Y109.48 E.06887
G1 X146.39 Y111.569 E.06759
G1 X145.481 Y114.028 E.0822
G1 X144.677 Y115.65 E.05676
G1 X143.539 Y117.527 E.06882
G1 X142.248 Y119.254 E.06761
G1 X140.47 Y121.177 E.08212
G1 X139.104 Y122.37 E.05686
G1 X137.333 Y123.668 E.06885
G1 X135.481 Y124.769 E.06755
G1 X133.1 Y125.866 E.0822
G1 X131.384 Y126.445 E.05678
G1 X129.251 Y126.967 E.06885
G1 X127.116 Y127.276 E.06764
G1 X124.5 Y127.377 E.08208
G1 X122.691 Y127.255 E.05685
G1 X120.52 Y126.922 E.06887
G1 X118.431 Y126.39 E.06759
G1 X115.972 Y125.481 E.0822
G1 X114.35 Y124.677 E.05676
G1 X112.473 Y123.539 E.06882
G1 X110.746 Y122.248 E.06761
G1 X108.823 Y120.47 E.08212
G1 X107.63 Y119.104 E.05686
G1 X106.332 Y117.333 E.06885
G1 X105.231 Y115.481 E.06755
G1 X104.134 Y113.1 E.0822
G1 X103.555 Y111.384 E.05678
G1 X103.033 Y109.251 E.06885
G1 X102.724 Y107.116 E.06764
G1 X102.623 Y104.5 E.08208
G1 X102.745 Y102.691 E.05685
G1 X103.078 Y100.52 E.06887
G1 X103.61 Y98.431 E.06759
G1 X104.519 Y95.972 E.0822
G1 X105.323 Y94.35 E.05676
G1 X106.461 Y92.473 E.06882
G1 X107.716 Y90.794 E.06572
M204 S1000
; printing object Abflusssieb.stl id:0 copy 0
;WIPE_START
G1 F8640
G1 X109.53 Y88.823 E-.61852
G1 X110.122 Y88.306 E-.18148
;WIPE_END
G1 Z.6 F720
G1 X115.8 Y101.596 F10800
G1 Z.2 F720
G1 E.8 F2100
M204 S800
;TYPE:External perimeter
;WIDTH:0.413821
G1 F1200
G1 X115.64 Y102.112 E.01666
;WIDTH:0.404405
G1 X115.397 Y103.062 E.02947
G1 X115.253 Y104.013 E.02891
;WIDTH:0.404554
G1 X115.25 Y104.04 E.00082
;WIDTH:0.413736
G1 X115.198 Y104.624 E.01808
;WIDTH:0.419999
G1 X115.064 Y104.706 E.00493
;WIDTH:0.464399
G1 X114.549 Y104.78 E.01823
G1 X114.063 Y104.809 E.01706
;WIDTH:0.425481
G1 X111.048 Y104.811 E.09591
;WIDTH:0.462581
G1 X111.003 Y104.811 E.00157
;WIDTH:0.505199
G1 X110.958 Y104.811 E.00173
;WIDTH:0.547818
G1 X110.912 Y104.811 E.00193
;WIDTH:0.590436
G1 X110.867 Y104.811 E.00205
;WIDTH:0.633054
G1 X110.821 Y104.811 E.00226
G1 X110.824 Y104.575 E.01158
;WIDTH:0.59171
G1 X110.826 Y104.339 E.01077
;WIDTH:0.550366
G1 X110.828 Y104.102 E.01
;WIDTH:0.509022
G1 X110.831 Y103.866 E.00915
;WIDTH:0.467678
G1 X110.833 Y103.629 E.00837
;WIDTH:0.426333
G1 X110.836 Y103.597 E.00102
;WIDTH:0.423915
G1 X111.036 Y102.231 E.04374
;WIDTH:0.419922
G1 X111.04 Y102.213 E.00058
;WIDTH:0.423662
G1 X111.377 Y100.876 E.04365
;WIDTH:0.460407
G1 X111.569 Y100.394 E.01801
;WIDTH:0.497151
G1 X111.761 Y99.912 E.0196
;WIDTH:0.542459
G1 X111.784 Y99.858 E.00244
;WIDTH:0.587766
G1 X111.807 Y99.803 E.0027
;WIDTH:0.633073
G1 X111.829 Y99.748 E.00291
G1 X111.871 Y99.766 E.00224
;WIDTH:0.590451
G1 X111.913 Y99.783 E.00206
;WIDTH:0.547829
G1 X111.955 Y99.801 E.00192
;WIDTH:0.505206
G1 X111.997 Y99.818 E.00174
;WIDTH:0.462584
G1 X112.039 Y99.835 E.00158
;WIDTH:0.426145
G1 X114.833 Y100.995 E.0964
;WIDTH:0.460599
G1 X115.29 Y101.199 E.01738
G1 X115.715 Y101.473 E.01756
;WIDTH:0.419999
G1 X115.766 Y101.547 E.00282
M204 S1000
;WIPE_START
G1 F8640
G1 X115.64 Y102.112 E-.13366
G1 X115.397 Y103.062 E-.22642
G1 X115.253 Y104.013 E-.22209
G1 X115.25 Y104.04 E-.00627
G1 X115.198 Y104.624 E-.13538
G1 X115.064 Y104.706 E-.03627
G1 X114.893 Y104.731 E-.03991
;WIPE_END
G1 Z.6 F720
G1 X122.575 Y104.787 F10800
M73 Q1 S26
G1 Z.2 F720
G1 E.8 F2100
M204 S800
;WIDTH:0.550904
M73 P1 R26
G1 F1200
G1 X122.51 Y104.795 E.00277
;WIDTH:0.507253
G1 X122.445 Y104.803 E.00253
;WIDTH:0.463602
G1 X122.38 Y104.812 E.0023
;WIDTH:0.421651
G1 X121.813 Y104.809 E.01786
;WIDTH:0.463661
G1 X120.883 Y104.781 E.03255
;WIDTH:0.495407
G1 X120.622 Y104.77 E.00983
;WIDTH:0.527152
G1 X120.362 Y104.759 E.01048
;WIDTH:0.553878
G1 X120.302 Y104.759 E.00255
G1 X120.259 Y104.698 E.00317
;WIDTH:0.524439
G1 X120.216 Y104.638 E.00296
G1 X120.173 Y104.699 E.00299
;WIDTH:0.553878
G1 X120.131 Y104.759 E.00311
G1 X119.789 Y104.776 E.01455
;WIDTH:0.511749
G1 X119.447 Y104.792 E.01335
;WIDTH:0.46962
G1 X119.105 Y104.809 E.01215
;WIDTH:0.427491
G1 X119.086 Y104.809 E.00061
;WIDTH:0.425482
G1 X116.73 Y104.809 E.07494
G1 X115.75 Y104.706 E.03135
;WIDTH:0.419999
G1 X115.616 Y104.624 E.00493
;WIDTH:0.413736
G1 X115.588 Y104.51 E.00362
;WIDTH:0.404414
G1 X115.611 Y104.066 E.01336
G1 X115.744 Y103.168 E.02729
;WIDTH:0.405076
G1 X115.974 Y102.253 E.02841
;WIDTH:0.405318
G1 X116.124 Y101.835 E.01338
;WIDTH:0.419999
G1 X116.241 Y101.73 E.00493
;WIDTH:0.427503
G1 X117.27 Y102.005 E.03406
G1 X118.159 Y102.374 E.03078
;WIDTH:0.423768
G1 X119.028 Y102.732 E.02976
;WIDTH:0.457562
G1 X119.468 Y102.932 E.01666
;WIDTH:0.491355
G1 X119.908 Y103.132 E.01802
;WIDTH:0.525148
G1 X120.348 Y103.333 E.0194
;WIDTH:0.553538
G1 X120.41 Y103.358 E.00284
G1 X120.446 Y103.495 E.00601
G1 X120.568 Y103.425 E.00597
G1 X120.889 Y103.54 E.01448
;WIDTH:0.511543
G1 X121.21 Y103.655 E.01329
;WIDTH:0.469548
G1 X121.531 Y103.77 E.0121
;WIDTH:0.427553
G1 X121.549 Y103.778 E.00063
;WIDTH:0.425493
G1 X122.507 Y104.171 E.03294
;WIDTH:0.463822
G1 X122.564 Y104.204 E.00231
;WIDTH:0.507681
G1 X122.621 Y104.236 E.00253
;WIDTH:0.55154
G1 X122.678 Y104.269 E.00279
G1 X122.587 Y104.728 E.01979
M204 S1000
G1 X122.579 Y104.852 F10800
;WIPE_START
G1 F8640
G1 X122.51 Y104.795 E-.02357
G1 X122.445 Y104.803 E-.01512
G1 X122.38 Y104.812 E-.01515
G1 X121.813 Y104.809 E-.13092
G1 X120.883 Y104.781 E-.21484
G1 X120.622 Y104.77 E-.06032
G1 X120.362 Y104.759 E-.06009
G1 X120.302 Y104.759 E-.01385
G1 X120.259 Y104.698 E-.01723
G1 X120.216 Y104.638 E-.01704
G1 X120.173 Y104.699 E-.01723
G1 X120.131 Y104.759 E-.01691
G1 X119.789 Y104.776 E-.07907
G1 X119.447 Y104.792 E-.07906
G1 X119.276 Y104.801 E-.0396
;WIPE_END
G1 Z.6 F720
G1 X118.011 Y98.679 F10800
G1 Z.2 F720
G1 E.8 F2100
M204 S800
;WIDTH:0.419999
G1 F1200
G1 X118.159 Y98.626 E.00493
;WIDTH:0.427489
G1 X119.004 Y99.275 E.03407
G1 X119.687 Y99.955 E.03082
;WIDTH:0.434692
G1 X120.686 Y100.95 E.04593
;WIDTH:0.479814
G1 X121.011 Y101.313 E.0177
;WIDTH:0.524935
G1 X121.337 Y101.676 E.01955
;WIDTH:0.553303
G1 X121.387 Y101.727 E.00303
G1 X121.368 Y101.866 E.00595
G1 X121.508 Y101.848 E.00599
G1 X121.761 Y102.078 E.01451
;WIDTH:0.51138
G1 X122.013 Y102.307 E.01326
;WIDTH:0.469451
G1 X122.266 Y102.537 E.01213
;WIDTH:0.427522
G1 X122.279 Y102.55 E.00059
;WIDTH:0.425483
G1 X123.014 Y103.28 E.03295
;WIDTH:0.463873
G1 X123.054 Y103.332 E.0023
;WIDTH:0.507834
G1 X123.095 Y103.384 E.00256
;WIDTH:0.551795
G1 X123.135 Y103.436 E.00278
G1 X122.842 Y103.875 E.02233
;WIDTH:0.55114
G1 X122.778 Y103.858 E.0028
;WIDTH:0.507414
G1 X122.715 Y103.84 E.00253
;WIDTH:0.463688
G1 X122.652 Y103.823 E.00228
;WIDTH:0.425495
G1 X121.695 Y103.424 E.03298
;WIDTH:0.459484
G1 X121.399 Y103.283 E.01136
;WIDTH:0.493473
G1 X121.103 Y103.143 E.01227
;WIDTH:0.527461
G1 X120.807 Y103.002 E.01321
;WIDTH:0.553531
G1 X120.751 Y102.979 E.00257
G1 X120.735 Y102.906 E.00317
;WIDTH:0.524138
G1 X120.719 Y102.834 E.00295
G1 X120.656 Y102.874 E.00299
;WIDTH:0.553531
G1 X120.593 Y102.914 E.00317
G1 X120.271 Y102.8 E.0145
;WIDTH:0.514584
G1 X119.948 Y102.686 E.01343
;WIDTH:0.475637
G1 X119.625 Y102.572 E.01232
;WIDTH:0.436689
G1 X118.303 Y102.023 E.04687
;WIDTH:0.425492
G1 X117.433 Y101.659 E.03
G1 X116.567 Y101.188 E.03136
;WIDTH:0.419999
G1 X116.494 Y101.118 E.00317
G1 X116.493 Y100.945 E.00542
;WIDTH:0.40446
G1 X116.683 Y100.544 E.01334
;WIDTH:0.404568
G1 X117.15 Y99.765 E.02731
;WIDTH:0.405359
G1 X117.712 Y99.008 E.02841
G1 X117.97 Y98.723 E.01159
M204 S1000
G1 X118.01 Y98.522 F10800
G1 X117.803 Y98.335
M204 S800
;WIDTH:0.413764
G1 F1200
G1 X117.458 Y98.749 E.01662
;WIDTH:0.404557
G1 X116.87 Y99.534 E.02949
G1 X116.373 Y100.358 E.02894
;WIDTH:0.405362
G1 X116.151 Y100.823 E.01553
;WIDTH:0.419999
G1 X116.034 Y100.928 E.00493
;WIDTH:0.460599
G1 X115.463 Y100.806 E.02028
;WIDTH:0.464454
G1 X115.429 Y100.798 E.00122
G1 X114.969 Y100.638 E.01707
;WIDTH:0.425486
G1 X112.183 Y99.487 E.09589
;WIDTH:0.462583
G1 X112.141 Y99.469 E.00159
;WIDTH:0.505206
G1 X112.099 Y99.452 E.00174
;WIDTH:0.547828
G1 X112.057 Y99.435 E.0019
;WIDTH:0.590451
G1 X112.015 Y99.417 E.00208
;WIDTH:0.633073
G1 X111.973 Y99.4 E.00222
G1 X112.066 Y99.182 E.01163
;WIDTH:0.59173
G1 X112.158 Y98.965 E.01076
;WIDTH:0.550387
G1 X112.251 Y98.747 E.01
;WIDTH:0.509043
G1 X112.344 Y98.53 E.00915
;WIDTH:0.4677
G1 X112.436 Y98.312 E.00836
;WIDTH:0.426356
G1 X112.451 Y98.284 E.00101
;WIDTH:0.423933
G1 X113.159 Y97.099 E.04373
;WIDTH:0.419914
G1 X113.169 Y97.083 E.00059
;WIDTH:0.423857
G1 X113.993 Y95.977 E.04369
;WIDTH:0.460758
G1 X114.354 Y95.606 E.01798
;WIDTH:0.497659
G1 X114.715 Y95.234 E.0196
;WIDTH:0.542969
G1 X114.757 Y95.192 E.00247
;WIDTH:0.588278
G1 X114.799 Y95.15 E.00269
;WIDTH:0.633587
G1 X114.841 Y95.108 E.00292
G1 X114.885 Y95.134 E.00251
;WIDTH:0.587544
G1 X114.929 Y95.16 E.00231
;WIDTH:0.5415
G1 X114.953 Y95.196 E.00179
;WIDTH:0.500987
G1 X114.978 Y95.233 E.0017
;WIDTH:0.460474
G1 X115.002 Y95.269 E.0015
;WIDTH:0.426131
G1 X117.139 Y97.41 E.09639
;WIDTH:0.461724
G1 X117.485 Y97.772 E.01744
G1 X117.771 Y98.188 E.01758
;WIDTH:0.419999
G1 X117.79 Y98.276 E.00282
M204 S1000
G1 X118.275 Y97.807 F10800
M204 S800
;WIDTH:0.461724
G1 F1200
G1 X117.793 Y97.476 E.02036
G1 X117.415 Y97.145 E.0175
;WIDTH:0.427233
G1 X117.402 Y97.132 E.00059
;WIDTH:0.425477
G1 X115.269 Y95.002 E.09589
;WIDTH:0.460474
G1 X115.232 Y94.978 E.00153
;WIDTH:0.500987
G1 X115.196 Y94.953 E.00167
;WIDTH:0.5415
G1 X115.16 Y94.929 E.00179
;WIDTH:0.587544
G1 X115.134 Y94.885 E.00231
;WIDTH:0.633588
G1 X115.108 Y94.841 E.00251
G1 X115.277 Y94.676 E.0116
;WIDTH:0.592133
G1 X115.446 Y94.51 E.01082
;WIDTH:0.550677
G1 X115.614 Y94.344 E.00997
;WIDTH:0.509222
G1 X115.783 Y94.179 E.00916
;WIDTH:0.467766
G1 X115.952 Y94.013 E.00837
;WIDTH:0.42631
G1 X115.977 Y93.993 E.00102
;WIDTH:0.423859
G1 X117.084 Y93.169 E.04371
;WIDTH:0.419911
G1 X117.1 Y93.158 E.00061
;WIDTH:0.423695
G1 X118.283 Y92.451 E.04363
;WIDTH:0.460452
G1 X118.76 Y92.247 E.01801
;WIDTH:0.497209
G1 X119.236 Y92.042 E.01958
;WIDTH:0.542507
G1 X119.291 Y92.019 E.00248
;WIDTH:0.587804
G1 X119.345 Y91.996 E.00266
;WIDTH:0.633101
G1 X119.4 Y91.974 E.00291
G1 X119.417 Y92.016 E.00222
;WIDTH:0.590473
G1 X119.435 Y92.058 E.00208
;WIDTH:0.547845
G1 X119.452 Y92.1 E.0019
;WIDTH:0.505217
G1 X119.47 Y92.142 E.00176
;WIDTH:0.462589
G1 X119.487 Y92.184 E.00158
;WIDTH:0.426142
G1 X120.642 Y94.979 E.09637
;WIDTH:0.451959
G1 X120.736 Y95.212 E.00855
;WIDTH:0.477776
G1 X120.83 Y95.444 E.00905
;WIDTH:0.519655
G1 X120.882 Y95.561 E.00508
;WIDTH:0.561533
G1 X120.934 Y95.678 E.00552
;WIDTH:0.603412
G1 X120.985 Y95.795 E.00595
;WIDTH:0.64529
G1 X121.037 Y95.912 E.00641
G1 X121.037 Y96.062 E.00751
G1 X121.01 Y96.083 E.00171
;WIDTH:0.611637
G1 X120.983 Y96.103 E.00159
;WIDTH:0.577984
G1 X120.956 Y96.123 E.00149
;WIDTH:0.544331
G1 X120.779 Y96.195 E.00797
;WIDTH:0.497622
G1 X120.601 Y96.267 E.00726
;WIDTH:0.450912
G1 X120.424 Y96.339 E.00648
;WIDTH:0.404568
G1 X119.58 Y96.839 E.0295
G1 X118.805 Y97.411 E.02897
;WIDTH:0.405184
G1 X118.423 Y97.755 E.01548
;WIDTH:0.419999
G1 X118.331 Y97.787 E.00305
M204 S1000
G1 X118.631 Y98.099 F10800
M204 S800
;WIDTH:0.413683
G1 F1200
G1 X118.692 Y97.998 E.00364
;WIDTH:0.404375
G1 X119.021 Y97.701 E.01332
;WIDTH:0.404559
G1 X119.75 Y97.16 E.0273
;WIDTH:0.405173
G1 X120.578 Y96.666 E.02904
;WIDTH:0.450912
G1 X120.744 Y96.581 E.00633
;WIDTH:0.497622
G1 X120.909 Y96.496 E.00702
;WIDTH:0.544331
G1 X121.075 Y96.411 E.00778
;WIDTH:0.577984
G1 X121.109 Y96.406 E.00153
;WIDTH:0.611637
G1 X121.142 Y96.402 E.00157
;WIDTH:0.64529
G1 X121.176 Y96.397 E.00172
G1 X121.271 Y96.601 E.01127
;WIDTH:0.601734
G1 X121.366 Y96.805 E.01046
;WIDTH:0.558178
G1 X121.461 Y97.008 E.0096
;WIDTH:0.514622
G1 X121.556 Y97.212 E.00883
;WIDTH:0.471066
G1 X121.651 Y97.416 E.00801
;WIDTH:0.42751
G1 X122.021 Y98.306 E.03082
;WIDTH:0.434675
G1 X122.564 Y99.608 E.04595
;WIDTH:0.479912
G1 X122.726 Y100.068 E.01772
;WIDTH:0.525149
G1 X122.887 Y100.527 E.0195
;WIDTH:0.553543
G1 X122.914 Y100.593 E.00303
G1 X122.843 Y100.715 E.00599
G1 X122.98 Y100.752 E.00603
G1 X123.125 Y101.061 E.01449
;WIDTH:0.511551
G1 X123.271 Y101.369 E.01328
;WIDTH:0.469552
G1 X123.417 Y101.678 E.01212
;WIDTH:0.427553
G1 X123.424 Y101.695 E.00059
;WIDTH:0.425494
G1 X123.823 Y102.652 E.03298
;WIDTH:0.463687
G1 X123.84 Y102.715 E.00228
;WIDTH:0.507413
G1 X123.858 Y102.778 E.00253
;WIDTH:0.551138
G1 X123.875 Y102.842 E.0028
;WIDTH:0.551794
G1 X123.436 Y103.135 E.02233
G1 X123.384 Y103.095 E.00278
;WIDTH:0.507833
G1 X123.332 Y103.054 E.00256
;WIDTH:0.463872
G1 X123.28 Y103.014 E.0023
;WIDTH:0.425483
G1 X122.55 Y102.279 E.03295
;WIDTH:0.459413
G1 X122.33 Y102.036 E.01135
;WIDTH:0.493342
G1 X122.11 Y101.793 E.01228
;WIDTH:0.527271
G1 X121.89 Y101.55 E.0132
;WIDTH:0.553308
G1 X121.848 Y101.508 E.00252
G1 X121.861 Y101.435 E.00315
;WIDTH:0.52405
G1 X121.873 Y101.361 E.003
G1 X121.8 Y101.374 E.00297
;WIDTH:0.553303
G1 X121.726 Y101.387 E.00319
G1 X121.477 Y101.155 E.01444
;WIDTH:0.514437
G1 X121.229 Y100.922 E.01334
;WIDTH:0.47557
G1 X120.98 Y100.689 E.01227
;WIDTH:0.436703
G1 X120.289 Y100.014 E.03163
;WIDTH:0.425479
G1 X119.288 Y99.018 E.04492
G1 X118.667 Y98.251 E.03139
;WIDTH:0.419999
G1 X118.645 Y98.157 E.00303
M204 S1000
;WIPE_START
G1 F8640
G1 X118.692 Y97.998 E-.03828
G1 X119.021 Y97.701 E-.10234
G1 X119.75 Y97.16 E-.20962
G1 X120.578 Y96.666 E-.22263
G1 X120.744 Y96.581 E-.04306
G1 X120.909 Y96.496 E-.04286
G1 X121.075 Y96.411 E-.04306
G1 X121.109 Y96.406 E-.00794
G1 X121.142 Y96.402 E-.00768
G1 X121.176 Y96.397 E-.00794
G1 X121.271 Y96.601 E-.05196
G1 X121.312 Y96.69 E-.02263
;WIPE_END
G1 Z.6 F720
G1 X124.624 Y95.198 F10800
G1 Z.2 F720
G1 E.8 F2100
M204 S800
;WIDTH:0.413736
G1 F1200
G1 X124.087 Y95.247 E.01663
;WIDTH:0.404393
G1 X123.116 Y95.386 E.02948
G1 X122.182 Y95.618 E.02893
;WIDTH:0.405316
