; generated by PrusaSlicer 2.7.2+win64 on 2024-06-17 at 12:50:01 UTC


;
;
; 

; external perimeters extrusion width = 0.60mm
; perimeters extrusion width = 0.50mm
; infill extrusion width = 0.50mm
; solid infill extrusion width = 0.50mm
; top infill extrusion width = 0.45mm
; first layer extrusion width = 0.42mm

M73 P0 R64
M73 Q0 S64
M201 X1000 Y1000 Z200 E5000 ; sets maximum accelerations, mm/sec^2
M203 X200 Y200 Z12 E120 ; sets maximum feedrates, mm / sec
M204 S1250 T1250 ; sets acceleration (S) and retract acceleration (R), mm/sec^2
M205 X8.00 Y8.00 Z0.40 E4.50 ; sets the jerk limits, mm/sec
M205 S0 T0 ; sets the minimum extruding and travel feed rate, mm/sec

; printing object arduino.stl id:0 copy 0
; stop printing object arduino.stl id:0 copy 0

;TYPE:Custom
M862.3 P "MK3S" ; printer model check
M862.1 P0.4 ; nozzle diameter check
M115 U3.11.0 ; tell printer latest fw version
G90 ; use absolute coordinates
M83 ; extruder relative mode
M104 S215 ; set extruder temp
M140 S60 ; set bed temp
M190 S60 ; wait for bed temp
M109 S215 ; wait for extruder temp
G28 W ; home all without mesh bed level
G80 ; mesh bed leveling

G1 Z0.2 F720
G1 Y-3 F1000 ; go outside print area
G92 E0
G1 X60 E9 F1000 ; intro line
G1 X100 E12.5 F1000 ; intro line

G92 E0
M221 S95

; Don't change E values below. Excessive value can damage the printer.

M907 E538 ; set extruder motor current
G21 ; set units to millimeters
G90 ; use absolute coordinates
M83 ; use relative distances for extrusion
M900 K0.05 ; Filament gcode LA 1.5
M900 K30 ; Filament gcode LA 1.0
M107
;LAYER_CHANGE
;Z:0.2
;HEIGHT:0.2
G1 E-.8 F2100
G1 Z.6 F720
G1 X78.75 Y60.423 F10800
G1 Z.2 F720
G1 E.8 F2100
M204 S800
;TYPE:Skirt/Brim
;WIDTH:0.42
G1 F1200
G1 X79.286 Y59.724 E.02762
G1 X79.725 Y59.286 E.01944
G1 X80.553 Y58.65 E.03274
G1 X81.09 Y58.34 E.01944
G1 X82.055 Y57.94 E.03275
G1 X82.655 Y57.779 E.01948
G1 X84 Y57.623 E.04245
G1 X166.31 Y57.643 E2.58077
G1 X167.345 Y57.779 E.03273
G1 X167.945 Y57.94 E.01948
G1 X168.91 Y58.34 E.03275
G1 X169.447 Y58.65 E.01944
G1 X170.275 Y59.286 E.03274
G1 X170.714 Y59.725 E.01947
G1 X171.35 Y60.553 E.03274
G1 X171.66 Y61.09 E.01944
G1 X187.778 Y101.89 E1.37546
G1 X188.252 Y103.639 E.05682
G1 X188.328 Y104.238 E.01893
G1 X188.328 Y105.762 E.04778
G1 X188.252 Y106.361 E.01893
G1 X187.778 Y108.11 E.05682
G1 X172.06 Y147.945 E1.34271
G1 X171.66 Y148.91 E.03275
G1 X171.35 Y149.447 E.01944
G1 X170.714 Y150.275 E.03274
G1 X170.276 Y150.714 E.01944
G1 X169.447 Y151.35 E.03276
G1 X168.91 Y151.66 E.01944
G1 X167.945 Y152.06 E.03275
G1 X167.346 Y152.22 E.01944
G1 X166 Y152.377 E.04249
G1 X84 Y152.377 E2.57105
G1 X82.654 Y152.22 E.04249
G1 X82.055 Y152.06 E.01944
G1 X81.09 Y151.66 E.03275
G1 X80.553 Y151.35 E.01944
G1 X79.724 Y150.714 E.03276
G1 X79.286 Y150.276 E.01942
G1 X78.65 Y149.447 E.03276
G1 X78.34 Y148.91 E.01944
G1 X77.925 Y147.908 E.03401
G1 X62.222 Y108.11 E1.34146
G1 X61.748 Y106.361 E.05682
G1 X61.672 Y105.762 E.01893
G1 X61.672 Y104.238 E.04778
G1 X61.748 Y103.639 E.01893
G1 X62.222 Y101.89 E.05682
G1 X77.94 Y62.055 E1.34271
G1 X78.34 Y61.09 E.03275
G1 X78.65 Y60.553 E.01944
G1 X78.713 Y60.47 E.00327
M204 S1000
; printing object arduino.stl id:0 copy 0
;WIPE_START
G1 F8640
G1 X78.75 Y60.423 E-.01381
G1 X79.286 Y59.724 E-.20339
G1 X79.725 Y59.286 E-.14319
G1 X80.553 Y58.65 E-.24108
G1 X81.09 Y58.34 E-.14317
G1 X81.311 Y58.248 E-.05536
;WIPE_END
G1 Z.6 F720
G1 X81.223 Y62.397 F10800
G1 Z.2 F720
G1 E.8 F2100
M204 S800
;TYPE:Perimeter
;WIDTH:0.419999
G1 F1200
G1 X81.733 Y61.733 E.02625
G1 X82.397 Y61.223 E.02625
G1 X83.17 Y60.903 E.02623
G1 X84.052 Y60.787 E.02789
G1 X165.97 Y60.79 E2.56848
G1 X166.83 Y60.903 E.0272
G1 X167.603 Y61.223 E.02623
G1 X168.267 Y61.733 E.02625
G1 X168.777 Y62.397 E.02625
G1 X169.097 Y63.17 E.02623
G1 X169.213 Y64.052 E.02789
G1 X169.213 Y93.7 E.92959
G1 X169.392 Y95.226 E.04817
G1 X169.422 Y95.352 E.00406
G1 X169.944 Y96.745 E.04664
G1 X170.006 Y96.865 E.00424
G1 X170.839 Y98.091 E.04647
G1 X170.928 Y98.193 E.00424
G1 X172.027 Y99.187 E.04646
G1 X172.138 Y99.265 E.00425
G1 X173.567 Y100.02 E.05067
G1 X175.001 Y100.397 E.04649
G1 X175.434 Y100.421 E.0136
G1 X176.749 Y100.43 E.04123
G1 X179.559 Y99.812 E.09021
G1 X180.879 Y99.868 E.04142
G1 X182.144 Y100.255 E.04148
G1 X183.27 Y100.949 E.04147
G1 X184.186 Y101.904 E.04149
G1 X184.831 Y103.058 E.04145
G1 X185.164 Y104.424 E.04408
G1 X185.164 Y105.661 E.03879
G1 X184.831 Y106.941 E.04147
G1 X184.186 Y108.096 E.04148
G1 X183.27 Y109.051 E.04149
G1 X182.144 Y109.745 E.04147
G1 X180.879 Y110.132 E.04148
G1 X179.559 Y110.188 E.04142
G1 X176.749 Y109.57 E.09021
G1 X176.301 Y109.563 E.01405
G1 X175.001 Y109.603 E.04078
G1 X173.442 Y110.029 E.05067
G1 X172.028 Y110.813 E.05069
G1 X170.928 Y111.807 E.04649
G1 X170.839 Y111.909 E.00424
G1 X170.006 Y113.135 E.04647
G1 X169.944 Y113.255 E.00424
G1 X169.424 Y114.643 E.04647
G1 X169.392 Y114.774 E.00423
G1 X169.213 Y116.3 E.04817
G1 X169.213 Y145.948 E.92959
G1 X169.097 Y146.83 E.02789
G1 X168.777 Y147.603 E.02623
G1 X168.267 Y148.267 E.02625
G1 X167.603 Y148.777 E.02625
G1 X166.83 Y149.097 E.02623
G1 X165.948 Y149.213 E.02789
G1 X84.052 Y149.213 E2.56779
G1 X83.17 Y149.097 E.02789
M73 P1 R63
M73 Q1 S64
G1 X82.397 Y148.777 E.02623
G1 X81.733 Y148.267 E.02625
G1 X81.223 Y147.603 E.02625
G1 X80.903 Y146.83 E.02623
G1 X80.787 Y145.948 E.02789
G1 X80.787 Y116.3 E.92959
G1 X80.608 Y114.774 E.04817
G1 X80.578 Y114.648 E.00406
G1 X80.056 Y113.255 E.04664
G1 X79.994 Y113.135 E.00424
G1 X79.161 Y111.909 E.04647
G1 X79.072 Y111.807 E.00424
G1 X77.972 Y110.813 E.04649
G1 X77.862 Y110.735 E.00423
G1 X76.433 Y109.98 E.05067
G1 X74.999 Y109.603 E.04649
G1 X74.566 Y109.579 E.0136
G1 X73.251 Y109.57 E.04123
G1 X70.441 Y110.188 E.09021
G1 X69.121 Y110.132 E.04142
G1 X67.856 Y109.745 E.04148
G1 X66.73 Y109.051 E.04147
G1 X65.814 Y108.096 E.04149
G1 X65.169 Y106.941 E.04148
G1 X64.836 Y105.661 E.04147
G1 X64.836 Y104.339 E.04145
G1 X65.169 Y103.058 E.0415
G1 X65.814 Y101.904 E.04145
G1 X66.73 Y100.949 E.04149
G1 X67.856 Y100.255 E.04147
G1 X69.121 Y99.868 E.04148
G1 X70.441 Y99.812 E.04142
G1 X73.251 Y100.43 E.09021
G1 X73.699 Y100.437 E.01405
G1 X74.999 Y100.397 E.04078
G1 X76.558 Y99.971 E.05067
G1 X77.972 Y99.187 E.05069
G1 X79.072 Y98.193 E.04649
G1 X79.161 Y98.091 E.00424
G1 X79.994 Y96.865 E.04647
G1 X80.056 Y96.745 E.00424
G1 X80.576 Y95.357 E.04647
G1 X80.608 Y95.226 E.00423
G1 X80.787 Y93.7 E.04817
G1 X80.787 Y64.052 E.92959
G1 X80.903 Y63.17 E.02789
G1 X81.2 Y62.452 E.02436
M204 S1000
G1 X81.2 Y62.452 F10800
G1 X80.894 Y62.207
M204 S800
;TYPE:External perimeter
G1 F1200
G1 X81.464 Y61.464 E.02936
G1 X82.207 Y60.894 E.02936
G1 X83.072 Y60.536 E.02935
G1 X84.027 Y60.41 E.0302
G1 X165.995 Y60.413 E2.57004
G1 X166.928 Y60.536 E.02951
M73 Q1 S63
G1 X167.793 Y60.894 E.02935
G1 X168.536 Y61.464 E.02936
G1 X169.106 Y62.207 E.02936
G1 X169.464 Y63.072 E.02935
G1 X169.59 Y64.027 E.0302
G1 X169.59 Y93.7 E.93037
G1 X169.776 Y95.223 E.04811
G1 X170.297 Y96.613 E.04654
G1 X171.181 Y97.913 E.04929
G1 X172.317 Y98.933 E.04787
G1 X173.66 Y99.655 E.04781
G1 X175.097 Y100.033 E.04659
G1 X176.668 Y100.062 E.04927
G1 X179.526 Y99.434 E.09175
G1 X180.943 Y99.494 E.04447
G1 X182.301 Y99.909 E.04452
G1 X183.509 Y100.653 E.04448
G1 X184.491 Y101.678 E.04451
G1 X185.184 Y102.917 E.04451
G1 X185.508 Y104.161 E.04031
G1 X185.541 Y104.424 E.00831
G1 X185.541 Y105.71 E.04032
G1 X185.184 Y107.083 E.04448
G1 X184.491 Y108.322 E.04451
G1 X183.509 Y109.347 E.04451
G1 X182.301 Y110.091 E.04448
G1 X180.943 Y110.506 E.04452
G1 X179.526 Y110.566 E.04447
G1 X176.668 Y109.938 E.09175
G1 X175.097 Y109.967 E.04927
G1 X173.621 Y110.361 E.0479
G1 X172.281 Y111.093 E.04787
G1 X171.181 Y112.087 E.04649
G1 X170.298 Y113.385 E.04922
G1 X169.766 Y114.819 E.04796
G1 X169.59 Y116.3 E.04676
G1 X169.59 Y145.973 E.93037
G1 X169.464 Y146.928 E.0302
G1 X169.106 Y147.793 E.02935
G1 X168.536 Y148.536 E.02936
G1 X167.793 Y149.106 E.02936
G1 X166.928 Y149.464 E.02935
G1 X165.973 Y149.59 E.0302
G1 X84.027 Y149.59 E2.56935
G1 X83.072 Y149.464 E.0302
G1 X82.207 Y149.106 E.02935
G1 X81.464 Y148.536 E.02936
G1 X80.894 Y147.793 E.02936
G1 X80.536 Y146.928 E.02935
G1 X80.41 Y145.973 E.0302
G1 X80.41 Y116.3 E.93037
G1 X80.224 Y114.777 E.04811
G1 X79.703 Y113.387 E.04654
G1 X78.819 Y112.087 E.04929
G1 X77.683 Y111.067 E.04787
G1 X76.34 Y110.345 E.04781
G1 X74.903 Y109.967 E.04659
G1 X73.332 Y109.938 E.04927
G1 X70.474 Y110.566 E.09175
G1 X69.057 Y110.506 E.04447
G1 X67.7 Y110.091 E.04449
G1 X66.491 Y109.347 E.04451
G1 X65.509 Y108.322 E.04451
G1 X64.816 Y107.083 E.04451
G1 X64.459 Y105.71 E.04448
G1 X64.459 Y104.29 E.04452
G1 X64.816 Y102.917 E.04448
G1 X65.509 Y101.678 E.04451
G1 X66.491 Y100.653 E.04451
G1 X67.7 Y99.909 E.04451
G1 X69.057 Y99.494 E.04449
G1 X70.474 Y99.434 E.04447
G1 X73.332 Y100.062 E.09175
G1 X74.903 Y100.033 E.04927
G1 X76.379 Y99.639 E.0479
G1 X77.719 Y98.907 E.04787
G1 X78.819 Y97.913 E.04649
G1 X79.702 Y96.615 E.04922
G1 X80.234 Y95.181 E.04796
G1 X80.41 Y93.7 E.04676
G1 X80.41 Y64.027 E.93037
G1 X80.536 Y63.072 E.0302
G1 X80.871 Y62.262 E.02748
M204 S1000
;WIPE_START
G1 F8640
G1 X80.894 Y62.207 E-.01377
G1 X81.464 Y61.464 E-.21623
G1 X82.207 Y60.894 E-.21623
G1 X83.072 Y60.536 E-.21616
G1 X83.663 Y60.458 E-.13761
;WIPE_END
G1 Z.6 F720
G1 X183.872 Y104.946 F10800
G1 Z.2 F720
G1 E.8 F2100
M204 S800
;TYPE:Perimeter
G1 F1200
G1 X183.884 Y105.074 E.00403
G1 X183.771 Y105.934 E.0272
G1 X183.372 Y106.937 E.03385
G1 X182.799 Y107.694 E.02977
G1 X182.006 Y108.327 E.03181
G1 X181.077 Y108.733 E.03179
G1 X180.074 Y108.884 E.0318
G1 X179.066 Y108.771 E.0318
G1 X178.122 Y108.401 E.03179
G1 X177.503 Y107.95 E.02401
G1 X177.201 Y107.694 E.01241
G1 X176.673 Y107.006 E.02719
G1 X176.267 Y106.077 E.03179
G1 X176.116 Y105.074 E.0318
G1 X176.229 Y104.066 E.0318
G1 X176.487 Y103.393 E.0226
G1 X176.673 Y102.994 E.0138
G1 X177.201 Y102.306 E.02719
G1 X177.994 Y101.673 E.03181
G1 X178.923 Y101.267 E.03179
G1 X179.704 Y101.145 E.02478
G1 X180.074 Y101.116 E.01164
G1 X181.026 Y101.249 E.03014
G1 X182.006 Y101.673 E.03348
G1 X182.694 Y102.201 E.02719
G1 X183.111 Y102.713 E.0207
G1 X183.401 Y103.122 E.01572
G1 X183.733 Y103.923 E.02719
G1 X183.83 Y104.512 E.01872
G1 X183.866 Y104.887 E.01181
M204 S1000
G1 X183.866 Y104.887 F10800
G1 X183.51 Y104.975
M204 S800
;TYPE:External perimeter
G1 F1200
G1 X183.397 Y105.885 E.02875
G1 X183.052 Y106.734 E.02873
G1 X182.5 Y107.465 E.02872
G1 X181.777 Y108.028 E.02873
G1 X180.932 Y108.384 E.02875
G1 X180.025 Y108.51 E.02871
G1 X179.115 Y108.397 E.02875
G1 X178.266 Y108.052 E.02873
G1 X177.732 Y107.651 E.02094
G1 X177.5 Y107.465 E.00932
G1 X176.972 Y106.776 E.02722
G1 X176.616 Y105.932 E.02872
G1 X176.49 Y105.025 E.02871
G1 X176.603 Y104.115 E.02875
G1 X176.972 Y103.223 E.03027
G1 X177.5 Y102.535 E.02719
G1 X178.223 Y101.972 E.02873
G1 X179.068 Y101.616 E.02875
G1 X179.754 Y101.519 E.02172
G1 X180.025 Y101.49 E.00855
G1 X180.915 Y101.61 E.02816
G1 X181.777 Y101.972 E.02931
G1 X182.465 Y102.5 E.02719
G1 X183.052 Y103.266 E.03026
G1 X183.384 Y104.068 E.02722
G1 X183.502 Y104.916 E.02684
M204 S1000
;WIPE_START
G1 F8640
G1 X183.51 Y104.975 E-.01375
G1 X183.397 Y105.885 E-.21174
G1 X183.052 Y106.734 E-.2116
G1 X182.5 Y107.465 E-.21151
G1 X181.982 Y107.868 E-.1514
;WIPE_END
G1 Z.6 F720
G1 X71.93 Y108.36 F10800
G1 Z.2 F720
G1 E.8 F2100
M204 S800
;TYPE:Perimeter
G1 F1200
G1 X71.077 Y108.733 E.02919
G1 X70.296 Y108.855 E.02478
G1 X69.926 Y108.884 E.01164
G1 X69.066 Y108.771 E.0272
G1 X68.39 Y108.512 E.0227
G1 X67.994 Y108.327 E.0137
G1 X67.306 Y107.799 E.02719
G1 X66.889 Y107.287 E.0207
G1 X66.599 Y106.878 E.01572
G1 X66.267 Y106.077 E.02719
G1 X66.17 Y105.488 E.01872
G1 X66.116 Y104.926 E.0177
G1 X66.229 Y104.066 E.0272
G1 X66.415 Y103.567 E.0167
G1 X66.628 Y103.062 E.01718
G1 X67.201 Y102.306 E.02974
G1 X67.994 Y101.673 E.03181
G1 X68.923 Y101.267 E.03179
G1 X69.926 Y101.116 E.0318
G1 X70.934 Y101.229 E.0318
G1 X71.878 Y101.599 E.03179
G1 X72.497 Y102.05 E.02401
G1 X72.799 Y102.306 E.01241
G1 X73.327 Y102.994 E.02719
G1 X73.733 Y103.923 E.03179
G1 X73.884 Y104.926 E.0318
G1 X73.771 Y105.934 E.0318
G1 X73.513 Y106.607 E.0226
G1 X73.327 Y107.006 E.0138
G1 X72.799 Y107.694 E.02719
G1 X72.006 Y108.327 E.03181
G1 X71.985 Y108.336 E.00072
M204 S1000
G1 X71.985 Y108.336 F10800
G1 X71.776 Y108.028
M204 S800
;TYPE:External perimeter
G1 F1200
G1 X70.932 Y108.384 E.02872
G1 X69.975 Y108.51 E.03026
G1 X69.115 Y108.397 E.0272
G1 X68.534 Y108.163 E.01964
G1 X68.224 Y108.028 E.0106
G1 X67.535 Y107.5 E.02722
G1 X66.948 Y106.734 E.03026
G1 X66.616 Y105.932 E.02722
G1 X66.49 Y105.025 E.02871
G1 X66.603 Y104.115 E.02875
G1 X66.948 Y103.266 E.02873
G1 X67.5 Y102.535 E.02872
G1 X68.224 Y101.972 E.02876
G1 X69.068 Y101.616 E.02872
G1 X69.975 Y101.49 E.02871
G1 X70.885 Y101.603 E.02875
G1 X71.734 Y101.948 E.02873
G1 X72.5 Y102.535 E.03026
G1 X73.028 Y103.223 E.02719
G1 X73.384 Y104.068 E.02875
G1 X73.51 Y104.975 E.02871
G1 X73.397 Y105.885 E.02875
G1 X73.165 Y106.463 E.01953
G1 X73.028 Y106.776 E.01071
G1 X72.5 Y107.465 E.02722
G1 X71.824 Y107.991 E.02686
M204 S1000
;WIPE_START
G1 F8640
G1 X71.776 Y108.028 E-.01399
G1 X70.932 Y108.384 E-.21151
G1 X69.975 Y108.51 E-.22288
G1 X69.115 Y108.397 E-.20028
G1 X68.534 Y108.163 E-.14463
G1 X68.507 Y108.151 E-.00671
;WIPE_END
G1 Z.6 F720
G1 X169.015 Y63.415 F10800
G1 Z.2 F720
G1 E.8 F2100
M204 S800
;TYPE:Solid infill
;WIDTH:0.420042
G1 F1200
G1 X166.794 Y61.194 E.09849
G1 X166.168 Y61.101 E.01985
G1 X168.899 Y63.832 E.12111
G1 X168.93 Y64.07 E.00753
G1 X168.93 Y64.397 E.01025
G1 X165.606 Y61.073 E.14741
G1 X165.072 Y61.073 E.01675
G1 X168.93 Y64.93 E.17107
G1 X168.93 Y65.464 E.01675
G1 X164.539 Y61.073 E.19473
G1 X164.006 Y61.073 E.01671
G1 X168.93 Y65.997 E.21836
G1 X168.93 Y66.53 E.01671
G1 X163.472 Y61.073 E.24202
G1 X162.939 Y61.073 E.01671
G1 X168.93 Y67.064 E.26568
G1 X168.93 Y67.597 E.01671
M73 Q2 S63
G1 X162.406 Y61.073 E.28932
G1 X161.872 Y61.073 E.01675
G1 X168.93 Y68.13 E.31298
G1 X168.93 Y68.664 E.01675
M73 P2 R63
G1 X161.339 Y61.073 E.33664
G1 X160.806 Y61.073 E.01671
G1 X168.93 Y69.197 E.36027
G1 X168.93 Y69.73 E.01671
G1 X160.272 Y61.073 E.38393
G1 X159.739 Y61.073 E.01671
G1 X168.93 Y70.264 E.40759
G1 X168.93 Y70.797 E.01671
G1 X159.206 Y61.072 E.43125
G1 X158.672 Y61.072 E.01675
G1 X168.93 Y71.33 E.45491
G1 X168.93 Y71.864 E.01675
G1 X158.139 Y61.072 E.47857
G1 X157.606 Y61.072 E.01671
G1 X168.93 Y72.397 E.5022
G1 X168.93 Y72.93 E.01671
G1 X157.072 Y61.072 E.52586
G1 X156.539 Y61.072 E.01671
G1 X168.93 Y73.464 E.54952
G1 X168.93 Y73.997 E.01671
G1 X156.005 Y61.072 E.57318
G1 X155.472 Y61.072 E.01671
G1 X168.93 Y74.53 E.59682
G1 X168.93 Y75.064 E.01675
G1 X154.939 Y61.072 E.62048
G1 X154.405 Y61.072 E.01675
G1 X168.93 Y75.597 E.64414
G1 X168.93 Y76.13 E.01671
G1 X153.872 Y61.072 E.66777
G1 X153.339 Y61.072 E.01671
G1 X168.93 Y76.664 E.69143
G1 X168.93 Y77.197 E.01671
G1 X152.805 Y61.072 E.71509
G1 X152.272 Y61.072 E.01671
G1 X168.93 Y77.73 E.73873
G1 X168.93 Y78.264 E.01675
G1 X151.739 Y61.072 E.76239
G1 X151.205 Y61.072 E.01675
G1 X168.93 Y78.797 E.78604
G1 X168.93 Y79.33 E.01671
G1 X150.672 Y61.072 E.80968
G1 X150.139 Y61.072 E.01671
M73 P2 R62
G1 X168.93 Y79.864 E.83334
G1 X168.93 Y80.397 E.01671
G1 X149.605 Y61.072 E.857
G1 X149.072 Y61.072 E.01671
G1 X168.93 Y80.93 E.88064
G1 X168.93 Y81.464 E.01675
G1 X148.539 Y61.072 E.90429
G1 X148.005 Y61.072 E.01675
G1 X168.93 Y81.997 E.92795
G1 X168.93 Y82.53 E.01671
G1 X147.472 Y61.072 E.95159
G1 X146.939 Y61.072 E.01671
M73 Q2 S62
G1 X168.93 Y83.064 E.97525
G1 X168.93 Y83.597 E.01671
G1 X146.405 Y61.072 E.99891
G1 X145.872 Y61.072 E.01671
G1 X168.93 Y84.13 E1.02255
G1 X168.93 Y84.664 E.01675
G1 X145.338 Y61.072 E1.04623
G1 X144.805 Y61.072 E.01671
G1 X168.93 Y85.197 E1.06986
G1 X168.93 Y85.73 E.01671
G1 X144.272 Y61.072 E1.0935
G1 X143.738 Y61.072 E.01675
M73 P3 R62
M73 Q3 S62
G1 X168.93 Y86.264 E1.11718
G1 X168.93 Y86.797 E.01671
G1 X143.205 Y61.072 E1.14082
G1 X142.672 Y61.072 E.01671
G1 X168.93 Y87.33 E1.16445
G1 X168.93 Y87.864 E.01675
G1 X142.138 Y61.072 E1.18814
