; generated by PrusaSlicer 2.7.2+win64 on 2024-06-18 at 06:33:11 UTC


;
;
; 

; external perimeters extrusion width = 0.60mm
; perimeters extrusion width = 0.50mm
; infill extrusion width = 0.50mm
; solid infill extrusion width = 0.50mm
; top infill extrusion width = 0.45mm
; first layer extrusion width = 0.42mm

M73 P0 R35
M73 Q0 S35
M201 X1000 Y1000 Z200 E5000 ; sets maximum accelerations, mm/sec^2
M203 X200 Y200 Z12 E120 ; sets maximum feedrates, mm / sec
M204 S1250 T1250 ; sets acceleration (S) and retract acceleration (R), mm/sec^2
M205 X8.00 Y8.00 Z0.40 E4.50 ; sets the jerk limits, mm/sec
M205 S0 T0 ; sets the minimum extruding and travel feed rate, mm/sec

; printing object BoschStaubsauger40.stl id:0 copy 0
; stop printing object BoschStaubsauger40.stl id:0 copy 0

;TYPE:Custom
M862.3 P "MK3S" ; printer model check
M862.1 P0.4 ; nozzle diameter check
M115 U3.11.0 ; tell printer latest fw version
G90 ; use absolute coordinates
M83 ; extruder relative mode
M104 S215 ; set extruder temp
M140 S60 ; set bed temp
M190 S60 ; wait for bed temp
M109 S215 ; wait for extruder temp
G28 W ; home all without mesh bed level
G80 ; mesh bed leveling

G1 Z0.2 F720
G1 Y-3 F1000 ; go outside print area
G92 E0
G1 X60 E9 F1000 ; intro line
G1 X100 E12.5 F1000 ; intro line

G92 E0
M221 S95

; Don't change E values below. Excessive value can damage the printer.

M907 E538 ; set extruder motor current
G21 ; set units to millimeters
G90 ; use absolute coordinates
M83 ; use relative distances for extrusion
M900 K0.05 ; Filament gcode LA 1.5
M900 K30 ; Filament gcode LA 1.0
M107
;LAYER_CHANGE
;Z:0.2
;HEIGHT:0.2
G1 E-.8 F2100
G1 Z.6 F720
G1 X111.983 Y93.262 F10800
G1 Z.2 F720
G1 E.8 F2100
M204 S800
;TYPE:Skirt/Brim
;WIDTH:0.42
G1 F1200
G1 X112.649 Y92.461 E.03266
G1 X114.688 Y90.674 E.08501
G1 X117.364 Y89.034 E.09841
G1 X118.76 Y88.456 E.04737
G1 X119.814 Y88.247 E.03369
G1 X130.187 Y88.247 E.32524
G1 X131.24 Y88.456 E.03366
G1 X133.022 Y89.231 E.06093
G1 X134.962 Y90.42 E.07134
G1 X137.042 Y92.152 E.08487
G1 X139.079 Y94.537 E.09834
G1 X140.465 Y96.863 E.0849
G1 X141.468 Y99.375 E.08481
G1 X141.999 Y101.588 E.07136
G1 X142.246 Y104.282 E.08482
G1 X142.067 Y106.984 E.08491
G1 X141.335 Y110.033 E.09832
G1 X140.268 Y112.521 E.08488
G1 X139.079 Y114.461 E.07134
G1 X137.347 Y116.541 E.08487
G1 X134.962 Y118.578 E.09834
G1 X132.636 Y119.964 E.0849
G1 X130.124 Y120.967 E.08481
G1 X127.911 Y121.498 E.07136
G1 X125.217 Y121.745 E.08482
G1 X122.515 Y121.566 E.08491
G1 X119.466 Y120.834 E.09832
G1 X116.978 Y119.767 E.08488
G1 X115.038 Y118.578 E.07134
G1 X112.958 Y116.846 E.08487
G1 X110.921 Y114.461 E.09834
G1 X109.535 Y112.135 E.0849
G1 X108.532 Y109.623 E.08481
G1 X108.001 Y107.41 E.07136
G1 X107.754 Y104.716 E.08482
G1 X107.933 Y102.014 E.08491
G1 X108.629 Y99.06 E.09516
G1 X109.732 Y96.477 E.08806
G1 X110.921 Y94.537 E.07134
G1 X111.944 Y93.308 E.05014
M204 S1000
G1 X111.944 Y93.308 F10800
G1 X112.232 Y93.549
M204 S800
G1 F1200
G1 X112.936 Y92.706 E.03444
G1 X114.933 Y90.961 E.08315
G1 X117.508 Y89.383 E.09469
G1 X118.904 Y88.805 E.04737
G1 X119.814 Y88.624 E.02909
G1 X130.187 Y88.624 E.32524
G1 X131.095 Y88.805 E.02903
G1 X132.825 Y89.552 E.05908
G1 X134.765 Y90.741 E.07134
G1 X136.797 Y92.439 E.08303
G1 X138.758 Y94.734 E.09465
G1 X140.116 Y97.007 E.08302
G1 X141.101 Y99.463 E.08297
G1 X141.632 Y101.676 E.07136
G1 X141.87 Y104.312 E.08299
G1 X141.691 Y106.954 E.08303
G1 X140.986 Y109.889 E.09464
G1 X139.947 Y112.324 E.08301
G1 X138.538 Y114.566 E.08303
G1 X137.06 Y116.296 E.07134
G1 X134.765 Y118.257 E.09465
G1 X132.492 Y119.615 E.08302
G1 X130.036 Y120.6 E.08297
G1 X127.823 Y121.131 E.07136
G1 X125.187 Y121.369 E.08299
G1 X122.545 Y121.19 E.08303
G1 X119.61 Y120.485 E.09464
G1 X117.175 Y119.446 E.08301
G1 X115.235 Y118.257 E.07134
G1 X113.203 Y116.559 E.08303
G1 X111.242 Y114.264 E.09465
G1 X109.884 Y111.991 E.08302
G1 X108.899 Y109.535 E.08297
G1 X108.368 Y107.322 E.07136
G1 X108.13 Y104.686 E.08299
G1 X108.309 Y102.044 E.08303
G1 X108.982 Y99.192 E.09188
G1 X110.053 Y96.674 E.08579
G1 X111.242 Y94.734 E.07134
G1 X112.194 Y93.595 E.04654
M204 S1000
; printing object BoschStaubsauger40.stl id:0 copy 0
;WIPE_START
G1 F8640
G1 X112.232 Y93.549 E-.01378
G1 X112.936 Y92.706 E-.2536
G1 X114.673 Y91.188 E-.53262
;WIPE_END
G1 Z.6 F720
G1 X119.977 Y91.821 F10800
G1 Z.2 F720
G1 E.8 F2100
M204 S800
;TYPE:Perimeter
;WIDTH:0.470309
G1 F1200
G1 X120.018 Y91.813 E.00148
;WIDTH:0.471732
G1 X120.965 Y91.812 E.03377
G1 X120.799 Y91.868 E.00625
;WIDTH:0.471087
G1 X120.115 Y92.217 E.02734
;WIDTH:0.518517
G1 X119.014 Y92.751 E.04839
G1 X118.136 Y93.22 E.03936
;WIDTH:0.479353
G1 X117.258 Y93.69 E.03614
;WIDTH:0.440188
G1 X117.112 Y93.796 E.00596
;WIDTH:0.479198
G1 X116.394 Y94.486 E.03612
;WIDTH:0.518236
G1 X115.677 Y95.176 E.03933
G1 X114.987 Y95.893 E.03933
;WIDTH:0.479197
G1 X114.297 Y96.611 E.03612
;WIDTH:0.440186
G1 X114.191 Y96.757 E.00596
;WIDTH:0.479352
G1 X113.721 Y97.635 E.03614
;WIDTH:0.518518
G1 X113.252 Y98.513 E.03936
G1 X112.817 Y99.409 E.03939
;WIDTH:0.479279
G1 X112.383 Y100.305 E.03612
;WIDTH:0.44004
G1 X112.327 Y100.477 E.00597
;WIDTH:0.47895
G1 X112.152 Y101.457 E.03609
;WIDTH:0.517973
G1 X111.977 Y102.437 E.03932
G1 X111.841 Y103.423 E.03932
;WIDTH:0.478957
G1 X111.704 Y104.409 E.03609
;WIDTH:0.439941
G1 X111.704 Y104.589 E.00594
;WIDTH:0.478958
G1 X111.841 Y105.575 E.03609
;WIDTH:0.517974
G1 X111.977 Y106.561 E.03932
G1 X112.152 Y107.541 E.03932
;WIDTH:0.478951
G1 X112.327 Y108.521 E.03609
;WIDTH:0.440042
G1 X112.383 Y108.693 E.00597
;WIDTH:0.479281
G1 X112.817 Y109.589 E.03612
;WIDTH:0.518519
G1 X113.252 Y110.485 E.03939
G1 X113.721 Y111.363 E.03936
;WIDTH:0.479353
G1 X114.191 Y112.241 E.03614
;WIDTH:0.440186
G1 X114.297 Y112.387 E.00596
;WIDTH:0.479198
G1 X114.987 Y113.105 E.03612
;WIDTH:0.518237
G1 X115.677 Y113.822 E.03933
G1 X116.394 Y114.512 E.03933
;WIDTH:0.479198
G1 X117.112 Y115.202 E.03612
;WIDTH:0.440187
G1 X117.258 Y115.308 E.00596
;WIDTH:0.479353
G1 X118.136 Y115.778 E.03614
;WIDTH:0.518518
G1 X119.014 Y116.247 E.03936
G1 X119.91 Y116.682 E.03939
;WIDTH:0.479279
G1 X120.806 Y117.116 E.03612
;WIDTH:0.440039
G1 X120.978 Y117.172 E.00597
;WIDTH:0.47895
G1 X121.958 Y117.347 E.03609
;WIDTH:0.517972
G1 X122.938 Y117.522 E.03932
G1 X123.924 Y117.658 E.03932
;WIDTH:0.478956
G1 X124.91 Y117.795 E.03609
;WIDTH:0.439939
G1 X125.09 Y117.795 E.00594
;WIDTH:0.478957
G1 X126.076 Y117.658 E.03609
;WIDTH:0.517974
G1 X127.062 Y117.522 E.03932
G1 X128.042 Y117.347 E.03932
;WIDTH:0.478951
G1 X129.022 Y117.172 E.03609
;WIDTH:0.440039
G1 X129.194 Y117.116 E.00597
;WIDTH:0.479279
G1 X130.09 Y116.682 E.03612
;WIDTH:0.518518
G1 X130.986 Y116.247 E.03939
G1 X131.864 Y115.778 E.03936
;WIDTH:0.479352
G1 X132.742 Y115.308 E.03614
;WIDTH:0.440186
G1 X132.888 Y115.202 E.00596
;WIDTH:0.479197
G1 X133.606 Y114.512 E.03612
;WIDTH:0.518236
G1 X134.323 Y113.822 E.03933
G1 X135.013 Y113.105 E.03933
;WIDTH:0.479197
G1 X135.703 Y112.387 E.03612
;WIDTH:0.440185
G1 X135.809 Y112.241 E.00596
;WIDTH:0.479352
G1 X136.279 Y111.363 E.03614
;WIDTH:0.518518
G1 X136.748 Y110.485 E.03936
G1 X137.183 Y109.589 E.03939
;WIDTH:0.479279
G1 X137.617 Y108.693 E.03612
;WIDTH:0.440039
G1 X137.673 Y108.521 E.00597
;WIDTH:0.47895
G1 X137.848 Y107.541 E.03609
M73 Q1 S35
;WIDTH:0.517972
G1 X138.023 Y106.561 E.03932
G1 X138.159 Y105.575 E.03932
;WIDTH:0.478956
G1 X138.296 Y104.589 E.03609
;WIDTH:0.439939
G1 X138.296 Y104.409 E.00594
;WIDTH:0.478956
G1 X138.159 Y103.423 E.03609
;WIDTH:0.517973
G1 X138.023 Y102.437 E.03932
G1 X137.848 Y101.457 E.03932
M73 P1 R35
;WIDTH:0.47895
G1 X137.673 Y100.477 E.03609
;WIDTH:0.440039
G1 X137.617 Y100.305 E.00597
;WIDTH:0.479278
G1 X137.183 Y99.409 E.03612
;WIDTH:0.518517
G1 X136.748 Y98.513 E.03939
G1 X136.279 Y97.635 E.03936
;WIDTH:0.479351
G1 X135.809 Y96.757 E.03614
;WIDTH:0.440185
G1 X135.703 Y96.611 E.00596
;WIDTH:0.479198
G1 X135.013 Y95.893 E.03612
;WIDTH:0.518237
G1 X134.323 Y95.176 E.03933
G1 X133.606 Y94.486 E.03933
;WIDTH:0.479198
G1 X132.888 Y93.796 E.03612
;WIDTH:0.440187
G1 X132.742 Y93.69 E.00596
;WIDTH:0.479352
G1 X131.864 Y93.22 E.03614
;WIDTH:0.518516
G1 X130.986 Y92.751 E.03936
G1 X129.885 Y92.217 E.04839
;WIDTH:0.470309
G1 X129.023 Y91.811 E.03386
;WIDTH:0.469965
G1 X129.214 Y91.812 E.00678
;WIDTH:0.470309
G1 X130.064 Y91.829 E.03021
;WIDTH:0.518516
G1 X131.185 Y92.319 E.04838
G1 X132.077 Y92.84 E.04085
;WIDTH:0.479352
G1 X132.936 Y93.343 E.03612
;WIDTH:0.440187
G1 X133.157 Y93.504 E.00903
;WIDTH:0.479198
G1 X133.902 Y94.166 E.03615
;WIDTH:0.518237
G1 X134.646 Y94.827 E.03933
G1 X135.333 Y95.597 E.04078
;WIDTH:0.479198
G1 X135.995 Y96.342 E.03615
;WIDTH:0.440185
G1 X136.156 Y96.563 E.00903
;WIDTH:0.479351
G1 X136.659 Y97.422 E.03612
;WIDTH:0.518517
G1 X137.163 Y98.281 E.03939
G1 X137.579 Y99.227 E.04087
;WIDTH:0.479278
G1 X137.978 Y100.139 E.03612
;WIDTH:0.440039
G1 X138.062 Y100.399 E.00902
;WIDTH:0.47895
G1 X138.275 Y101.372 E.03611
;WIDTH:0.517973
G1 X138.488 Y102.344 E.03931
G1 X138.592 Y103.372 E.04081
;WIDTH:0.478956
G1 X138.69 Y104.362 E.03607
;WIDTH:0.439951
G1 X138.699 Y104.515 E.00506
G1 X138.69 Y104.636 E.00401
;WIDTH:0.478956
G1 X138.592 Y105.626 E.03607
;WIDTH:0.517972
G1 X138.488 Y106.654 E.04081
G1 X138.275 Y107.626 E.03931
;WIDTH:0.47895
G1 X138.062 Y108.599 E.03611
;WIDTH:0.440039
G1 X137.978 Y108.859 E.00902
;WIDTH:0.479279
G1 X137.579 Y109.771 E.03612
;WIDTH:0.518518
G1 X137.18 Y110.684 E.0394
G1 X136.659 Y111.576 E.04085
;WIDTH:0.479352
G1 X136.156 Y112.435 E.03612
;WIDTH:0.440185
G1 X135.995 Y112.656 E.00903
;WIDTH:0.479197
G1 X135.333 Y113.401 E.03615
;WIDTH:0.518236
G1 X134.672 Y114.145 E.03933
G1 X133.902 Y114.832 E.04078
;WIDTH:0.479197
G1 X133.157 Y115.494 E.03615
;WIDTH:0.440186
G1 X132.936 Y115.655 E.00903
;WIDTH:0.479352
G1 X132.077 Y116.158 E.03612
;WIDTH:0.518518
G1 X131.218 Y116.662 E.03939
G1 X130.272 Y117.078 E.04087
;WIDTH:0.479279
G1 X129.36 Y117.477 E.03612
;WIDTH:0.440039
G1 X129.1 Y117.561 E.00902
;WIDTH:0.478951
G1 X128.127 Y117.774 E.03611
;WIDTH:0.517974
G1 X127.155 Y117.987 E.03931
G1 X126.127 Y118.091 E.04081
;WIDTH:0.478957
G1 X125.137 Y118.189 E.03607
;WIDTH:0.439939
G1 X124.863 Y118.189 E.00905
;WIDTH:0.478956
G1 X123.873 Y118.091 E.03607
;WIDTH:0.517972
G1 X122.845 Y117.987 E.04081
G1 X121.873 Y117.774 E.03931
;WIDTH:0.47895
G1 X120.9 Y117.561 E.03611
;WIDTH:0.440039
G1 X120.64 Y117.477 E.00902
;WIDTH:0.479279
G1 X119.728 Y117.078 E.03612
;WIDTH:0.518518
G1 X118.815 Y116.679 E.0394
G1 X117.923 Y116.158 E.04085
;WIDTH:0.479353
G1 X117.064 Y115.655 E.03612
;WIDTH:0.440187
G1 X116.843 Y115.494 E.00903
;WIDTH:0.479198
G1 X116.098 Y114.832 E.03615
;WIDTH:0.518237
G1 X115.354 Y114.171 E.03933
G1 X114.667 Y113.401 E.04078
;WIDTH:0.479198
G1 X114.005 Y112.656 E.03615
;WIDTH:0.440186
G1 X113.844 Y112.435 E.00903
;WIDTH:0.479353
G1 X113.341 Y111.576 E.03612
;WIDTH:0.518519
G1 X112.837 Y110.717 E.03939
G1 X112.421 Y109.771 E.04087
;WIDTH:0.479281
G1 X112.022 Y108.859 E.03612
;WIDTH:0.440042
G1 X111.938 Y108.599 E.00902
;WIDTH:0.478951
G1 X111.725 Y107.626 E.03611
;WIDTH:0.517974
G1 X111.512 Y106.654 E.03931
G1 X111.408 Y105.626 E.04081
;WIDTH:0.478958
G1 X111.31 Y104.636 E.03607
;WIDTH:0.439941
G1 X111.31 Y104.362 E.00905
;WIDTH:0.478957
G1 X111.408 Y103.372 E.03607
;WIDTH:0.517973
G1 X111.512 Y102.344 E.04081
G1 X111.725 Y101.372 E.03931
;WIDTH:0.47895
G1 X111.938 Y100.399 E.03611
;WIDTH:0.44004
G1 X112.022 Y100.139 E.00902
;WIDTH:0.479279
G1 X112.421 Y99.227 E.03612
;WIDTH:0.518518
G1 X112.82 Y98.314 E.0394
G1 X113.341 Y97.422 E.04085
;WIDTH:0.479352
G1 X113.844 Y96.563 E.03612
;WIDTH:0.440186
G1 X114.005 Y96.342 E.00903
;WIDTH:0.479197
G1 X114.667 Y95.597 E.03615
;WIDTH:0.518236
G1 X115.328 Y94.853 E.03933
G1 X116.098 Y94.166 E.04078
;WIDTH:0.479198
G1 X116.843 Y93.504 E.03615
;WIDTH:0.440188
G1 X117.064 Y93.343 E.00903
;WIDTH:0.479353
G1 X117.923 Y92.84 E.03612
;WIDTH:0.518517
G1 X118.815 Y92.319 E.04085
G1 X119.919 Y91.837 E.04764
M204 S1000
G1 X119.919 Y91.837 F10800
G1 X119.895 Y91.411
M204 S800
;TYPE:External perimeter
;WIDTH:0.419999
G1 F1200
G1 X121.451 Y91.409 E.04879
;WIDTH:0.468946
G1 X121.584 Y91.433 E.00479
;WIDTH:0.517893
G1 X121.717 Y91.457 E.00534
;WIDTH:0.566839
G1 X121.85 Y91.481 E.00589
G1 X122.324 Y91.463 E.02066
;WIDTH:0.530726
G1 X122.798 Y91.444 E.01924
;WIDTH:0.494613
G1 X123.272 Y91.425 E.01782
;WIDTH:0.458499
G1 X123.463 Y91.41 E.00662
;WIDTH:0.448625
G1 X124.754 Y91.325 E.04365
;WIDTH:0.425497
G1 X125.246 Y91.326 E.01565
;WIDTH:0.448373
G1 X126.529 Y91.409 E.04334
;WIDTH:0.458573
G1 X126.728 Y91.425 E.0069
;WIDTH:0.494662
G1 X127.202 Y91.444 E.01782
;WIDTH:0.530751
G1 X127.676 Y91.463 E.01924
;WIDTH:0.566839
G1 X128.15 Y91.481 E.02066
G1 X128.283 Y91.457 E.00589
;WIDTH:0.517893
G1 X128.416 Y91.433 E.00534
;WIDTH:0.468946
G1 X128.549 Y91.409 E.00479
;WIDTH:0.419999
G1 X130.105 Y91.411 E.04879
G1 X131.396 Y91.945 E.0438
G1 X133.281 Y93.101 E.06933
G1 X134.962 Y94.537 E.06932
G1 X136.398 Y96.218 E.06932
G1 X137.554 Y98.103 E.06933
G1 X138.399 Y100.145 E.06929
G1 X138.915 Y102.295 E.06933
G1 X139.085 Y104.545 E.07075
G1 X138.915 Y106.703 E.06787
G1 X138.399 Y108.853 E.06933
G1 X137.554 Y110.895 E.06929
G1 X136.398 Y112.78 E.06933
G1 X134.962 Y114.461 E.06932
G1 X133.281 Y115.897 E.06932
G1 X131.396 Y117.053 E.06933
G1 X129.354 Y117.898 E.06929
G1 X127.204 Y118.414 E.06933
G1 X125 Y118.588 E.06932
G1 X122.796 Y118.414 E.06932
G1 X120.646 Y117.898 E.06933
G1 X118.604 Y117.053 E.06929
G1 X116.719 Y115.897 E.06933
G1 X115.038 Y114.461 E.06932
G1 X113.602 Y112.78 E.06932
G1 X112.446 Y110.895 E.06933
G1 X111.601 Y108.853 E.06929
G1 X111.085 Y106.703 E.06933
G1 X110.911 Y104.499 E.06932
G1 X111.085 Y102.295 E.06932
G1 X111.601 Y100.145 E.06933
G1 X112.446 Y98.103 E.06929
G1 X113.602 Y96.218 E.06933
G1 X115.038 Y94.537 E.06932
G1 X116.719 Y93.101 E.06932
G1 X118.604 Y91.945 E.06933
G1 X119.84 Y91.434 E.04194
M204 S1000
;WIPE_START
G1 F8640
G1 X119.895 Y91.411 E-.01377
G1 X121.451 Y91.409 E-.35929
G1 X121.584 Y91.433 E-.03121
G1 X121.717 Y91.457 E-.03121
G1 X121.85 Y91.481 E-.03121
G1 X122.324 Y91.463 E-.10953
G1 X122.798 Y91.444 E-.10954
G1 X123.272 Y91.425 E-.10954
G1 X123.292 Y91.423 E-.0047
;WIPE_END
G1 Z.6 F720
G1 X120.982 Y92.227 F10800
G1 Z.2 F720
G1 E.8 F2100
M204 S800
G1 F1200
G1 X121.508 Y92.136 E.01674
;WIDTH:0.468946
G1 X121.635 Y92.091 E.00477
;WIDTH:0.517893
G1 X121.763 Y92.047 E.00535
;WIDTH:0.566839
G1 X121.891 Y92.002 E.00591
G1 X122.362 Y91.948 E.02065
;WIDTH:0.530726
G1 X122.833 Y91.893 E.01923
;WIDTH:0.494613
G1 X123.304 Y91.838 E.01781
;WIDTH:0.458499
G1 X123.494 Y91.814 E.00662
;WIDTH:0.448625
G1 X124.782 Y91.705 E.04361
;WIDTH:0.425497
G1 X125.218 Y91.708 E.01387
;WIDTH:0.448373
G1 X126.5 Y91.814 E.04337
;WIDTH:0.458573
G1 X126.696 Y91.838 E.00682
;WIDTH:0.494662
G1 X127.167 Y91.893 E.01781
;WIDTH:0.530751
G1 X127.638 Y91.948 E.01924
;WIDTH:0.566839
G1 X128.109 Y92.002 E.02065
G1 X128.237 Y92.047 E.00591
;WIDTH:0.517893
G1 X128.364 Y92.091 E.00531
;WIDTH:0.468946
G1 X128.492 Y92.136 E.00481
;WIDTH:0.419999
G1 X129.018 Y92.227 E.01674
G1 X132.566 Y94.035 E.12486
G1 X135.43 Y96.885 E.12668
G1 X137.272 Y100.481 E.12668
G1 X137.913 Y104.529 E.1285
G1 X137.272 Y108.517 E.12665
G1 X135.464 Y112.065 E.12486
G1 X132.614 Y114.929 E.12668
G1 X129.018 Y116.771 E.12668
G1 X125.03 Y117.412 E.12665
G1 X120.982 Y116.771 E.1285
G1 X117.386 Y114.929 E.12668
G1 X114.536 Y112.065 E.12668
G1 X112.728 Y108.517 E.12486
