; generated by PrusaSlicer 2.8.1+win64 on 2024-12-18 at 14:59:46 UTC


;
;
; 

; external perimeters extrusion width = 0.60mm
; perimeters extrusion width = 0.50mm
; infill extrusion width = 0.50mm
; solid infill extrusion width = 0.50mm
; top infill extrusion width = 0.45mm
; first layer extrusion width = 0.42mm

M73 P0 R10
M73 Q0 S10
M201 X1000 Y1000 Z200 E5000 ; sets maximum accelerations, mm/sec^2
M203 X200 Y200 Z12 E120 ; sets maximum feedrates, mm / sec
M204 S1250 T1250 ; sets acceleration (S) and retract acceleration (R), mm/sec^2
M205 X8.00 Y8.00 Z0.40 E4.50 ; sets the jerk limits, mm/sec
M205 S0 T0 ; sets the minimum extruding and travel feed rate, mm/sec

; printing object endoskopSpitze.stl id:0 copy 0
; stop printing object endoskopSpitze.stl id:0 copy 0

;TYPE:Custom
M862.3 P "MK3S" ; printer model check
M862.1 P0.4 ; nozzle diameter check
M115 U3.13.3 ; tell printer latest fw version
G90 ; use absolute coordinates
M83 ; extruder relative mode
M104 S215 ; set extruder temp
M140 S60 ; set bed temp
M190 S60 ; wait for bed temp
M109 S215 ; wait for extruder temp
G28 W ; home all without mesh bed level
G80 X112.303 Y92.3029 W25.3943 H25.3943 ; mesh bed levelling

G1 Z0.2 F720
G1 Y-3 F1000 ; go outside print area
G92 E0
G1 X60 E9 F1000 ; intro line
G1 X100 E12.5 F1000 ; intro line

G92 E0
M221 S95

; Don't change E values below. Excessive value can damage the printer.

M907 E538 ; set extruder motor current
G21 ; set units to millimeters
G90 ; use absolute coordinates
M83 ; use relative distances for extrusion

M900 K0.05 ; Filament gcode LA 1.5
M900 K30 ; Filament gcode LA 1.0




M107
;LAYER_CHANGE
;Z:0.2
;HEIGHT:0.2
G1 E-.8 F2100
G1 Z.6 F720
G1 X115.917 Y96.391 F10800
G1 Z.2 F720
M73 P1 R10
M73 Q1 S10
G1 E.8 F2100
M204 S800
;TYPE:Skirt/Brim
;WIDTH:0.42
G1 F1200
G1 X116.391 Y95.917 E.02102
G1 X118.455 Y94.333 E.08158
G1 X119.035 Y93.999 E.02099
G1 X121.437 Y93.004 E.08152
G1 X122.083 Y92.83 E.02098
G1 X124.663 Y92.49 E.08159
G1 X125.334 Y92.49 E.02104
G1 X127.914 Y92.83 E.08159
G1 X128.561 Y93.003 E.021
G1 X130.96 Y93.996 E.08141
G1 X131.539 Y94.33 E.02096
G1 X133.608 Y95.916 E.08174
G1 X134.083 Y96.391 E.02106
G1 X135.664 Y98.452 E.08144
G1 X135.999 Y99.031 E.02097
G1 X136.997 Y101.438 E.0817
G1 X137.17 Y102.085 E.021
G1 X137.51 Y104.664 E.08156
G1 X137.51 Y105.334 E.02101
G1 X137.171 Y107.909 E.08143
G1 X136.998 Y108.555 E.02097
G1 X136.002 Y110.964 E.08173
G1 X135.667 Y111.545 E.02103
G1 X134.083 Y113.609 E.08158
G1 X133.609 Y114.083 E.02102
G1 X131.545 Y115.667 E.08158
G1 X130.965 Y116.001 E.02099
G1 X128.561 Y116.997 E.08159
G1 X127.915 Y117.17 E.02097
G1 X125.335 Y117.51 E.08159
G1 X124.665 Y117.51 E.02101
G1 X122.089 Y117.171 E.08147
G1 X121.444 Y116.998 E.02094
G1 X119.038 Y116.003 E.08163
G1 X118.458 Y115.668 E.021
G1 X116.391 Y114.083 E.08167
G1 X115.917 Y113.609 E.02102
G1 X114.333 Y111.545 E.08158
G1 X113.999 Y110.965 E.02099
G1 X113.003 Y108.561 E.08159
G1 X112.83 Y107.915 E.02097
G1 X112.49 Y105.335 E.08159
G1 X112.49 Y104.665 E.02101
G1 X112.83 Y102.085 E.08159
G1 X113.003 Y101.439 E.02097
G1 X113.999 Y99.035 E.08159
G1 X114.333 Y98.455 E.02099
G1 X115.881 Y96.438 E.07972
M204 S1000
G1 X115.881 Y96.438 F10800
G1 X116.18 Y96.668
M204 S800
G1 F1200
G1 X116.216 Y96.62 E.00188
G1 X116.62 Y96.216 E.01791
G1 X118.684 Y94.633 E.08156
G1 X119.179 Y94.347 E.01792
G1 X121.581 Y93.352 E.08152
G1 X122.133 Y93.204 E.01792
G1 X124.713 Y92.864 E.08159
G1 X125.285 Y92.864 E.01793
G1 X127.865 Y93.203 E.08159
G1 X128.417 Y93.351 E.01792
G1 X130.816 Y94.345 E.08142
G1 X131.309 Y94.63 E.01785
G1 X133.379 Y96.215 E.08174
G1 X133.784 Y96.62 E.01796
G1 X135.365 Y98.682 E.08147
G1 X135.651 Y99.176 E.0179
G1 X136.648 Y101.582 E.08166
G1 X136.797 Y102.135 E.01796
G1 X137.136 Y104.713 E.08153
G1 X137.136 Y105.285 E.01793
G1 X136.797 Y107.86 E.08143
G1 X136.65 Y108.411 E.01788
M73 Q2 S10
G1 X135.654 Y110.82 E.08173
G1 X135.367 Y111.316 E.01797
G1 X133.784 Y113.38 E.08156
G1 X133.38 Y113.784 E.01791
M73 P2 R10
G1 X131.316 Y115.367 E.08156
G1 X130.821 Y115.653 E.01792
G1 X128.417 Y116.649 E.08159
G1 X127.865 Y116.797 E.01792
G1 X125.286 Y117.136 E.08156
G1 X124.714 Y117.136 E.01793
G1 X122.139 Y116.797 E.08143
G1 X121.588 Y116.65 E.01788
G1 X119.183 Y115.654 E.08162
G1 X118.687 Y115.369 E.01794
G1 X116.621 Y113.784 E.08165
G1 X116.216 Y113.38 E.01794
G1 X114.633 Y111.316 E.08156
G1 X114.347 Y110.821 E.01792
G1 X113.351 Y108.417 E.08159
G1 X113.203 Y107.865 E.01792
G1 X112.864 Y105.286 E.08156
G1 X112.864 Y104.714 E.01793
G1 X113.203 Y102.135 E.08156
G1 X113.351 Y101.583 E.01792
G1 X114.347 Y99.179 E.08159
G1 X114.633 Y98.684 E.01792
G1 X116.143 Y96.716 E.07778
M204 S1000
;WIPE_START
G1 F8640
G1 X116.18 Y96.668 E-.01399
G1 X116.216 Y96.62 E-.01385
G1 X116.62 Y96.216 E-.13192
G1 X118.684 Y94.633 E-.60061
G1 X118.833 Y94.547 E-.03963
;WIPE_END
G1 Z.6 F720
; printing object endoskopSpitze.stl id:0 copy 0
G1 X120.214 Y104.738 F10800
G1 Z.2 F720
G1 E.8 F2100
M204 S800
;TYPE:Perimeter
;WIDTH:0.419999
G1 F1200
G1 X120.214 Y104.709 E.00091
G1 X120.412 Y103.467 E.03943
G1 X120.879 Y102.489 E.03398
G1 X121.143 Y102.033 E.01652
G1 X122.033 Y101.143 E.03946
G1 X122.489 Y100.879 E.01652
G1 X123.299 Y100.467 E.02849
G1 X123.533 Y100.402 E.00761
G1 X124.71 Y100.215 E.03737
G1 X125.04 Y100.215 E.01035
G1 X126.329 Y100.419 E.04092
G1 X126.497 Y100.474 E.00554
G1 X127.661 Y101.067 E.04096
G1 X128.729 Y102.095 E.04648
G1 X128.995 Y102.557 E.01672
G1 X129.426 Y103.403 E.02977
G1 X129.481 Y103.571 E.00554
G1 X129.685 Y104.862 E.04098
G1 X129.685 Y105.038 E.00552
G1 X129.481 Y106.329 E.04098
G1 X129.426 Y106.497 E.00554
G1 X128.833 Y107.661 E.04096
G1 X128.267 Y108.267 E.026
G1 X127.805 Y108.729 E.02049
G1 X127.422 Y108.956 E.01396
G1 X126.497 Y109.426 E.03253
G1 X126.329 Y109.481 E.00554
G1 X125.039 Y109.686 E.04095
G1 X124.861 Y109.686 E.00558
G1 X123.569 Y109.48 E.04102
G1 X122.557 Y108.995 E.03519
G1 X122.095 Y108.729 E.01672
G1 X121.171 Y107.805 E.04097
G1 X120.966 Y107.464 E.01248
G1 X120.474 Y106.497 E.03402
G1 X120.419 Y106.329 E.00554
G1 X120.214 Y105.04 E.04092
G1 X120.214 Y104.798 E.00759
M204 S1000
G1 X120.214 Y104.798 F10800
G1 X120.587 Y104.769
M204 S800
;TYPE:External perimeter
G1 F1200
G1 X120.785 Y103.526 E.03946
G1 X121.409 Y102.3 E.04313
G1 X122.3 Y101.409 E.03951
G1 X123.47 Y100.803 E.04131
G1 X124.769 Y100.588 E.04128
G1 X124.981 Y100.588 E.00665
G1 X126.326 Y100.81 E.04274
G1 X127.49 Y101.403 E.04096
G1 X128.463 Y102.362 E.04284
G1 X129.09 Y103.574 E.04279
G1 X129.312 Y104.979 E.0446
G1 X129.09 Y106.326 E.0428
G1 X128.497 Y107.49 E.04096
G1 X128 Y108 E.02233
G1 X127.538 Y108.463 E.02051
G1 X126.326 Y109.09 E.04279
G1 X124.92 Y109.313 E.04464
G1 X123.629 Y109.108 E.04099
G1 X122.728 Y108.659 E.03156
G1 X122.362 Y108.463 E.01302
G1 X121.437 Y107.538 E.04102
G1 X120.81 Y106.326 E.04279
G1 X120.587 Y104.981 E.04275
G1 X120.587 Y104.829 E.00477
M204 S1000
;WIPE_START
G1 F8640
G1 X120.587 Y104.769 E-.01385
G1 X120.785 Y103.526 E-.29063
G1 X121.409 Y102.3 E-.31764
G1 X121.954 Y101.755 E-.17788
;WIPE_END
G1 Z.6 F720
G1 X118.514 Y98.514 F10800
G1 Z.2 F720
G1 E.8 F2100
M204 S800
;TYPE:Perimeter
G1 F1200
G1 X120.414 Y97.056 E.07509
G1 X122.626 Y96.14 E.07507
G1 X125 Y95.827 E.07508
G1 X127.374 Y96.14 E.07508
M73 Q3 S10
G1 X129.586 Y97.056 E.07507
G1 X131.486 Y98.514 E.07509
G1 X132.944 Y100.414 E.07509
M73 P3 R10
G1 X133.86 Y102.626 E.07507
G1 X134.173 Y105 E.07508
G1 X134.134 Y105.291 E.00921
G1 X133.86 Y107.374 E.06587
G1 X132.944 Y109.586 E.07507
G1 X131.486 Y111.486 E.07509
G1 X129.586 Y112.944 E.07509
G1 X127.374 Y113.86 E.07507
G1 X125 Y114.173 E.07508
G1 X122.626 Y113.86 E.07508
G1 X120.414 Y112.944 E.07507
G1 X118.514 Y111.486 E.07509
G1 X117.056 Y109.586 E.07509
G1 X116.14 Y107.374 E.07507
G1 X115.827 Y105 E.07508
G1 X116.14 Y102.626 E.07508
G1 X117.056 Y100.414 E.07507
G1 X118.477 Y98.562 E.07319
M204 S1000
G1 X118.477 Y98.562 F10800
G1 X118.245 Y98.245
M204 S800
;TYPE:External perimeter
G1 F1200
G1 X120.223 Y96.727 E.07818
G1 X122.528 Y95.773 E.07822
G1 X125 Y95.447 E.07818
G1 X127.472 Y95.773 E.07818
G1 X129.777 Y96.727 E.07822
G1 X131.755 Y98.245 E.07818
G1 X133.273 Y100.223 E.07818
G1 X134.227 Y102.528 E.07822
G1 X134.553 Y105 E.07818
G1 X134.508 Y105.341 E.01078
G1 X134.227 Y107.472 E.06739
G1 X133.273 Y109.777 E.07822
G1 X131.755 Y111.755 E.07818
G1 X129.777 Y113.273 E.07818
G1 X127.472 Y114.227 E.07822
G1 X125 Y114.553 E.07818
G1 X122.528 Y114.227 E.07818
G1 X120.223 Y113.273 E.07822
G1 X118.245 Y111.755 E.07818
G1 X116.727 Y109.777 E.07818
G1 X115.773 Y107.472 E.07822
G1 X115.447 Y105 E.07818
G1 X115.773 Y102.528 E.07818
G1 X116.727 Y100.223 E.07822
G1 X118.208 Y98.293 E.07628
M204 S1000
;WIPE_START
G1 F8640
G1 X118.245 Y98.245 E-.01399
G1 X120.223 Y96.727 E-.57572
G1 X121.064 Y96.379 E-.21029
;WIPE_END
G1 Z.6 F720
G1 X130.314 Y97.829 F10800
G1 Z.2 F720
G1 E.8 F2100
M204 S800
;TYPE:Solid infill
;WIDTH:0.426773
G1 F1200
G1 X131.252 Y98.767 E.04234
G1 X132.647 Y100.585 E.07314
G1 X132.732 Y100.789 E.00705
G1 X129.211 Y97.268 E.15893
G1 X128.284 Y96.884 E.03203
M73 Q4 S10
G1 X133.116 Y101.716 E.21811
G1 X133.499 Y102.642 E.03198
M73 P4 R10
G1 X127.358 Y96.501 E.27719
G1 X127.285 Y96.471 E.00252
G1 X126.709 Y96.395 E.01854
G1 X133.605 Y103.291 E.31127
G1 X133.688 Y103.916 E.02012
G1 X126.084 Y96.312 E.34323
G1 X125.458 Y96.23 E.02015
G1 X133.77 Y104.542 E.37519
G1 X133.83 Y105 E.01474
G1 X133.814 Y105.128 E.00412
G1 X124.872 Y96.186 E.40363
G1 X124.392 Y96.25 E.01546
G1 X133.75 Y105.608 E.4224
G1 X133.687 Y106.087 E.01542
G1 X123.913 Y96.313 E.44118
G1 X123.433 Y96.376 E.01545
G1 X133.624 Y106.567 E.46
G1 X133.561 Y107.047 E.01545
G1 X129.691 Y103.177 E.17468
G1 X129.814 Y103.503 E.01112
G1 X129.874 Y103.902 E.01288
G1 X133.449 Y107.478 E.16139
G1 X133.29 Y107.862 E.01327
G1 X129.969 Y104.541 E.1499
G1 X130.033 Y104.964 E.01365
G1 X130.008 Y105.123 E.00514
G1 X133.131 Y108.246 E.14097
G1 X132.973 Y108.63 E.01325
M73 Q5 S10
G1 X129.937 Y105.594 E.13704
G1 X129.865 Y106.065 E.01521
M73 P5 R10
G1 X132.814 Y109.014 E.13311
G1 X132.655 Y109.397 E.01324
G1 X129.778 Y106.521 E.12984
G1 X129.605 Y106.891 E.01304
G1 X132.422 Y109.708 E.12715
G1 X132.187 Y110.015 E.01234
G1 X129.422 Y107.251 E.12478
G1 X129.24 Y107.611 E.01288
G1 X131.951 Y110.323 E.12239
G1 X131.715 Y110.63 E.01236
G1 X129.038 Y107.953 E.12083
G1 X128.778 Y108.235 E.01224
G1 X131.48 Y110.937 E.12196
G1 X131.244 Y111.244 E.01236
G1 X128.505 Y108.505 E.12363
G1 X128.232 Y108.775 E.01226
G1 X130.937 Y111.48 E.1221
G1 X130.63 Y111.715 E.01234
G1 X127.96 Y109.045 E.12052
G1 X127.604 Y109.233 E.01285
G1 X130.322 Y111.951 E.12269
G1 X130.015 Y112.187 E.01236
G1 X127.247 Y109.419 E.12494
G1 X126.89 Y109.604 E.01283
G1 X129.708 Y112.422 E.1272
G1 X129.397 Y112.655 E.0124
G1 X126.517 Y109.774 E.13002
G1 X126.394 Y109.814 E.00413
G1 X126.065 Y109.865 E.01063
G1 X129.014 Y112.814 E.13311
G1 X128.63 Y112.973 E.01327
G1 X125.594 Y109.937 E.13704
G1 X125.124 Y110.009 E.01518
G1 X128.246 Y113.132 E.14094
G1 X127.862 Y113.291 E.01327
G1 X124.542 Y109.97 E.14988
G1 X123.903 Y109.874 E.02062
G1 X127.478 Y113.45 E.16139
G1 X127.285 Y113.529 E.00666
G1 X127.047 Y113.561 E.00766
G1 X122.788 Y109.302 E.19224
M204 S1000
;WIPE_START
G1 F8640
G1 X125.238 Y111.752 E-.8
;WIPE_END
G1 Z.6 F720
G1 X127.112 Y100.598 F10800
G1 Z.2 F720
G1 E.8 F2100
M204 S800
G1 F1200
G1 X122.953 Y96.439 E.18773
G1 X122.715 Y96.471 E.00766
G1 X122.522 Y96.551 E.00667
G1 X125.994 Y100.023 E.15672
G1 X125.349 Y99.921 E.02084
G1 X122.138 Y96.71 E.14494
G1 X121.754 Y96.869 E.01327
M73 Q6 S10
G1 X124.761 Y99.876 E.13573
G1 X124.282 Y99.94 E.01542
M73 P6 R10
G1 X121.37 Y97.027 E.13146
G1 X120.986 Y97.186 E.01327
G1 X123.814 Y100.014 E.12765
G1 X123.352 Y100.095 E.01497
G1 X120.603 Y97.345 E.12411
G1 X120.292 Y97.578 E.0124
G1 X122.97 Y100.256 E.12088
G1 X122.613 Y100.442 E.01285
G1 X119.985 Y97.813 E.11865
G1 X119.677 Y98.049 E.01238
G1 X122.256 Y100.627 E.11639
G1 X121.899 Y100.813 E.01285
G1 X119.37 Y98.285 E.11413
G1 X119.063 Y98.52 E.01234
G1 X121.623 Y101.08 E.11555
G1 X121.35 Y101.35 E.01226
G1 X118.756 Y98.756 E.11709
G1 X118.52 Y99.063 E.01236
G1 X121.077 Y101.62 E.11542
G1 X120.895 Y101.801 E.00819
G1 X120.819 Y101.905 E.00411
G1 X118.285 Y99.37 E.1144
G1 X118.049 Y99.678 E.01238
G1 X120.621 Y102.25 E.1161
G1 X120.438 Y102.61 E.01289
G1 X117.813 Y99.985 E.11849
G1 X117.578 Y100.292 E.01234
G1 X120.256 Y102.97 E.12088
G1 X120.133 Y103.212 E.00866
G1 X120.094 Y103.351 E.00461
G1 X117.345 Y100.603 E.12406
G1 X117.186 Y100.986 E.01324
G1 X120.013 Y103.813 E.12761
G1 X119.939 Y104.282 E.01515
G1 X117.027 Y101.37 E.13144
G1 X116.868 Y101.754 E.01327
G1 X119.875 Y104.76 E.13571
G1 X119.868 Y104.974 E.00683
G1 X119.926 Y105.355 E.0123
G1 X116.709 Y102.138 E.14521
G1 X116.551 Y102.522 E.01325
G1 X120.025 Y105.996 E.15681
G1 X120.086 Y106.394 E.01285
G1 X120.209 Y106.723 E.01121
G1 X116.439 Y102.953 E.17017
G1 X116.376 Y103.433 E.01545
G1 X126.567 Y113.624 E.46
G1 X126.087 Y113.687 E.01545
G1 X116.313 Y103.913 E.44118
G1 X116.25 Y104.392 E.01542
M73 Q7 S10
G1 X125.608 Y113.75 E.4224
G1 X125.128 Y113.814 E.01546
M73 P7 R10
G1 X116.186 Y104.872 E.40363
G1 X116.17 Y105 E.00412
G1 X116.23 Y105.458 E.01474
G1 X124.542 Y113.77 E.37519
G1 X123.916 Y113.688 E.02015
G1 X116.312 Y106.084 E.34323
G1 X116.395 Y106.709 E.02012
G1 X123.291 Y113.605 E.31127
G1 X122.715 Y113.529 E.01854
G1 X122.642 Y113.499 E.00252
G1 X116.501 Y107.358 E.27719
G1 X116.884 Y108.284 E.03198
M73 P7 R9
G1 X121.716 Y113.116 E.21811
G1 X120.789 Y112.732 E.03203
G1 X117.268 Y109.211 E.15893
G1 X117.353 Y109.415 E.00705
G1 X118.748 Y111.233 E.07314
G1 X119.686 Y112.171 E.04234
M204 S1000
M106 S84.15
;LAYER_CHANGE
;Z:0.5
;HEIGHT:0.3
;BEFORE_LAYER_CHANGE
G92 E0.0
;0.5


;WIPE_START
G1 F8640
M73 Q7 S9
G1 X118.748 Y111.233 E-.3063
G1 X117.446 Y109.537 E-.4937
;WIPE_END
G1 Z.5 F720
;AFTER_LAYER_CHANGE
;0.5
M104 S210 ; set temperature
; stop printing object endoskopSpitze.stl id:0 copy 0
G1 Z.9
G1 X117.542 Y114.966 F10800
G1 Z.5 F720
G1 E.8 F2100
;TYPE:Skirt/Brim
;WIDTH:0.42
G1 F2700
G1 X116.391 Y114.083 E.06434
G1 X115.917 Y113.609 E.02973
G1 X114.333 Y111.545 E.1154
G1 X113.999 Y110.965 E.02969
G1 X113.003 Y108.561 E.11542
G1 X112.83 Y107.915 E.02966
G1 X112.49 Y105.335 E.11542
G1 X112.49 Y104.665 E.02972
G1 X112.83 Y102.085 E.11542
G1 X113.003 Y101.439 E.02966
G1 X113.999 Y99.035 E.11542
G1 X114.333 Y98.455 E.02969
G1 X115.917 Y96.391 E.1154
G1 X116.391 Y95.917 E.02973
G1 X118.455 Y94.333 E.1154
G1 X119.035 Y93.999 E.02969
G1 X121.437 Y93.004 E.11532
G1 X122.083 Y92.83 E.02967
G1 X124.663 Y92.49 E.11542
G1 X125.334 Y92.49 E.02976
G1 X127.914 Y92.83 E.11542
G1 X128.561 Y93.003 E.02971
G1 X130.96 Y93.996 E.11516
G1 X131.539 Y94.33 E.02965
G1 X133.608 Y95.916 E.11563
G1 X134.083 Y96.391 E.0298
G1 X135.664 Y98.452 E.11521
G1 X135.999 Y99.031 E.02967
G1 X136.997 Y101.438 E.11558
G1 X137.17 Y102.085 E.02971
G1 X137.51 Y104.664 E.11538
G1 X137.51 Y105.334 E.02972
G1 X137.171 Y107.909 E.1152
G1 X136.998 Y108.555 E.02966
G1 X136.002 Y110.964 E.11562
G1 X135.667 Y111.545 E.02975
G1 X134.083 Y113.609 E.1154
G1 X133.609 Y114.083 E.02973
M73 Q8 S9
G1 X131.545 Y115.667 E.1154
G1 X130.965 Y116.001 E.02969
G1 X128.561 Y116.997 E.11542
G1 X127.915 Y117.17 E.02966
G1 X125.335 Y117.51 E.11542
G1 X124.665 Y117.51 E.02972
M73 P8 R9
G1 X122.089 Y117.171 E.11524
G1 X121.444 Y116.998 E.02962
G1 X119.038 Y116.003 E.11548
G1 X118.458 Y115.668 E.02971
G1 X117.59 Y115.002 E.04853
G1 X117.59 Y115.002 F10800
G1 X117.819 Y114.703
G1 F2700
G1 X116.621 Y113.784 E.06697
G1 X116.216 Y113.38 E.02537
G1 X114.633 Y111.316 E.11537
G1 X114.347 Y110.821 E.02536
G1 X113.351 Y108.417 E.11542
G1 X113.203 Y107.865 E.02535
G1 X112.864 Y105.286 E.11538
G1 X112.864 Y104.714 E.02537
G1 X113.203 Y102.135 E.11538
G1 X113.351 Y101.583 E.02535
G1 X114.347 Y99.179 E.11542
G1 X114.633 Y98.684 E.02536
G1 X116.216 Y96.62 E.11537
G1 X116.62 Y96.216 E.02534
G1 X118.684 Y94.633 E.11537
G1 X119.179 Y94.347 E.02536
G1 X121.581 Y93.352 E.11532
G1 X122.133 Y93.204 E.02535
