; generated by PrusaSlicer 2.8.1+win64 on 2025-01-08 at 08:50:58 UTC


;
;
; 

; external perimeters extrusion width = 0.60mm
; perimeters extrusion width = 0.50mm
; infill extrusion width = 0.50mm
; solid infill extrusion width = 0.50mm
; top infill extrusion width = 0.45mm
; first layer extrusion width = 0.42mm

M73 P0 R4
M73 Q0 S4
M201 X1000 Y1000 Z200 E5000 ; sets maximum accelerations, mm/sec^2
M203 X200 Y200 Z12 E120 ; sets maximum feedrates, mm / sec
M204 S1250 T1250 ; sets acceleration (S) and retract acceleration (R), mm/sec^2
M205 X8.00 Y8.00 Z0.40 E4.50 ; sets the jerk limits, mm/sec
M205 S0 T0 ; sets the minimum extruding and travel feed rate, mm/sec

; printing object KellerTuerAbdeckung.stl id:0 copy 0
; stop printing object KellerTuerAbdeckung.stl id:0 copy 0

;TYPE:Custom
M862.3 P "MK3S" ; printer model check
M862.1 P0.4 ; nozzle diameter check
M115 U3.13.3 ; tell printer latest fw version
G90 ; use absolute coordinates
M83 ; extruder relative mode
M104 S215 ; set extruder temp
M140 S60 ; set bed temp
M190 S60 ; wait for bed temp
M109 S215 ; wait for extruder temp
G28 W ; home all without mesh bed level
G80 X109.746 Y90.7458 W30.5083 H28.5083 ; mesh bed levelling

G1 Z0.2 F720
G1 Y-3 F1000 ; go outside print area
G92 E0
G1 X60 E9 F1000 ; intro line
G1 X100 E12.5 F1000 ; intro line
M73 P1 R4
M73 Q1 S4

G92 E0
M221 S95

; Don't change E values below. Excessive value can damage the printer.

M907 E538 ; set extruder motor current
G21 ; set units to millimeters
G90 ; use absolute coordinates
M83 ; use relative distances for extrusion

M900 K0.05 ; Filament gcode LA 1.5
M900 K30 ; Filament gcode LA 1.0




M107
;LAYER_CHANGE
;Z:0.2
;HEIGHT:0.2
G1 E-.8 F2100
M73 P2 R4
M73 Q2 S4
G1 Z.6 F720
G1 X110.327 Y92.137 F10800
G1 Z.2 F720
G1 E.8 F2100
M204 S800
;TYPE:Skirt/Brim
;WIDTH:0.42
G1 F1200
G1 X111.383 Y91.19 E.04447
G1 X112.5 Y90.934 E.03593
G1 X137.5 Y90.934 E.78386
G1 X138.863 Y91.327 E.04448
M73 Q3 S4
G1 X139.81 Y92.383 E.04447
M73 P3 R4
G1 X140.066 Y93.5 E.03593
G1 X140.066 Y116.5 E.72115
G1 X139.673 Y117.863 E.04448
G1 X138.617 Y118.81 E.04447
G1 X137.5 Y119.066 E.03593
G1 X112.5 Y119.066 E.78386
G1 X111.137 Y118.673 E.04448
M73 Q4 S4
G1 X110.19 Y117.617 E.04447
M73 P4 R4
G1 X109.934 Y116.5 E.03593
G1 X109.934 Y93.5 E.72115
G1 X110.31 Y92.194 E.04261
M204 S1000
G1 X110.31 Y92.194 F10800
G1 X110.684 Y92.311
M204 S800
G1 F1200
G1 X110.702 Y92.252 E.00193
G1 X111.735 Y91.449 E.04102
G1 X112.5 Y91.311 E.02437
G1 X137.5 Y91.311 E.78386
G1 X138.748 Y91.702 E.04101
M73 Q5 S4
G1 X139.551 Y92.735 E.04102
G1 X139.689 Y93.5 E.02437
M73 P5 R4
G1 X139.689 Y116.5 E.72115
G1 X139.298 Y117.748 E.04101
G1 X138.265 Y118.551 E.04102
G1 X137.5 Y118.689 E.02437
G1 X112.5 Y118.689 E.78386
G1 X111.252 Y118.298 E.04101
M73 Q6 S4
G1 X110.449 Y117.265 E.04102
G1 X110.311 Y116.5 E.02437
G1 X110.311 Y93.5 E.72115
G1 X110.666 Y92.369 E.03717
M73 P6 R4
M204 S1000
;WIPE_START
G1 F8640
G1 X110.684 Y92.311 E-.01402
G1 X110.702 Y92.252 E-.01424
G1 X111.735 Y91.449 E-.30211
G1 X112.5 Y91.311 E-.17949
G1 X113.757 Y91.311 E-.29014
;WIPE_END
G1 Z.6 F720
; printing object KellerTuerAbdeckung.stl id:0 copy 0
G1 X136.713 Y115.713 F10800
G1 Z.2 F720
G1 E.8 F2100
M204 S800
;TYPE:Perimeter
;WIDTH:0.419999
G1 F1200
G1 X113.287 Y115.713 E.7345
G1 X113.287 Y94.287 E.6718
M73 P7 R4
M73 Q7 S4
G1 X136.713 Y94.287 E.7345
G1 X136.713 Y105 E.3359
G1 X136.713 Y115.653 E.33402
M73 P8 R4
M73 Q8 S4
M204 S1000
G1 X137.09 Y116.09 F10800
M204 S800
;TYPE:External perimeter
G1 F1200
G1 X112.91 Y116.09 E.75815
G1 X112.91 Y93.91 E.69544
G1 X137.09 Y93.91 E.75815
M73 P9 R4
M73 Q9 S4
G1 X137.09 Y105 E.34772
G1 X137.09 Y116.03 E.34584
M204 S1000
;WIPE_START
G1 F8640
G1 X137.09 Y116.09 E-.01385
G1 X133.685 Y116.09 E-.78615
;WIPE_END
G1 Z.6 F720
M73 Q10 S4
G1 X136.543 Y95.229 F10800
G1 Z.2 F720
M73 P10 R4
G1 E.8 F2100
M204 S800
;TYPE:Solid infill
;WIDTH:0.424484
G1 F1200
G1 X135.941 Y94.626 E.02703
G1 X135.402 Y94.626 E.0171
G1 X136.374 Y95.598 E.04361
G1 X136.374 Y96.138 E.01713
G1 X134.862 Y94.626 E.06784
G1 X134.322 Y94.626 E.01713
G1 X136.374 Y96.678 E.09207
G1 X136.374 Y97.217 E.0171
G1 X133.783 Y94.626 E.11626
G1 X133.243 Y94.626 E.01713
G1 X136.374 Y97.757 E.14048
G1 X136.374 Y98.297 E.01713
G1 X132.703 Y94.626 E.16471
G1 X132.164 Y94.626 E.0171
G1 X136.374 Y98.836 E.1889
G1 X136.374 Y99.376 E.01713
G1 X131.624 Y94.626 E.21313
G1 X131.085 Y94.626 E.0171
G1 X136.374 Y99.915 E.23731
G1 X136.374 Y100.455 E.01713
M73 Q11 S4
G1 X130.545 Y94.626 E.26154
G1 X130.005 Y94.626 E.01713
M73 P11 R4
G1 X136.374 Y100.995 E.28577
G1 X136.374 Y101.534 E.0171
G1 X129.466 Y94.626 E.30996
G1 X128.926 Y94.626 E.01713
G1 X136.374 Y102.074 E.33418
G1 X136.374 Y102.613 E.0171
G1 X128.387 Y94.626 E.35837
G1 X127.847 Y94.626 E.01713
G1 X136.374 Y103.153 E.3826
G1 X136.374 Y103.693 E.01713
M73 P12 R4
M73 Q12 S4
G1 X127.307 Y94.626 E.40683
G1 X126.768 Y94.626 E.0171
G1 X136.374 Y104.232 E.43101
G1 X136.374 Y104.772 E.01713
G1 X126.228 Y94.626 E.45524
G1 X125.688 Y94.626 E.01713
G1 X136.374 Y105.312 E.47947
G1 X136.374 Y105.851 E.0171
M73 P13 R4
M73 Q13 S4
G1 X125.149 Y94.626 E.50365
G1 X124.609 Y94.626 E.01713
G1 X136.374 Y106.391 E.52788
G1 X136.374 Y106.93 E.0171
G1 X124.07 Y94.626 E.55207
G1 X123.53 Y94.626 E.01713
M73 P14 R4
M73 Q14 S4
G1 X136.374 Y107.47 E.5763
G1 X136.374 Y108.01 E.01713
G1 X122.99 Y94.626 E.60053
G1 X122.451 Y94.626 E.0171
G1 X136.374 Y108.549 E.62471
G1 X136.374 Y109.089 E.01713
M73 P15 R4
M73 Q15 S4
G1 X121.911 Y94.626 E.64894
G1 X121.372 Y94.626 E.0171
G1 X136.374 Y109.628 E.67312
G1 X136.374 Y110.168 E.01713
G1 X120.832 Y94.626 E.69735
G1 X120.292 Y94.626 E.01713
M73 P16 R3
M73 Q16 S3
G1 X136.374 Y110.708 E.72158
G1 X136.374 Y111.247 E.0171
G1 X119.753 Y94.626 E.74577
G1 X119.213 Y94.626 E.01713
M73 P17 R3
M73 Q17 S3
G1 X136.374 Y111.787 E.77
G1 X136.374 Y112.326 E.0171
G1 X118.674 Y94.626 E.79418
G1 X118.134 Y94.626 E.01713
M73 Q18 S3
G1 X136.374 Y112.866 E.81841
G1 X136.374 Y113.406 E.01713
M73 P18 R3
G1 X117.594 Y94.626 E.84264
G1 X117.055 Y94.626 E.0171
M73 Q19 S3
G1 X136.374 Y113.945 E.86682
G1 X136.374 Y114.485 E.01713
M73 P19 R3
G1 X116.515 Y94.626 E.89105
G1 X115.975 Y94.626 E.01713
M73 Q20 S3
G1 X136.374 Y115.025 E.91528
G1 X136.374 Y115.374 E.01107
M73 P20 R3
G1 X136.183 Y115.374 E.00606
G1 X115.436 Y94.626 E.93092
G1 X114.896 Y94.626 E.01713
M73 Q21 S3
G1 X135.643 Y115.374 E.93092
G1 X135.104 Y115.374 E.0171
M73 P21 R3
G1 X114.357 Y94.626 E.93092
G1 X113.817 Y94.626 E.01713
M73 P22 R3
M73 Q22 S3
G1 X134.564 Y115.374 E.93092
G1 X134.024 Y115.374 E.01713
G1 X113.626 Y94.976 E.91524
G1 X113.626 Y95.515 E.0171
M73 P23 R3
M73 Q23 S3
G1 X133.485 Y115.374 E.89105
G1 X132.945 Y115.374 E.01713
G1 X113.626 Y96.055 E.86682
G1 X113.626 Y96.594 E.0171
M73 P24 R3
M73 Q24 S3
G1 X132.406 Y115.374 E.84264
G1 X131.866 Y115.374 E.01713
G1 X113.626 Y97.134 E.81841
G1 X113.626 Y97.674 E.01713
M73 P25 R3
M73 Q25 S3
G1 X131.326 Y115.374 E.79418
G1 X130.787 Y115.374 E.0171
G1 X113.626 Y98.213 E.77
G1 X113.626 Y98.753 E.01713
G1 X130.247 Y115.374 E.74577
G1 X129.708 Y115.374 E.0171
M73 P26 R3
M73 Q26 S3
G1 X113.626 Y99.292 E.72158
G1 X113.626 Y99.832 E.01713
G1 X129.168 Y115.374 E.69735
G1 X128.628 Y115.374 E.01713
M73 P27 R3
M73 Q27 S3
G1 X113.626 Y100.372 E.67312
G1 X113.626 Y100.911 E.0171
G1 X128.089 Y115.374 E.64894
G1 X127.549 Y115.374 E.01713
G1 X113.626 Y101.451 E.62471
G1 X113.626 Y101.99 E.0171
M73 P28 R3
M73 Q28 S3
G1 X127.01 Y115.374 E.60053
G1 X126.47 Y115.374 E.01713
G1 X113.626 Y102.53 E.5763
G1 X113.626 Y103.07 E.01713
M73 Q29 S3
G1 X125.93 Y115.374 E.55207
G1 X125.391 Y115.374 E.0171
M73 P29 R3
G1 X113.626 Y103.609 E.52788
G1 X113.626 Y104.149 E.01713
G1 X124.851 Y115.374 E.50365
G1 X124.311 Y115.374 E.01713
G1 X113.626 Y104.689 E.47943
G1 X113.626 Y105.228 E.0171
M73 P30 R3
M73 Q30 S3
G1 X123.772 Y115.374 E.45524
G1 X123.232 Y115.374 E.01713
G1 X113.626 Y105.768 E.43101
G1 X113.626 Y106.307 E.0171
G1 X122.693 Y115.374 E.40683
G1 X122.153 Y115.374 E.01713
G1 X113.626 Y106.847 E.3826
G1 X113.626 Y107.387 E.01713
M73 P31 R3
M73 Q31 S3
G1 X121.613 Y115.374 E.35837
G1 X121.074 Y115.374 E.0171
G1 X113.626 Y107.926 E.33418
G1 X113.626 Y108.466 E.01713
G1 X120.534 Y115.374 E.30996
G1 X119.995 Y115.374 E.0171
G1 X113.626 Y109.005 E.28577
G1 X113.626 Y109.545 E.01713
G1 X119.455 Y115.374 E.26154
G1 X118.915 Y115.374 E.01713
M73 P32 R3
M73 Q32 S3
G1 X113.626 Y110.085 E.23731
G1 X113.626 Y110.624 E.0171
G1 X118.376 Y115.374 E.21313
G1 X117.836 Y115.374 E.01713
G1 X113.626 Y111.164 E.1889
G1 X113.626 Y111.704 E.01713
G1 X117.296 Y115.374 E.16467
G1 X116.757 Y115.374 E.0171
G1 X113.626 Y112.243 E.14048
G1 X113.626 Y112.783 E.01713
G1 X116.217 Y115.374 E.11626
G1 X115.678 Y115.374 E.0171
G1 X113.626 Y113.322 E.09207
G1 X113.626 Y113.862 E.01713
G1 X115.138 Y115.374 E.06784
G1 X114.598 Y115.374 E.01713
G1 X113.626 Y114.402 E.04361
G1 X113.626 Y114.941 E.0171
G1 X114.229 Y115.543 E.02703
M204 S1000
M106 S84.15
;LAYER_CHANGE
;Z:0.5
;HEIGHT:0.3
;BEFORE_LAYER_CHANGE
G92 E0.0
;0.5


;WIPE_START
G1 F8640
G1 X113.626 Y114.941 E-.19674
G1 X113.626 Y114.402 E-.12446
G1 X114.598 Y115.374 E-.3174
G1 X115.138 Y115.374 E-.12469
M73 Q33 S3
G1 X115.026 Y115.262 E-.03671
;WIPE_END
G1 Z.5 F720
;AFTER_LAYER_CHANGE
;0.5
M104 S210 ; set temperature
; stop printing object KellerTuerAbdeckung.stl id:0 copy 0
G1 Z.9
G1 X114.229 Y119.066 F10800
G1 Z.5 F720
M73 P33 R3
G1 E.8 F2100
;TYPE:Skirt/Brim
;WIDTH:0.42
G1 F2700
G1 X112.5 Y119.066 E.07669
G1 X111.137 Y118.673 E.06292
G1 X110.19 Y117.617 E.06291
G1 X109.934 Y116.5 E.05083
G1 X109.934 Y93.5 E1.02016
G1 X110.327 Y92.137 E.06292
G1 X111.383 Y91.19 E.06291
G1 X112.5 Y90.934 E.05083
G1 X137.5 Y90.934 E1.10887
G1 X138.863 Y91.327 E.06292
G1 X139.81 Y92.383 E.06291
G1 X140.066 Y93.5 E.05083
G1 X140.066 Y116.5 E1.02016
G1 X139.673 Y117.863 E.06292
G1 X138.617 Y118.81 E.06291
G1 X137.5 Y119.066 E.05083
G1 X114.289 Y119.066 E1.02952
G1 X114.289 Y119.066 F10800
M73 P34 R3
M73 Q34 S3
G1 X114.289 Y118.689
G1 F2700
G1 X112.5 Y118.689 E.07935
G1 X111.252 Y118.298 E.05801
G1 X110.449 Y117.265 E.05803
G1 X110.311 Y116.5 E.03448
G1 X110.311 Y93.5 E1.02016
G1 X110.702 Y92.252 E.05801
G1 X111.735 Y91.449 E.05803
G1 X112.5 Y91.311 E.03448
G1 X137.5 Y91.311 E1.10887
G1 X138.748 Y91.702 E.05801
G1 X139.551 Y92.735 E.05803
G1 X139.689 Y93.5 E.03448
G1 X139.689 Y116.5 E1.02016
G1 X139.298 Y117.748 E.05801
G1 X138.265 Y118.551 E.05803
G1 X137.5 Y118.689 E.03448
G1 X114.349 Y118.689 E1.02686
;WIPE_START
G1 F8640
M73 Q35 S3
G1 X114.289 Y118.689 E-.01385
G1 X112.5 Y118.689 E-.41309
G1 X111.252 Y118.298 E-.30198
G1 X111.063 Y118.055 E-.07108
;WIPE_END
G1 Z.9 F720
; printing object KellerTuerAbdeckung.stl id:0 copy 0
G1 X136.714 Y115.714 F10800
M73 P35 R3
G1 Z.5 F720
G1 E.8 F2100
M204 S800
;TYPE:Perimeter
;WIDTH:0.5
G1 F3000
G1 X113.286 Y115.714 E1.27291
G1 X113.286 Y94.286 E1.16424
G1 X136.714 Y94.286 E1.27291
G1 X136.714 Y115.654 E1.16098
M204 S1000
G1 X136.714 Y115.654 F10800
G1 X137.2 Y116.2
M204 S800
;TYPE:External perimeter
;WIDTH:0.6
G1 F2099.997
G1 X112.8 Y116.2 E1.63005
G1 X112.8 Y93.8 E1.49644
M73 P36 R3
M73 Q36 S3
G1 X137.2 Y93.8 E1.63005
G1 X137.2 Y116.14 E1.49243
M204 S1000
;WIPE_START
G1 F8640
G1 X137.2 Y116.2 E-.01385
G1 X133.795 Y116.2 E-.78615
;WIPE_END
G1 Z.9 F720
G1 X113.796 Y94.713 F10800
G1 Z.5 F720
M73 P37 R3
M73 Q37 S3
G1 E.8 F2100
;TYPE:Solid infill
;WIDTH:0.605691
G1 F4800
G1 X113.748 Y94.665 E.00458
G1 X113.683 Y94.683 E.00455
G1 X113.665 Y94.748 E.00455
G1 X113.713 Y94.796 E.00458
G1 X113.778 Y94.778 E.00455
;WIDTH:0.5
G1 X113.678 Y95.474 E.0382
G1 X114.474 Y94.678 E.06116
G1 X115.09 Y94.678 E.03347
M73 P37 R2
G1 X113.678 Y96.09 E.1085
G1 X113.678 Y96.706 E.03347
M73 Q37 S2
G1 X115.706 Y94.678 E.15583
G1 X116.322 Y94.678 E.03347
G1 X113.678 Y97.322 E.20316
G1 X113.678 Y97.938 E.03347
G1 X116.938 Y94.678 E.25049
G1 X117.554 Y94.678 E.03347
G1 X113.678 Y98.554 E.29782
G1 X113.678 Y99.171 E.03352
G1 X118.171 Y94.678 E.34523
G1 X118.787 Y94.678 E.03347
G1 X113.678 Y99.787 E.39257
G1 X113.678 Y100.403 E.03347
G1 X119.403 Y94.678 E.4399
G1 X120.019 Y94.678 E.03347
G1 X113.678 Y101.019 E.48723
G1 X113.678 Y101.635 E.03347
G1 X120.635 Y94.678 E.53456
G1 X121.251 Y94.678 E.03347
G1 X113.678 Y102.251 E.5819
G1 X113.678 Y102.867 E.03347
G1 X121.867 Y94.678 E.62923
G1 X122.483 Y94.678 E.03347
G1 X113.678 Y103.483 E.67656
G1 X113.678 Y104.099 E.03347
M73 Q38 S2
G1 X123.099 Y94.678 E.72389
G1 X123.715 Y94.678 E.03347
M73 P38 R2
G1 X113.678 Y104.715 E.77122
G1 X113.678 Y105.331 E.03347
G1 X124.331 Y94.678 E.81856
G1 X124.947 Y94.678 E.03347
G1 X113.678 Y105.947 E.86589
G1 X113.678 Y106.563 E.03347
G1 X125.563 Y94.678 E.91322
G1 X126.179 Y94.678 E.03347
G1 X113.678 Y107.179 E.96055
G1 X113.678 Y107.795 E.03347
G1 X126.795 Y94.678 E1.00789
G1 X127.411 Y94.678 E.03347
G1 X113.678 Y108.411 E1.05522
G1 X113.678 Y109.027 E.03347
G1 X128.027 Y94.678 E1.10255
G1 X128.644 Y94.678 E.03352
G1 X113.678 Y109.644 E1.14996
G1 X113.678 Y110.26 E.03347
M73 P39 R2
M73 Q39 S2
G1 X129.26 Y94.678 E1.19729
G1 X129.876 Y94.678 E.03347
G1 X113.678 Y110.876 E1.24462
G1 X113.678 Y111.492 E.03347
G1 X130.492 Y94.678 E1.29196
G1 X131.108 Y94.678 E.03347
G1 X113.678 Y112.108 E1.33929
G1 X113.678 Y112.724 E.03347
G1 X131.724 Y94.678 E1.38662
G1 X132.34 Y94.678 E.03347
G1 X113.678 Y113.34 E1.43395
G1 X113.678 Y113.956 E.03347
G1 X132.956 Y94.678 E1.48129
G1 X133.572 Y94.678 E.03347
M73 P40 R2
M73 Q40 S2
G1 X113.678 Y114.572 E1.52862
G1 X113.678 Y114.572 F10800
G1 X113.583 Y115.477
;WIDTH:0.404381
G1 F4800
G1 X113.542 Y115.488 E.0018
G1 X113.523 Y115.417 E.00312
G1 X113.594 Y115.436 E.00312
;WIDTH:0.45219
G1 X113.636 Y115.312 E.00633
;WIDTH:0.5
G1 X113.678 Y115.188 E.00711
G1 X134.188 Y94.678 E1.57595
G1 X134.804 Y94.678 E.03347
G1 X114.159 Y115.322 E1.58629
G1 X114.776 Y115.322 E.03352
G1 X135.42 Y94.678 E1.58625
;WIPE_START
G1 F8640
G1 X132.97 Y97.128 E-.8
;WIPE_END
G1 Z.9 F720
G1 X136.454 Y94.576 F10800
G1 Z.5 F720
G1 E.8 F2100
;WIDTH:0.404381
G1 F4800
G1 X136.383 Y94.557 E.00312
G1 X136.402 Y94.628 E.00312
G1 X136.443 Y94.617 E.0018
;WIDTH:0.45219
G1 X136.24 Y94.647 E.00993
;WIDTH:0.5
G1 X136.036 Y94.678 E.01121
G1 X115.392 Y115.322 E1.58625
G1 X116.008 Y115.322 E.03347
M73 Q41 S2
G1 X136.322 Y95.008 E1.56089
G1 X136.322 Y95.624 E.03347
M73 P41 R2
G1 X116.624 Y115.322 E1.51356
G1 X117.24 Y115.322 E.03347
G1 X136.322 Y96.24 E1.46623
G1 X136.322 Y96.856 E.03347
G1 X117.856 Y115.322 E1.41889
G1 X118.472 Y115.322 E.03347
G1 X136.322 Y97.472 E1.37156
G1 X136.322 Y98.088 E.03347
G1 X119.088 Y115.322 E1.32423
G1 X119.704 Y115.322 E.03347
G1 X136.322 Y98.704 E1.2769
G1 X136.322 Y99.32 E.03347
M73 P42 R2
M73 Q42 S2
G1 X120.32 Y115.322 E1.22956
G1 X120.936 Y115.322 E.03347
G1 X136.322 Y99.936 E1.18223
G1 X136.322 Y100.552 E.03347
G1 X121.552 Y115.322 E1.1349
G1 X122.168 Y115.322 E.03347
G1 X136.322 Y101.168 E1.08757
G1 X136.322 Y101.784 E.03347
G1 X122.784 Y115.322 E1.04024
G1 X123.4 Y115.322 E.03347
G1 X136.322 Y102.4 E.9929
G1 X136.322 Y103.016 E.03347
G1 X124.016 Y115.322 E.94557
G1 X124.632 Y115.322 E.03347
G1 X136.322 Y103.632 E.89824
G1 X136.322 Y104.249 E.03352
M73 Q43 S2
G1 X125.249 Y115.322 E.85083
G1 X125.865 Y115.322 E.03347
M73 P43 R2
G1 X136.322 Y104.865 E.8035
G1 X136.322 Y105.481 E.03347
G1 X126.481 Y115.322 E.75616
G1 X127.097 Y115.322 E.03347
G1 X136.322 Y106.097 E.70883
G1 X136.322 Y106.713 E.03347
G1 X127.713 Y115.322 E.6615
G1 X128.329 Y115.322 E.03347
G1 X136.322 Y107.329 E.61417
G1 X136.322 Y107.945 E.03347
G1 X128.945 Y115.322 E.56684
G1 X129.561 Y115.322 E.03347
G1 X136.322 Y108.561 E.5195
G1 X136.322 Y109.177 E.03347
G1 X130.177 Y115.322 E.47217
G1 X130.793 Y115.322 E.03347
G1 X136.322 Y109.793 E.42484
G1 X136.322 Y110.409 E.03347
G1 X131.409 Y115.322 E.37751
G1 X132.025 Y115.322 E.03347
G1 X136.322 Y111.025 E.33017
G1 X136.322 Y111.641 E.03347
M73 Q44 S2
G1 X132.641 Y115.322 E.28284
G1 X133.257 Y115.322 E.03347
M73 P44 R2
G1 X136.322 Y112.257 E.23551
G1 X136.322 Y112.873 E.03347
G1 X133.873 Y115.322 E.18818
G1 X134.352 Y115.538 E.02855
