; generated by PrusaSlicer 2.4.1+win64 on 2023-05-05 at 09:35:33 UTC


;
;
; 

; external perimeters extrusion width = 0.60mm
; perimeters extrusion width = 0.50mm
; infill extrusion width = 0.50mm
; solid infill extrusion width = 0.50mm
; top infill extrusion width = 0.45mm
; first layer extrusion width = 0.42mm

M73 P0 R10
M73 Q0 S10
M201 X1000 Y1000 Z200 E5000 ; sets maximum accelerations, mm/sec^2
M203 X200 Y200 Z12 E120 ; sets maximum feedrates, mm / sec
M204 P1250 R1250 T1250 ; sets acceleration (P, T) and retract acceleration (R), mm/sec^2
M205 X8.00 Y8.00 Z0.40 E4.50 ; sets the jerk limits, mm/sec
M205 S0 T0 ; sets the minimum extruding and travel feed rate, mm/sec
M107
;TYPE:Custom
M862.3 P "MK3S" ; printer model check
M862.1 P0.4 ; nozzle diameter check
M115 U3.11.0 ; tell printer latest fw version
G90 ; use absolute coordinates
M83 ; extruder relative mode
M104 S215 ; set extruder temp
M140 S60 ; set bed temp
M190 S60 ; wait for bed temp
M109 S215 ; wait for extruder temp
G28 W ; home all without mesh bed level
G80 ; mesh bed leveling

G1 Z0.2 F720
G1 Y-3 F1000 ; go outside print area
G92 E0
G1 X60 E9 F1000 ; intro line
G1 X100 E12.5 F1000 ; intro line

G92 E0
M221 S95

; Don't change E values below. Excessive value can damage the printer.

M907 E538 ; set extruder motor current
G21 ; set units to millimeters
G90 ; use absolute coordinates
M83 ; use relative distances for extrusion
M900 K0.05 ; Filament gcode LA 1.5
M900 K30 ; Filament gcode LA 1.0
M107
;LAYER_CHANGE
;Z:0.2
;HEIGHT:0.2
;BEFORE_LAYER_CHANGE
G92 E0.0
;0.2


G1 E-.8 F2100
G1 Z.4 F720
;AFTER_LAYER_CHANGE
;0.2
M73 P1 R10
M73 Q1 S10
G1 X116.718 Y98.378 F10800
G1 Z.2 F720
G1 E.8 F2100
M204 S800
;TYPE:Skirt/Brim
;WIDTH:0.42
G1 F1200
G1 X118.378 Y96.718 E.07361
G1 X119.17 Y96.142 E.03071
G1 X121.252 Y95.081 E.07325
G1 X122.202 Y94.773 E.03131
G1 X124.51 Y94.407 E.07329
G1 X125.49 Y94.407 E.03071
G1 X127.798 Y94.773 E.07329
G1 X128.727 Y95.074 E.0306
G1 X130.772 Y96.113 E.07192
G1 X131.611 Y96.711 E.03232
G1 X133.279 Y98.375 E.07389
G1 X133.858 Y99.17 E.03083
G1 X134.923 Y101.26 E.07355
G1 X135.226 Y102.192 E.03073
G1 X135.593 Y104.51 E.07358
G1 X135.593 Y105.49 E.03071
G1 X135.226 Y107.808 E.07358
G1 X134.923 Y108.74 E.03073
G1 X133.858 Y110.83 E.07355
G1 X133.282 Y111.622 E.03071
G1 X131.622 Y113.282 E.07361
G1 X130.83 Y113.858 E.03071
G1 X128.74 Y114.923 E.07355
G1 X127.808 Y115.226 E.03073
G1 X125.49 Y115.593 E.07358
G1 X124.51 Y115.593 E.03071
G1 X122.192 Y115.226 E.07358
G1 X121.26 Y114.923 E.03073
G1 X119.17 Y113.858 E.07355
G1 X118.378 Y113.282 E.03071
G1 X116.718 Y111.622 E.07361
G1 X116.142 Y110.83 E.03071
G1 X115.077 Y108.74 E.07355
G1 X114.774 Y107.808 E.03073
G1 X114.407 Y105.49 E.07358
G1 X114.407 Y104.51 E.03071
G1 X114.774 Y102.192 E.07358
G1 X115.077 Y101.26 E.03073
G1 X116.142 Y99.17 E.07355
G1 X116.683 Y98.426 E.02883
M204 S1000
G1 X116.984 Y98.645 F10800
M204 S800
G1 F1200
G1 X118.645 Y96.985 E.07364
G1 X119.342 Y96.478 E.02701
G1 X121.423 Y95.417 E.07325
G1 X122.261 Y95.145 E.02761
G1 X124.569 Y94.78 E.07329
G1 X125.431 Y94.78 E.02701
G1 X127.739 Y95.145 E.07329
G1 X128.556 Y95.41 E.02692
G1 X130.601 Y96.449 E.07192
G1 X131.345 Y96.978 E.02862
G1 X133.013 Y98.642 E.07389
G1 X133.522 Y99.342 E.02712
G1 X134.587 Y101.432 E.07355
G1 X134.853 Y102.251 E.02703
G1 X135.22 Y104.569 E.07358
G1 X135.22 Y105.431 E.02701
G1 X134.853 Y107.749 E.07358
G1 X134.587 Y108.568 E.02703
G1 X133.522 Y110.658 E.07355
G1 X133.015 Y111.355 E.02701
G1 X131.355 Y113.015 E.07361
G1 X130.658 Y113.522 E.02701
M73 Q2 S10
G1 X128.568 Y114.587 E.07355
G1 X127.749 Y114.853 E.02703
G1 X125.431 Y115.22 E.07358
G1 X124.569 Y115.22 E.02701
M73 P2 R10
G1 X122.251 Y114.853 E.07358
G1 X121.432 Y114.587 E.02703
G1 X119.342 Y113.522 E.07355
G1 X118.645 Y113.015 E.02701
G1 X116.985 Y111.355 E.07361
G1 X116.478 Y110.658 E.02701
G1 X115.413 Y108.568 E.07355
G1 X115.147 Y107.749 E.02703
G1 X114.78 Y105.431 E.07358
G1 X114.78 Y104.569 E.02701
G1 X115.147 Y102.251 E.07358
G1 X115.413 Y101.432 E.02703
G1 X116.478 Y99.342 E.07355
G1 X116.949 Y98.694 E.0251
M204 S1000
G1 X117.25 Y98.913 F10800
M204 S800
G1 F1200
G1 X118.911 Y97.251 E.07367
G1 X119.513 Y96.814 E.02332
G1 X121.594 Y95.753 E.07325
G1 X122.32 Y95.518 E.02391
G1 X124.628 Y95.152 E.07329
G1 X125.372 Y95.152 E.02331
G1 X127.68 Y95.518 E.07329
G1 X128.385 Y95.746 E.02323
G1 X130.43 Y96.785 E.07192
G1 X131.078 Y97.245 E.02492
G1 X132.747 Y98.909 E.07389
G1 X133.186 Y99.513 E.02341
G1 X134.251 Y101.603 E.07355
G1 X134.481 Y102.31 E.02333
G1 X134.848 Y104.628 E.07358
G1 X134.848 Y105.372 E.02331
G1 X134.481 Y107.69 E.07358
G1 X134.251 Y108.397 E.02333
G1 X133.186 Y110.487 E.07355
G1 X132.749 Y111.089 E.02332
G1 X131.089 Y112.749 E.07361
G1 X130.487 Y113.186 E.02332
G1 X128.397 Y114.251 E.07355
G1 X127.69 Y114.481 E.02333
G1 X125.372 Y114.848 E.07358
G1 X124.628 Y114.848 E.02331
G1 X122.31 Y114.481 E.07358
G1 X121.603 Y114.251 E.02333
G1 X119.513 Y113.186 E.07355
G1 X118.911 Y112.749 E.02332
G1 X117.251 Y111.089 E.07361
G1 X116.814 Y110.487 E.02332
G1 X115.749 Y108.397 E.07355
G1 X115.519 Y107.69 E.02333
G1 X115.152 Y105.372 E.07358
G1 X115.152 Y104.628 E.02331
G1 X115.519 Y102.31 E.07358
G1 X115.749 Y101.603 E.02333
G1 X116.814 Y99.513 E.07355
G1 X117.215 Y98.961 E.02137
M204 S1000
; printing object LiegestuhlAuflage.stl id:0 copy 0
;WIPE_START
G1 F8640
G1 X118.911 Y97.251 E-.55622
G1 X119.513 Y96.814 E-.17171
G1 X119.637 Y96.751 E-.03208
;WIPE_END
G1 E-.04 F2100
G1 Z.6 F720
G1 X119.577 Y101.06 F10800
G1 Z.2 F720
G1 E.8 F2100
M204 S800
;TYPE:Perimeter
G1 F1200
G1 X121.06 Y99.577 E.06579
G1 X122.928 Y98.625 E.06573
G1 X125 Y98.297 E.06577
G1 X127.072 Y98.625 E.06577
G1 X128.94 Y99.577 E.06573
G1 X130.423 Y101.06 E.06579
G1 X131.375 Y102.928 E.06573
G1 X131.703 Y105 E.06577
G1 X131.375 Y107.072 E.06577
G1 X130.423 Y108.94 E.06573
G1 X128.94 Y110.423 E.06579
G1 X127.072 Y111.375 E.06573
M73 Q3 S10
G1 X125 Y111.703 E.06577
G1 X122.928 Y111.375 E.06577
G1 X121.06 Y110.423 E.06573
M73 P3 R10
G1 X119.577 Y108.94 E.06579
G1 X118.625 Y107.072 E.06573
G1 X118.297 Y105 E.06577
G1 X118.625 Y102.928 E.06577
G1 X119.549 Y101.114 E.06385
M204 S1000
G1 X119.268 Y100.836 F10800
M204 S800
;TYPE:External perimeter
G1 F1200
G1 X120.836 Y99.268 E.06954
G1 X122.81 Y98.262 E.06948
G1 X125 Y97.915 E.06951
G1 X127.19 Y98.262 E.06951
G1 X129.164 Y99.268 E.06948
G1 X130.732 Y100.836 E.06954
G1 X131.738 Y102.81 E.06948
G1 X132.085 Y105 E.06951
G1 X131.738 Y107.19 E.06951
G1 X130.732 Y109.164 E.06948
G1 X129.164 Y110.732 E.06954
G1 X127.19 Y111.738 E.06948
G1 X125 Y112.085 E.06951
G1 X122.81 Y111.738 E.06951
G1 X120.836 Y110.732 E.06948
G1 X119.268 Y109.164 E.06954
G1 X118.262 Y107.19 E.06948
G1 X117.915 Y105 E.06951
G1 X118.262 Y102.81 E.06951
G1 X119.241 Y100.889 E.06759
M204 S1000
G1 X119.666 Y100.878 F10800
;WIPE_START
G1 F8640
G1 X120.836 Y99.268 E-.52527
G1 X121.742 Y98.806 E-.23473
;WIPE_END
G1 E-.04 F2100
G1 Z.6 F720
G1 X128.373 Y99.415 F10800
G1 Z.2 F720
G1 E.8 F2100
M204 S800
;TYPE:Solid infill
;WIDTH:0.42682
G1 F1200
G1 X130.197 Y101.239 E.08233
G1 X130.761 Y102.346 E.03966
G1 X127.654 Y99.239 E.14024
G1 X126.983 Y98.897 E.02404
G1 X126.729 Y98.857 E.00821
G1 X131.143 Y103.271 E.19925
G1 X131.245 Y103.916 E.02085
G1 X126.084 Y98.755 E.23298
G1 X125.439 Y98.653 E.02085
G1 X131.347 Y104.561 E.26672
G1 X131.417 Y105 E.01419
G1 X131.393 Y105.15 E.00484
G1 X124.85 Y98.607 E.29536
G1 X124.382 Y98.681 E.01515
G1 X131.319 Y105.618 E.31317
G1 X131.245 Y106.087 E.01515
M73 Q4 S10
G1 X123.913 Y98.755 E.33098
G1 X123.444 Y98.83 E.01515
M73 P4 R9
M73 Q4 S9
G1 X131.17 Y106.556 E.34879
G1 X131.087 Y107.015 E.0149
G1 X122.985 Y98.913 E.36573
G1 X122.625 Y99.097 E.01289
G1 X130.903 Y107.375 E.3737
G1 X130.72 Y107.734 E.01289
G1 X122.266 Y99.28 E.38166
G1 X121.906 Y99.463 E.01289
G1 X130.537 Y108.094 E.38962
G1 X130.354 Y108.453 E.01289
G1 X121.547 Y99.646 E.39758
G1 X121.197 Y99.84 E.01275
G1 X130.16 Y108.803 E.40462
G1 X129.889 Y109.074 E.01225
G1 X120.926 Y100.111 E.40462
G1 X120.654 Y100.383 E.01225
G1 X129.617 Y109.346 E.40462
G1 X129.346 Y109.617 E.01225
M73 Q5 S9
G1 X120.383 Y100.654 E.40462
G1 X120.111 Y100.926 E.01225
M73 P5 R9
G1 X129.074 Y109.889 E.40462
G1 X128.803 Y110.16 E.01225
G1 X119.84 Y101.197 E.40462
G1 X119.646 Y101.547 E.01275
G1 X128.453 Y110.354 E.39758
G1 X128.094 Y110.537 E.01289
G1 X119.463 Y101.906 E.38962
G1 X119.28 Y102.266 E.01289
G1 X127.734 Y110.72 E.38166
G1 X127.374 Y110.903 E.01289
G1 X119.097 Y102.626 E.3737
G1 X118.913 Y102.985 E.01289
G1 X127.015 Y111.087 E.36573
G1 X126.556 Y111.17 E.0149
G1 X118.83 Y103.444 E.34879
G1 X118.755 Y103.913 E.01515
G1 X126.087 Y111.245 E.33098
G1 X125.618 Y111.319 E.01515
M73 Q6 S9
G1 X118.681 Y104.382 E.31317
G1 X118.607 Y104.85 E.01515
M73 P6 R9
G1 X125.15 Y111.393 E.29536
G1 X125 Y111.417 E.00483
G1 X124.561 Y111.347 E.0142
G1 X118.653 Y105.439 E.26671
G1 X118.755 Y106.084 E.02085
G1 X123.916 Y111.245 E.23298
G1 X123.271 Y111.143 E.02085
G1 X118.857 Y106.729 E.19925
G1 X118.897 Y106.983 E.00821
G1 X119.239 Y107.655 E.02405
G1 X122.345 Y110.761 E.14023
G1 X121.238 Y110.197 E.03966
G1 X119.415 Y108.373 E.08232
M204 S1000
; stop printing object LiegestuhlAuflage.stl id:0 copy 0
M106 S84.15
;LAYER_CHANGE
;Z:0.5
;HEIGHT:0.3
;BEFORE_LAYER_CHANGE
G92 E0.0
;0.5


;WIPE_START
G1 F8640
G1 X121.238 Y110.197 E-.59544
G1 X121.873 Y110.52 E-.16456
;WIPE_END
G1 E-.04 F2100
G1 Z.6 F720
;AFTER_LAYER_CHANGE
;0.5
M104 S210 ; set temperature
G1 X119.966 Y114.263 F10800
G1 Z.5 F720
G1 E.8 F2100
;TYPE:Skirt/Brim
;WIDTH:0.42
G1 F2423
G1 X119.17 Y113.858 E.03961
G1 X118.378 Y113.282 E.04345
G1 X116.718 Y111.622 E.10413
G1 X116.142 Y110.83 E.04345
G1 X115.077 Y108.74 E.10404
G1 X114.774 Y107.808 E.04347
G1 X114.407 Y105.49 E.1041
G1 X114.407 Y104.51 E.04344
G1 X114.774 Y102.192 E.1041
G1 X115.077 Y101.26 E.04347
G1 X116.142 Y99.17 E.10404
G1 X116.718 Y98.378 E.04345
G1 X118.378 Y96.718 E.10413
G1 X119.17 Y96.142 E.04345
G1 X121.252 Y95.081 E.10363
G1 X122.202 Y94.773 E.04429
G1 X124.51 Y94.407 E.10368
G1 X125.49 Y94.407 E.04344
G1 X127.798 Y94.773 E.10368
G1 X128.727 Y95.074 E.04329
G1 X130.772 Y96.113 E.10173
G1 X131.611 Y96.711 E.04572
G1 X133.279 Y98.375 E.10452
G1 X133.858 Y99.17 E.04362
G1 X134.923 Y101.26 E.10404
G1 X135.226 Y102.192 E.04347
G1 X135.593 Y104.51 E.1041
G1 X135.593 Y105.49 E.04344
G1 X135.226 Y107.808 E.1041
G1 X134.923 Y108.74 E.04347
G1 X133.858 Y110.83 E.10404
G1 X133.282 Y111.622 E.04345
G1 X131.622 Y113.282 E.10413
G1 X130.83 Y113.858 E.04345
G1 X128.74 Y114.923 E.10404
G1 X127.808 Y115.226 E.04347
G1 X125.49 Y115.593 E.1041
G1 X124.51 Y115.593 E.04344
G1 X122.192 Y115.226 E.1041
G1 X121.26 Y114.923 E.04347
G1 X120.02 Y114.291 E.06177
G1 X120.191 Y113.955 F10800
G1 F2423
G1 X119.342 Y113.522 E.04227
G1 X118.645 Y113.015 E.03822
G1 X116.985 Y111.355 E.10413
G1 X116.478 Y110.658 E.03822
G1 X115.413 Y108.568 E.10404
G1 X115.147 Y107.749 E.03823
G1 X114.78 Y105.431 E.1041
G1 X114.78 Y104.569 E.03821
G1 X115.147 Y102.251 E.1041
G1 X115.413 Y101.432 E.03823
G1 X116.478 Y99.342 E.10404
G1 X116.985 Y98.645 E.03822
G1 X118.645 Y96.985 E.10413
G1 X119.342 Y96.478 E.03822
G1 X121.423 Y95.417 E.10363
G1 X122.261 Y95.145 E.03905
G1 X124.569 Y94.78 E.10368
G1 X125.431 Y94.78 E.03821
G1 X127.739 Y95.145 E.10368
G1 X128.556 Y95.41 E.03808
G1 X130.601 Y96.449 E.10173
G1 X131.345 Y96.978 E.04048
G1 X133.013 Y98.642 E.10452
G1 X133.522 Y99.342 E.03836
G1 X134.587 Y101.432 E.10404
G1 X134.853 Y102.251 E.03823
G1 X135.22 Y104.569 E.1041
G1 X135.22 Y105.431 E.03821
G1 X134.853 Y107.749 E.1041
G1 X134.587 Y108.568 E.03823
G1 X133.522 Y110.658 E.10404
G1 X133.015 Y111.355 E.03822
M73 Q7 S9
G1 X131.355 Y113.015 E.10413
G1 X130.658 Y113.522 E.03822
G1 X128.568 Y114.587 E.10404
G1 X127.749 Y114.853 E.03823
G1 X125.431 Y115.22 E.1041
G1 X124.569 Y115.22 E.03821
G1 X122.251 Y114.853 E.1041
G1 X121.432 Y114.587 E.03823
G1 X120.244 Y113.982 E.05911
M73 P7 R9
G1 X120.415 Y113.646 F10800
G1 F2423
G1 X119.513 Y113.186 E.04493
G1 X118.911 Y112.749 E.03298
G1 X117.251 Y111.089 E.10413
G1 X116.814 Y110.487 E.03298
G1 X115.749 Y108.397 E.10404
G1 X115.519 Y107.69 E.033
G1 X115.152 Y105.372 E.1041
G1 X115.152 Y104.628 E.03298
G1 X115.519 Y102.31 E.1041
G1 X115.749 Y101.603 E.033
G1 X116.814 Y99.513 E.10404
G1 X117.251 Y98.911 E.03298
G1 X118.911 Y97.251 E.10413
G1 X119.513 Y96.814 E.03298
G1 X121.594 Y95.753 E.10363
G1 X122.32 Y95.518 E.03382
G1 X124.628 Y95.152 E.10368
G1 X125.372 Y95.152 E.03298
G1 X127.68 Y95.518 E.10368
G1 X128.385 Y95.746 E.03287
G1 X130.43 Y96.785 E.10173
G1 X131.078 Y97.245 E.03525
G1 X132.747 Y98.909 E.10452
G1 X133.186 Y99.513 E.03311
G1 X134.251 Y101.603 E.10404
G1 X134.481 Y102.31 E.033
G1 X134.848 Y104.628 E.1041
G1 X134.848 Y105.372 E.03298
G1 X134.481 Y107.69 E.1041
G1 X134.251 Y108.397 E.033
G1 X133.186 Y110.487 E.10404
G1 X132.749 Y111.089 E.03298
G1 X131.089 Y112.749 E.10413
G1 X130.487 Y113.186 E.03298
G1 X128.397 Y114.251 E.10404
G1 X127.69 Y114.481 E.033
G1 X125.372 Y114.848 E.1041
G1 X124.628 Y114.848 E.03298
G1 X122.31 Y114.481 E.1041
G1 X121.603 Y114.251 E.033
G1 X120.469 Y113.673 E.05645
; printing object LiegestuhlAuflage.stl id:0 copy 0
;WIPE_START
G1 F8640
G1 X119.513 Y113.186 E-.24778
G1 X118.911 Y112.749 E-.17171
G1 X117.868 Y111.706 E-.34052
;WIPE_END
G1 E-.04 F2100
G1 Z.9 F720
G1 X121.06 Y110.425 F10800
G1 Z.5 F720
G1 E.8 F2100
M204 S800
;TYPE:Perimeter
;WIDTH:0.5
G1 F2423
G1 X119.575 Y108.94 E.11403
G1 X118.623 Y107.072 E.11393
G1 X118.295 Y105 E.11399
G1 X118.623 Y102.928 E.11399
G1 X119.575 Y101.06 E.11393
G1 X121.06 Y99.575 E.11403
G1 X122.928 Y98.623 E.11393
G1 X125 Y98.295 E.11399
G1 X127.041 Y98.619 E.1123
G1 X128.942 Y99.577 E.11563
G1 X130.425 Y101.06 E.11394
G1 X131.377 Y102.928 E.11393
G1 X131.705 Y105 E.11399
G1 X131.377 Y107.072 E.11399
G1 X130.425 Y108.94 E.11393
G1 X128.94 Y110.425 E.11403
G1 X127.072 Y111.377 E.11393
G1 X125 Y111.705 E.11399
G1 X122.928 Y111.377 E.11399
G1 X121.113 Y110.452 E.11067
M204 S1000
G1 X120.771 Y110.822 F10800
M204 S800
;TYPE:External perimeter
;WIDTH:0.6
G1 F2100
G1 X119.178 Y109.229 E.15048
G1 X118.156 Y107.224 E.15036
G1 X117.804 Y105 E.15044
G1 X118.156 Y102.776 E.15044
G1 X119.178 Y100.771 E.15036
G1 X120.771 Y99.178 E.15048
G1 X122.776 Y98.156 E.15036
G1 X125 Y97.804 E.15044
G1 X127.192 Y98.151 E.14828
G1 X129.23 Y99.178 E.15245
G1 X130.822 Y100.771 E.15044
G1 X131.844 Y102.776 E.15036
G1 X132.196 Y105 E.15044
G1 X131.844 Y107.224 E.15044
G1 X130.822 Y109.229 E.15036
G1 X129.229 Y110.822 E.15048
G1 X127.224 Y111.844 E.15036
G1 X125 Y112.196 E.15044
G1 X122.776 Y111.844 E.15044
G1 X120.824 Y110.85 E.14635
M204 S1000
G1 X120.812 Y110.424 F10800
;WIPE_START
G1 F8640
G1 X119.178 Y109.229 E-.53332
G1 X118.732 Y108.355 E-.22668
;WIPE_END
G1 E-.04 F2100
G1 Z.9 F720
G1 X128.278 Y110.616 F10800
G1 Z.5 F720
G1 E.8 F2100
;TYPE:Solid infill
;WIDTH:0.513562
G1 F2423
G1 X130.167 Y108.726 E.14968
G1 X130.827 Y107.431 E.08144
G1 X127.431 Y110.827 E.26906
G1 X126.97 Y111.062 E.02899
G1 X126.484 Y111.139 E.02757
G1 X131.139 Y106.484 E.36881
G1 X131.258 Y105.729 E.04281
G1 X125.729 Y111.258 E.43808
G1 X124.981 Y111.371 E.04236
G1 X131.371 Y104.981 E.50624
G1 X131.284 Y104.433 E.03111
M73 Q8 S9
G1 X124.433 Y111.284 E.54281
G1 X123.885 Y111.197 E.03111
M73 P8 R9
G1 X131.197 Y103.885 E.57938
G1 X131.11 Y103.336 E.03111
G1 X123.336 Y111.11 E.61595
G1 X123.03 Y111.062 E.01737
G1 X122.844 Y110.967 E.01169
G1 X130.967 Y102.844 E.64359
G1 X130.753 Y102.423 E.02646
G1 X122.423 Y110.753 E.65994
G1 X122.003 Y110.538 E.02646
G1 X130.538 Y102.003 E.67629
G1 X130.324 Y101.582 E.02646
G1 X121.582 Y110.324 E.69265
G1 X121.254 Y110.157 E.02061
G1 X121.184 Y110.087 E.00556
G1 X130.087 Y101.184 E.70538
G1 X129.769 Y100.866 E.02517
G1 X120.866 Y109.769 E.70538
G1 X120.549 Y109.451 E.02517
G1 X129.451 Y100.549 E.70538
G1 X129.134 Y100.231 E.02517
G1 X120.231 Y109.134 E.70538
G1 X119.913 Y108.816 E.02517
G1 X128.816 Y99.913 E.70538
G1 X128.748 Y99.845 E.00542
G1 X128.416 Y99.678 E.02079
G1 X119.676 Y108.418 E.69251
