; generated by PrusaSlicer 2.4.1+win64 on 2023-05-08 at 12:18:50 UTC


;
;
; 

; external perimeters extrusion width = 0.60mm
; perimeters extrusion width = 0.50mm
; infill extrusion width = 0.50mm
; solid infill extrusion width = 0.50mm
; top infill extrusion width = 0.45mm
; first layer extrusion width = 0.42mm

M73 P0 R10
M73 Q0 S10
M201 X1000 Y1000 Z200 E5000 ; sets maximum accelerations, mm/sec^2
M203 X200 Y200 Z12 E120 ; sets maximum feedrates, mm / sec
M204 P1250 R1250 T1250 ; sets acceleration (P, T) and retract acceleration (R), mm/sec^2
M205 X8.00 Y8.00 Z0.40 E4.50 ; sets the jerk limits, mm/sec
M205 S0 T0 ; sets the minimum extruding and travel feed rate, mm/sec
M107
;TYPE:Custom
M862.3 P "MK3S" ; printer model check
M862.1 P0.4 ; nozzle diameter check
M115 U3.11.0 ; tell printer latest fw version
G90 ; use absolute coordinates
M83 ; extruder relative mode
M104 S215 ; set extruder temp
M140 S60 ; set bed temp
M190 S60 ; wait for bed temp
M109 S215 ; wait for extruder temp
G28 W ; home all without mesh bed level
G80 ; mesh bed leveling

G1 Z0.2 F720
G1 Y-3 F1000 ; go outside print area
G92 E0
G1 X60 E9 F1000 ; intro line
G1 X100 E12.5 F1000 ; intro line

G92 E0
M221 S95

; Don't change E values below. Excessive value can damage the printer.

M907 E538 ; set extruder motor current
G21 ; set units to millimeters
G90 ; use absolute coordinates
M83 ; use relative distances for extrusion
M900 K0.05 ; Filament gcode LA 1.5
M900 K30 ; Filament gcode LA 1.0
M107
;LAYER_CHANGE
;Z:0.2
;HEIGHT:0.2
;BEFORE_LAYER_CHANGE
G92 E0.0
;0.2


G1 E-.8 F2100
G1 Z.4 F720
;AFTER_LAYER_CHANGE
;0.2
G1 X116.718 Y98.378 F10800
G1 Z.2 F720
M73 P1 R10
M73 Q1 S10
G1 E.8 F2100
M204 S800
;TYPE:Skirt/Brim
;WIDTH:0.42
G1 F1200
G1 X118.378 Y96.718 E.07361
G1 X119.17 Y96.142 E.03071
G1 X121.26 Y95.077 E.07355
G1 X122.192 Y94.774 E.03073
G1 X124.51 Y94.407 E.07358
G1 X125.49 Y94.407 E.03071
G1 X127.78 Y94.77 E.0727
G1 X128.729 Y95.074 E.03125
G1 X130.83 Y96.142 E.0739
G1 X131.622 Y96.718 E.03071
G1 X133.282 Y98.378 E.07361
G1 X133.858 Y99.17 E.03071
G1 X134.923 Y101.26 E.07355
G1 X135.226 Y102.192 E.03072
G1 X135.593 Y104.51 E.07359
G1 X135.593 Y105.49 E.0307
G1 X135.227 Y107.8 E.07333
G1 X134.926 Y108.729 E.03062
G1 X133.858 Y110.83 E.0739
G1 X133.282 Y111.622 E.03071
G1 X131.622 Y113.282 E.07361
G1 X130.83 Y113.858 E.03071
G1 X128.74 Y114.923 E.07355
G1 X127.808 Y115.226 E.03072
G1 X125.49 Y115.593 E.07359
G1 X124.51 Y115.593 E.0307
G1 X122.192 Y115.226 E.07359
G1 X121.26 Y114.923 E.03073
G1 X119.17 Y113.858 E.07355
G1 X118.378 Y113.282 E.03071
G1 X116.718 Y111.622 E.07361
G1 X116.142 Y110.83 E.03071
G1 X115.077 Y108.74 E.07355
G1 X114.77 Y107.78 E.0316
G1 X114.407 Y105.49 E.0727
G1 X114.407 Y104.51 E.03071
G1 X114.774 Y102.192 E.07359
G1 X115.077 Y101.26 E.03073
G1 X116.142 Y99.17 E.07355
G1 X116.683 Y98.426 E.02883
M204 S1000
G1 X116.984 Y98.645 F10800
M204 S800
G1 F1200
G1 X118.645 Y96.985 E.07364
G1 X119.342 Y96.478 E.02701
G1 X121.432 Y95.413 E.07355
G1 X122.251 Y95.147 E.02703
G1 X124.569 Y94.78 E.07358
G1 X125.431 Y94.78 E.02701
G1 X127.721 Y95.142 E.0727
G1 X128.558 Y95.41 E.02756
G1 X130.658 Y96.478 E.07388
G1 X131.355 Y96.985 E.02701
G1 X133.015 Y98.645 E.07361
G1 X133.522 Y99.342 E.02701
G1 X134.587 Y101.432 E.07355
G1 X134.853 Y102.251 E.02702
G1 X135.22 Y104.569 E.07359
G1 X135.22 Y105.431 E.02701
G1 X134.855 Y107.741 E.07333
G1 X134.59 Y108.558 E.02693
G1 X133.522 Y110.658 E.07388
G1 X133.015 Y111.355 E.02701
G1 X131.355 Y113.015 E.07361
G1 X130.658 Y113.522 E.02701
G1 X128.568 Y114.587 E.07355
G1 X127.749 Y114.853 E.02702
G1 X125.431 Y115.22 E.07359
G1 X124.569 Y115.22 E.02701
M73 Q2 S10
G1 X122.251 Y114.853 E.07359
G1 X121.432 Y114.587 E.02703
G1 X119.342 Y113.522 E.07355
G1 X118.645 Y113.015 E.02701
M73 P2 R10
G1 X116.985 Y111.355 E.07361
G1 X116.478 Y110.658 E.02701
G1 X115.413 Y108.568 E.07355
G1 X115.147 Y107.749 E.02702
G1 X114.78 Y105.431 E.07359
G1 X114.78 Y104.569 E.02701
G1 X115.147 Y102.251 E.07359
G1 X115.413 Y101.432 E.02703
G1 X116.478 Y99.342 E.07355
G1 X116.949 Y98.694 E.0251
M204 S1000
G1 X117.25 Y98.913 F10800
M204 S800
G1 F1200
G1 X118.911 Y97.251 E.07367
G1 X119.513 Y96.814 E.02332
G1 X121.603 Y95.749 E.07355
G1 X122.31 Y95.519 E.02333
G1 X124.628 Y95.152 E.07358
G1 X125.372 Y95.152 E.02331
G1 X127.662 Y95.515 E.0727
G1 X128.387 Y95.747 E.02387
G1 X130.487 Y96.814 E.07387
G1 X131.089 Y97.251 E.02332
G1 X132.749 Y98.911 E.07361
G1 X133.186 Y99.513 E.02332
G1 X134.251 Y101.603 E.07355
G1 X134.481 Y102.31 E.02332
G1 X134.848 Y104.628 E.07359
G1 X134.848 Y105.372 E.02331
G1 X134.482 Y107.682 E.07333
G1 X134.253 Y108.387 E.02325
G1 X133.186 Y110.487 E.07387
G1 X132.749 Y111.089 E.02332
G1 X131.089 Y112.749 E.07361
G1 X130.487 Y113.186 E.02332
G1 X128.397 Y114.251 E.07355
G1 X127.69 Y114.481 E.02332
G1 X125.372 Y114.848 E.07359
G1 X124.628 Y114.848 E.02331
G1 X122.31 Y114.481 E.07359
G1 X121.603 Y114.251 E.02333
G1 X119.513 Y113.186 E.07355
G1 X118.911 Y112.749 E.02332
G1 X117.251 Y111.089 E.07361
G1 X116.814 Y110.487 E.02332
G1 X115.749 Y108.397 E.07355
G1 X115.519 Y107.69 E.02332
G1 X115.152 Y105.372 E.07359
G1 X115.152 Y104.628 E.02331
G1 X115.519 Y102.31 E.07358
G1 X115.749 Y101.603 E.02333
G1 X116.814 Y99.513 E.07355
G1 X117.215 Y98.961 E.02137
M204 S1000
; printing object LiegestuhlAuflage.stl id:0 copy 0
;WIPE_START
G1 F8640
G1 X118.911 Y97.251 E-.55622
G1 X119.513 Y96.814 E-.1717
G1 X119.637 Y96.751 E-.03208
;WIPE_END
G1 E-.04 F2100
G1 Z.6 F720
G1 X119.49 Y100.997 F10800
G1 Z.2 F720
G1 E.8 F2100
M204 S800
;TYPE:External perimeter
G1 F1200
G1 X120.997 Y99.49 E.06683
G1 X122.896 Y98.523 E.06681
G1 X125 Y98.189 E.0668
G1 X127.104 Y98.523 E.0668
G1 X129.003 Y99.49 E.06681
G1 X130.51 Y100.997 E.06683
G1 X131.477 Y102.896 E.06681
G1 X131.81 Y105 E.0668
G1 X131.477 Y107.104 E.0668
G1 X130.51 Y109.003 E.06681
G1 X129.003 Y110.51 E.06683
G1 X127.104 Y111.477 E.06681
G1 X125 Y111.81 E.0668
G1 X122.896 Y111.477 E.0668
G1 X120.997 Y110.51 E.06681
G1 X119.49 Y109.003 E.06683
G1 X118.523 Y107.104 E.06681
M73 Q3 S10
G1 X118.189 Y105 E.0668
G1 X118.523 Y102.896 E.0668
G1 X119.463 Y101.051 E.06493
M204 S1000
G1 X119.327 Y100.632 F10800
M73 P3 R10
G1 X119.182 Y100.774
M204 S800
G1 F1200
G1 X120.774 Y99.183 E.07058
G1 X122.778 Y98.162 E.07051
G1 X125 Y97.81 E.07056
G1 X127.222 Y98.162 E.07051
G1 X129.226 Y99.183 E.07053
G1 X130.817 Y100.774 E.07057
G1 X131.838 Y102.778 E.07051
G1 X132.19 Y105 E.07054
G1 X131.838 Y107.222 E.07054
G1 X130.817 Y109.226 E.07051
G1 X129.226 Y110.817 E.07055
G1 X127.222 Y111.838 E.07052
G1 X125 Y112.19 E.07054
G1 X122.778 Y111.838 E.07054
G1 X120.774 Y110.817 E.07052
G1 X119.183 Y109.226 E.07055
G1 X118.162 Y107.222 E.07051
G1 X117.81 Y105 E.07054
G1 X118.162 Y102.778 E.07055
G1 X119.155 Y100.828 E.06861
M204 S1000
G1 X119.58 Y100.816 F10800
; stop printing object LiegestuhlAuflage.stl id:0 copy 0
M106 S84.15
;LAYER_CHANGE
;Z:0.5
;HEIGHT:0.3
;BEFORE_LAYER_CHANGE
G92 E0.0
;0.5


;WIPE_START
G1 F8640
G1 X120.774 Y99.183 E-.533
G1 X121.65 Y98.736 E-.227
;WIPE_END
G1 E-.04 F2100
G1 Z.6 F720
;AFTER_LAYER_CHANGE
;0.5
M104 S210 ; set temperature
G1 X120.089 Y95.674 F10800
G1 Z.5 F720
G1 E.8 F2100
;TYPE:Skirt/Brim
G1 F1145
G1 X121.26 Y95.077 E.05829
G1 X122.192 Y94.774 E.04347
G1 X124.51 Y94.407 E.1041
G1 X125.49 Y94.407 E.04344
G1 X127.78 Y94.77 E.10284
G1 X128.729 Y95.074 E.0442
G1 X130.83 Y96.142 E.10454
G1 X131.622 Y96.718 E.04345
G1 X133.282 Y98.378 E.10413
G1 X133.858 Y99.17 E.04345
G1 X134.923 Y101.26 E.10405
G1 X135.226 Y102.192 E.04346
G1 X135.593 Y104.51 E.1041
G1 X135.593 Y105.49 E.04344
G1 X135.227 Y107.8 E.10374
G1 X134.926 Y108.729 E.04332
G1 X133.858 Y110.83 E.10454
G1 X133.282 Y111.622 E.04345
G1 X131.622 Y113.282 E.10413
G1 X130.83 Y113.858 E.04345
G1 X128.74 Y114.923 E.10405
G1 X127.808 Y115.226 E.04346
G1 X125.49 Y115.593 E.1041
G1 X124.51 Y115.593 E.04343
G1 X122.192 Y115.226 E.1041
G1 X121.26 Y114.923 E.04347
G1 X119.17 Y113.858 E.10404
G1 X118.378 Y113.282 E.04345
G1 X116.718 Y111.622 E.10413
G1 X116.142 Y110.83 E.04345
G1 X115.077 Y108.74 E.10404
G1 X114.77 Y107.78 E.04471
G1 X114.407 Y105.49 E.10284
G1 X114.407 Y104.51 E.04344
G1 X114.774 Y102.192 E.1041
G1 X115.077 Y101.26 E.04347
G1 X116.142 Y99.17 E.10405
G1 X116.718 Y98.378 E.04345
G1 X118.378 Y96.718 E.10413
G1 X119.17 Y96.142 E.04345
M73 Q4 S10
G1 X120.036 Y95.701 E.04309
G1 X120.207 Y96.037 F10800
G1 F1145
G1 X121.432 Y95.413 E.06095
G1 X122.251 Y95.147 E.03823
G1 X124.569 Y94.78 E.1041
G1 X125.431 Y94.78 E.03821
M73 P4 R10
G1 X127.721 Y95.142 E.10284
G1 X128.558 Y95.41 E.03899
G1 X130.658 Y96.478 E.10452
G1 X131.355 Y96.985 E.03821
G1 X133.015 Y98.645 E.10413
G1 X133.522 Y99.342 E.03822
G1 X134.587 Y101.432 E.10404
G1 X134.853 Y102.251 E.03823
G1 X135.22 Y104.569 E.1041
G1 X135.22 Y105.431 E.0382
G1 X134.855 Y107.741 E.10374
G1 X134.59 Y108.558 E.0381
G1 X133.522 Y110.658 E.10452
G1 X133.015 Y111.355 E.03821
G1 X131.355 Y113.015 E.10413
G1 X130.658 Y113.522 E.03822
G1 X128.568 Y114.587 E.10404
G1 X127.749 Y114.853 E.03823
G1 X125.431 Y115.22 E.1041
G1 X124.569 Y115.22 E.0382
G1 X122.251 Y114.853 E.1041
G1 X121.432 Y114.587 E.03823
G1 X119.342 Y113.522 E.10404
G1 X118.645 Y113.015 E.03822
G1 X116.985 Y111.355 E.10413
G1 X116.478 Y110.658 E.03822
G1 X115.413 Y108.568 E.10404
G1 X115.147 Y107.749 E.03823
G1 X114.78 Y105.431 E.1041
G1 X114.78 Y104.569 E.03821
G1 X115.147 Y102.251 E.1041
G1 X115.413 Y101.432 E.03823
G1 X116.478 Y99.342 E.10404
G1 X116.985 Y98.645 E.03821
G1 X118.645 Y96.985 E.10413
G1 X119.342 Y96.478 E.03822
G1 X120.154 Y96.064 E.04043
G1 X120.325 Y96.4 F10800
G1 F1145
G1 X121.603 Y95.749 E.06361
G1 X122.31 Y95.519 E.033
G1 X124.628 Y95.152 E.1041
G1 X125.372 Y95.152 E.03298
G1 X127.662 Y95.515 E.10284
G1 X128.387 Y95.747 E.03377
G1 X130.487 Y96.814 E.1045
G1 X131.089 Y97.251 E.03298
G1 X132.749 Y98.911 E.10413
G1 X133.186 Y99.513 E.03298
G1 X134.251 Y101.603 E.10404
G1 X134.481 Y102.31 E.033
G1 X134.848 Y104.628 E.1041
G1 X134.848 Y105.372 E.03297
G1 X134.482 Y107.682 E.10374
G1 X134.253 Y108.387 E.03288
G1 X133.186 Y110.487 E.1045
G1 X132.749 Y111.089 E.03298
G1 X131.089 Y112.749 E.10413
G1 X130.487 Y113.186 E.03298
G1 X128.397 Y114.251 E.10404
G1 X127.69 Y114.481 E.033
G1 X125.372 Y114.848 E.1041
G1 X124.628 Y114.848 E.03297
G1 X122.31 Y114.481 E.1041
G1 X121.603 Y114.251 E.033
G1 X119.513 Y113.186 E.10404
G1 X118.911 Y112.749 E.03298
G1 X117.251 Y111.089 E.10413
G1 X116.814 Y110.487 E.03298
G1 X115.749 Y108.397 E.10404
G1 X115.519 Y107.69 E.033
G1 X115.152 Y105.372 E.1041
G1 X115.152 Y104.628 E.03297
G1 X115.519 Y102.31 E.1041
G1 X115.749 Y101.603 E.033
G1 X116.814 Y99.513 E.10404
M73 Q5 S10
G1 X117.251 Y98.911 E.03298
G1 X118.911 Y97.251 E.10413
G1 X119.513 Y96.814 E.03298
G1 X120.271 Y96.427 E.03777
; printing object LiegestuhlAuflage.stl id:0 copy 0
;WIPE_START
G1 F8640
M73 P5 R10
G1 X121.603 Y95.749 E-.345
G1 X122.31 Y95.519 E-.17177
G1 X123.351 Y95.354 E-.24322
;WIPE_END
G1 E-.04 F2100
G1 Z.9 F720
G1 X121 Y99.493 F10800
G1 Z.5 F720
G1 E.8 F2100
M204 S800
;TYPE:External perimeter
;WIDTH:0.6
G1 F1145
G1 X122.922 Y98.523 E.14382
G1 X125 Y98.193 E.14056
G1 X127.103 Y98.527 E.14224
G1 X129 Y99.493 E.14226
G1 X130.507 Y101 E.14231
G1 X131.473 Y102.897 E.14226
G1 X131.806 Y105 E.14223
G1 X131.473 Y107.103 E.14223
G1 X130.507 Y109 E.14226
G1 X129 Y110.507 E.14231
G1 X127.103 Y111.473 E.14226
G1 X125 Y111.806 E.14223
G1 X122.897 Y111.473 E.14223
G1 X121 Y110.507 E.14226
G1 X119.493 Y109 E.14231
G1 X118.527 Y107.103 E.14226
G1 X118.193 Y105 E.14224
G1 X118.527 Y102.897 E.14224
G1 X119.493 Y101 E.14226
G1 X120.957 Y99.535 E.13834
M204 S1000
G1 X120.959 Y99.095 F10800
G1 X120.825 Y99.15
M204 S800
G1 F1145
G1 X122.776 Y98.156 E.14626
G1 X125 Y97.804 E.15044
G1 X127.197 Y98.152 E.14858
G1 X129.23 Y99.178 E.15216
G1 X130.822 Y100.771 E.15045
G1 X131.844 Y102.776 E.15036
G1 X132.196 Y105 E.15044
G1 X131.844 Y107.224 E.15044
G1 X130.822 Y109.229 E.15036
G1 X129.229 Y110.822 E.15048
G1 X127.224 Y111.844 E.15036
G1 X125 Y112.196 E.15044
G1 X122.776 Y111.844 E.15044
G1 X120.771 Y110.822 E.15036
G1 X119.178 Y109.229 E.15048
G1 X118.156 Y107.224 E.15036
G1 X117.804 Y105 E.15044
G1 X118.156 Y102.776 E.15044
G1 X119.178 Y100.771 E.15036
G1 X120.772 Y99.177 E.15057
M204 S1000
G1 X121.19 Y99.313 F10800
; stop printing object LiegestuhlAuflage.stl id:0 copy 0
M106 S170.85
;LAYER_CHANGE
;Z:0.8
;HEIGHT:0.3
;BEFORE_LAYER_CHANGE
G92 E0.0
;0.8


;WIPE_START
G1 F8640
G1 X122.776 Y98.156 E-.51938
G1 X123.805 Y97.993 E-.24062
;WIPE_END
G1 E-.04 F2100
G1 Z.9 F720
;AFTER_LAYER_CHANGE
;0.8
G1 X123.269 Y94.604 F10800
G1 Z.8 F720
G1 E.8 F2100
;TYPE:Skirt/Brim
;WIDTH:0.42
G1 F1145
G1 X124.51 Y94.407 E.05577
G1 X125.49 Y94.407 E.04344
G1 X127.78 Y94.77 E.10284
G1 X128.729 Y95.074 E.0442
G1 X130.83 Y96.142 E.10454
G1 X131.622 Y96.718 E.04345
G1 X133.282 Y98.378 E.10413
G1 X133.858 Y99.17 E.04345
G1 X134.923 Y101.26 E.10405
M73 Q6 S10
G1 X135.226 Y102.192 E.04346
G1 X135.593 Y104.51 E.1041
G1 X135.593 Y105.49 E.04344
G1 X135.227 Y107.8 E.10374
M73 P6 R10
G1 X134.926 Y108.729 E.04332
G1 X133.858 Y110.83 E.10454
G1 X133.282 Y111.622 E.04345
G1 X131.622 Y113.282 E.10413
G1 X130.83 Y113.858 E.04345
G1 X128.74 Y114.923 E.10405
G1 X127.808 Y115.226 E.04346
G1 X125.49 Y115.593 E.1041
G1 X124.51 Y115.593 E.04343
G1 X122.192 Y115.226 E.1041
G1 X121.26 Y114.923 E.04347
G1 X119.17 Y113.858 E.10404
G1 X118.378 Y113.282 E.04345
G1 X116.718 Y111.622 E.10413
G1 X116.142 Y110.83 E.04345
G1 X115.077 Y108.74 E.10404
G1 X114.77 Y107.78 E.04471
G1 X114.407 Y105.49 E.10284
G1 X114.407 Y104.51 E.04344
G1 X114.774 Y102.192 E.1041
G1 X115.077 Y101.26 E.04347
G1 X116.142 Y99.17 E.10405
G1 X116.718 Y98.378 E.04345
G1 X118.378 Y96.718 E.10413
G1 X119.17 Y96.142 E.04345
G1 X121.26 Y95.077 E.10404
G1 X122.192 Y94.774 E.04347
G1 X123.209 Y94.613 E.04567
G1 X123.268 Y94.986 F10800
G1 F1145
G1 X124.569 Y94.78 E.05843
G1 X125.431 Y94.78 E.03821
G1 X127.721 Y95.142 E.10284
G1 X128.558 Y95.41 E.03899
G1 X130.658 Y96.478 E.10452
G1 X131.355 Y96.985 E.03821
G1 X133.015 Y98.645 E.10413
G1 X133.522 Y99.342 E.03822
G1 X134.587 Y101.432 E.10404
G1 X134.853 Y102.251 E.03823
G1 X135.22 Y104.569 E.1041
G1 X135.22 Y105.431 E.0382
G1 X134.855 Y107.741 E.10374
G1 X134.59 Y108.558 E.0381
G1 X133.522 Y110.658 E.10452
G1 X133.015 Y111.355 E.03821
G1 X131.355 Y113.015 E.10413
G1 X130.658 Y113.522 E.03822
G1 X128.568 Y114.587 E.10404
G1 X127.749 Y114.853 E.03823
G1 X125.431 Y115.22 E.1041
G1 X124.569 Y115.22 E.0382
G1 X122.251 Y114.853 E.1041
G1 X121.432 Y114.587 E.03823
G1 X119.342 Y113.522 E.10404
G1 X118.645 Y113.015 E.03822
G1 X116.985 Y111.355 E.10413
G1 X116.478 Y110.658 E.03822
G1 X115.413 Y108.568 E.10404
G1 X115.147 Y107.749 E.03823
G1 X114.78 Y105.431 E.1041
G1 X114.78 Y104.569 E.03821
G1 X115.147 Y102.251 E.1041
G1 X115.413 Y101.432 E.03823
G1 X116.478 Y99.342 E.10404
G1 X116.985 Y98.645 E.03821
G1 X118.645 Y96.985 E.10413
G1 X119.342 Y96.478 E.03822
G1 X121.432 Y95.413 E.10404
G1 X122.251 Y95.147 E.03823
G1 X123.209 Y94.995 E.04301
M73 P6 R9
M73 Q6 S9
G1 X123.268 Y95.368 F10800
G1 F1145
G1 X124.628 Y95.152 E.06109
G1 X125.372 Y95.152 E.03298
G1 X127.662 Y95.515 E.10284
G1 X128.387 Y95.747 E.03377
M73 Q7 S9
G1 X130.487 Y96.814 E.1045
G1 X131.089 Y97.251 E.03298
G1 X132.749 Y98.911 E.10413
G1 X133.186 Y99.513 E.03298
M73 P7 R9
G1 X134.251 Y101.603 E.10404
G1 X134.481 Y102.31 E.033
G1 X134.848 Y104.628 E.1041
G1 X134.848 Y105.372 E.03297
G1 X134.482 Y107.682 E.10374
G1 X134.253 Y108.387 E.03288
G1 X133.186 Y110.487 E.1045
G1 X132.749 Y111.089 E.03298
G1 X131.089 Y112.749 E.10413
G1 X130.487 Y113.186 E.03298
G1 X128.397 Y114.251 E.10404
G1 X127.69 Y114.481 E.033
G1 X125.372 Y114.848 E.1041
G1 X124.628 Y114.848 E.03297
G1 X122.31 Y114.481 E.1041
G1 X121.603 Y114.251 E.033
G1 X119.513 Y113.186 E.10404
G1 X118.911 Y112.749 E.03298
G1 X117.251 Y111.089 E.10413
G1 X116.814 Y110.487 E.03298
G1 X115.749 Y108.397 E.10404
G1 X115.519 Y107.69 E.033
G1 X115.152 Y105.372 E.1041
G1 X115.152 Y104.628 E.03297
G1 X115.519 Y102.31 E.1041
G1 X115.749 Y101.603 E.033
