; generated by PrusaSlicer 2.6.0+win64 on 2024-04-30 at 09:13:51 UTC


;
;
; 

; external perimeters extrusion width = 0.60mm
; perimeters extrusion width = 0.50mm
; infill extrusion width = 0.50mm
; solid infill extrusion width = 0.50mm
; top infill extrusion width = 0.45mm
; first layer extrusion width = 0.42mm

M73 P0 R14
M73 Q0 S14
M201 X1000 Y1000 Z200 E5000 ; sets maximum accelerations, mm/sec^2
M203 X200 Y200 Z12 E120 ; sets maximum feedrates, mm / sec
M204 S1250 T1250 ; sets acceleration (S) and retract acceleration (R), mm/sec^2
M205 X8.00 Y8.00 Z0.40 E4.50 ; sets the jerk limits, mm/sec
M205 S0 T0 ; sets the minimum extruding and travel feed rate, mm/sec
;TYPE:Custom
M862.3 P "MK3S" ; printer model check
M862.1 P0.4 ; nozzle diameter check
M115 U3.12.2 ; tell printer latest fw version
G90 ; use absolute coordinates
M83 ; extruder relative mode
M104 S215 ; set extruder temp
M140 S60 ; set bed temp
M190 S60 ; wait for bed temp
M109 S215 ; wait for extruder temp
G28 W ; home all without mesh bed level
G80 ; mesh bed leveling

G1 Z0.2 F720
G1 Y-3 F1000 ; go outside print area
G92 E0
G1 X60 E9 F1000 ; intro line
G1 X100 E12.5 F1000 ; intro line

G92 E0
M221 S95

; Don't change E values below. Excessive value can damage the printer.

M907 E538 ; set extruder motor current
G21 ; set units to millimeters
G90 ; use absolute coordinates
M83 ; use relative distances for extrusion
M900 K0.05 ; Filament gcode LA 1.5
M900 K30 ; Filament gcode LA 1.0
M107
;LAYER_CHANGE
;Z:0.2
;HEIGHT:0.2
;BEFORE_LAYER_CHANGE
G92 E0.0
;0.2


G1 E-.8 F2100
G1 Z.4 F720
;AFTER_LAYER_CHANGE
;0.2
G1 X118.741 Y99.847 F10800
G1 Z.2 F720
G1 E.8 F2100
M204 S800
;TYPE:Skirt/Brim
;WIDTH:0.42
G1 F1200
G1 X119.847 Y98.741 E.04904
G1 X120.64 Y98.165 E.03073
G1 X122.034 Y97.455 E.04905
G1 X122.965 Y97.152 E.0307
G1 X124.504 Y96.908 E.04886
G1 X125.482 Y96.908 E.03066
G1 X127.032 Y97.152 E.0492
G1 X127.966 Y97.455 E.03079
G1 X129.36 Y98.165 E.04905
G1 X130.153 Y98.741 E.03073
G1 X131.259 Y99.847 E.04904
G1 X131.835 Y100.64 E.03073
G1 X132.545 Y102.034 E.04905
G1 X132.848 Y102.965 E.0307
G1 X133.093 Y104.51 E.04905
G1 X133.093 Y105.49 E.03073
G1 X132.848 Y107.035 E.04905
M73 Q1 S14
G1 X132.545 Y107.966 E.0307
G1 X131.835 Y109.36 E.04905
G1 X131.259 Y110.153 E.03073
G1 X130.153 Y111.259 E.04904
G1 X129.36 Y111.835 E.03073
G1 X127.966 Y112.545 E.04905
M73 P1 R14
G1 X127.035 Y112.848 E.0307
G1 X125.49 Y113.093 E.04905
G1 X124.51 Y113.093 E.03073
G1 X122.965 Y112.848 E.04905
G1 X122.034 Y112.545 E.0307
G1 X120.64 Y111.835 E.04905
G1 X119.847 Y111.259 E.03073
G1 X118.741 Y110.153 E.04904
G1 X118.165 Y109.36 E.03073
G1 X117.455 Y107.966 E.04905
G1 X117.152 Y107.035 E.0307
G1 X116.907 Y105.49 E.04905
G1 X116.907 Y104.51 E.03073
G1 X117.152 Y102.965 E.04905
G1 X117.455 Y102.034 E.0307
G1 X118.165 Y100.64 E.04905
G1 X118.706 Y99.895 E.02887
M204 S1000
G1 X119.007 Y100.114 F10800
M204 S800
G1 F1200
G1 X120.114 Y99.008 E.04906
G1 X120.811 Y98.501 E.02702
G1 X122.205 Y97.791 E.04905
G1 X123.024 Y97.525 E.027
G1 X124.563 Y97.281 E.04886
G1 X125.423 Y97.28 E.02696
G1 X126.974 Y97.524 E.04923
G1 X127.795 Y97.791 E.02707
G1 X129.189 Y98.501 E.04905
G1 X129.886 Y99.008 E.02702
G1 X130.992 Y100.114 E.04904
G1 X131.499 Y100.811 E.02702
G1 X132.209 Y102.205 E.04905
G1 X132.475 Y103.024 E.027
G1 X132.72 Y104.569 E.04905
G1 X132.72 Y105.431 E.02703
G1 X132.475 Y106.976 E.04905
G1 X132.209 Y107.795 E.027
G1 X131.499 Y109.189 E.04905
G1 X130.992 Y109.886 E.02702
G1 X129.886 Y110.992 E.04904
G1 X129.189 Y111.499 E.02702
G1 X127.795 Y112.209 E.04905
G1 X126.976 Y112.475 E.027
G1 X125.431 Y112.72 E.04905
G1 X124.569 Y112.72 E.02703
G1 X123.024 Y112.475 E.04905
G1 X122.205 Y112.209 E.027
G1 X120.811 Y111.499 E.04905
G1 X120.114 Y110.992 E.02702
G1 X119.008 Y109.886 E.04904
G1 X118.501 Y109.189 E.02702
G1 X117.791 Y107.795 E.04905
G1 X117.525 Y106.976 E.027
G1 X117.28 Y105.431 E.04905
G1 X117.28 Y104.569 E.02703
G1 X117.525 Y103.024 E.04905
G1 X117.791 Y102.205 E.027
G1 X118.501 Y100.811 E.04905
G1 X118.972 Y100.163 E.02512
M204 S1000
G1 X119.273 Y100.382 F10800
M204 S800
G1 F1200
G1 X120.38 Y99.274 E.04911
G1 X120.982 Y98.837 E.02332
G1 X122.376 Y98.127 E.04905
G1 X123.083 Y97.897 E.02331
G1 X124.623 Y97.653 E.04889
G1 X125.365 Y97.653 E.02326
G1 X126.915 Y97.897 E.0492
G1 X127.624 Y98.127 E.02337
G1 X129.018 Y98.837 E.04905
G1 X129.62 Y99.274 E.02332
G1 X130.726 Y100.38 E.04904
G1 X131.163 Y100.982 E.02332
G1 X131.873 Y102.376 E.04905
G1 X132.103 Y103.083 E.02331
G1 X132.348 Y104.628 E.04905
G1 X132.348 Y105.372 E.02333
M73 P1 R13
G1 X132.103 Y106.917 E.04905
G1 X131.873 Y107.624 E.02331
G1 X131.163 Y109.018 E.04905
G1 X130.726 Y109.62 E.02332
G1 X129.62 Y110.726 E.04904
G1 X129.018 Y111.163 E.02332
G1 X127.624 Y111.873 E.04905
G1 X126.917 Y112.103 E.02331
G1 X125.372 Y112.348 E.04905
G1 X124.628 Y112.348 E.02333
G1 X123.083 Y112.103 E.04905
G1 X122.376 Y111.873 E.02331
G1 X120.982 Y111.163 E.04905
G1 X120.38 Y110.726 E.02332
G1 X119.274 Y109.62 E.04904
G1 X118.837 Y109.018 E.02332
G1 X118.127 Y107.624 E.04905
G1 X117.897 Y106.917 E.02331
G1 X117.652 Y105.372 E.04905
G1 X117.652 Y104.628 E.02333
G1 X117.897 Y103.083 E.04905
G1 X118.127 Y102.376 E.02331
G1 X118.837 Y100.982 E.04905
G1 X119.238 Y100.43 E.02139
M204 S1000
; printing object MarkisePropfen.stl id:0 copy 0
;WIPE_START
G1 F8640
G1 X120.38 Y99.274 E-.37521
G1 X120.982 Y98.837 E-.17177
G1 X121.958 Y98.34 E-.25302
;WIPE_END
G1 Z.6 F720
G1 X127.471 Y101.6 F10800
G1 Z.2 F720
G1 E.8 F2100
M204 S800
;TYPE:Perimeter
;WIDTH:0.419999
G1 F1200
G1 X128.4 Y102.529 E.04119
G1 X128.997 Y103.701 E.04124
G1 X129.203 Y105 E.04124
G1 X128.997 Y106.299 E.04124
G1 X128.4 Y107.471 E.04124
G1 X127.471 Y108.4 E.04119
G1 X126.299 Y108.997 E.04124
G1 X125 Y109.203 E.04124
G1 X123.701 Y108.997 E.04124
G1 X122.529 Y108.4 E.04124
G1 X121.6 Y107.471 E.04119
G1 X121.003 Y106.299 E.04124
G1 X120.797 Y105 E.04124
G1 X121.003 Y103.701 E.04124
G1 X121.6 Y102.529 E.04124
G1 X122.529 Y101.6 E.04119
M73 Q1 S13
G1 X123.701 Y101.003 E.04124
G1 X125 Y100.797 E.04124
G1 X126.299 Y101.003 E.04124
G1 X127.417 Y101.573 E.03935
M204 S1000
G1 X127.695 Y101.291 F10800
M204 S800
;TYPE:External perimeter
G1 F1200
G1 X128.709 Y102.305 E.04496
G1 X129.36 Y103.583 E.04497
G1 X129.585 Y105 E.04499
G1 X129.36 Y106.417 E.04499
G1 X128.709 Y107.695 E.04497
G1 X127.695 Y108.709 E.04496
G1 X126.417 Y109.36 E.04497
G1 X125 Y109.585 E.04499
M73 Q2 S13
G1 X123.583 Y109.36 E.04499
G1 X122.305 Y108.709 E.04497
G1 X121.291 Y107.695 E.04496
G1 X120.64 Y106.417 E.04497
M73 P2 R13
G1 X120.415 Y105 E.04499
G1 X120.64 Y103.583 E.04499
G1 X121.291 Y102.305 E.04497
G1 X122.305 Y101.291 E.04496
G1 X123.583 Y100.64 E.04497
G1 X125 Y100.415 E.04499
G1 X126.417 Y100.64 E.04499
G1 X127.642 Y101.264 E.0431
M204 S1000
G1 X127.653 Y101.689 F10800
;WIPE_START
G1 F8640
G1 X128.709 Y102.305 E-.34421
G1 X129.36 Y103.583 E-.33117
G1 X129.445 Y104.116 E-.12462
;WIPE_END
G1 Z.6 F720
G1 X123.266 Y104.633 F10800
G1 Z.2 F720
G1 E.8 F2100
M204 S800
;TYPE:Perimeter
G1 F1200
G1 X123.296 Y104.446 E.00594
G1 X123.55 Y103.947 E.01756
G1 X123.947 Y103.55 E.0176
G1 X124.446 Y103.296 E.01756
G1 X125 Y103.207 E.01759
G1 X125.554 Y103.296 E.01759
G1 X126.053 Y103.55 E.01756
G1 X126.45 Y103.947 E.0176
G1 X126.704 Y104.446 E.01756
G1 X126.793 Y105 E.01759
G1 X126.704 Y105.554 E.01759
G1 X126.45 Y106.053 E.01756
G1 X126.053 Y106.45 E.0176
G1 X125.554 Y106.704 E.01756
G1 X125 Y106.792 E.01759
G1 X124.446 Y106.704 E.01759
G1 X123.947 Y106.45 E.01756
G1 X123.55 Y106.053 E.0176
G1 X123.296 Y105.554 E.01756
G1 X123.207 Y105 E.01759
G1 X123.256 Y104.692 E.00978
M204 S1000
G1 X123.591 Y105.046 F10800
M204 S800
;TYPE:External perimeter
G1 F1200
G1 X123.584 Y105 E.00146
G1 X123.666 Y104.535 E.0148
G1 X123.874 Y104.146 E.01383
G1 X124.194 Y103.84 E.01388
G1 X124.59 Y103.648 E.0138
G1 X125.03 Y103.587 E.01393
G1 X125.465 Y103.666 E.01386
G1 X125.854 Y103.874 E.01383
G1 X126.16 Y104.194 E.01388
G1 X126.352 Y104.59 E.0138
G1 X126.413 Y105.03 E.01393
G1 X126.334 Y105.465 E.01386
G1 X126.126 Y105.854 E.01383
G1 X125.806 Y106.16 E.01388
G1 X125.409 Y106.352 E.01383
G1 X124.971 Y106.412 E.01386
G1 X124.535 Y106.334 E.01389
G1 X124.146 Y106.126 E.01383
G1 X123.84 Y105.806 E.01388
G1 X123.648 Y105.41 E.0138
G1 X123.601 Y105.106 E.00964
M204 S1000
G1 X123.547 Y105.032 F10800
;WIPE_START
G1 F8640
G1 X123.584 Y105 E-.02479
G1 X123.666 Y104.535 E-.10903
G1 X123.874 Y104.146 E-.10186
G1 X124.194 Y103.84 E-.10223
G1 X124.59 Y103.648 E-.10162
G1 X125.03 Y103.587 E-.10257
G1 X125.465 Y103.666 E-.10209
G1 X125.854 Y103.874 E-.10186
G1 X126.015 Y104.043 E-.05395
;WIPE_END
G1 Z.6 F720
G1 X128.513 Y103.125 F10800
G1 Z.2 F720
G1 E.8 F2100
M204 S800
;TYPE:Solid infill
;WIDTH:0.423922
G1 F1200
G1 X127.263 Y101.875 E.056
G1 X126.176 Y101.327 E.03857
G1 X128.673 Y103.824 E.11187
G1 X128.774 Y104.464 E.02053
G1 X125.536 Y101.226 E.14507
G1 X125 Y101.141 E.01719
G1 X124.924 Y101.153 E.00244
G1 X128.847 Y105.076 E.17576
G1 X128.774 Y105.541 E.01491
G1 X124.459 Y101.226 E.19332
G1 X123.994 Y101.3 E.01492
G1 X125.672 Y102.978 E.07518
G1 X126.141 Y103.206 E.01652
G1 X126.353 Y103.36 E.0083
G1 X126.726 Y103.746 E.01701
G1 X126.978 Y104.219 E.01698
G1 X127.009 Y104.315 E.0032
G1 X128.7 Y106.006 E.07576
G1 X128.67 Y106.193 E.006
G1 X128.562 Y106.406 E.00757
G1 X127.13 Y104.975 E.06414
G1 X127.07 Y105.453 E.01526
G1 X128.38 Y106.763 E.05869
G1 X128.198 Y107.12 E.01269
G1 X126.936 Y105.859 E.05652
G1 X126.749 Y106.21 E.0126
G1 X127.965 Y107.426 E.05448
G1 X127.695 Y107.696 E.0121
G1 X126.494 Y106.494 E.05383
G1 X126.353 Y106.64 E.00643
G1 X126.207 Y106.746 E.00572
G1 X127.426 Y107.965 E.05461
G1 X127.269 Y108.122 E.00703
G1 X127.12 Y108.198 E.0053
G1 X125.855 Y106.933 E.05668
G1 X125.658 Y107.029 E.00694
G1 X125.446 Y107.063 E.0068
G1 X126.763 Y108.38 E.05901
G1 X126.406 Y108.562 E.01269
G1 X124.769 Y106.925 E.07334
M204 S1000
;WIPE_START
G1 F8640
G1 X126.406 Y108.562 E-.53456
G1 X126.763 Y108.38 E-.09253
G1 X126.233 Y107.85 E-.17291
;WIPE_END
G1 Z.6 F720
G1 X125.221 Y103.065 F10800
G1 Z.2 F720
G1 E.8 F2100
M204 S800
G1 F1200
G1 X123.594 Y101.439 E.07287
G1 X123.237 Y101.62 E.01268
G1 X124.55 Y102.934 E.05885
G1 X124.341 Y102.972 E.00673
G1 X124.145 Y103.067 E.0069
G1 X122.88 Y101.802 E.05668
G1 X122.731 Y101.878 E.0053
G1 X122.574 Y102.035 E.00703
G1 X123.793 Y103.254 E.05461
G1 X123.648 Y103.359 E.00567
G1 X123.503 Y103.504 E.0065
G1 X122.304 Y102.305 E.05372
G1 X122.035 Y102.574 E.01205
G1 X123.254 Y103.793 E.05461
G1 X123.067 Y104.145 E.01263
G1 X121.802 Y102.88 E.05668
G1 X121.62 Y103.237 E.01269
G1 X122.937 Y104.554 E.05901
G1 X122.87 Y105.025 E.01507
G1 X121.438 Y103.594 E.06414
G1 X121.33 Y103.807 E.00757
G1 X121.3 Y103.994 E.006
G1 X122.991 Y105.686 E.07578
G1 X123.022 Y105.781 E.00317
G1 X123.274 Y106.254 E.01698
G1 X123.647 Y106.64 E.01701
G1 X123.859 Y106.794 E.0083
G1 X124.328 Y107.022 E.01652
G1 X126.006 Y108.7 E.07518
G1 X125.541 Y108.774 E.01492
G1 X121.226 Y104.459 E.19332
G1 X121.153 Y104.924 E.01491
G1 X125.076 Y108.847 E.17576
G1 X125 Y108.859 E.00244
G1 X124.464 Y108.774 E.01719
G1 X121.226 Y105.536 E.14507
G1 X121.327 Y106.177 E.02056
M73 Q3 S13
G1 X123.823 Y108.673 E.11183
G1 X122.737 Y108.125 E.03854
G1 X121.487 Y106.875 E.056
M204 S1000
; stop printing object MarkisePropfen.stl id:0 copy 0
M106 S84.15
;LAYER_CHANGE
;Z:0.5
;HEIGHT:0.3
;BEFORE_LAYER_CHANGE
G92 E0.0
;0.5


;WIPE_START
M73 P3 R13
G1 F8640
G1 X122.737 Y108.125 E-.40818
G1 X123.823 Y108.673 E-.28088
G1 X123.483 Y108.333 E-.11094
;WIPE_END
G1 Z.6 F720
;AFTER_LAYER_CHANGE
;0.5
G1 X121.481 Y112.264 F10800
G1 Z.5 F720
G1 E.8 F2100
;TYPE:Skirt/Brim
;WIDTH:0.42
G1 F2387
G1 X120.64 Y111.835 E.04188
G1 X119.847 Y111.259 E.04347
G1 X118.741 Y110.153 E.06938
G1 X118.165 Y109.36 E.04347
G1 X117.455 Y107.966 E.06939
G1 X117.152 Y107.035 E.04343
G1 X116.907 Y105.49 E.06938
G1 X116.907 Y104.51 E.04347
G1 X117.152 Y102.965 E.06938
G1 X117.455 Y102.034 E.04343
G1 X118.165 Y100.64 E.06939
G1 X118.741 Y99.847 E.04347
G1 X119.847 Y98.741 E.06938
G1 X120.64 Y98.165 E.04347
G1 X122.034 Y97.455 E.06939
G1 X122.965 Y97.152 E.04343
G1 X124.504 Y96.908 E.06911
G1 X125.482 Y96.908 E.04338
G1 X127.032 Y97.152 E.0696
G1 X127.966 Y97.455 E.04355
G1 X129.36 Y98.165 E.06939
G1 X130.153 Y98.741 E.04347
G1 X131.259 Y99.847 E.06938
G1 X131.835 Y100.64 E.04347
G1 X132.545 Y102.034 E.06939
G1 X132.848 Y102.965 E.04343
G1 X133.093 Y104.51 E.06938
G1 X133.093 Y105.49 E.04347
G1 X132.848 Y107.035 E.06938
G1 X132.545 Y107.966 E.04343
G1 X131.835 Y109.36 E.06939
G1 X131.259 Y110.153 E.04347
G1 X130.153 Y111.259 E.06938
G1 X129.36 Y111.835 E.04347
G1 X127.966 Y112.545 E.06939
G1 X127.035 Y112.848 E.04343
G1 X125.49 Y113.093 E.06938
G1 X124.51 Y113.093 E.04347
G1 X122.965 Y112.848 E.06938
G1 X122.034 Y112.545 E.04343
G1 X121.535 Y112.291 E.02484
G1 X121.706 Y111.955 F10800
G1 F2387
G1 X120.811 Y111.499 E.04455
G1 X120.114 Y110.992 E.03823
G1 X119.008 Y109.886 E.06938
G1 X118.501 Y109.189 E.03823
G1 X117.791 Y107.795 E.06939
G1 X117.525 Y106.976 E.03819
G1 X117.28 Y105.431 E.06938
G1 X117.28 Y104.569 E.03823
G1 X117.525 Y103.024 E.06938
G1 X117.791 Y102.205 E.03819
G1 X118.501 Y100.811 E.06939
G1 X119.008 Y100.114 E.03823
G1 X120.114 Y99.008 E.06938
G1 X120.811 Y98.501 E.03823
G1 X122.205 Y97.791 E.06939
G1 X123.024 Y97.525 E.03819
G1 X124.563 Y97.281 E.06911
G1 X125.423 Y97.28 E.03815
G1 X126.974 Y97.524 E.06964
G1 X127.795 Y97.791 E.03829
G1 X129.189 Y98.501 E.06939
G1 X129.886 Y99.008 E.03823
G1 X130.992 Y100.114 E.06938
G1 X131.499 Y100.811 E.03823
G1 X132.209 Y102.205 E.06939
G1 X132.475 Y103.024 E.03819
G1 X132.72 Y104.569 E.06938
G1 X132.72 Y105.431 E.03823
G1 X132.475 Y106.976 E.06938
G1 X132.209 Y107.795 E.03819
G1 X131.499 Y109.189 E.06939
G1 X130.992 Y109.886 E.03823
G1 X129.886 Y110.992 E.06938
G1 X129.189 Y111.499 E.03823
G1 X127.795 Y112.209 E.06939
G1 X126.976 Y112.475 E.03819
G1 X125.431 Y112.72 E.06938
G1 X124.569 Y112.72 E.03823
G1 X123.024 Y112.475 E.06938
G1 X122.205 Y112.209 E.03819
G1 X121.759 Y111.982 E.0222
G1 X121.931 Y111.646 F10800
G1 F2387
G1 X120.982 Y111.163 E.04723
G1 X120.38 Y110.726 E.033
G1 X119.274 Y109.62 E.06938
G1 X118.837 Y109.018 E.033
G1 X118.127 Y107.624 E.06939
G1 X117.897 Y106.917 E.03298
G1 X117.652 Y105.372 E.06938
G1 X117.652 Y104.628 E.033
G1 X117.897 Y103.083 E.06938
G1 X118.127 Y102.376 E.03298
G1 X118.837 Y100.982 E.06939
G1 X119.274 Y100.38 E.033
G1 X120.38 Y99.274 E.06938
G1 X120.982 Y98.837 E.033
G1 X122.376 Y98.127 E.06939
G1 X123.083 Y97.897 E.03298
G1 X124.623 Y97.653 E.06916
G1 X125.365 Y97.653 E.03291
G1 X126.915 Y97.897 E.0696
G1 X127.624 Y98.127 E.03306
G1 X129.018 Y98.837 E.06939
G1 X129.62 Y99.274 E.033
G1 X130.726 Y100.38 E.06938
G1 X131.163 Y100.982 E.033
G1 X131.873 Y102.376 E.06939
G1 X132.103 Y103.083 E.03298
G1 X132.348 Y104.628 E.06938
G1 X132.348 Y105.372 E.033
G1 X132.103 Y106.917 E.06938
G1 X131.873 Y107.624 E.03298
G1 X131.163 Y109.018 E.06939
G1 X130.726 Y109.62 E.033
G1 X129.62 Y110.726 E.06938
G1 X129.018 Y111.163 E.033
G1 X127.624 Y111.873 E.06939
G1 X126.917 Y112.103 E.03298
G1 X125.372 Y112.348 E.06938
G1 X124.628 Y112.348 E.033
G1 X123.083 Y112.103 E.06938
G1 X122.376 Y111.873 E.03298
G1 X121.984 Y111.673 E.01952
; printing object MarkisePropfen.stl id:0 copy 0
;WIPE_START
G1 F8640
G1 X120.982 Y111.163 E-.25961
G1 X120.38 Y110.726 E-.17177
G1 X119.274 Y109.62 E-.36116
G1 X119.255 Y109.594 E-.00746
;WIPE_END
G1 Z.9 F720
G1 X127.473 Y101.6 F10800
G1 Z.5 F720
G1 E.8 F2100
M204 S800
;TYPE:Perimeter
;WIDTH:0.5
G1 F1800
G1 X128.401 Y102.528 E.07131
G1 X128.999 Y103.701 E.07154
G1 X129.205 Y105 E.07146
G1 X128.999 Y106.299 E.07146
G1 X128.401 Y107.472 E.07154
G1 X127.472 Y108.401 E.07138
G1 X126.299 Y108.999 E.07154
G1 X125 Y109.205 E.07146
G1 X123.701 Y108.999 E.07146
G1 X122.528 Y108.401 E.07154
G1 X121.599 Y107.472 E.07138
G1 X121.001 Y106.299 E.07154
G1 X120.795 Y105 E.07146
G1 X121.001 Y103.701 E.07146
G1 X121.599 Y102.528 E.07154
G1 X122.528 Y101.599 E.07138
G1 X123.701 Y101.001 E.07154
G1 X125 Y100.795 E.07146
