; generated by PrusaSlicer 2.7.2+win64 on 2024-05-03 at 10:53:49 UTC


;
;
; 

; external perimeters extrusion width = 0.60mm
; perimeters extrusion width = 0.50mm
; infill extrusion width = 0.50mm
; solid infill extrusion width = 0.50mm
; top infill extrusion width = 0.45mm
; first layer extrusion width = 0.42mm

M73 P0 R23
M73 Q0 S23
M201 X1000 Y1000 Z200 E5000 ; sets maximum accelerations, mm/sec^2
M203 X200 Y200 Z12 E120 ; sets maximum feedrates, mm / sec
M204 S1250 T1250 ; sets acceleration (S) and retract acceleration (R), mm/sec^2
M205 X8.00 Y8.00 Z0.40 E4.50 ; sets the jerk limits, mm/sec
M205 S0 T0 ; sets the minimum extruding and travel feed rate, mm/sec

; printing object MarkisePropfen.stl id:0 copy 0
; stop printing object MarkisePropfen.stl id:0 copy 0

;TYPE:Custom
M862.3 P "MK3S" ; printer model check
M862.1 P0.4 ; nozzle diameter check
M115 U3.11.0 ; tell printer latest fw version
G90 ; use absolute coordinates
M83 ; extruder relative mode
M104 S215 ; set extruder temp
M140 S60 ; set bed temp
M190 S60 ; wait for bed temp
M109 S215 ; wait for extruder temp
G28 W ; home all without mesh bed level
G80 ; mesh bed leveling

G1 Z0.2 F720
G1 Y-3 F1000 ; go outside print area
G92 E0
G1 X60 E9 F1000 ; intro line
G1 X100 E12.5 F1000 ; intro line

G92 E0
M221 S95

; Don't change E values below. Excessive value can damage the printer.

M907 E538 ; set extruder motor current
G21 ; set units to millimeters
G90 ; use absolute coordinates
M83 ; use relative distances for extrusion
M900 K0.05 ; Filament gcode LA 1.5
M900 K30 ; Filament gcode LA 1.0
M107
;LAYER_CHANGE
;Z:0.2
;HEIGHT:0.2
G1 E-.8 F2100
G1 Z.6 F720
G1 X120.985 Y94.377 F10800
G1 Z.2 F720
G1 E.8 F2100
M204 S800
;TYPE:Skirt/Brim
;WIDTH:0.42
G1 F1200
G1 X121.921 Y93.243 E.0461
G1 X123.5 Y92.746 E.0519
G1 X125.5 Y92.746 E.06271
G1 X126.917 Y93.139 E.04611
G1 X127.909 Y94.164 E.04472
G1 X133.173 Y103.695 E.34139
G1 X133.823 Y105.263 E.05322
G1 X134.01 Y105.959 E.0226
G1 X134.231 Y107.641 E.05319
G1 X134.231 Y108.359 E.02251
G1 X134.01 Y110.041 E.05319
G1 X133.823 Y110.737 E.0226
G1 X133.173 Y112.305 E.05322
G1 X132.814 Y112.927 E.02252
G1 X131.781 Y114.273 E.0532
G1 X131.273 Y114.781 E.02253
G1 X129.927 Y115.814 E.0532
G1 X129.305 Y116.173 E.02252
G1 X127.737 Y116.823 E.05322
G1 X127.041 Y117.01 E.0226
G1 X125.359 Y117.231 E.05319
G1 X124.641 Y117.231 E.02251
G1 X122.959 Y117.01 E.05319
G1 X122.263 Y116.823 E.0226
G1 X120.695 Y116.173 E.05322
G1 X120.073 Y115.814 E.02252
G1 X118.732 Y114.784 E.05302
G1 X118.225 Y114.278 E.02246
G1 X117.188 Y112.929 E.05335
G1 X116.827 Y112.305 E.0226
G1 X116.177 Y110.737 E.05322
G1 X115.99 Y110.041 E.0226
G1 X115.769 Y108.359 E.05319
G1 X115.769 Y107.641 E.02251
G1 X115.99 Y105.959 E.05319
G1 X116.177 Y105.263 E.0226
G1 X120.961 Y94.432 E.37125
M204 S1000
G1 X120.961 Y94.432 F10800
G1 X121.306 Y94.585
M204 S800
G1 F1200
G1 X121.329 Y94.531 E.00184
G1 X122.22 Y93.497 E.0428
G1 X123.5 Y93.123 E.04181
G1 X125.5 Y93.123 E.06271
G1 X126.807 Y93.515 E.04278
G1 X127.579 Y94.347 E.03559
G1 X132.825 Y103.84 E.34007
G1 X133.475 Y105.408 E.05322
G1 X133.636 Y106.008 E.01948
G1 X133.857 Y107.69 E.05319
G1 X133.857 Y108.31 E.01944
G1 X133.636 Y109.992 E.05319
G1 X133.475 Y110.592 E.01948
G1 X132.825 Y112.16 E.05322
G1 X132.515 Y112.697 E.01944
G1 X131.482 Y114.043 E.0532
G1 X131.043 Y114.482 E.01947
G1 X129.697 Y115.515 E.0532
G1 X129.16 Y115.825 E.01944
G1 X127.592 Y116.475 E.05322
G1 X126.992 Y116.636 E.01948
G1 X125.31 Y116.857 E.05319
G1 X124.69 Y116.857 E.01944
G1 X123.008 Y116.636 E.05319
G1 X122.408 Y116.475 E.01948
G1 X120.84 Y115.825 E.05322
G1 X120.303 Y115.515 E.01944
G1 X118.961 Y114.485 E.05304
G1 X118.524 Y114.048 E.01938
G1 X117.487 Y112.699 E.05335
G1 X117.175 Y112.16 E.01953
G1 X116.525 Y110.592 E.05322
G1 X116.364 Y109.992 E.01948
G1 X116.143 Y108.31 E.05319
G1 X116.143 Y107.691 E.01941
G1 X116.364 Y106.008 E.05322
G1 X116.525 Y105.408 E.01948
G1 X121.281 Y94.64 E.36909
M204 S1000
; printing object MarkisePropfen.stl id:0 copy 0
;WIPE_START
G1 F8640
G1 X121.306 Y94.585 E-.01395
G1 X121.329 Y94.531 E-.01355
G1 X122.22 Y93.497 E-.31517
G1 X123.5 Y93.123 E-.30791
M73 Q1 S23
G1 X124.147 Y93.123 E-.14942
;WIPE_END
G1 Z.6 F720
G1 X125.126 Y102.288 F10800
G1 Z.2 F720
M73 P1 R23
G1 E.8 F2100
M204 S800
;TYPE:Perimeter
;WIDTH:0.419999
G1 F1200
G1 X125.205 Y102.321 E.00268
G1 X126.477 Y102.488 E.04022
G1 X127.853 Y103.058 E.0467
G1 X129.035 Y103.965 E.04671
G1 X129.942 Y105.147 E.04671
G1 X130.512 Y106.523 E.0467
G1 X130.706 Y108 E.04671
G1 X130.676 Y108.23 E.00727
G1 X130.512 Y109.477 E.03944
G1 X129.942 Y110.853 E.0467
G1 X129.035 Y112.035 E.04671
G1 X127.853 Y112.942 E.04671
G1 X126.477 Y113.512 E.0467
G1 X125 Y113.706 E.04671
G1 X123.523 Y113.512 E.04671
G1 X122.147 Y112.942 E.0467
G1 X120.965 Y112.035 E.04671
G1 X120.058 Y110.853 E.04671
G1 X119.488 Y109.477 E.0467
G1 X119.294 Y108 E.04671
G1 X119.488 Y106.523 E.04671
G1 X120.058 Y105.147 E.0467
G1 X120.965 Y103.965 E.04671
G1 X122.147 Y103.058 E.04671
G1 X123.374 Y102.55 E.04164
G1 X123.87 Y102.437 E.01595
G1 X124.135 Y102.277 E.00971
;WIDTH:0.450132
G1 X124.302 Y101.893 E.01418
G1 X124.299 Y101.76 E.0045
;WIDTH:0.444381
G1 X124.299 Y96.299 E.1823
G1 X124.701 Y96.299 E.01342
G1 X124.701 Y101.76 E.1823
;WIDTH:0.449924
G1 X124.706 Y101.857 E.00329
G1 X124.935 Y102.209 E.01421
;WIDTH:0.419999
G1 X125.07 Y102.265 E.00458
M204 S1000
G1 X125.254 Y101.947 F10800
M204 S800
;TYPE:External perimeter
G1 F1200
G1 X126.575 Y102.12 E.04177
G1 X128.043 Y102.729 E.04983
G1 X129.304 Y103.696 E.04982
G1 X130.271 Y104.957 E.04982
G1 X130.88 Y106.425 E.04983
G1 X131.086 Y108 E.0498
G1 X131.05 Y108.279 E.00882
G1 X130.88 Y109.575 E.04098
G1 X130.271 Y111.043 E.04983
G1 X129.304 Y112.304 E.04982
G1 X128.043 Y113.271 E.04982
G1 X126.575 Y113.88 E.04983
G1 X125 Y114.086 E.0498
G1 X123.425 Y113.88 E.0498
G1 X121.957 Y113.271 E.04983
G1 X120.696 Y112.304 E.04982
G1 X119.729 Y111.043 E.04982
G1 X119.12 Y109.575 E.04983
G1 X118.914 Y108 E.0498
G1 X119.12 Y106.425 E.0498
G1 X119.729 Y104.957 E.04983
G1 X120.696 Y103.696 E.04982
G1 X121.957 Y102.729 E.04982
G1 X123.23 Y102.201 E.04321
G1 X123.816 Y102.055 E.01894
G1 X123.91 Y101.892 E.0059
G1 X123.91 Y95.91 E.18756
G1 X125.09 Y95.91 E.037
G1 X125.09 Y101.76 E.18342
G1 X125.164 Y101.91 E.00524
G1 X125.199 Y101.924 E.00118
M204 S1000
;WIPE_START
G1 F8640
G1 X125.254 Y101.947 E-.01377
G1 X126.575 Y102.12 E-.30763
G1 X128.043 Y102.729 E-.36698
G1 X128.426 Y103.023 E-.11162
;WIPE_END
G1 Z.6 F720
G1 X123.666 Y105.158 F10800
G1 Z.2 F720
G1 E.8 F2100
M204 S800
;TYPE:Perimeter
G1 F1200
G1 X124.21 Y104.854 E.01954
G1 X124.839 Y104.726 E.02013
G1 X125.089 Y104.714 E.00785
G1 X125.622 Y104.799 E.01692
G1 X126.271 Y105.098 E.0224
G1 X126.797 Y105.585 E.02248
G1 X127.146 Y106.21 E.02244
G1 X127.286 Y106.911 E.02241
G1 X127.201 Y107.622 E.02245
G1 X126.977 Y108.123 E.01721
G1 X126.782 Y108.431 E.01143
G1 X126.415 Y108.797 E.01625
G1 X125.793 Y109.145 E.02235
G1 X125.088 Y109.285 E.02254
G1 X124.437 Y109.21 E.02055
G1 X124.207 Y109.145 E.00749
G1 X123.729 Y108.902 E.01681
G1 X123.218 Y108.431 E.02179
G1 X123.023 Y108.123 E.01143
G1 X122.804 Y107.646 E.01646
G1 X122.715 Y107.088 E.01772
G1 X122.799 Y106.379 E.02239
G1 X123.098 Y105.729 E.02243
G1 X123.585 Y105.203 E.02248
G1 X123.613 Y105.187 E.00101
M204 S1000
G1 X123.613 Y105.187 F10800
G1 X123.852 Y105.469
M204 S800
;TYPE:External perimeter
G1 F1200
G1 X124.381 Y105.19 E.01875
G1 X125.03 Y105.087 E.0206
G1 X125.563 Y105.172 E.01692
G1 X126.1 Y105.434 E.01873
G1 X126.531 Y105.852 E.01883
G1 X126.81 Y106.381 E.01875
G1 X126.913 Y106.97 E.01875
G1 X126.828 Y107.563 E.01878
G1 X126.566 Y108.1 E.01873
G1 X126.148 Y108.531 E.01883
G1 X125.622 Y108.809 E.01865
G1 X125.029 Y108.912 E.01887
G1 X124.495 Y108.838 E.0169
G1 X123.9 Y108.566 E.02051
G1 X123.485 Y108.164 E.01812
G1 X123.19 Y107.619 E.01943
G1 X123.088 Y107.029 E.01877
G1 X123.171 Y106.438 E.01871
G1 X123.434 Y105.9 E.01878
G1 X123.81 Y105.512 E.01694
M204 S1000
;WIPE_START
G1 F8640
G1 X123.852 Y105.469 E-.01388
G1 X124.381 Y105.19 E-.13809
G1 X125.03 Y105.087 E-.15173
G1 X125.563 Y105.172 E-.12463
G1 X126.1 Y105.434 E-.13797
G1 X126.531 Y105.852 E-.13863
G1 X126.723 Y106.216 E-.09507
;WIPE_END
G1 Z.6 F720
G1 X127.893 Y103.232 F10800
G1 Z.2 F720
G1 E.8 F2100
M204 S800
;TYPE:Solid infill
;WIDTH:0.42987
G1 F1200
G1 X128.849 Y104.187 E.04348
G1 X129.695 Y105.29 E.04473
G1 X129.901 Y105.787 E.01731
G1 X127.213 Y103.099 E.12231
G1 X126.403 Y102.763 E.02822
G1 X126.319 Y102.752 E.00273
G1 X130.248 Y106.681 E.17878
G1 X130.33 Y107.311 E.02044
G1 X125.689 Y102.67 E.21118
G1 X125.043 Y102.571 E.02103
G1 X130.413 Y107.941 E.24435
G1 X130.421 Y108 E.00192
G1 X130.363 Y108.438 E.01422
G1 X124.362 Y102.437 E.27306
G1 X124.148 Y102.626 E.00919
G1 X124.046 Y102.668 E.00355
G1 X130.3 Y108.922 E.28457
G1 X130.236 Y109.405 E.01568
G1 X127.534 Y106.704 E.12292
G1 X127.577 Y106.983 E.00908
G1 X127.535 Y107.252 E.00876
G1 X130.075 Y109.792 E.11558
G1 X129.915 Y110.179 E.01347
G1 X127.462 Y107.726 E.11162
G1 X127.453 Y107.788 E.00202
G1 X127.296 Y108.108 E.01147
G1 X129.755 Y110.566 E.11187
G1 X129.695 Y110.71 E.00502
G1 X129.546 Y110.904 E.00787
G1 X127.107 Y108.465 E.11098
G1 X127.002 Y108.61 E.00576
G1 X126.851 Y108.757 E.00678
G1 X129.308 Y111.214 E.1118
G1 X129.071 Y111.523 E.01253
G1 X126.573 Y109.026 E.11364
G1 X126.509 Y109.089 E.00289
G1 X126.233 Y109.233 E.01002
G1 X128.833 Y111.833 E.11831
G1 X128.523 Y112.071 E.01257
G1 X125.868 Y109.416 E.12081
G1 X125.672 Y109.479 E.00662
G1 X125.421 Y109.515 E.00816
G1 X128.214 Y112.308 E.12709
G1 X127.904 Y112.546 E.01257
G1 X124.723 Y109.364 E.14477
M204 S1000
;WIPE_START
G1 F8640
G1 X127.173 Y111.814 E-.8
;WIPE_END
G1 Z.6 F720
G1 X125.506 Y104.675 F10800
G1 Z.2 F720
G1 E.8 F2100
M204 S800
G1 F1200
G1 X123.595 Y102.764 E.08695
G1 X123.208 Y102.925 E.01349
G1 X124.74 Y104.457 E.06971
G1 X124.273 Y104.537 E.01524
G1 X122.821 Y103.085 E.06607
G1 X122.434 Y103.245 E.01347
G1 X123.892 Y104.704 E.06637
G1 X123.532 Y104.891 E.01305
G1 X122.096 Y103.454 E.06536
G1 X121.786 Y103.692 E.01257
G1 X123.243 Y105.148 E.06627
G1 X122.969 Y105.422 E.01247
G1 X121.477 Y103.929 E.06791
G1 X121.167 Y104.167 E.01257
G1 X122.766 Y105.766 E.07276
G1 X122.588 Y106.136 E.01321
G1 X120.929 Y104.477 E.07549
G1 X120.692 Y104.786 E.01253
G1 X122.484 Y106.578 E.08154
G1 X122.435 Y106.872 E.00959
M73 Q2 S23
G1 X122.431 Y107.073 E.00647
G1 X120.454 Y105.096 E.08996
G1 X120.305 Y105.29 E.00787
G1 X120.245 Y105.434 E.00502
G1 X122.532 Y107.721 E.10406
G1 X122.599 Y107.912 E.00651
M73 P2 R23
G1 X122.887 Y108.471 E.02023
G1 X122.999 Y108.611 E.00577
G1 X123.39 Y109.002 E.01779
G1 X123.587 Y109.147 E.00787
G1 X124.144 Y109.427 E.02006
G1 X124.275 Y109.464 E.00438
G1 X127.566 Y112.755 E.14975
G1 X127.179 Y112.915 E.01347
G1 X120.085 Y105.821 E.32279
G1 X119.925 Y106.208 E.01347
G1 X126.792 Y113.075 E.31246
G1 X126.405 Y113.236 E.01349
G1 X119.764 Y106.595 E.30218
G1 X119.7 Y107.078 E.01568
G1 X125.922 Y113.3 E.28312
G1 X125.438 Y113.363 E.0157
G1 X119.637 Y107.562 E.26396
G1 X119.579 Y108 E.01422
G1 X119.587 Y108.059 E.00192
G1 X124.941 Y113.413 E.24362
G1 X124.311 Y113.33 E.02045
G1 X119.67 Y108.689 E.21118
G1 X119.752 Y109.319 E.02044
G1 X123.681 Y113.248 E.17878
G1 X123.597 Y113.237 E.00273
G1 X122.786 Y112.9 E.02826
G1 X120.1 Y110.214 E.12222
G1 X120.305 Y110.71 E.01727
G1 X121.152 Y111.813 E.04475
G1 X122.107 Y112.768 E.04345
M204 S1000
; stop printing object MarkisePropfen.stl id:0 copy 0
M106 S84.15
;LAYER_CHANGE
;Z:0.5
;HEIGHT:0.3
;BEFORE_LAYER_CHANGE
G92 E0.0
;0.5


;WIPE_START
G1 F8640
G1 X121.152 Y111.813 E-.31185
G1 X120.305 Y110.71 E-.32111
G1 X120.1 Y110.214 E-.12392
G1 X120.232 Y110.346 E-.04312
;WIPE_END
G1 Z.5 F720
;AFTER_LAYER_CHANGE
;0.5
M104 S210 ; set temperature
G1 Z.9
G1 X116.633 Y111.838 F10800
G1 Z.5 F720
G1 E.8 F2100
;TYPE:Skirt/Brim
;WIDTH:0.42
G1 F2056
G1 X116.177 Y110.737 E.05286
G1 X115.99 Y110.041 E.03197
G1 X115.769 Y108.359 E.07525
G1 X115.769 Y107.641 E.03185
G1 X115.99 Y105.959 E.07525
G1 X116.177 Y105.263 E.03197
G1 X120.985 Y94.377 E.52784
G1 X121.921 Y93.243 E.06522
G1 X123.5 Y92.746 E.07342
G1 X125.5 Y92.746 E.08871
G1 X126.917 Y93.139 E.06522
G1 X127.909 Y94.164 E.06327
G1 X133.173 Y103.695 E.48294
G1 X133.823 Y105.263 E.07529
G1 X134.01 Y105.959 E.03197
G1 X134.231 Y107.641 E.07525
G1 X134.231 Y108.359 E.03185
G1 X134.01 Y110.041 E.07525
G1 X133.823 Y110.737 E.03197
G1 X133.173 Y112.305 E.07529
G1 X132.814 Y112.927 E.03185
G1 X131.781 Y114.273 E.07526
G1 X131.273 Y114.781 E.03187
G1 X129.927 Y115.814 E.07526
G1 X129.305 Y116.173 E.03185
G1 X127.737 Y116.823 E.07529
G1 X127.041 Y117.01 E.03197
G1 X125.359 Y117.231 E.07525
G1 X124.641 Y117.231 E.03185
G1 X122.959 Y117.01 E.07525
G1 X122.263 Y116.823 E.03197
G1 X120.695 Y116.173 E.07529
G1 X120.073 Y115.814 E.03185
G1 X118.732 Y114.784 E.075
G1 X118.225 Y114.278 E.03177
G1 X117.188 Y112.929 E.07547
G1 X116.827 Y112.305 E.03198
G1 X116.656 Y111.893 E.01979
G1 X116.656 Y111.893 F10800
G1 X117.005 Y111.749
G1 F2056
G1 X116.525 Y110.592 E.05556
G1 X116.364 Y109.992 E.02755
G1 X116.143 Y108.31 E.07525
G1 X116.143 Y107.691 E.02746
G1 X116.364 Y106.008 E.07529
G1 X116.525 Y105.408 E.02755
G1 X121.329 Y94.531 E.52741
G1 X122.22 Y93.497 E.06054
G1 X123.5 Y93.123 E.05915
G1 X125.5 Y93.123 E.08871
G1 X126.807 Y93.515 E.06052
G1 X127.579 Y94.347 E.05034
G1 X132.825 Y103.84 E.48108
G1 X133.475 Y105.408 E.07529
G1 X133.636 Y106.008 E.02755
G1 X133.857 Y107.69 E.07525
G1 X133.857 Y108.31 E.0275
G1 X133.636 Y109.992 E.07525
G1 X133.475 Y110.592 E.02755
G1 X132.825 Y112.16 E.07529
G1 X132.515 Y112.697 E.0275
G1 X131.482 Y114.043 E.07526
G1 X131.043 Y114.482 E.02754
G1 X129.697 Y115.515 E.07526
G1 X129.16 Y115.825 E.0275
G1 X127.592 Y116.475 E.07529
G1 X126.992 Y116.636 E.02755
G1 X125.31 Y116.857 E.07525
G1 X124.69 Y116.857 E.0275
G1 X123.008 Y116.636 E.07525
G1 X122.408 Y116.475 E.02755
G1 X120.84 Y115.825 E.07529
G1 X120.303 Y115.515 E.0275
G1 X118.961 Y114.485 E.07504
G1 X118.524 Y114.048 E.02741
G1 X117.487 Y112.699 E.07547
G1 X117.175 Y112.16 E.02762
G1 X117.028 Y111.804 E.01708
; printing object MarkisePropfen.stl id:0 copy 0
;WIPE_START
G1 F8640
G1 X117.005 Y111.749 E-.01377
G1 X116.525 Y110.592 E-.28923
G1 X116.364 Y109.992 E-.14344
G1 X116.165 Y108.474 E-.35356
;WIPE_END
G1 Z.9 F720
G1 X125.3 Y102.321 F10800
G1 Z.5 F720
G1 E.8 F2100
M204 S800
;TYPE:Perimeter
;WIDTH:0.5
G1 F2056
G1 X125.37 Y102.341 E.00396
G1 X126.477 Y102.486 E.06066
G1 X127.854 Y103.057 E.08099
G1 X129.036 Y103.964 E.08095
G1 X129.943 Y105.146 E.08095
G1 X130.514 Y106.523 E.08099
G1 X130.708 Y108 E.08094
G1 X130.677 Y108.23 E.01261
G1 X130.514 Y109.477 E.06833
G1 X129.943 Y110.854 E.08099
G1 X129.036 Y112.036 E.08095
G1 X127.854 Y112.943 E.08095
G1 X126.477 Y113.514 E.08099
G1 X125 Y113.708 E.08094
G1 X123.523 Y113.514 E.08094
G1 X122.146 Y112.943 E.08099
G1 X120.964 Y112.036 E.08095
G1 X120.057 Y110.854 E.08095
G1 X119.486 Y109.477 E.08099
G1 X119.292 Y108 E.08094
G1 X119.486 Y106.523 E.08094
G1 X120.057 Y105.146 E.08099
G1 X120.964 Y103.964 E.08095
G1 X122.146 Y103.057 E.08095
G1 X123.299 Y102.579 E.06782
G1 X123.792 Y102.433 E.02794
G1 X124.109 Y102.21 E.02106
;WIDTH:0.502504
G1 X124.287 Y101.74 E.02746
G1 X124.284 Y101.594 E.00798
;WIDTH:0.496572
G1 X124.284 Y96.284 E.28624
G1 X124.716 Y96.284 E.02329
G1 X124.716 Y101.594 E.28624
;WIDTH:0.502504
G1 X124.722 Y101.71 E.00635
G1 X124.961 Y102.152 E.02746
;WIDTH:0.5
G1 X125.156 Y102.28 E.01267
G1 X125.243 Y102.305 E.00492
M73 P2 R22
M204 S1000
G1 X125.243 Y102.305 F10800
G1 X125.433 Y101.859
M204 S800
;TYPE:External perimeter
;WIDTH:0.6
G1 F2056
G1 X126.604 Y102.013 E.0789
G1 X128.099 Y102.633 E.10812
G1 X129.382 Y103.618 E.10806
G1 X130.367 Y104.901 E.10806
G1 X130.987 Y106.396 E.10812
G1 X131.197 Y108 E.10807
G1 X131.159 Y108.293 E.01974
G1 X130.987 Y109.604 E.08833
G1 X130.367 Y111.099 E.10812
G1 X129.382 Y112.382 E.10806
G1 X128.099 Y113.367 E.10806
G1 X126.604 Y113.987 E.10812
G1 X125 Y114.197 E.10807
G1 X123.396 Y113.987 E.10807
