; generated by PrusaSlicer 2.7.2+win64 on 2024-05-06 at 08:15:44 UTC


;
;
; 

; external perimeters extrusion width = 0.60mm
; perimeters extrusion width = 0.50mm
; infill extrusion width = 0.50mm
; solid infill extrusion width = 0.50mm
; top infill extrusion width = 0.45mm
; first layer extrusion width = 0.42mm

M73 P0 R21
M73 Q0 S22
M201 X1000 Y1000 Z200 E5000 ; sets maximum accelerations, mm/sec^2
M203 X200 Y200 Z12 E120 ; sets maximum feedrates, mm / sec
M204 S1250 T1250 ; sets acceleration (S) and retract acceleration (R), mm/sec^2
M205 X8.00 Y8.00 Z0.40 E4.50 ; sets the jerk limits, mm/sec
M205 S0 T0 ; sets the minimum extruding and travel feed rate, mm/sec

; printing object MarkisePropfen.stl id:0 copy 0
; stop printing object MarkisePropfen.stl id:0 copy 0

;TYPE:Custom
M862.3 P "MK3S" ; printer model check
M862.1 P0.4 ; nozzle diameter check
M115 U3.11.0 ; tell printer latest fw version
G90 ; use absolute coordinates
M83 ; extruder relative mode
M104 S215 ; set extruder temp
M140 S60 ; set bed temp
M190 S60 ; wait for bed temp
M109 S215 ; wait for extruder temp
G28 W ; home all without mesh bed level
G80 ; mesh bed leveling

G1 Z0.2 F720
G1 Y-3 F1000 ; go outside print area
G92 E0
G1 X60 E9 F1000 ; intro line
G1 X100 E12.5 F1000 ; intro line
M73 Q0 S21

G92 E0
M221 S95

; Don't change E values below. Excessive value can damage the printer.

M907 E538 ; set extruder motor current
G21 ; set units to millimeters
G90 ; use absolute coordinates
M83 ; use relative distances for extrusion
M900 K0.05 ; Filament gcode LA 1.5
M900 K30 ; Filament gcode LA 1.0
M107
;LAYER_CHANGE
;Z:0.2
;HEIGHT:0.2
G1 E-.8 F2100
G1 Z.6 F720
G1 X120.985 Y94.378 F10800
G1 Z.2 F720
G1 E.8 F2100
M204 S800
;TYPE:Skirt/Brim
;WIDTH:0.42
G1 F1200
G1 X121.92 Y93.244 E.04608
G1 X123.5 Y92.746 E.05194
G1 X125.5 Y92.746 E.06271
G1 X126.917 Y93.139 E.04611
G1 X127.909 Y94.165 E.04475
G1 X133.169 Y103.697 E.34135
G1 X133.819 Y105.264 E.05319
G1 X134.005 Y105.96 E.02259
G1 X134.226 Y107.641 E.05316
G1 X134.226 Y108.359 E.02251
G1 X134.006 Y110.04 E.05316
G1 X133.819 Y110.736 E.0226
G1 X133.169 Y112.303 E.05319
G1 X132.81 Y112.925 E.02252
G1 X131.778 Y114.27 E.05316
G1 X131.27 Y114.778 E.02253
G1 X129.925 Y115.81 E.05316
G1 X129.303 Y116.169 E.02252
G1 X127.736 Y116.819 E.05319
G1 X127.04 Y117.006 E.0226
G1 X125.359 Y117.226 E.05316
G1 X124.641 Y117.226 E.02251
G1 X122.96 Y117.006 E.05316
G1 X122.264 Y116.819 E.0226
G1 X120.697 Y116.169 E.05319
G1 X120.075 Y115.81 E.02252
G1 X118.73 Y114.778 E.05316
G1 X118.222 Y114.27 E.02253
G1 X117.19 Y112.925 E.05316
G1 X116.831 Y112.303 E.02252
G1 X116.181 Y110.736 E.05319
G1 X115.994 Y110.04 E.0226
G1 X115.774 Y108.359 E.05316
G1 X115.774 Y107.641 E.02251
G1 X115.994 Y105.96 E.05316
G1 X116.181 Y105.264 E.0226
G1 X120.96 Y94.433 E.37119
M204 S1000
G1 X120.96 Y94.433 F10800
G1 X121.305 Y94.586
M204 S800
G1 F1200
G1 X121.329 Y94.532 E.00185
G1 X122.219 Y93.498 E.04278
G1 X123.5 Y93.123 E.04185
G1 X125.5 Y93.123 E.06271
G1 X126.807 Y93.515 E.04278
G1 X127.579 Y94.348 E.03561
G1 X132.821 Y103.842 E.34004
G1 X133.471 Y105.409 E.05319
G1 X133.632 Y106.009 E.01948
G1 X133.852 Y107.69 E.05316
G1 X133.852 Y108.31 E.01944
G1 X133.632 Y109.991 E.05316
G1 X133.471 Y110.591 E.01948
G1 X132.821 Y112.158 E.05319
G1 X132.511 Y112.695 E.01944
G1 X131.479 Y114.04 E.05316
G1 X131.04 Y114.479 E.01947
G1 X129.695 Y115.511 E.05316
G1 X129.158 Y115.821 E.01944
G1 X127.591 Y116.471 E.05319
G1 X126.991 Y116.632 E.01948
G1 X125.31 Y116.852 E.05316
G1 X124.69 Y116.852 E.01944
G1 X123.009 Y116.632 E.05316
G1 X122.409 Y116.471 E.01948
G1 X120.842 Y115.821 E.05319
G1 X120.305 Y115.511 E.01944
G1 X118.96 Y114.479 E.05316
G1 X118.521 Y114.04 E.01947
G1 X117.489 Y112.695 E.05316
G1 X117.179 Y112.158 E.01944
G1 X116.529 Y110.591 E.05319
M73 Q1 S21
G1 X116.368 Y109.991 E.01948
G1 X116.148 Y108.31 E.05316
G1 X116.148 Y107.69 E.01944
G1 X116.368 Y106.009 E.05316
G1 X116.529 Y105.409 E.01948
M73 P1 R21
G1 X121.281 Y94.64 E.36907
M204 S1000
; printing object MarkisePropfen.stl id:0 copy 0
;WIPE_START
G1 F8640
G1 X121.305 Y94.586 E-.01364
G1 X121.329 Y94.532 E-.01364
G1 X122.219 Y93.498 E-.31502
G1 X123.5 Y93.123 E-.3082
G1 X124.147 Y93.123 E-.1495
;WIPE_END
G1 Z.6 F720
G1 X124.022 Y102.35 F10800
G1 Z.2 F720
G1 E.8 F2100
M204 S800
;TYPE:Perimeter
;WIDTH:0.419999
G1 F1200
G1 X124.136 Y102.281 E.00418
;WIDTH:0.450132
G1 X124.302 Y101.897 E.01417
G1 X124.299 Y101.764 E.0045
;WIDTH:0.444381
G1 X124.299 Y96.299 E.18243
G1 X124.701 Y96.299 E.01342
G1 X124.701 Y101.764 E.18243
;WIDTH:0.449924
G1 X124.706 Y101.862 E.00332
G1 X124.935 Y102.213 E.01418
;WIDTH:0.419999
G1 X125.205 Y102.325 E.00917
G1 X126.475 Y102.492 E.04016
G1 X127.851 Y103.062 E.0467
G1 X129.032 Y103.968 E.04667
G1 X129.938 Y105.149 E.04667
G1 X130.508 Y106.525 E.0467
G1 X130.702 Y108 E.04665
G1 X130.672 Y108.23 E.00727
G1 X130.508 Y109.475 E.03937
G1 X129.938 Y110.851 E.0467
G1 X129.032 Y112.032 E.04667
G1 X127.851 Y112.938 E.04667
G1 X126.475 Y113.508 E.0467
G1 X125 Y113.702 E.04665
G1 X123.525 Y113.508 E.04665
G1 X122.149 Y112.938 E.0467
G1 X120.968 Y112.032 E.04667
G1 X120.062 Y110.851 E.04667
G1 X119.492 Y109.475 E.0467
G1 X119.298 Y108 E.04665
G1 X119.492 Y106.525 E.04665
G1 X120.062 Y105.149 E.0467
G1 X120.968 Y103.968 E.04667
G1 X122.149 Y103.062 E.04667
G1 X123.376 Y102.554 E.04164
G1 X123.87 Y102.441 E.01589
G1 X123.97 Y102.381 E.00366
M204 S1000
G1 X123.97 Y102.381 F10800
G1 X123.816 Y102.059
M204 S800
;TYPE:External perimeter
G1 F1200
G1 X123.91 Y101.896 E.0059
G1 X123.91 Y95.91 E.18769
G1 X125.09 Y95.91 E.037
G1 X125.09 Y101.764 E.18355
G1 X125.164 Y101.914 E.00524
G1 X125.254 Y101.951 E.00305
G1 X126.574 Y102.125 E.04175
G1 X128.041 Y102.733 E.04979
G1 X129.301 Y103.699 E.04978
G1 X130.267 Y104.959 E.04978
G1 X130.875 Y106.426 E.04979
G1 X131.082 Y108 E.04978
G1 X131.046 Y108.279 E.00882
G1 X130.875 Y109.574 E.04096
G1 X130.267 Y111.041 E.04979
G1 X129.301 Y112.301 E.04978
G1 X128.041 Y113.267 E.04978
G1 X126.574 Y113.875 E.04979
G1 X125 Y114.082 E.04978
G1 X123.426 Y113.875 E.04978
G1 X121.959 Y113.267 E.04979
G1 X120.699 Y112.301 E.04978
G1 X119.733 Y111.041 E.04978
G1 X119.125 Y109.574 E.04979
G1 X118.918 Y108 E.04978
G1 X119.125 Y106.426 E.04978
G1 X119.733 Y104.959 E.04979
G1 X120.699 Y103.699 E.04978
G1 X121.959 Y102.733 E.04978
G1 X123.231 Y102.205 E.04318
G1 X123.758 Y102.073 E.01703
M204 S1000
;WIPE_START
G1 F8640
G1 X123.816 Y102.059 E-.01378
G1 X123.91 Y101.896 E-.04345
G1 X123.91 Y98.679 E-.74277
;WIPE_END
G1 Z.6 F720
G1 X123.666 Y105.158 F10800
G1 Z.2 F720
G1 E.8 F2100
M204 S800
;TYPE:Perimeter
G1 F1200
G1 X124.21 Y104.854 E.01954
G1 X124.838 Y104.726 E.0201
G1 X125.089 Y104.714 E.00788
G1 X125.622 Y104.799 E.01692
G1 X126.271 Y105.098 E.0224
G1 X126.797 Y105.585 E.02248
G1 X127.146 Y106.21 E.02244
G1 X127.286 Y106.911 E.02241
G1 X127.201 Y107.622 E.02245
G1 X126.977 Y108.124 E.01724
G1 X126.781 Y108.431 E.01142
G1 X126.415 Y108.797 E.01623
G1 X125.793 Y109.145 E.02235
G1 X125.088 Y109.285 E.02254
G1 X124.437 Y109.21 E.02055
G1 X124.207 Y109.145 E.00749
G1 X123.729 Y108.902 E.01681
G1 X123.219 Y108.431 E.02177
G1 X123.023 Y108.124 E.01142
G1 X122.804 Y107.646 E.01649
G1 X122.715 Y107.088 E.01772
G1 X122.799 Y106.379 E.02239
G1 X123.098 Y105.729 E.02243
G1 X123.585 Y105.203 E.02248
G1 X123.613 Y105.187 E.00101
M204 S1000
;WIPE_START
G1 F8640
G1 X123.666 Y105.158 E-.01395
G1 X124.21 Y104.854 E-.14389
G1 X124.838 Y104.726 E-.14799
G1 X125.089 Y104.714 E-.05802
G1 X125.622 Y104.799 E-.12463
G1 X126.271 Y105.098 E-.16499
G1 X126.737 Y105.529 E-.14653
;WIPE_END
G1 Z.6 F720
G1 X123.9 Y108.566 F10800
G1 Z.2 F720
G1 E.8 F2100
M204 S800
;TYPE:External perimeter
G1 F1200
G1 X123.485 Y108.164 E.01812
G1 X123.19 Y107.619 E.01943
G1 X123.088 Y107.029 E.01877
G1 X123.171 Y106.438 E.01871
G1 X123.434 Y105.9 E.01878
G1 X123.852 Y105.469 E.01883
G1 X124.381 Y105.19 E.01875
G1 X125.03 Y105.087 E.0206
G1 X125.563 Y105.172 E.01692
G1 X126.1 Y105.434 E.01873
G1 X126.531 Y105.852 E.01883
G1 X126.81 Y106.381 E.01875
G1 X126.913 Y106.97 E.01875
G1 X126.828 Y107.563 E.01878
G1 X126.566 Y108.1 E.01873
G1 X126.148 Y108.531 E.01883
G1 X125.622 Y108.809 E.01865
G1 X125.029 Y108.912 E.01887
G1 X124.495 Y108.838 E.0169
G1 X123.954 Y108.59 E.01866
M204 S1000
;WIPE_START
G1 F8640
G1 X123.9 Y108.566 E-.01364
G1 X123.485 Y108.164 E-.13341
G1 X123.19 Y107.619 E-.14309
G1 X123.088 Y107.029 E-.13825
G1 X123.171 Y106.438 E-.1378
G1 X123.434 Y105.9 E-.13827
G1 X123.722 Y105.603 E-.09554
;WIPE_END
G1 Z.6 F720
G1 X127.891 Y103.235 F10800
G1 Z.2 F720
G1 E.8 F2100
M204 S800
;TYPE:Solid infill
;WIDTH:0.429571
G1 F1200
G1 X128.845 Y104.19 E.0434
G1 X129.691 Y105.292 E.04467
G1 X129.896 Y105.788 E.01725
G1 X127.212 Y103.104 E.12203
G1 X126.402 Y102.768 E.02819
G1 X126.318 Y102.757 E.00272
G1 X130.243 Y106.682 E.17846
G1 X130.326 Y107.311 E.0204
G1 X125.689 Y102.674 E.21083
G1 X125.043 Y102.575 E.02101
G1 X130.409 Y107.941 E.24398
G1 X130.417 Y108 E.00191
G1 X130.359 Y108.438 E.0142
G1 X124.363 Y102.441 E.27264
G1 X124.148 Y102.63 E.0092
G1 X124.047 Y102.672 E.00352
G1 X130.296 Y108.921 E.28412
G1 X130.231 Y109.404 E.01567
G1 X127.535 Y106.707 E.1226
G1 X127.577 Y106.983 E.00898
G1 X127.535 Y107.254 E.00882
G1 X130.071 Y109.79 E.1153
G1 X129.911 Y110.177 E.01346
G1 X127.462 Y107.728 E.11135
G1 X127.453 Y107.788 E.00195
G1 X127.296 Y108.109 E.01149
G1 X129.751 Y110.564 E.11162
G1 X129.691 Y110.708 E.00502
G1 X129.542 Y110.902 E.00786
G1 X127.107 Y108.466 E.11074
G1 X127.002 Y108.61 E.00573
G1 X126.851 Y108.757 E.00678
G1 X129.305 Y111.211 E.11158
G1 X129.067 Y111.521 E.01257
G1 X126.573 Y109.026 E.11342
G1 X126.508 Y109.089 E.00291
G1 X126.233 Y109.233 E.00998
G1 X128.83 Y111.83 E.11808
G1 X128.52 Y112.067 E.01255
G1 X125.869 Y109.416 E.12053
M73 Q2 S21
G1 X125.672 Y109.479 E.00665
G1 X125.422 Y109.515 E.00812
G1 X128.211 Y112.305 E.12683
G1 X127.902 Y112.542 E.01252
M73 P2 R21
G1 X124.724 Y109.365 E.14447
M204 S1000
;WIPE_START
G1 F8640
G1 X127.174 Y111.815 E-.8
;WIPE_END
G1 Z.6 F720
G1 X125.502 Y104.675 F10800
G1 Z.2 F720
G1 E.8 F2100
M204 S800
G1 F1200
G1 X123.596 Y102.769 E.08666
G1 X123.21 Y102.929 E.01343
G1 X124.738 Y104.457 E.06947
G1 X124.271 Y104.537 E.01523
G1 X122.823 Y103.089 E.06584
G1 X122.436 Y103.249 E.01346
G1 X123.891 Y104.704 E.06615
G1 X123.532 Y104.891 E.01301
G1 X122.098 Y103.458 E.06518
G1 X121.789 Y103.695 E.01252
G1 X123.242 Y105.149 E.06609
G1 X122.969 Y105.422 E.01241
G1 X121.479 Y103.933 E.06772
G1 X121.17 Y104.17 E.01252
G1 X122.766 Y105.766 E.07257
G1 X122.588 Y106.135 E.01317
G1 X120.933 Y104.48 E.07525
G1 X120.695 Y104.789 E.01254
G1 X122.484 Y106.578 E.08134
G1 X122.435 Y106.872 E.00958
G1 X122.431 Y107.071 E.0064
G1 X120.458 Y105.098 E.08971
G1 X120.309 Y105.292 E.00786
G1 X120.249 Y105.437 E.00505
G1 X122.531 Y107.718 E.10373
G1 X122.599 Y107.912 E.00661
G1 X122.887 Y108.471 E.02022
G1 X122.999 Y108.611 E.00576
G1 X123.39 Y109.002 E.01778
G1 X123.587 Y109.147 E.00786
G1 X124.144 Y109.427 E.02004
G1 X124.278 Y109.465 E.00448
G1 X127.563 Y112.751 E.14938
G1 X127.177 Y112.911 E.01343
G1 X120.089 Y105.823 E.32227
G1 X119.929 Y106.21 E.01346
G1 X126.79 Y113.071 E.31195
G1 X126.404 Y113.232 E.01345
G1 X119.768 Y106.596 E.30172
G1 X119.704 Y107.079 E.01566
G1 X125.921 Y113.296 E.28267
G1 X125.438 Y113.359 E.01566
G1 X119.641 Y107.562 E.26357
G1 X119.583 Y108 E.0142
G1 X119.591 Y108.059 E.00191
G1 X124.941 Y113.409 E.24325
G1 X124.311 Y113.326 E.02043
G1 X119.674 Y108.689 E.21083
G1 X119.757 Y109.318 E.0204
G1 X123.682 Y113.243 E.17846
G1 X123.598 Y113.232 E.00272
G1 X122.788 Y112.896 E.02819
G1 X120.104 Y110.212 E.12203
G1 X120.309 Y110.708 E.01725
G1 X121.156 Y111.811 E.04471
G1 X122.109 Y112.764 E.04333
M204 S1000
; stop printing object MarkisePropfen.stl id:0 copy 0
M106 S84.15
;LAYER_CHANGE
;Z:0.5
;HEIGHT:0.3
;BEFORE_LAYER_CHANGE
G92 E0.0
;0.5


;WIPE_START
G1 F8640
G1 X121.156 Y111.811 E-.3112
G1 X120.309 Y110.708 E-.32111
G1 X120.104 Y110.212 E-.12392
G1 X120.238 Y110.346 E-.04377
;WIPE_END
G1 Z.5 F720
;AFTER_LAYER_CHANGE
;0.5
M104 S210 ; set temperature
G1 Z.9
G1 X116.638 Y111.838 F10800
G1 Z.5 F720
G1 E.8 F2100
;TYPE:Skirt/Brim
;WIDTH:0.42
G1 F2093
G1 X116.181 Y110.736 E.05292
G1 X115.994 Y110.04 E.03197
G1 X115.774 Y108.359 E.0752
G1 X115.774 Y107.641 E.03185
G1 X115.994 Y105.96 E.0752
G1 X116.181 Y105.264 E.03197
G1 X120.985 Y94.378 E.52777
G1 X121.92 Y93.244 E.06519
G1 X123.5 Y92.746 E.07348
G1 X125.5 Y92.746 E.08871
G1 X126.917 Y93.139 E.06522
G1 X127.909 Y94.165 E.0633
G1 X133.169 Y103.697 E.48289
G1 X133.819 Y105.264 E.07525
G1 X134.005 Y105.96 E.03195
G1 X134.226 Y107.641 E.0752
G1 X134.226 Y108.359 E.03185
G1 X134.006 Y110.04 E.0752
G1 X133.819 Y110.736 E.03197
G1 X133.169 Y112.303 E.07525
G1 X132.81 Y112.925 E.03185
G1 X131.778 Y114.27 E.07519
G1 X131.27 Y114.778 E.03187
G1 X129.925 Y115.81 E.07519
G1 X129.303 Y116.169 E.03185
G1 X127.736 Y116.819 E.07525
G1 X127.04 Y117.006 E.03197
G1 X125.359 Y117.226 E.0752
G1 X124.641 Y117.226 E.03185
G1 X122.96 Y117.006 E.0752
G1 X122.264 Y116.819 E.03197
G1 X120.697 Y116.169 E.07525
G1 X120.075 Y115.81 E.03185
G1 X118.73 Y114.778 E.07519
G1 X118.222 Y114.27 E.03187
G1 X117.19 Y112.925 E.07519
G1 X116.831 Y112.303 E.03185
G1 X116.661 Y111.894 E.01965
G1 X116.661 Y111.894 F10800
G1 X117.009 Y111.749
G1 F2093
G1 X116.529 Y110.591 E.0556
G1 X116.368 Y109.991 E.02755
G1 X116.148 Y108.31 E.0752
G1 X116.148 Y107.69 E.0275
G1 X116.368 Y106.009 E.0752
G1 X116.529 Y105.409 E.02755
G1 X121.329 Y94.532 E.52734
G1 X122.219 Y93.498 E.06051
G1 X123.5 Y93.123 E.0592
G1 X125.5 Y93.123 E.08871
G1 X126.807 Y93.515 E.06052
G1 X127.579 Y94.348 E.05037
G1 X132.821 Y103.842 E.48103
G1 X133.471 Y105.409 E.07525
G1 X133.632 Y106.009 E.02755
G1 X133.852 Y107.69 E.0752
G1 X133.852 Y108.31 E.0275
G1 X133.632 Y109.991 E.0752
G1 X133.471 Y110.591 E.02755
G1 X132.821 Y112.158 E.07525
G1 X132.511 Y112.695 E.0275
G1 X131.479 Y114.04 E.07519
G1 X131.04 Y114.479 E.02754
G1 X129.695 Y115.511 E.07519
G1 X129.158 Y115.821 E.0275
G1 X127.591 Y116.471 E.07525
G1 X126.991 Y116.632 E.02755
G1 X125.31 Y116.852 E.0752
G1 X124.69 Y116.852 E.0275
G1 X123.009 Y116.632 E.0752
G1 X122.409 Y116.471 E.02755
G1 X120.842 Y115.821 E.07525
G1 X120.305 Y115.511 E.0275
G1 X118.96 Y114.479 E.07519
G1 X118.521 Y114.04 E.02754
G1 X117.489 Y112.695 E.07519
G1 X117.179 Y112.158 E.0275
G1 X117.032 Y111.805 E.01696
; printing object MarkisePropfen.stl id:0 copy 0
;WIPE_START
G1 F8640
G1 X117.009 Y111.749 E-.01398
G1 X116.529 Y110.591 E-.28945
G1 X116.368 Y109.991 E-.14344
G1 X116.169 Y108.474 E-.35313
;WIPE_END
G1 Z.9 F720
G1 X123.715 Y102.471 F10800
G1 Z.5 F720
G1 E.8 F2100
M204 S800
;TYPE:Perimeter
;WIDTH:0.5
G1 F2093
G1 X123.793 Y102.447 E.00443
G1 X124.11 Y102.223 E.02109
;WIDTH:0.502504
G1 X124.287 Y101.755 E.02734
G1 X124.284 Y101.609 E.00798
;WIDTH:0.496572
G1 X124.284 Y96.284 E.28705
G1 X124.716 Y96.284 E.02329
G1 X124.716 Y101.609 E.28705
;WIDTH:0.502504
G1 X124.722 Y101.726 E.0064
G1 X124.96 Y102.166 E.02734
;WIDTH:0.5
G1 X125.155 Y102.294 E.01267
G1 X125.37 Y102.356 E.01216
G1 X126.473 Y102.501 E.06044
G1 X127.846 Y103.07 E.08075
G1 X129.025 Y103.975 E.08075
G1 X129.93 Y105.154 E.08075
G1 X130.499 Y106.527 E.08075
G1 X130.692 Y108 E.08072
G1 X130.662 Y108.229 E.01255
G1 X130.499 Y109.473 E.06817
G1 X129.93 Y110.846 E.08075
G1 X129.025 Y112.025 E.08075
G1 X127.846 Y112.93 E.08075
G1 X126.473 Y113.499 E.08075
G1 X125 Y113.692 E.08072
G1 X123.527 Y113.499 E.08072
G1 X122.154 Y112.93 E.08075
G1 X120.975 Y112.025 E.08075
G1 X120.07 Y110.846 E.08075
G1 X119.501 Y109.473 E.08075
M73 Q3 S21
G1 X119.308 Y108 E.08072
G1 X119.501 Y106.527 E.08072
G1 X120.07 Y105.154 E.08075
G1 X120.975 Y103.975 E.08075
G1 X122.154 Y103.07 E.08075
G1 X123.304 Y102.593 E.06764
G1 X123.658 Y102.488 E.02006
M73 P3 R21
M204 S1000
;WIPE_START
G1 F8640
G1 X123.715 Y102.471 E-.01373
G1 X123.793 Y102.447 E-.01884
G1 X124.11 Y102.223 E-.08963
G1 X124.287 Y101.755 E-.11553
G1 X124.284 Y101.609 E-.03372
G1 X124.284 Y99.32 E-.52855
;WIPE_END
G1 Z.9 F720
G1 X125.433 Y101.875 F10800
G1 Z.5 F720
