; generated by PrusaSlicer 2.7.2+win64 on 2024-08-02 at 12:29:27 UTC


;
;
; 

; external perimeters extrusion width = 0.60mm
; perimeters extrusion width = 0.50mm
; infill extrusion width = 0.50mm
; solid infill extrusion width = 0.50mm
; top infill extrusion width = 0.45mm
; first layer extrusion width = 0.42mm

M73 P0 R15
M73 Q0 S15
M201 X1000 Y1000 Z200 E5000 ; sets maximum accelerations, mm/sec^2
M203 X200 Y200 Z12 E120 ; sets maximum feedrates, mm / sec
M204 S1250 T1250 ; sets acceleration (S) and retract acceleration (R), mm/sec^2
M205 X8.00 Y8.00 Z0.40 E4.50 ; sets the jerk limits, mm/sec
M205 S0 T0 ; sets the minimum extruding and travel feed rate, mm/sec

; printing object RasentrimmerRing68.stl id:0 copy 0
; stop printing object RasentrimmerRing68.stl id:0 copy 0

;TYPE:Custom
M862.3 P "MK3S" ; printer model check
M862.1 P0.4 ; nozzle diameter check
M115 U3.11.0 ; tell printer latest fw version
G90 ; use absolute coordinates
M83 ; extruder relative mode
M104 S215 ; set extruder temp
M140 S60 ; set bed temp
M190 S60 ; wait for bed temp
M109 S215 ; wait for extruder temp
G28 W ; home all without mesh bed level
G80 ; mesh bed leveling

G1 Z0.2 F720
G1 Y-3 F1000 ; go outside print area
G92 E0
G1 X60 E9 F1000 ; intro line
G1 X100 E12.5 F1000 ; intro line

G92 E0
M221 S95

; Don't change E values below. Excessive value can damage the printer.

M907 E538 ; set extruder motor current
G21 ; set units to millimeters
G90 ; use absolute coordinates
M83 ; use relative distances for extrusion
M900 K0.05 ; Filament gcode LA 1.5
M900 K30 ; Filament gcode LA 1.0
M107
;LAYER_CHANGE
;Z:0.2
;HEIGHT:0.2
G1 E-.8 F2100
G1 Z.6 F720
G1 X93.67 Y81.155 F10800
G1 Z.2 F720
G1 E.8 F2100
M204 S800
;TYPE:Skirt/Brim
;WIDTH:0.42
G1 F1200
G1 X97.27 Y77.05 E.17119
G1 X100.909 Y73.859 E.15175
G1 X105.179 Y70.981 E.16145
G1 X110.077 Y68.565 E.17124
G1 X114.66 Y67.01 E.15174
G1 X119.707 Y65.986 E.16147
G1 X125.156 Y65.628 E.17122
G1 X130.293 Y65.986 E.16146
G1 X135.04 Y66.93 E.15175
G1 X140.21 Y68.684 E.17118
M73 Q1 S15
G1 X144.551 Y70.825 E.15176
M73 P1 R15
G1 X148.845 Y73.67 E.1615
G1 X152.95 Y77.27 E.17119
G1 X156.33 Y81.155 E.16146
G1 X159.019 Y85.179 E.15175
G1 X161.435 Y90.077 E.17124
G1 X163.07 Y94.96 E.16146
G1 X164.014 Y99.707 E.15175
G1 X164.372 Y105.156 E.17122
G1 X164.014 Y110.293 E.16146
G1 X163.07 Y115.04 E.15175
G1 X161.316 Y120.21 E.17118
G1 X159.175 Y124.551 E.15176
G1 X156.33 Y128.845 E.1615
G1 X152.73 Y132.95 E.17119
G1 X149.091 Y136.141 E.15175
G1 X144.821 Y139.019 E.16145
G1 X139.923 Y141.435 E.17124
G1 X135.04 Y143.07 E.16146
G1 X130.293 Y144.014 E.15175
G1 X124.844 Y144.372 E.17122
G1 X119.707 Y144.014 E.16146
G1 X114.96 Y143.07 E.15175
G1 X109.79 Y141.316 E.17118
G1 X105.449 Y139.175 E.15176
G1 X101.155 Y136.33 E.1615
G1 X97.05 Y132.73 E.17119
G1 X93.67 Y128.845 E.16146
G1 X90.981 Y124.821 E.15175
G1 X88.565 Y119.923 E.17124
G1 X86.93 Y115.04 E.16146
G1 X85.986 Y110.293 E.15175
G1 X85.628 Y104.844 E.17122
G1 X85.986 Y99.707 E.16146
G1 X86.93 Y94.96 E.15175
G1 X88.684 Y89.79 E.17118
G1 X90.825 Y85.449 E.15176
M73 Q2 S15
G1 X93.636 Y81.205 E.15961
M73 P2 R15
M204 S1000
; printing object RasentrimmerRing68.stl id:0 copy 0
;WIPE_START
G1 F8640
G1 X93.67 Y81.155 E-.01396
G1 X95.914 Y78.595 E-.78604
;WIPE_END
G1 Z.6 F720
G1 X96.272 Y82.956 F10800
G1 Z.2 F720
G1 E.8 F2100
M204 S800
;TYPE:Perimeter
;WIDTH:0.419999
G1 F1200
G1 X99.395 Y79.395 E.14851
G1 X102.956 Y76.272 E.14851
G1 X106.894 Y73.64 E.14851
G1 X111.143 Y71.545 E.14854
G1 X115.628 Y70.023 E.1485
G1 X120.274 Y69.099 E.14852
G1 X125 Y68.789 E.1485
G1 X129.726 Y69.099 E.1485
G1 X134.372 Y70.023 E.14852
G1 X138.857 Y71.545 E.1485
G1 X143.106 Y73.64 E.14854
G1 X147.044 Y76.272 E.14851
G1 X150.605 Y79.395 E.14851
G1 X153.728 Y82.956 E.14851
G1 X156.36 Y86.894 E.14851
G1 X158.455 Y91.143 E.14854
G1 X159.977 Y95.628 E.1485
G1 X160.901 Y100.274 E.14852
G1 X161.206 Y105.081 E.15102
G1 X160.901 Y109.726 E.14595
G1 X159.977 Y114.372 E.14852
G1 X158.455 Y118.857 E.1485
G1 X156.36 Y123.106 E.14854
G1 X153.728 Y127.044 E.14851
G1 X150.605 Y130.605 E.14851
G1 X147.044 Y133.728 E.14851
G1 X143.106 Y136.36 E.14851
G1 X138.857 Y138.455 E.14854
G1 X134.461 Y139.947 E.14556
;WIDTH:0.465407
G1 X134.347 Y139.949 E.00401
;WIDTH:0.510814
G1 X134.233 Y139.952 E.00444
;WIDTH:0.556222
G1 X134.12 Y139.955 E.00482
;WIDTH:0.601629
G1 X134.006 Y139.957 E.0053
G1 X132.275 Y140.324 E.0822
;WIDTH:0.557234
G1 X130.544 Y140.691 E.07567
;WIDTH:0.513434
G1 X130.442 Y140.711 E.00407
;WIDTH:0.539703
G1 X129.702 Y140.843 E.03105
G1 X128.54 Y140.936 E.04815
;WIDTH:0.506058
G1 X127.378 Y141.029 E.04489
;WIDTH:0.472413
G1 X126.216 Y141.122 E.04163
;WIDTH:0.438954
G1 X126.121 Y141.128 E.00313
;WIDTH:0.47527
G1 X125.014 Y141.183 E.03985
G1 X123.951 Y141.132 E.03826
;WIDTH:0.441307
G1 X122.916 Y141.081 E.03433
;WIDTH:0.407344
G1 X121.882 Y141.03 E.03137
;WIDTH:0.37338
G1 X121.795 Y141.024 E.0024
;WIDTH:0.416883
G1 X120.286 Y140.903 E.04707
G1 X118.931 Y140.661 E.0428
;WIDTH:0.367507
G1 X117.601 Y140.421 E.03648
;WIDTH:0.318131
G1 X117.522 Y140.406 E.00184
;WIDTH:0.366174
G1 X115.631 Y140.005 E.05196
G1 X115.421 Y139.94 E.00591
;WIDTH:0.405322
G1 X115.366 Y139.896 E.00212
;WIDTH:0.452487
G1 X115.31 Y139.852 E.00243
;WIDTH:0.499652
G1 X115.255 Y139.808 E.00267
;WIDTH:0.546818
G1 X115.199 Y139.765 E.00296
;WIDTH:0.593983
G1 X115.144 Y139.721 E.00323
;WIDTH:0.641148
G1 X115.088 Y139.677 E.00354
G1 X115.159 Y139.671 E.00354
;WIDTH:0.593983
G1 X115.229 Y139.664 E.00322
;WIDTH:0.546818
G1 X115.3 Y139.657 E.00299
;WIDTH:0.499652
G1 X115.37 Y139.651 E.00267
;WIDTH:0.452487
G1 X115.44 Y139.644 E.0024
;WIDTH:0.405322
G1 X115.511 Y139.638 E.00215
;WIDTH:0.366174
G1 X117.583 Y140.138 E.05729
;WIDTH:0.318131
G1 X117.645 Y140.15 E.00145
;WIDTH:0.367507
G1 X118.983 Y140.341 E.03648
;WIDTH:0.416883
G1 X120.321 Y140.531 E.04202
G1 X121.826 Y140.696 E.04708
;WIDTH:0.37338
G1 X121.892 Y140.7 E.00182
;WIDTH:0.407344
G1 X122.928 Y140.717 E.0314
;WIDTH:0.441307
G1 X123.964 Y140.734 E.03432
;WIDTH:0.47527
G1 X125 Y140.751 E.03725
G1 X126.108 Y140.733 E.03984
;WIDTH:0.438954
G1 X126.178 Y140.728 E.00231
;WIDTH:0.472413
G1 X127.337 Y140.601 E.04164
;WIDTH:0.506058
G1 X128.496 Y140.475 E.0449
M73 Q3 S15
;WIDTH:0.539703
G1 X129.655 Y140.348 E.04816
G1 X130.441 Y140.233 E.03281
;WIDTH:0.557234
G1 X132.162 Y139.823 E.07566
;WIDTH:0.601629
G1 X133.883 Y139.412 E.0822
M73 P3 R15
G1 X133.984 Y139.362 E.00524
;WIDTH:0.552066
G1 X134.085 Y139.311 E.00479
;WIDTH:0.502503
G1 X134.185 Y139.26 E.00429
;WIDTH:0.452939
G1 X134.585 Y139.138 E.01426
;WIDTH:0.419999
G1 X138.578 Y137.585 E.13433
G1 X142.353 Y135.553 E.13442
G1 X145.847 Y133.073 E.13434
G1 X149.011 Y130.181 E.1344
G1 X151.796 Y126.922 E.13441
G1 X154.125 Y123.406 E.13223
G1 X156.039 Y119.57 E.13442
G1 X157.467 Y115.529 E.13438
G1 X158.388 Y111.342 E.13442
G1 X158.788 Y107.073 E.13444
G1 X158.66 Y102.788 E.13441
G1 X158.007 Y98.551 E.13442
G1 X156.838 Y94.426 E.13443
G1 X155.172 Y90.476 E.13441
G1 X153.033 Y86.761 E.13441
G1 X150.454 Y83.337 E.1344
G1 X147.474 Y80.256 E.1344
G1 X144.138 Y77.565 E.13439
G1 X140.497 Y75.305 E.13436
G1 X136.606 Y73.508 E.13438
G1 X132.524 Y72.205 E.13435
G1 X128.244 Y71.404 E.13653
G1 X123.965 Y71.145 E.13441
G1 X119.689 Y71.413 E.13433
G1 X115.476 Y72.205 E.13441
G1 X111.394 Y73.508 E.13435
G1 X107.503 Y75.305 E.13438
G1 X103.862 Y77.565 E.13436
G1 X100.526 Y80.256 E.13439
G1 X97.546 Y83.337 E.1344
G1 X94.967 Y86.761 E.1344
G1 X92.828 Y90.476 E.13441
G1 X91.185 Y94.36 E.13223
G1 X90.777 Y95.778 E.04626
;WIDTH:0.465116
G1 X90.728 Y95.868 E.0036
;WIDTH:0.510232
G1 X90.679 Y95.958 E.00398
;WIDTH:0.555348
G1 X90.63 Y96.048 E.00437
;WIDTH:0.600464
G1 X90.581 Y96.138 E.00475
G1 X90.275 Y97.305 E.05593
;WIDTH:0.551778
G1 X89.968 Y98.472 E.05106
;WIDTH:0.503091
G1 X89.953 Y98.544 E.00281
;WIDTH:0.540832
G1 X89.652 Y100.353 E.07593
G1 X89.548 Y101.141 E.03291
;WIDTH:0.505631
G1 X89.443 Y101.929 E.03059
;WIDTH:0.47043
G1 X89.339 Y102.718 E.02829
;WIDTH:0.435229
G1 X89.333 Y102.788 E.00229
;WIDTH:0.472549
G1 X89.245 Y105.007 E.07933
G1 X89.238 Y106.005 E.03565
;WIDTH:0.424413
G1 X89.232 Y107.004 E.03169
;WIDTH:0.376277
G1 X89.235 Y107.071 E.00186
;WIDTH:0.410088
G1 X89.459 Y109.686 E.08013
G1 X89.571 Y110.624 E.02884
;WIDTH:0.407124
G1 X89.554 Y110.692 E.00212
;WIDTH:0.453222
G1 X89.537 Y110.761 E.00242
;WIDTH:0.499321
G1 X89.521 Y110.829 E.00265
;WIDTH:0.545419
G1 X89.504 Y110.897 E.00293
;WIDTH:0.591518
G1 X89.487 Y110.966 E.00324
;WIDTH:0.637616
G1 X89.47 Y111.034 E.00347
G1 X89.435 Y110.973 E.00348
;WIDTH:0.591518
G1 X89.399 Y110.913 E.00319
;WIDTH:0.545419
G1 X89.363 Y110.852 E.00296
;WIDTH:0.499321
G1 X89.328 Y110.791 E.00267
;WIDTH:0.453222
G1 X89.292 Y110.73 E.00242
;WIDTH:0.407124
G1 X89.257 Y110.669 E.00213
;WIDTH:0.410088
G1 X89.093 Y109.715 E.02955
G1 X88.904 Y107.097 E.08014
;WIDTH:0.376277
G1 X88.899 Y107.01 E.00242
;WIDTH:0.424413
G1 X88.857 Y106.012 E.03169
;WIDTH:0.472549
G1 X88.816 Y104.986 E.03668
G1 X88.942 Y102.769 E.07933
;WIDTH:0.435229
G1 X88.949 Y102.675 E.00307
;WIDTH:0.47043
G1 X89.019 Y101.882 E.0283
;WIDTH:0.505631
G1 X89.088 Y101.09 E.03059
;WIDTH:0.540832
G1 X89.162 Y100.266 E.03425
G1 X89.501 Y98.464 E.07591
;WIDTH:0.503091
G1 X89.521 Y98.364 E.0039
;WIDTH:0.551778
G1 X89.78 Y97.185 E.05107
;WIDTH:0.600464
G1 X90.04 Y96.007 E.05593
G1 X90.042 Y95.893 E.00529
;WIDTH:0.555348
G1 X90.044 Y95.779 E.00486
;WIDTH:0.510232
G1 X90.047 Y95.665 E.00443
;WIDTH:0.465116
G1 X90.049 Y95.551 E.004
;WIDTH:0.419999
G1 X91.545 Y91.143 E.14595
G1 X93.64 Y86.894 E.14854
G1 X96.238 Y83.006 E.14662
M73 Q4 S15
M204 S1000
G1 X96.238 Y83.006 F10800
M73 P4 R15
G1 X95.972 Y82.726
M204 S800
;TYPE:External perimeter
G1 F1200
G1 X99.128 Y79.128 E.15006
G1 X102.726 Y75.972 E.15006
G1 X106.705 Y73.313 E.15005
G1 X110.998 Y71.196 E.15008
G1 X115.53 Y69.658 E.15006
G1 X120.225 Y68.724 E.15009
G1 X125 Y68.411 E.15004
G1 X129.775 Y68.724 E.15004
G1 X134.47 Y69.658 E.15009
G1 X139.002 Y71.196 E.15006
G1 X143.295 Y73.313 E.15008
G1 X147.274 Y75.972 E.15005
G1 X150.872 Y79.128 E.15006
G1 X154.028 Y82.726 E.15006
G1 X156.687 Y86.705 E.15005
G1 X158.804 Y90.998 E.15008
G1 X160.342 Y95.53 E.15006
G1 X161.276 Y100.225 E.15009
G1 X161.582 Y104.894 E.14671
G1 X161.582 Y105.106 E.00665
G1 X161.276 Y109.775 E.14671
G1 X160.342 Y114.47 E.15009
G1 X158.804 Y119.002 E.15006
G1 X156.687 Y123.295 E.15008
G1 X154.028 Y127.274 E.15005
G1 X150.872 Y130.872 E.15006
G1 X147.274 Y134.028 E.15006
G1 X143.295 Y136.687 E.15005
G1 X139.002 Y138.804 E.15008
G1 X134.47 Y140.342 E.15006
G1 X129.775 Y141.276 E.15009
G1 X125 Y141.589 E.15004
G1 X120.225 Y141.276 E.15004
G1 X115.53 Y140.342 E.15009
G1 X110.998 Y138.804 E.15006
G1 X106.705 Y136.687 E.15008
G1 X102.726 Y134.028 E.15005
G1 X99.128 Y130.872 E.15006
G1 X95.972 Y127.274 E.15006
G1 X93.313 Y123.295 E.15005
G1 X91.196 Y119.002 E.15008
M73 Q5 S15
G1 X89.658 Y114.47 E.15006
M73 P5 R15
G1 X88.724 Y109.775 E.15009
G1 X88.411 Y105 E.15004
G1 X88.724 Y100.225 E.15004
G1 X89.658 Y95.53 E.15009
G1 X91.196 Y90.998 E.15006
G1 X93.313 Y86.705 E.15008
G1 X95.939 Y82.776 E.14817
M204 S1000
;WIPE_START
G1 F8640
G1 X95.972 Y82.726 E-.01383
G1 X98.217 Y80.166 E-.78617
;WIPE_END
G1 Z.6 F720
G1 X97.847 Y83.564 F10800
G1 Z.2 F720
G1 E.8 F2100
M204 S800
G1 F1200
G1 X100.814 Y80.503 E.13366
G1 X104.099 Y77.859 E.13222
G1 X107.702 Y75.625 E.13292
G1 X111.552 Y73.851 E.13291
G1 X111.925 Y73.731 E.01229
M73 P5 R14
G1 X115.591 Y72.564 E.12063
G1 X119.758 Y71.783 E.13293
G1 X123.988 Y71.521 E.13288
G1 X124.903 Y71.576 E.02874
G1 X128.242 Y71.783 E.10489
G1 X132.409 Y72.564 E.13293
G1 X136.426 Y73.842 E.13217
G1 X140.278 Y75.614 E.13294
G1 X143.883 Y77.846 E.13294
G1 X147.186 Y80.503 E.13291
G1 X150.153 Y83.564 E.13366
G1 X152.706 Y86.949 E.13294
G1 X154.814 Y90.602 E.13224
G1 X156.476 Y94.529 E.1337
G1 X157.634 Y98.609 E.13298
M73 Q5 S14
G1 X158.283 Y102.8 E.13297
G1 X158.413 Y107.038 E.13294
G1 X158.023 Y111.238 E.13225
G1 X157.111 Y115.403 E.13368
G1 X155.701 Y119.402 E.13295
G1 X153.822 Y123.178 E.13224
G1 X151.467 Y126.732 E.13368
G1 X148.708 Y129.953 E.13298
G1 X145.593 Y132.794 E.13219
G1 X142.115 Y135.258 E.13364
G1 X138.379 Y137.262 E.13293
G1 X134.448 Y138.786 E.13219
G1 X130.338 Y139.822 E.1329
G1 X126.131 Y140.345 E.13292
G1 X121.869 Y140.345 E.13363
G1 X117.662 Y139.822 E.13292
M73 P6 R14
M73 Q6 S14
G1 X113.574 Y138.793 E.13217
G1 X109.6 Y137.253 E.13363
G1 X105.865 Y135.245 E.13296
G1 X102.425 Y132.809 E.13216
G1 X99.275 Y129.936 E.13368
G1 X96.533 Y126.732 E.13222
G1 X94.19 Y123.198 E.13295
G1 X92.299 Y119.402 E.13297
G1 X92.042 Y118.678 E.02409
G1 X90.882 Y115.381 E.10959
G1 X89.981 Y111.261 E.13223
G1 X89.587 Y107.038 E.13298
G1 X89.717 Y102.8 E.13294
G1 X90.366 Y98.609 E.13297
G1 X91.031 Y96.266 E.07636
G1 X91.532 Y94.507 E.05735
G1 X93.186 Y90.602 E.13297
G1 X95.307 Y86.93 E.13296
G1 X97.811 Y83.612 E.13033
M204 S1000
;WIPE_START
G1 F8640
G1 X97.847 Y83.564 E-.01385
G1 X100.217 Y81.119 E-.78615
;WIPE_END
G1 Z.6 F720
G1 X115.088 Y139.677 F10800
G1 Z.2 F720
G1 E.8 F2100
M204 S800
;TYPE:Perimeter
;WIDTH:0.641148
G1 F1200
G1 X114.549 Y139.518 E.02795
;WIDTH:0.595849
G1 X114.01 Y139.359 E.02584
;WIDTH:0.55055
G1 X113.471 Y139.2 E.02372
;WIDTH:0.50525
G1 X113.4 Y139.177 E.00287
;WIDTH:0.537514
G1 X112.659 Y138.908 E.03242
;WIDTH:0.571202
G1 X111.919 Y138.639 E.03459
;WIDTH:0.60489
G1 X111.178 Y138.37 E.03684
G1 X110.754 Y138.183 E.02165
;WIDTH:0.563963
G1 X110.33 Y137.997 E.02006
;WIDTH:0.523036
G1 X109.905 Y137.81 E.01854
;WIDTH:0.482109
G1 X109.481 Y137.624 E.01691
;WIDTH:0.441182
G1 X109.417 Y137.593 E.00235
;WIDTH:0.487793
G1 X108.17 Y136.951 E.05188
;WIDTH:0.536306
G1 X106.924 Y136.309 E.0575
G1 X106.519 Y136.067 E.01936
;WIDTH:0.49093
G1 X106.115 Y135.824 E.01756
;WIDTH:0.445553
G1 X105.711 Y135.581 E.01578
;WIDTH:0.400176
G1 X105.654 Y135.544 E.00202
;WIDTH:0.441983
G1 X104.315 Y134.623 E.05393
;WIDTH:0.48616
G1 X102.976 Y133.702 E.0599
G1 X102.723 Y133.502 E.01189
;WIDTH:0.452756
G1 X102.47 Y133.302 E.01099
;WIDTH:0.419351
G1 X102.217 Y133.102 E.01009
;WIDTH:0.385946
G1 X102.165 Y133.059 E.00192
;WIDTH:0.419309
G1 X100.786 Y131.826 E.05789
;WIDTH:0.455514
G1 X99.407 Y130.593 E.06346
G1 X99.226 Y130.408 E.00888
;WIDTH:0.426693
G1 X99.045 Y130.223 E.00826
;WIDTH:0.397872
G1 X98.999 Y130.173 E.00201
;WIDTH:0.443722
G1 X96.2 Y126.925 E.14289
;WIDTH:0.448498
G1 X93.863 Y123.414 E.14224
;WIDTH:0.492282
G1 X93.671 Y123.087 E.01417
G1 X91.934 Y119.581 E.1462
;WIDTH:0.524819
G1 X91.775 Y119.205 E.01636
;WIDTH:0.571578
G1 X91.615 Y118.828 E.018
G1 X90.481 Y115.547 E.1526
;WIDTH:0.53532
G1 X90.458 Y115.474 E.00313
;WIDTH:0.579084
G1 X90.353 Y115.096 E.01749
;WIDTH:0.622847
G1 X90.247 Y114.718 E.01893
;WIDTH:0.66661
G1 X90.142 Y114.34 E.02035
G1 X89.831 Y112.851 E.07889
;WIDTH:0.637393
G1 X89.52 Y111.362 E.07519
;WIDTH:0.637616
G1 X89.47 Y111.034 E.01641
M204 S1000
;WIPE_START
G1 F8640
G1 X89.52 Y111.362 E-.07661
G1 X89.831 Y112.851 E-.35123
G1 X90.142 Y114.34 E-.35123
G1 X90.166 Y114.427 E-.02093
;WIPE_END
G1 Z.6 F720
G1 X152.242 Y81.432 F10800
G1 Z.2 F720
G1 E.8 F2100
M204 S800
;TYPE:Solid infill
;WIDTH:0.421423
G1 F1200
G1 X150.401 Y79.592 E.08192
G1 X146.871 Y76.497 E.14775
G1 X146.568 Y76.294 E.01148
G1 X153.706 Y83.432 E.31771
G1 X154.785 Y85.046 E.0611
G1 X144.954 Y75.215 E.43757
G1 X143.341 Y74.137 E.06106
M73 Q7 S14
G1 X155.863 Y86.659 E.55734
G1 X156.114 Y87.036 E.01425
M73 P7 R14
G1 X156.514 Y87.846 E.02843
G1 X142.154 Y73.486 E.63915
G1 X141.098 Y72.965 E.03706
G1 X157.035 Y88.902 E.70934
G1 X157.556 Y89.958 E.03706
G1 X140.042 Y72.444 E.77953
G1 X138.986 Y71.923 E.03706
G1 X144.81 Y77.747 E.25922
G1 X144.257 Y77.302 E.02234
G1 X143.135 Y76.608 E.04152
G1 X138.12 Y71.593 E.22321
G1 X137.31 Y71.318 E.02692
G1 X141.731 Y75.74 E.1968
G1 X140.577 Y75.026 E.04271
G1 X140.402 Y74.945 E.00607
G1 X136.5 Y71.044 E.17365
G1 X135.69 Y70.769 E.02692
G1 X139.412 Y74.49 E.16564
G1 X138.421 Y74.036 E.03431
G1 X134.88 Y70.494 E.15763
G1 X134.299 Y70.297 E.01931
G1 X134.11 Y70.259 E.00607
G1 X137.431 Y73.581 E.14784
G1 X136.646 Y73.22 E.02719
