; generated by PrusaSlicer 2.7.2+win64 on 2024-08-01 at 06:49:11 UTC


;
;
; 

; external perimeters extrusion width = 0.60mm
; perimeters extrusion width = 0.50mm
; infill extrusion width = 0.50mm
; solid infill extrusion width = 0.50mm
; top infill extrusion width = 0.45mm
; first layer extrusion width = 0.42mm

M73 P0 R12
M73 Q0 S12
M201 X1000 Y1000 Z200 E5000 ; sets maximum accelerations, mm/sec^2
M203 X200 Y200 Z12 E120 ; sets maximum feedrates, mm / sec
M204 S1250 T1250 ; sets acceleration (S) and retract acceleration (R), mm/sec^2
M205 X8.00 Y8.00 Z0.40 E4.50 ; sets the jerk limits, mm/sec
M205 S0 T0 ; sets the minimum extruding and travel feed rate, mm/sec

; printing object RasentrimmerRing69.stl id:0 copy 0
; stop printing object RasentrimmerRing69.stl id:0 copy 0

;TYPE:Custom
M862.3 P "MK3S" ; printer model check
M862.1 P0.4 ; nozzle diameter check
M115 U3.11.0 ; tell printer latest fw version
G90 ; use absolute coordinates
M83 ; extruder relative mode
M104 S215 ; set extruder temp
M140 S60 ; set bed temp
M190 S60 ; wait for bed temp
M109 S215 ; wait for extruder temp
G28 W ; home all without mesh bed level
G80 ; mesh bed leveling

G1 Z0.2 F720
G1 Y-3 F1000 ; go outside print area
G92 E0
G1 X60 E9 F1000 ; intro line
G1 X100 E12.5 F1000 ; intro line

G92 E0
M221 S95

; Don't change E values below. Excessive value can damage the printer.

M907 E538 ; set extruder motor current
G21 ; set units to millimeters
G90 ; use absolute coordinates
M83 ; use relative distances for extrusion
M900 K0.05 ; Filament gcode LA 1.5
M900 K30 ; Filament gcode LA 1.0
M107
;LAYER_CHANGE
;Z:0.2
;HEIGHT:0.2
G1 E-.8 F2100
G1 Z.6 F720
G1 X93.67 Y81.155 F10800
G1 Z.2 F720
G1 E.8 F2100
M204 S800
;TYPE:Skirt/Brim
;WIDTH:0.42
G1 F1200
G1 X97.27 Y77.05 E.17119
G1 X100.909 Y73.859 E.15175
G1 X105.179 Y70.981 E.16145
M73 Q1 S12
G1 X110.077 Y68.565 E.17124
M73 P1 R12
G1 X114.66 Y67.01 E.15174
G1 X119.707 Y65.986 E.16147
G1 X125.156 Y65.628 E.17122
G1 X130.293 Y65.986 E.16146
G1 X135.04 Y66.93 E.15175
G1 X140.21 Y68.684 E.17118
G1 X144.551 Y70.825 E.15176
G1 X148.845 Y73.67 E.1615
G1 X152.95 Y77.27 E.17119
G1 X156.33 Y81.155 E.16146
G1 X159.019 Y85.179 E.15175
G1 X161.435 Y90.077 E.17124
G1 X163.07 Y94.96 E.16146
G1 X164.014 Y99.707 E.15175
G1 X164.372 Y105.156 E.17122
G1 X164.014 Y110.293 E.16146
G1 X163.07 Y115.04 E.15175
G1 X161.316 Y120.21 E.17118
G1 X159.175 Y124.551 E.15176
G1 X156.33 Y128.845 E.1615
G1 X152.73 Y132.95 E.17119
G1 X149.091 Y136.141 E.15175
G1 X144.821 Y139.019 E.16145
G1 X139.923 Y141.435 E.17124
G1 X135.04 Y143.07 E.16146
G1 X130.293 Y144.014 E.15175
G1 X124.844 Y144.372 E.17122
G1 X119.707 Y144.014 E.16146
M73 Q2 S12
G1 X114.96 Y143.07 E.15175
M73 P2 R12
G1 X109.79 Y141.316 E.17118
G1 X105.449 Y139.175 E.15176
G1 X101.155 Y136.33 E.1615
G1 X97.05 Y132.73 E.17119
G1 X93.67 Y128.845 E.16146
G1 X90.981 Y124.821 E.15175
G1 X88.565 Y119.923 E.17124
G1 X86.93 Y115.04 E.16146
G1 X85.986 Y110.293 E.15175
G1 X85.628 Y104.844 E.17122
G1 X85.986 Y99.707 E.16146
G1 X86.93 Y94.96 E.15175
G1 X88.684 Y89.79 E.17118
G1 X90.981 Y85.179 E.16152
G1 X93.636 Y81.205 E.14985
M204 S1000
; printing object RasentrimmerRing69.stl id:0 copy 0
;WIPE_START
G1 F8640
G1 X93.67 Y81.155 E-.01396
G1 X95.914 Y78.595 E-.78604
;WIPE_END
G1 Z.6 F720
G1 X96.272 Y82.956 F10800
G1 Z.2 F720
G1 E.8 F2100
M204 S800
;TYPE:Perimeter
;WIDTH:0.419999
G1 F1200
G1 X99.395 Y79.395 E.14851
G1 X102.956 Y76.272 E.14851
G1 X106.894 Y73.64 E.14851
G1 X111.143 Y71.545 E.14854
G1 X115.628 Y70.023 E.1485
G1 X120.274 Y69.099 E.14852
G1 X125 Y68.789 E.1485
G1 X129.726 Y69.099 E.1485
G1 X134.372 Y70.023 E.14852
G1 X138.857 Y71.545 E.1485
G1 X143.106 Y73.64 E.14854
G1 X147.044 Y76.272 E.14851
G1 X150.605 Y79.395 E.14851
G1 X153.728 Y82.956 E.14851
M73 Q3 S12
G1 X156.36 Y86.894 E.14851
M73 P3 R12
G1 X158.455 Y91.143 E.14854
G1 X159.977 Y95.628 E.1485
G1 X160.901 Y100.274 E.14852
G1 X161.208 Y105.048 E.14999
G1 X160.901 Y109.726 E.14699
G1 X159.977 Y114.372 E.14852
G1 X158.455 Y118.857 E.1485
G1 X156.36 Y123.106 E.14854
G1 X153.728 Y127.044 E.14851
G1 X150.605 Y130.605 E.14851
G1 X147.044 Y133.728 E.14851
G1 X143.432 Y136.142 E.13622
G1 X142.806 Y136.508 E.02274
;WIDTH:0.465553
G1 X142.706 Y136.532 E.00361
;WIDTH:0.511107
G1 X142.606 Y136.555 E.00399
;WIDTH:0.556661
G1 X142.506 Y136.579 E.00439
;WIDTH:0.602215
G1 X142.407 Y136.603 E.00474
G1 X140.978 Y137.323 E.07442
;WIDTH:0.574445
G1 X139.549 Y138.043 E.07072
;WIDTH:0.548136
G1 X139.451 Y138.091 E.00458
;WIDTH:0.577867
G1 X138.81 Y138.388 E.03142
G1 X137.108 Y138.985 E.08023
;WIDTH:0.539477
G1 X135.407 Y139.583 E.07445
;WIDTH:0.502058
G1 X135.309 Y139.616 E.00395
;WIDTH:0.541595
G1 X134.34 Y139.921 E.04212
G1 X132.729 Y140.263 E.06829
;WIDTH:0.50005
G1 X131.118 Y140.605 E.0626
;WIDTH:0.459062
G1 X131.022 Y140.623 E.00338
;WIDTH:0.506901
G1 X129.705 Y140.859 E.05162
G1 X128.225 Y140.977 E.05728
;WIDTH:0.46413
G1 X126.744 Y141.096 E.05204
;WIDTH:0.421545
G1 X126.651 Y141.102 E.00293
;WIDTH:0.448408
G1 X125.833 Y141.142 E.02761
;WIDTH:0.47527
G1 X124.986 Y141.183 E.03049
G1 X123.668 Y141.118 E.04744
;WIDTH:0.432014
G1 X122.35 Y141.053 E.04269
;WIDTH:0.388758
G1 X122.261 Y141.047 E.00257
;WIDTH:0.417068
G1 X121.275 Y140.968 E.03077
;WIDTH:0.445557
G1 X120.263 Y140.886 E.03399
G1 X119.131 Y140.682 E.03851
;WIDTH:0.403484
G1 X118 Y140.479 E.03445
;WIDTH:0.361411
G1 X117.915 Y140.462 E.0023
;WIDTH:0.390258
G1 X116.778 Y140.221 E.03357
;WIDTH:0.419594
G1 X115.64 Y139.98 E.03643
G1 X114.686 Y139.678 E.03134
;WIDTH:0.38037
G1 X113.756 Y139.383 E.02738
;WIDTH:0.341145
G1 X113.677 Y139.357 E.00206
;WIDTH:0.368872
G1 X112.413 Y138.913 E.03631
;WIDTH:0.397382
G1 X111.15 Y138.469 E.03946
G1 X110.403 Y138.123 E.02426
;WIDTH:0.36196
G1 X109.678 Y137.785 E.02122
;WIDTH:0.326538
G1 X109.605 Y137.749 E.00192
;WIDTH:0.351786
G1 X108.249 Y137.066 E.03899
;WIDTH:0.378129
G1 X106.894 Y136.383 E.04229
G1 X106.35 Y136.039 E.01794
;WIDTH:0.348251
G1 X105.826 Y135.707 E.01575
;WIDTH:0.318373
G1 X105.759 Y135.663 E.00184
;WIDTH:0.363121
G1 X102.948 Y133.757 E.09042
G1 X102.192 Y133.128 E.02618
;WIDTH:0.352158
G1 X99.378 Y130.636 E.09665
G1 X98.961 Y130.186 E.01578
;WIDTH:0.345333
G1 X96.249 Y127.074 E.1038
G1 X96.098 Y126.862 E.00654
;WIDTH:0.342737
G1 X93.725 Y123.302 E.10666
;WIDTH:0.35305
G1 X93.607 Y123.113 E.00575
G1 X91.763 Y119.384 E.10728
;WIDTH:0.345214
G1 X91.762 Y119.382 E.00006
;WIDTH:0.376153
G1 X91.524 Y118.866 E.01575
G1 X90.288 Y115.256 E.10573
;WIDTH:0.356647
G1 X90.262 Y115.176 E.00219
;WIDTH:0.402847
G1 X90.012 Y114.363 E.02546
G1 X89.323 Y110.98 E.10333
;WIDTH:0.371579
G1 X89.307 Y110.895 E.00236
;WIDTH:0.402062
G1 X89.207 Y110.317 E.01752
;WIDTH:0.432545
G1 X89.104 Y109.712 E.01988
G1 X88.88 Y106.615 E.1006
;WIDTH:0.392239
G1 X88.875 Y106.524 E.00265
;WIDTH:0.429458
G1 X88.844 Y105.769 E.02429
;WIDTH:0.466677
G1 X88.813 Y104.986 E.02761
G1 X88.976 Y102.15 E.10009
;WIDTH:0.421541
G1 X88.983 Y102.059 E.00287
;WIDTH:0.460706
G1 X89.06 Y101.177 E.03076
;WIDTH:0.49987
G1 X89.142 Y100.265 E.03479
G1 X89.366 Y99.068 E.04627
;WIDTH:0.474074
G1 X89.591 Y97.871 E.04366
;WIDTH:0.449203
G1 X89.611 Y97.777 E.00325
;WIDTH:0.492983
G1 X89.843 Y96.718 E.04057
;WIDTH:0.536763
G1 X90.085 Y95.628 E.04585
G1 X90.411 Y94.624 E.04335
M73 Q4 S12
;WIDTH:0.510325
G1 X90.738 Y93.62 E.04104
;WIDTH:0.484472
G1 X90.771 Y93.524 E.00373
;WIDTH:0.529945
G1 X91.191 Y92.357 E.05023
;WIDTH:0.575418
G1 X91.611 Y91.189 E.05496
G1 X92.01 Y90.345 E.04134
M73 P4 R12
;WIDTH:0.549434
G1 X92.396 Y89.534 E.03783
;WIDTH:0.523643
G1 X92.443 Y89.439 E.00424
;WIDTH:0.562351
G1 X92.986 Y88.382 E.05132
;WIDTH:0.601058
G1 X93.529 Y87.325 E.05515
G1 X93.557 Y87.217 E.00518
;WIDTH:0.555794
G1 X93.584 Y87.11 E.00471
;WIDTH:0.510529
G1 X93.612 Y87.002 E.00434
;WIDTH:0.465264
G1 X93.64 Y86.894 E.00392
;WIDTH:0.419999
G1 X96.238 Y83.006 E.14662
M204 S1000
;WIPE_START
G1 F8640
G1 X96.272 Y82.956 E-.01396
G1 X98.516 Y80.396 E-.78604
;WIPE_END
G1 Z.6 F720
G1 X97.698 Y82.477 F10800
G1 Z.2 F720
G1 E.8 F2100
M204 S800
G1 F1200
G1 X97.711 Y82.459 E.0007
G1 X100.741 Y79.341 E.13632
G1 X104.13 Y76.617 E.13633
G1 X107.828 Y74.331 E.13631
G1 X111.713 Y72.542 E.13411
G1 X115.854 Y71.22 E.13629
G1 X120.127 Y70.417 E.13632
G1 X124.465 Y70.145 E.13628
G1 X128.806 Y70.408 E.13636
G1 X133.078 Y71.203 E.13624
G1 X137.222 Y72.517 E.13631
G1 X141.234 Y74.364 E.13848
G1 X144.927 Y76.657 E.1363
G1 X148.311 Y79.387 E.13633
G1 X151.334 Y82.512 E.13632
G1 X153.95 Y85.985 E.13633
G1 X156.12 Y89.754 E.13636
G1 X157.81 Y93.76 E.13632
G1 X158.996 Y97.944 E.13635
G1 X159.658 Y102.242 E.13635
G1 X159.79 Y106.519 E.13417
G1 X159.392 Y110.85 E.13637
G1 X158.467 Y115.099 E.13634
G1 X157.027 Y119.202 E.13634
G1 X155.093 Y123.097 E.13635
G1 X152.696 Y126.725 E.13634
G1 X149.871 Y130.03 E.13632
G1 X146.661 Y132.963 E.13633
G1 X143.116 Y135.479 E.1363
G1 X142.46 Y135.836 E.02342
;WIDTH:0.465553
G1 X142.383 Y135.904 E.00361
;WIDTH:0.511107
G1 X142.305 Y135.971 E.004
;WIDTH:0.556661
G1 X142.228 Y136.038 E.00436
;WIDTH:0.602215
G1 X142.151 Y136.106 E.00478
G1 X140.735 Y136.851 E.07441
;WIDTH:0.574445
G1 X139.318 Y137.596 E.07075
;WIDTH:0.577867
G1 X138.628 Y137.885 E.03328
G1 X136.939 Y138.519 E.08025
;WIDTH:0.539477
G1 X135.25 Y139.153 E.07449
;WIDTH:0.541595
G1 X134.231 Y139.435 E.04384
G1 X132.629 Y139.817 E.06829
;WIDTH:0.50005
G1 X131.027 Y140.199 E.0626
M73 Q5 S12
;WIDTH:0.459062
G1 X130.956 Y140.213 E.0025
;WIDTH:0.506901
G1 X129.661 Y140.397 E.05046
G1 X128.185 Y140.558 E.05728
M73 P5 R12
;WIDTH:0.46413
G1 X126.708 Y140.719 E.05204
;WIDTH:0.421545
G1 X126.639 Y140.724 E.00218
;WIDTH:0.448408
G1 X125.819 Y140.737 E.02765
;WIDTH:0.47527
G1 X125 Y140.751 E.02945
G1 X123.681 Y140.729 E.04742
;WIDTH:0.432014
G1 X122.361 Y140.707 E.04271
;WIDTH:0.388758
G1 X122.294 Y140.703 E.00193
;WIDTH:0.417068
G1 X121.31 Y140.596 E.03079
;WIDTH:0.445557
G1 X120.327 Y140.488 E.03311
G1 X119.189 Y140.326 E.03848
;WIDTH:0.403484
G1 X118.05 Y140.164 E.03449
;WIDTH:0.361411
G1 X117.985 Y140.152 E.00175
;WIDTH:0.390258
G1 X116.854 Y139.882 E.03358
;WIDTH:0.419594
G1 X115.723 Y139.612 E.03642
G1 X114.782 Y139.355 E.03055
;WIDTH:0.38037
G1 X113.84 Y139.098 E.0274
;WIDTH:0.341145
G1 X113.779 Y139.078 E.00159
;WIDTH:0.368872
G1 X112.525 Y138.607 E.03631
;WIDTH:0.397382
G1 X111.27 Y138.136 E.03951
G1 X110.531 Y137.831 E.02356
;WIDTH:0.36196
G1 X109.792 Y137.525 E.02122
;WIDTH:0.326538
G1 X109.734 Y137.498 E.00151
;WIDTH:0.351786
G1 X108.391 Y136.792 E.03897
;WIDTH:0.378129
G1 X107.047 Y136.085 E.04233
G1 X106.507 Y135.778 E.01731
;WIDTH:0.348251
G1 X105.968 Y135.471 E.01575
;WIDTH:0.318373
G1 X105.914 Y135.437 E.00146
;WIDTH:0.363121
G1 X103.129 Y133.493 E.09043
G1 X102.423 Y132.965 E.02347
;WIDTH:0.31738
G1 X102.374 Y132.924 E.00146
;WIDTH:0.352158
G1 X99.584 Y130.405 E.09665
G1 X99.21 Y130.045 E.01335
;WIDTH:0.32313
G1 X99.167 Y129.998 E.00148
;WIDTH:0.345333
G1 X96.34 Y126.701 E.10921
;WIDTH:0.342737
G1 X93.974 Y123.136 E.10667
;WIDTH:0.35305
G1 X92.033 Y119.248 E.11206
;WIDTH:0.376153
G1 X91.836 Y118.746 E.01494
G1 X90.583 Y115.155 E.10538
;WIDTH:0.402847
G1 X90.365 Y114.289 E.02673
G1 X89.643 Y110.914 E.10329
;WIDTH:0.371579
G1 X89.632 Y110.848 E.00183
;WIDTH:0.402062
G1 X89.562 Y110.265 E.01754
;WIDTH:0.432545
G1 X89.493 Y109.682 E.01902
G1 X89.227 Y106.588 E.10061
;WIDTH:0.392239
G1 X89.224 Y106.519 E.00201
;WIDTH:0.429458
G1 X89.23 Y105.763 E.0243
;WIDTH:0.466677
G1 X89.236 Y105.007 E.02664
G1 X89.353 Y102.169 E.10008
;WIDTH:0.421541
G1 X89.359 Y102.1 E.00218
;WIDTH:0.460706
G1 X89.475 Y101.222 E.03077
;WIDTH:0.49987
G1 X89.591 Y100.344 E.03365
G1 X89.791 Y99.143 E.04626
;WIDTH:0.474074
G1 X89.99 Y97.942 E.04364
;WIDTH:0.449203
G1 X90.005 Y97.872 E.00242
;WIDTH:0.492983
G1 X90.281 Y96.823 E.04059
;WIDTH:0.536763
G1 X90.556 Y95.775 E.04449
G1 X90.857 Y94.763 E.04336
;WIDTH:0.510325
G1 X91.159 Y93.751 E.04105
;WIDTH:0.484472
G1 X91.183 Y93.681 E.00272
;WIDTH:0.529945
G1 X91.646 Y92.53 E.05024
;WIDTH:0.575418
G1 X92.108 Y91.378 E.05496
G1 X92.471 Y90.556 E.03979
;WIDTH:0.549434
G1 X92.833 Y89.734 E.03783
;WIDTH:0.523643
G1 X92.867 Y89.666 E.00304
;WIDTH:0.562351
G1 X93.444 Y88.627 E.05133
;WIDTH:0.601058
G1 X94.021 Y87.588 E.05516
G1 X94.092 Y87.51 E.0049
;WIDTH:0.555794
G1 X94.162 Y87.433 E.00444
;WIDTH:0.510529
G1 X94.233 Y87.355 E.0041
;WIDTH:0.465264
G1 X94.304 Y87.278 E.00368
;WIDTH:0.419999
G1 X95.089 Y85.927 E.04899
G1 X97.662 Y82.525 E.13374
M204 S1000
G1 X97.662 Y82.525 F10800
G1 X97.982 Y82.721
M204 S800
;TYPE:External perimeter
G1 F1200
G1 X100.977 Y79.634 E.13486
G1 X104.309 Y76.951 E.13413
G1 X107.985 Y74.673 E.13559
G1 X111.893 Y72.876 E.13487
G1 X115.969 Y71.579 E.13411
G1 X120.196 Y70.787 E.13484
G1 X120.423 Y70.772 E.00713
G1 X124.488 Y70.521 E.1277
G1 X128.782 Y70.785 E.13489
G1 X133.011 Y71.574 E.13489
G1 X133.832 Y71.834 E.027
G1 X137.129 Y72.885 E.1085
G1 X141.035 Y74.684 E.13484
G1 X144.672 Y76.938 E.13416
G1 X148.023 Y79.634 E.13485
G1 X151.033 Y82.739 E.13559
G1 X153.623 Y86.173 E.13486
G1 X155.762 Y89.88 E.13419
M73 Q6 S12
G1 X157.44 Y93.841 E.13488
M73 P6 R12
G1 X158.618 Y97.979 E.1349
G1 X159.281 Y102.254 E.13564
G1 X159.413 Y106.531 E.13417
G1 X159.017 Y110.815 E.13489
G1 X158.099 Y115.018 E.13489
G1 X156.671 Y119.077 E.13491
G1 X154.743 Y122.949 E.13562
G1 X152.367 Y126.535 E.13488
G1 X149.585 Y129.785 E.13414
G1 X146.407 Y132.684 E.13487
M73 P6 R11
G1 X142.898 Y135.171 E.13485
G1 X139.11 Y137.208 E.13485
G1 X138.463 Y137.46 E.02177
G1 X135.099 Y138.763 E.11311
G1 X130.93 Y139.815 E.13481
G1 X126.639 Y140.346 E.13557
G1 X122.338 Y140.345 E.13485
G1 X118.093 Y139.819 E.13412
G1 X113.901 Y138.763 E.13554
G1 X109.911 Y137.217 E.13417
M73 Q6 S11
G1 X106.122 Y135.184 E.13482
G1 X102.593 Y132.684 E.1356
G1 X99.415 Y129.785 E.13487
G1 X96.633 Y126.535 E.13414
G1 X94.257 Y122.949 E.13488
G1 X94.192 Y122.822 E.00447
G1 X92.338 Y119.098 E.13043
G1 X90.907 Y115.038 E.13497
G1 X89.987 Y110.838 E.13481
G1 X89.587 Y106.554 E.13491
G1 X89.732 Y102.158 E.13791
G1 X90.382 Y97.979 E.1326
G1 X91.552 Y93.863 E.13417
G1 X93.228 Y89.901 E.13488
G1 X94.426 Y87.821 E.07526
G1 X95.39 Y86.154 E.06038
G1 X97.946 Y82.769 E.13299
M204 S1000
;WIPE_START
G1 F8640
M73 Q7 S11
G1 X97.982 Y82.721 E-.01385
G1 X100.353 Y80.278 E-.78615
;WIPE_END
G1 Z.6 F720
M73 P7 R11
G1 X95.972 Y82.726 F10800
G1 Z.2 F720
G1 E.8 F2100
M204 S800
G1 F1200
G1 X99.128 Y79.128 E.15006
G1 X102.726 Y75.972 E.15006
G1 X106.705 Y73.313 E.15005
G1 X110.998 Y71.196 E.15008
G1 X115.53 Y69.658 E.15006
G1 X120.225 Y68.724 E.15009
G1 X125 Y68.411 E.15004
G1 X129.775 Y68.724 E.15004
G1 X134.47 Y69.658 E.15009
G1 X139.002 Y71.196 E.15006
G1 X143.295 Y73.313 E.15008
G1 X147.274 Y75.972 E.15005
G1 X150.872 Y79.128 E.15006
G1 X154.028 Y82.726 E.15006
G1 X156.687 Y86.705 E.15005
G1 X158.804 Y90.998 E.15008
G1 X160.342 Y95.53 E.15006
G1 X161.276 Y100.225 E.15009
G1 X161.584 Y105.073 E.15231
G1 X161.276 Y109.775 E.14774
G1 X160.342 Y114.47 E.15009
G1 X158.804 Y119.002 E.15006
G1 X156.687 Y123.295 E.15008
G1 X154.028 Y127.274 E.15005
G1 X150.872 Y130.872 E.15006
G1 X147.274 Y134.028 E.15006
G1 X143.295 Y136.687 E.15005
G1 X139.002 Y138.804 E.15008
G1 X134.47 Y140.342 E.15006
G1 X129.775 Y141.276 E.15009
G1 X125 Y141.589 E.15004
G1 X120.225 Y141.276 E.15004
M73 P8 R11
M73 Q8 S11
G1 X115.53 Y140.342 E.15009
G1 X110.998 Y138.804 E.15006
G1 X106.705 Y136.687 E.15008
G1 X102.726 Y134.028 E.15005
G1 X99.128 Y130.872 E.15006
G1 X95.972 Y127.274 E.15006
G1 X93.313 Y123.295 E.15005
G1 X91.196 Y119.002 E.15008
G1 X89.658 Y114.47 E.15006
G1 X88.724 Y109.775 E.15009
G1 X88.411 Y105 E.15004
G1 X88.724 Y100.225 E.15004
G1 X89.658 Y95.53 E.15009
G1 X91.196 Y90.998 E.15006
G1 X93.313 Y86.705 E.15008
G1 X95.939 Y82.776 E.14817
M204 S1000
;WIPE_START
G1 F8640
G1 X95.972 Y82.726 E-.01383
G1 X98.217 Y80.166 E-.78617
;WIPE_END
G1 Z.6 F720
G1 X148.563 Y77.754 F10800
G1 Z.2 F720
G1 E.8 F2100
M204 S800
;TYPE:Solid infill
;WIDTH:0.422214
G1 F1200
G1 X150.412 Y79.604 E.08249
G1 X153.503 Y83.129 E.14786
G1 X153.71 Y83.438 E.01173
G1 X146.563 Y76.29 E.31879
G1 X144.946 Y75.21 E.06133
