; generated by PrusaSlicer 2.7.2+win64 on 2024-08-19 at 06:49:50 UTC


;
;
; 

; external perimeters extrusion width = 0.60mm
; perimeters extrusion width = 0.50mm
; infill extrusion width = 0.50mm
; solid infill extrusion width = 0.50mm
; top infill extrusion width = 0.45mm
; first layer extrusion width = 0.42mm

M73 P0 R27
M73 Q0 S27
M201 X1000 Y1000 Z200 E5000 ; sets maximum accelerations, mm/sec^2
M203 X200 Y200 Z12 E120 ; sets maximum feedrates, mm / sec
M204 S1250 T1250 ; sets acceleration (S) and retract acceleration (R), mm/sec^2
M205 X8.00 Y8.00 Z0.40 E4.50 ; sets the jerk limits, mm/sec
M205 S0 T0 ; sets the minimum extruding and travel feed rate, mm/sec

; printing object RasentrimmerRingBreit12.stl id:0 copy 0
; stop printing object RasentrimmerRingBreit12.stl id:0 copy 0

;TYPE:Custom
M862.3 P "MK3S" ; printer model check
M862.1 P0.4 ; nozzle diameter check
M115 U3.11.0 ; tell printer latest fw version
G90 ; use absolute coordinates
M83 ; extruder relative mode
M104 S215 ; set extruder temp
M140 S60 ; set bed temp
M190 S60 ; wait for bed temp
M109 S215 ; wait for extruder temp
G28 W ; home all without mesh bed level
G80 ; mesh bed leveling

G1 Z0.2 F720
G1 Y-3 F1000 ; go outside print area
G92 E0
G1 X60 E9 F1000 ; intro line
G1 X100 E12.5 F1000 ; intro line

G92 E0
M221 S95

; Don't change E values below. Excessive value can damage the printer.

M907 E538 ; set extruder motor current
G21 ; set units to millimeters
G90 ; use absolute coordinates
M83 ; use relative distances for extrusion
M900 K0.05 ; Filament gcode LA 1.5
M900 K30 ; Filament gcode LA 1.0
M107
;LAYER_CHANGE
;Z:0.2
;HEIGHT:0.2
G1 E-.8 F2100
G1 Z.6 F720
G1 X93.67 Y81.155 F10800
G1 Z.2 F720
G1 E.8 F2100
M204 S800
;TYPE:Skirt/Brim
;WIDTH:0.42
G1 F1200
G1 X97.27 Y77.05 E.17119
G1 X100.909 Y73.859 E.15175
G1 X105.179 Y70.981 E.16145
G1 X110.077 Y68.565 E.17124
G1 X114.66 Y67.01 E.15174
G1 X119.707 Y65.986 E.16147
G1 X125.156 Y65.628 E.17122
G1 X130.293 Y65.986 E.16146
G1 X135.04 Y66.93 E.15175
G1 X140.21 Y68.684 E.17118
G1 X144.821 Y70.981 E.16152
G1 X148.845 Y73.67 E.15175
G1 X152.95 Y77.27 E.17119
G1 X156.33 Y81.155 E.16146
G1 X159.019 Y85.179 E.15175
G1 X161.435 Y90.077 E.17124
G1 X163.07 Y94.96 E.16146
G1 X164.014 Y99.707 E.15175
G1 X164.372 Y105.156 E.17122
G1 X164.014 Y110.293 E.16146
G1 X163.07 Y115.04 E.15175
G1 X161.316 Y120.21 E.17118
G1 X159.175 Y124.551 E.15176
G1 X156.33 Y128.845 E.1615
G1 X152.73 Y132.95 E.17119
G1 X149.091 Y136.141 E.15175
G1 X144.821 Y139.019 E.16145
G1 X139.923 Y141.435 E.17124
G1 X135.34 Y142.99 E.15174
G1 X130.293 Y144.014 E.16147
G1 X124.844 Y144.372 E.17122
G1 X119.707 Y144.014 E.16146
G1 X114.96 Y143.07 E.15175
G1 X109.79 Y141.316 E.17118
G1 X105.449 Y139.175 E.15176
G1 X101.155 Y136.33 E.1615
M73 Q1 S27
G1 X97.05 Y132.73 E.17119
G1 X93.67 Y128.845 E.16146
M73 P1 R27
G1 X90.981 Y124.821 E.15175
G1 X88.565 Y119.923 E.17124
G1 X86.93 Y115.04 E.16146
G1 X85.986 Y110.293 E.15175
G1 X85.628 Y104.844 E.17122
G1 X85.986 Y99.707 E.16146
G1 X86.93 Y94.96 E.15175
M73 P1 R26
G1 X88.684 Y89.79 E.17118
G1 X90.825 Y85.448 E.15179
G1 X93.636 Y81.205 E.15958
M204 S1000
; printing object RasentrimmerRingBreit12.stl id:0 copy 0
;WIPE_START
G1 F8640
G1 X93.67 Y81.155 E-.01396
G1 X95.914 Y78.595 E-.78604
;WIPE_END
G1 Z.6 F720
G1 X96.272 Y82.956 F10800
G1 Z.2 F720
G1 E.8 F2100
M204 S800
;TYPE:Perimeter
;WIDTH:0.419999
G1 F1200
G1 X99.395 Y79.395 E.14851
G1 X102.956 Y76.272 E.14851
G1 X106.894 Y73.64 E.14851
G1 X111.143 Y71.545 E.14854
G1 X115.628 Y70.023 E.1485
G1 X120.274 Y69.099 E.14852
M73 Q1 S26
G1 X125 Y68.789 E.1485
G1 X129.726 Y69.099 E.1485
G1 X134.372 Y70.023 E.14852
G1 X138.857 Y71.545 E.1485
G1 X143.106 Y73.64 E.14854
G1 X147.044 Y76.272 E.14851
G1 X150.605 Y79.395 E.14851
G1 X153.728 Y82.956 E.14851
G1 X156.36 Y86.894 E.14851
G1 X158.455 Y91.143 E.14854
G1 X159.977 Y95.628 E.1485
G1 X160.901 Y100.274 E.14852
G1 X161.206 Y105.08 E.15099
G1 X160.901 Y109.726 E.14599
G1 X159.977 Y114.372 E.14852
G1 X158.455 Y118.857 E.1485
G1 X156.36 Y123.106 E.14854
G1 X153.728 Y127.044 E.14851
G1 X150.605 Y130.605 E.14851
G1 X147.044 Y133.728 E.14851
G1 X143.106 Y136.36 E.14851
G1 X138.857 Y138.455 E.14854
G1 X134.372 Y139.977 E.1485
G1 X129.726 Y140.901 E.14852
G1 X125 Y141.211 E.1485
G1 X120.274 Y140.901 E.1485
G1 X115.628 Y139.977 E.14852
G1 X111.143 Y138.455 E.1485
G1 X106.894 Y136.36 E.14854
G1 X102.956 Y133.728 E.14851
G1 X99.395 Y130.605 E.14851
G1 X96.272 Y127.044 E.14851
G1 X93.64 Y123.106 E.14851
G1 X91.545 Y118.857 E.14854
G1 X90.023 Y114.372 E.1485
G1 X89.099 Y109.726 E.14852
G1 X88.789 Y105 E.1485
G1 X89.099 Y100.274 E.1485
G1 X90.023 Y95.628 E.14852
G1 X91.545 Y91.143 E.1485
G1 X93.64 Y86.894 E.14854
G1 X96.238 Y83.006 E.14662
M204 S1000
G1 X96.238 Y83.006 F10800
G1 X95.972 Y82.726
M204 S800
;TYPE:External perimeter
G1 F1200
G1 X99.128 Y79.128 E.15006
G1 X102.726 Y75.972 E.15006
G1 X106.705 Y73.313 E.15005
G1 X110.998 Y71.196 E.15008
G1 X115.53 Y69.658 E.15006
G1 X120.225 Y68.724 E.15009
G1 X125 Y68.411 E.15004
M73 Q2 S26
G1 X129.775 Y68.724 E.15004
M73 P2 R26
G1 X134.47 Y69.658 E.15009
G1 X139.002 Y71.196 E.15006
G1 X143.295 Y73.313 E.15008
G1 X147.274 Y75.972 E.15005
G1 X150.872 Y79.128 E.15006
G1 X154.028 Y82.726 E.15006
G1 X156.687 Y86.705 E.15005
G1 X158.804 Y90.998 E.15008
G1 X160.342 Y95.53 E.15006
G1 X161.276 Y100.225 E.15009
G1 X161.582 Y104.896 E.14677
G1 X161.582 Y105.104 E.00652
G1 X161.276 Y109.775 E.14677
G1 X160.342 Y114.47 E.15009
G1 X158.804 Y119.002 E.15006
G1 X156.687 Y123.295 E.15008
G1 X154.028 Y127.274 E.15005
G1 X150.872 Y130.872 E.15006
G1 X147.274 Y134.028 E.15006
G1 X143.295 Y136.687 E.15005
G1 X139.002 Y138.804 E.15008
G1 X134.47 Y140.342 E.15006
G1 X129.775 Y141.276 E.15009
G1 X125 Y141.589 E.15004
G1 X120.225 Y141.276 E.15004
G1 X115.53 Y140.342 E.15009
G1 X110.998 Y138.804 E.15006
G1 X106.705 Y136.687 E.15008
G1 X102.726 Y134.028 E.15005
G1 X99.128 Y130.872 E.15006
G1 X95.972 Y127.274 E.15006
G1 X93.313 Y123.295 E.15005
G1 X91.196 Y119.002 E.15008
G1 X89.658 Y114.47 E.15006
G1 X88.724 Y109.775 E.15009
G1 X88.411 Y105 E.15004
G1 X88.724 Y100.225 E.15004
G1 X89.658 Y95.53 E.15009
G1 X91.196 Y90.998 E.15006
G1 X93.313 Y86.705 E.15008
G1 X95.939 Y82.776 E.14817
M204 S1000
;WIPE_START
G1 F8640
G1 X95.972 Y82.726 E-.01383
G1 X98.217 Y80.166 E-.78617
;WIPE_END
G1 Z.6 F720
G1 X95.911 Y85.565 F10800
G1 Z.2 F720
G1 E.8 F2100
M204 S800
;TYPE:Perimeter
G1 F1200
G1 X95.923 Y85.546 E.0007
G1 X98.471 Y82.176 E.13247
G1 X101.363 Y79.192 E.13029
G1 X104.651 Y76.539 E.13247
G1 X108.301 Y74.279 E.1346
G1 X112.075 Y72.541 E.13028
G1 X116.098 Y71.256 E.13242
G1 X120.25 Y70.476 E.13246
G1 X120.406 Y70.462 E.00491
G1 X124.465 Y70.211 E.12751
G1 X128.683 Y70.467 E.1325
G1 X132.902 Y71.256 E.13458
G1 X136.925 Y72.541 E.13242
G1 X140.76 Y74.312 E.13245
G1 X144.349 Y76.539 E.13243
G1 X147.585 Y79.146 E.13029
G1 X150.574 Y82.229 E.13464
G1 X153.116 Y85.604 E.13248
G1 X155.193 Y89.202 E.13026
G1 X156.866 Y93.159 E.1347
G1 X158.003 Y97.156 E.13029
G1 X158.655 Y101.331 E.13249
G1 X158.788 Y105.623 E.13464
G1 X158.394 Y109.831 E.13252
G1 X157.505 Y113.891 E.13031
G1 X156.105 Y117.877 E.13246
G1 X154.227 Y121.662 E.13248
G1 X151.895 Y125.189 E.13257
G1 X151.712 Y125.409 E.00897
G1 X149.152 Y128.398 E.12339
G1 X146.033 Y131.249 E.13249
G1 X142.589 Y133.693 E.13241
M73 Q3 S26
G1 X138.87 Y135.697 E.13246
M73 P3 R26
G1 X134.866 Y137.248 E.13463
G1 X130.769 Y138.274 E.13243
G1 X126.646 Y138.785 E.13026
G1 X122.423 Y138.789 E.13241
G1 X118.231 Y138.274 E.13243
G1 X114.067 Y137.227 E.13462
G1 X110.13 Y135.697 E.13244
G1 X106.47 Y133.73 E.13028
G1 X102.967 Y131.249 E.13459
G1 X99.848 Y128.398 E.13249
G1 X97.103 Y125.187 E.13245
G1 X94.773 Y121.662 E.13249
G1 X92.922 Y117.941 E.13031
G1 X91.495 Y113.891 E.13464
G1 X90.606 Y109.831 E.13031
G1 X90.212 Y105.623 E.13252
G1 X90.339 Y101.4 E.13247
G1 X90.982 Y97.224 E.13248
G1 X92.134 Y93.159 E.13247
G1 X93.831 Y89.162 E.13615
G1 X95.881 Y85.617 E.1284
M204 S1000
G1 X95.881 Y85.617 F10800
G1 X96.224 Y85.773
M204 S800
;TYPE:External perimeter
G1 F1200
G1 X98.742 Y82.438 E.13102
G1 X101.634 Y79.455 E.13027
G1 X104.888 Y76.833 E.13103
G1 X108.459 Y74.621 E.13171
G1 X112.233 Y72.884 E.13026
G1 X116.213 Y71.615 E.13098
G1 X120.429 Y70.838 E.13442
G1 X124.488 Y70.587 E.12751
G1 X128.659 Y70.844 E.13103
G1 X132.787 Y71.615 E.13167
G1 X136.767 Y72.884 E.13098
G1 X140.561 Y74.632 E.13098
G1 X144.094 Y76.82 E.1303
G1 X147.349 Y79.439 E.13099
G1 X150.273 Y82.456 E.13173
G1 X152.776 Y85.773 E.13029
G1 X154.866 Y89.391 E.13101
G1 X156.504 Y93.262 E.13179
G1 X157.645 Y97.282 E.13102
G1 X158.282 Y101.389 E.13031
G1 X158.413 Y105.588 E.13172
G1 X158.025 Y109.75 E.13106
G1 X157.137 Y113.81 E.13031
G1 X155.749 Y117.752 E.13104
G1 X153.889 Y121.494 E.13102
G1 X151.582 Y124.979 E.13104
G1 X151.426 Y125.164 E.00759
G1 X148.864 Y128.155 E.12348
G1 X145.779 Y130.97 E.13094
G1 X142.371 Y133.385 E.13096
G1 X138.691 Y135.365 E.13102
G1 X134.774 Y136.882 E.1317
G1 X130.723 Y137.9 E.13097
G1 X126.6 Y138.411 E.13026
G1 X122.423 Y138.412 E.13097
G1 X118.277 Y137.9 E.13098
G1 X114.204 Y136.875 E.13169
G1 X110.33 Y135.374 E.13027
G1 X106.649 Y133.398 E.13099
G1 X103.221 Y130.97 E.13171
G1 X100.151 Y128.17 E.13028
G1 X97.432 Y124.997 E.13102
G1 X95.111 Y121.494 E.13176
G1 X93.251 Y117.752 E.13102
G1 X91.869 Y113.83 E.13038
G1 X90.975 Y109.75 E.13096
G1 X90.952 Y109.525 E.00709
G1 X90.587 Y105.588 E.12397
G1 X90.716 Y101.412 E.131
G1 X91.355 Y97.282 E.13103
G1 X92.496 Y93.262 E.13102
G1 X94.157 Y89.35 E.13326
G1 X96.194 Y85.825 E.12765
M204 S1000
;WIPE_START
G1 F8640
G1 X96.224 Y85.773 E-.01386
G1 X98.276 Y83.056 E-.78614
;WIPE_END
G1 Z.6 F720
G1 X152.24 Y81.431 F10800
G1 Z.2 F720
M73 Q4 S26
G1 E.8 F2100
M204 S800
;TYPE:Solid infill
;WIDTH:0.421106
G1 F1200
G1 X150.403 Y79.593 E.08172
G1 X146.871 Y76.497 E.1477
G1 X146.57 Y76.295 E.0114
M73 P4 R26
G1 X153.705 Y83.43 E.31731
G1 X154.782 Y85.043 E.06099
G1 X144.957 Y75.218 E.43694
G1 X143.345 Y74.14 E.06098
G1 X155.86 Y86.655 E.55656
G1 X156.114 Y87.036 E.0144
G1 X156.512 Y87.842 E.02827
G1 X142.158 Y73.488 E.63835
G1 X141.103 Y72.968 E.03699
G1 X144.319 Y76.183 E.143
G1 X142.913 Y75.313 E.05199
G1 X140.048 Y72.447 E.12743
G1 X138.992 Y71.927 E.03702
G1 X141.508 Y74.442 E.11187
G1 X140.904 Y74.068 E.02234
G1 X140.339 Y73.808 E.01956
G1 X138.126 Y71.595 E.09842
G1 X137.317 Y71.321 E.02686
G1 X139.348 Y73.352 E.09032
G1 X138.357 Y72.895 E.03432
G1 X136.507 Y71.046 E.08225
G1 X135.698 Y70.771 E.02687
G1 X137.365 Y72.439 E.07416
G1 X136.951 Y72.248 E.01434
G1 X136.495 Y72.104 E.01504
G1 X134.888 Y70.497 E.07147
G1 X134.299 Y70.297 E.01956
G1 X134.117 Y70.261 E.00583
G1 X135.712 Y71.855 E.07091
G1 X134.929 Y71.607 E.02583
G1 X133.45 Y70.128 E.06577
G1 X132.782 Y69.995 E.02142
G1 X134.145 Y71.358 E.06062
G1 X133.362 Y71.11 E.02583
G1 X132.114 Y69.862 E.0555
G1 X131.447 Y69.73 E.02138
G1 X132.631 Y70.914 E.05265
G1 X131.974 Y70.792 E.02101
G1 X130.779 Y69.597 E.05314
G1 X130.112 Y69.464 E.02139
G1 X131.317 Y70.67 E.05361
G1 X130.661 Y70.548 E.02098
G1 X129.479 Y69.366 E.05257
G1 X128.907 Y69.329 E.01802
G1 X130.004 Y70.426 E.04879
G1 X129.347 Y70.304 E.02101
G1 X128.334 Y69.291 E.04505
G1 X127.762 Y69.253 E.01803
G1 X128.693 Y70.185 E.04143
G1 X128.123 Y70.149 E.01796
G1 X127.189 Y69.216 E.04151
G1 X126.617 Y69.178 E.01803
G1 X127.553 Y70.114 E.04163
G1 X126.982 Y70.079 E.01799
G1 X126.044 Y69.141 E.04171
G1 X125.472 Y69.103 E.01803
G1 X126.412 Y70.043 E.0418
G1 X125.842 Y70.008 E.01796
G1 X124.916 Y69.082 E.04118
G1 X124.414 Y69.115 E.01582
G1 X125.272 Y69.973 E.03816
G1 X124.702 Y69.938 E.01796
G1 X123.911 Y69.147 E.03518
G1 X123.409 Y69.18 E.01582
G1 X124.18 Y69.95 E.03427
G1 X123.675 Y69.981 E.01591
G1 X122.907 Y69.212 E.03418
G1 X122.404 Y69.245 E.01585
G1 X123.171 Y70.011 E.03409
G1 X122.667 Y70.042 E.01588
G1 X121.902 Y69.277 E.03402
G1 X121.4 Y69.31 E.01582
G1 X122.162 Y70.072 E.03389
G1 X121.658 Y70.103 E.01588
G1 X120.897 Y69.342 E.03384
G1 X120.395 Y69.375 E.01582
G1 X121.154 Y70.133 E.03373
G1 X120.649 Y70.164 E.01591
G1 X119.94 Y69.454 E.03155
G1 X119.493 Y69.543 E.01433
G1 X120.156 Y70.206 E.02948
G1 X119.706 Y70.29 E.0144
G1 X119.047 Y69.631 E.02931
G1 X118.601 Y69.72 E.0143
G1 X119.256 Y70.375 E.02913
G1 X118.806 Y70.46 E.0144
G1 X118.155 Y69.809 E.02895
G1 X117.709 Y69.897 E.0143
G1 X118.356 Y70.545 E.0288
G1 X117.906 Y70.629 E.0144
G1 X117.263 Y69.986 E.0286
G1 X116.817 Y70.075 E.0143
G1 X117.456 Y70.714 E.02842
G1 X117.006 Y70.799 E.0144
G1 X116.371 Y70.164 E.02824
G1 X115.924 Y70.252 E.01433
G1 X116.556 Y70.883 E.02808
G1 X116.105 Y70.968 E.01443
G1 X115.502 Y70.364 E.02684
G1 X115.102 Y70.5 E.01329
G1 X115.691 Y71.089 E.02619
G1 X115.286 Y71.218 E.01337
G1 X114.703 Y70.635 E.02593
G1 X114.304 Y70.771 E.01326
G1 X114.88 Y71.347 E.02562
G1 X114.474 Y71.476 E.0134
G1 X113.904 Y70.906 E.02535
G1 X113.505 Y71.042 E.01326
G1 X114.069 Y71.605 E.02506
G1 X113.663 Y71.735 E.01341
G1 X113.106 Y71.177 E.02479
G1 X112.706 Y71.313 E.01329
G1 X113.257 Y71.864 E.0245
G1 X112.852 Y71.993 E.01337
G1 X112.307 Y71.448 E.02424
G1 X111.908 Y71.584 E.01326
G1 X112.446 Y72.122 E.02393
G1 X112.04 Y72.251 E.0134
G1 X111.508 Y71.719 E.02366
G1 X111.251 Y71.807 E.00854
G1 X111.124 Y71.87 E.00446
G1 X111.673 Y72.419 E.02442
G1 X111.307 Y72.588 E.01268
G1 X110.765 Y72.046 E.0241
G1 X110.407 Y72.223 E.01256
G1 X110.94 Y72.756 E.0237
G1 X110.574 Y72.924 E.01266
G1 X110.049 Y72.4 E.02333
G1 X109.691 Y72.576 E.01254
G1 X110.207 Y73.093 E.02297
G1 X109.841 Y73.261 E.01266
G1 X109.333 Y72.753 E.02259
G1 X108.975 Y72.929 E.01254
G1 X109.474 Y73.429 E.02221
G1 X109.108 Y73.598 E.01268
G1 X108.616 Y73.106 E.02188
G1 X108.258 Y73.283 E.01256
G1 X108.741 Y73.766 E.02148
G1 X108.375 Y73.934 E.01266
G1 X107.9 Y73.459 E.02112
G1 X107.542 Y73.636 E.01256
G1 X108.023 Y74.118 E.02141
G1 X107.693 Y74.322 E.0122
G1 X107.184 Y73.813 E.02264
G1 X106.848 Y74.012 E.01228
G1 X107.363 Y74.527 E.0229
G1 X107.033 Y74.732 E.01222
G1 X106.527 Y74.226 E.0225
G1 X106.206 Y74.44 E.01213
G1 X106.703 Y74.936 E.02208
G1 X106.373 Y75.141 E.01222
G1 X105.886 Y74.654 E.02166
G1 X105.565 Y74.868 E.01213
G1 X106.042 Y75.346 E.02124
G1 X105.712 Y75.55 E.0122
G1 X105.245 Y75.083 E.02077
G1 X104.924 Y75.297 E.01213
G1 X105.382 Y75.755 E.02037
G1 X105.052 Y75.96 E.01222
G1 X104.603 Y75.511 E.01997
G1 X104.283 Y75.725 E.01211
G1 X104.722 Y76.164 E.01952
G1 X104.401 Y76.378 E.01213
G1 X103.962 Y75.94 E.0195
G1 X103.642 Y76.154 E.01211
G1 X104.104 Y76.617 E.02057
G1 X103.808 Y76.855 E.01194
G1 X103.321 Y76.368 E.02166
G1 X103.129 Y76.497 E.00727
G1 X103.015 Y76.597 E.00477
G1 X103.512 Y77.094 E.0221
G1 X103.216 Y77.332 E.01194
G1 X102.73 Y76.846 E.02161
G1 X102.445 Y77.096 E.01192
G1 X102.919 Y77.571 E.0211
G1 X102.623 Y77.81 E.01196
G1 X102.16 Y77.346 E.02061
G1 X101.875 Y77.596 E.01192
G1 X102.327 Y78.048 E.0201
G1 X102.031 Y78.287 E.01196
G1 X101.59 Y77.846 E.01961
G1 X101.305 Y78.096 E.01192
G1 X101.735 Y78.526 E.01912
G1 X101.438 Y78.764 E.01197
G1 X101.02 Y78.346 E.01859
G1 X100.735 Y78.596 E.01192
G1 X101.15 Y79.01 E.01843
G1 X100.886 Y79.282 E.01192
G1 X100.45 Y78.846 E.01939
G1 X100.165 Y79.095 E.0119
G1 X100.623 Y79.553 E.02037
G1 X100.359 Y79.825 E.01192
G1 X99.88 Y79.345 E.02132
G1 X99.595 Y79.595 E.01192
G1 X100.096 Y80.096 E.02228
G1 X99.833 Y80.368 E.0119
G1 X99.345 Y79.88 E.0217
G1 X99.095 Y80.165 E.01192
G1 X99.569 Y80.639 E.02108
G1 X99.306 Y80.911 E.0119
G1 X98.846 Y80.45 E.02048
G1 X98.596 Y80.735 E.01192
G1 X99.043 Y81.182 E.01988
G1 X98.779 Y81.454 E.01192
G1 X98.346 Y81.02 E.01928
G1 X98.096 Y81.305 E.01192
G1 X98.516 Y81.725 E.01868
G1 X98.253 Y81.997 E.0119
G1 X97.846 Y81.59 E.0181
G1 X97.596 Y81.875 E.01192
G1 X98.021 Y82.3 E.0189
G1 X97.791 Y82.605 E.01201
G1 X97.346 Y82.16 E.01979
G1 X97.096 Y82.445 E.01192
G1 X97.561 Y82.91 E.02068
G1 X97.332 Y83.215 E.01199
M73 P4 R25
G1 X96.847 Y82.73 E.02157
G1 X96.597 Y83.015 E.01192
G1 X97.102 Y83.52 E.02246
G1 X96.872 Y83.825 E.01201
G1 X96.368 Y83.321 E.02241
G1 X96.154 Y83.642 E.01213
G1 X96.642 Y84.13 E.0217
G1 X96.412 Y84.435 E.01201
