; generated by PrusaSlicer 2.7.2+win64 on 2024-07-10 at 10:44:35 UTC


;
;
; 

; external perimeters extrusion width = 0.60mm
; perimeters extrusion width = 0.50mm
; infill extrusion width = 0.50mm
; solid infill extrusion width = 0.50mm
; top infill extrusion width = 0.45mm
; first layer extrusion width = 0.42mm

M73 P0 R2
M73 Q0 S2
M201 X1000 Y1000 Z200 E5000 ; sets maximum accelerations, mm/sec^2
M203 X200 Y200 Z12 E120 ; sets maximum feedrates, mm / sec
M204 S1250 T1250 ; sets acceleration (S) and retract acceleration (R), mm/sec^2
M205 X8.00 Y8.00 Z0.40 E4.50 ; sets the jerk limits, mm/sec
M205 S0 T0 ; sets the minimum extruding and travel feed rate, mm/sec

; printing object RasentrimmerHalterung.stl id:0 copy 0
; stop printing object RasentrimmerHalterung.stl id:0 copy 0

;TYPE:Custom
M862.3 P "MK3S" ; printer model check
M862.1 P0.4 ; nozzle diameter check
M115 U3.11.0 ; tell printer latest fw version
G90 ; use absolute coordinates
M83 ; extruder relative mode
M104 S215 ; set extruder temp
M140 S60 ; set bed temp
M190 S60 ; wait for bed temp
M109 S215 ; wait for extruder temp
G28 W ; home all without mesh bed level
G80 ; mesh bed leveling

G1 Z0.2 F720
G1 Y-3 F1000 ; go outside print area
G92 E0
G1 X60 E9 F1000 ; intro line
G1 X100 E12.5 F1000 ; intro line
M73 P2 R2
M73 Q2 S2

G92 E0
M221 S95

; Don't change E values below. Excessive value can damage the printer.

M907 E538 ; set extruder motor current
G21 ; set units to millimeters
G90 ; use absolute coordinates
M83 ; use relative distances for extrusion
M900 K0.05 ; Filament gcode LA 1.5
M900 K30 ; Filament gcode LA 1.0
M107
;LAYER_CHANGE
;Z:0.2
;HEIGHT:0.2
G1 E-.8 F2100
M73 P4 R2
M73 Q4 S2
G1 Z.6 F720
G1 X111.739 Y99.333 F10800
G1 Z.2 F720
G1 E.8 F2100
M204 S800
;TYPE:Skirt/Brim
;WIDTH:0.42
G1 F1200
G1 X112.805 Y98.319 E.04613
G1 X114.1 Y97.996 E.04185
M73 Q5 S2
G1 X135.9 Y97.996 E.68352
G1 X137.317 Y98.389 E.04611
M73 P5 R2
G1 X138.331 Y99.455 E.04613
G1 X138.654 Y100.75 E.04185
G1 X138.654 Y109.25 E.26651
G1 X138.261 Y110.667 E.04611
M73 P6 R2
M73 Q6 S2
G1 X137.195 Y111.681 E.04613
G1 X135.9 Y112.004 E.04185
G1 X114.1 Y112.004 E.68352
G1 X112.683 Y111.611 E.04611
M73 Q7 S2
G1 X111.669 Y110.545 E.04613
G1 X111.346 Y109.25 E.04185
G1 X111.346 Y100.75 E.26651
M73 P7 R2
G1 X111.723 Y99.39 E.04425
M204 S1000
G1 X111.723 Y99.39 F10800
G1 X112.097 Y99.502
M204 S800
G1 F1200
G1 X112.115 Y99.443 E.00193
G1 X113.16 Y98.567 E.04275
G1 X114.1 Y98.373 E.03009
G1 X135.9 Y98.373 E.68352
G1 X137.207 Y98.765 E.04278
M73 P8 R2
M73 Q8 S2
G1 X138.083 Y99.81 E.04275
G1 X138.277 Y100.75 E.03009
G1 X138.277 Y109.25 E.26651
G1 X137.885 Y110.557 E.04278
G1 X136.84 Y111.433 E.04275
G1 X135.9 Y111.627 E.03009
G1 X114.1 Y111.627 E.68352
G1 X112.793 Y111.235 E.04278
M73 P9 R2
M73 Q9 S2
G1 X111.917 Y110.19 E.04275
G1 X111.723 Y109.25 E.03009
G1 X111.723 Y100.75 E.26651
G1 X112.079 Y99.56 E.03895
M73 Q10 S2
M204 S1000
; printing object RasentrimmerHalterung.stl id:0 copy 0
;WIPE_START
G1 F8640
G1 X112.097 Y99.502 E-.01402
G1 X112.115 Y99.443 E-.01424
G1 X113.16 Y98.567 E-.31486
G1 X114.1 Y98.373 E-.22162
G1 X115.119 Y98.373 E-.23526
;WIPE_END
G1 Z.6 F720
G1 X114.887 Y101.537 F10800
G1 Z.2 F720
M73 P10 R2
G1 E.8 F2100
M204 S800
;TYPE:Perimeter
;WIDTH:0.419999
G1 F1200
G1 X135.113 Y101.537 E.63417
G1 X135.113 Y105 E.10858
M73 Q11 S2
G1 X135.113 Y108.463 E.10858
G1 X114.887 Y108.463 E.63417
M73 P11 R2
G1 X114.887 Y101.597 E.21528
M204 S1000
G1 X114.51 Y101.16 F10800
M73 Q12 S2
M204 S800
;TYPE:External perimeter
G1 F1200
G1 X135.49 Y101.16 E.65781
G1 X135.49 Y105 E.1204
M73 P12 R2
G1 X135.49 Y108.84 E.1204
M73 Q13 S2
G1 X114.51 Y108.84 E.65781
G1 X114.51 Y101.22 E.23892
M73 P13 R2
M204 S1000
;WIPE_START
G1 F8640
M73 Q14 S2
G1 X114.51 Y101.16 E-.01385
G1 X117.915 Y101.16 E-.78615
;WIPE_END
G1 Z.6 F720
G1 X135 Y102.416 F10800
M73 P14 R2
G1 Z.2 F720
G1 E.8 F2100
M204 S800
;TYPE:Solid infill
;WIDTH:0.42157
G1 F1200
G1 X134.404 Y101.82 E.02654
G1 X133.868 Y101.82 E.01688
G1 X134.83 Y102.782 E.04283
G1 X134.83 Y103.317 E.01684
G1 X133.333 Y101.82 E.06666
G1 X132.797 Y101.82 E.01688
G1 X134.83 Y103.853 E.09052
G1 X134.83 Y104.388 E.01684
G1 X132.262 Y101.82 E.11434
G1 X131.726 Y101.82 E.01688
G1 X134.83 Y104.924 E.13821
G1 X134.83 Y105.459 E.01684
M73 Q15 S2
G1 X131.191 Y101.82 E.16203
G1 X130.655 Y101.82 E.01688
M73 P15 R2
G1 X134.83 Y105.995 E.1859
G1 X134.83 Y106.53 E.01684
G1 X130.12 Y101.82 E.20972
G1 X129.584 Y101.82 E.01688
G1 X134.83 Y107.066 E.23359
G1 X134.83 Y107.601 E.01684
M73 Q16 S2
G1 X129.049 Y101.82 E.25741
G1 X128.513 Y101.82 E.01688
M73 P16 R2
G1 X134.83 Y108.137 E.28127
G1 X134.83 Y108.18 E.00135
G1 X134.338 Y108.18 E.01549
G1 X127.978 Y101.82 E.28319
G1 X127.442 Y101.82 E.01688
G1 X133.803 Y108.18 E.28321
M73 Q17 S2
G1 X133.267 Y108.18 E.01688
M73 P17 R2
G1 X126.907 Y101.82 E.28319
G1 X126.372 Y101.82 E.01684
G1 X132.732 Y108.18 E.28319
G1 X132.196 Y108.18 E.01688
G1 X125.836 Y101.82 E.28319
G1 X125.301 Y101.82 E.01684
M73 P18 R2
M73 Q18 S2
G1 X131.661 Y108.18 E.28319
G1 X131.125 Y108.18 E.01688
G1 X124.765 Y101.82 E.28319
G1 X124.23 Y101.82 E.01684
G1 X130.59 Y108.18 E.28319
G1 X130.054 Y108.18 E.01688
M73 P19 R2
M73 Q19 S2
G1 X123.694 Y101.82 E.28319
G1 X123.159 Y101.82 E.01684
G1 X129.519 Y108.18 E.28319
G1 X128.983 Y108.18 E.01688
G1 X122.623 Y101.82 E.28319
G1 X122.088 Y101.82 E.01684
M73 P20 R2
M73 Q20 S2
G1 X128.448 Y108.18 E.28319
G1 X127.912 Y108.18 E.01688
G1 X121.552 Y101.82 E.28319
G1 X121.017 Y101.82 E.01684
G1 X127.377 Y108.18 E.28319
G1 X126.841 Y108.18 E.01688
M73 P21 R1
M73 Q21 S2
G1 X120.481 Y101.82 E.28319
G1 X119.946 Y101.82 E.01684
M73 Q21 S1
G1 X126.306 Y108.18 E.28319
G1 X125.77 Y108.18 E.01688
G1 X119.41 Y101.82 E.28319
G1 X118.875 Y101.82 E.01684
M73 Q22 S1
G1 X125.235 Y108.18 E.28319
M73 P22 R1
G1 X124.699 Y108.18 E.01688
G1 X118.339 Y101.82 E.28319
G1 X117.804 Y101.82 E.01684
G1 X124.164 Y108.18 E.28319
G1 X123.628 Y108.18 E.01688
M73 Q23 S1
G1 X117.268 Y101.82 E.28319
G1 X116.733 Y101.82 E.01684
M73 P23 R1
G1 X123.093 Y108.18 E.28319
G1 X122.557 Y108.18 E.01688
G1 X116.197 Y101.82 E.28319
G1 X115.662 Y101.82 E.01684
M73 Q24 S1
G1 X122.022 Y108.18 E.28319
G1 X121.486 Y108.18 E.01688
M73 P24 R1
G1 X115.17 Y101.864 E.28123
G1 X115.17 Y102.399 E.01684
G1 X120.951 Y108.18 E.25741
G1 X120.415 Y108.18 E.01688
M73 Q25 S1
G1 X115.17 Y102.935 E.23354
G1 X115.17 Y103.47 E.01684
M73 P25 R1
G1 X119.88 Y108.18 E.20972
G1 X119.344 Y108.18 E.01688
G1 X115.17 Y104.006 E.18585
G1 X115.17 Y104.541 E.01684
G1 X118.809 Y108.18 E.16203
G1 X118.273 Y108.18 E.01688
G1 X115.17 Y105.077 E.13817
G1 X115.17 Y105.612 E.01684
M73 Q26 S1
G1 X117.738 Y108.18 E.11434
M73 P26 R1
G1 X117.202 Y108.18 E.01688
G1 X115.17 Y106.148 E.09048
G1 X115.17 Y106.683 E.01684
G1 X116.667 Y108.18 E.06666
G1 X116.131 Y108.18 E.01688
G1 X115.17 Y107.219 E.04279
G1 X115.17 Y107.754 E.01684
G1 X115.766 Y108.35 E.02654
M204 S1000
; stop printing object RasentrimmerHalterung.stl id:0 copy 0
M106 S84.15
;LAYER_CHANGE
;Z:0.5
;HEIGHT:0.3
;BEFORE_LAYER_CHANGE
G92 E0.0
;0.5


;WIPE_START
G1 F8640
G1 X115.17 Y107.754 E-.19462
G1 X115.17 Y107.219 E-.12353
G1 X116.131 Y108.18 E-.31381
G1 X116.667 Y108.18 E-.12376
G1 X116.531 Y108.044 E-.04428
;WIPE_END
G1 Z.5 F720
;AFTER_LAYER_CHANGE
;0.5
M104 S210 ; set temperature
G1 Z.9
G1 X116.531 Y112.004 F10800
G1 Z.5 F720
G1 E.8 F2100
;TYPE:Skirt/Brim
;WIDTH:0.42
G1 F2425
G1 X114.1 Y112.004 E.10783
G1 X112.683 Y111.611 E.06522
M73 Q27 S1
G1 X111.669 Y110.545 E.06526
G1 X111.346 Y109.25 E.0592
G1 X111.346 Y100.75 E.37702
G1 X111.739 Y99.333 E.06522
M73 P27 R1
G1 X112.805 Y98.319 E.06526
G1 X114.1 Y97.996 E.0592
G1 X135.9 Y97.996 E.96693
G1 X137.317 Y98.389 E.06522
G1 X138.331 Y99.455 E.06526
G1 X138.654 Y100.75 E.0592
G1 X138.654 Y109.25 E.37702
G1 X138.261 Y110.667 E.06522
G1 X137.195 Y111.681 E.06526
G1 X135.9 Y112.004 E.0592
G1 X116.591 Y112.004 E.85645
M73 Q28 S1
G1 X116.591 Y112.004 F10800
M73 P28 R1
G1 X116.591 Y111.627
G1 F2425
G1 X114.1 Y111.627 E.11049
G1 X112.793 Y111.235 E.06052
G1 X111.917 Y110.19 E.06048
G1 X111.723 Y109.25 E.04257
G1 X111.723 Y100.75 E.37702
G1 X112.115 Y99.443 E.06052
G1 X113.16 Y98.567 E.06048
G1 X114.1 Y98.373 E.04257
G1 X135.9 Y98.373 E.96693
G1 X137.207 Y98.765 E.06052
M73 Q29 S1
G1 X138.083 Y99.81 E.06048
G1 X138.277 Y100.75 E.04257
G1 X138.277 Y109.25 E.37702
G1 X137.885 Y110.557 E.06052
M73 P29 R1
G1 X136.84 Y111.433 E.06048
G1 X135.9 Y111.627 E.04257
G1 X116.651 Y111.627 E.85379
; printing object RasentrimmerHalterung.stl id:0 copy 0
;WIPE_START
G1 F8640
G1 X116.591 Y111.627 E-.01385
G1 X114.1 Y111.627 E-.57518
G1 X113.225 Y111.365 E-.21097
;WIPE_END
G1 Z.9 F720
G1 X114.886 Y108.464 F10800
G1 Z.5 F720
G1 E.8 F2100
M204 S800
;TYPE:Perimeter
;WIDTH:0.5
G1 F2425
G1 X114.886 Y101.536 E.37642
G1 X135.114 Y101.536 E1.09904
M73 Q30 S1
G1 X135.114 Y105 E.18821
M73 P30 R1
G1 X135.114 Y108.464 E.18821
G1 X114.946 Y108.464 E1.09578
M204 S1000
G1 X114.946 Y108.464 F10800
G1 X114.4 Y108.95
M204 S800
;TYPE:External perimeter
;WIDTH:0.6
G1 F2100
G1 X114.4 Y101.05 E.52776
G1 X135.6 Y101.05 E1.41627
M73 Q31 S1
G1 X135.6 Y105 E.26388
M73 P31 R1
G1 X135.6 Y108.95 E.26388
G1 X114.46 Y108.95 E1.41227
M204 S1000
;WIPE_START
G1 F8640
M73 Q32 S1
G1 X114.4 Y108.95 E-.01385
G1 X114.4 Y105.545 E-.78615
;WIPE_END
G1 Z.9 F720
M73 P32 R1
G1 X115.331 Y101.898 F10800
G1 Z.5 F720
G1 E.8 F2100
;TYPE:Solid infill
;WIDTH:0.605691
G1 F2425
G1 X115.283 Y101.85 E.00458
G1 X115.217 Y101.867 E.0046
G1 X115.2 Y101.933 E.0046
G1 X115.248 Y101.981 E.00458
G1 X115.313 Y101.963 E.00455
;WIDTH:0.5
G1 X115.212 Y102.659 E.03821
G1 X116.009 Y101.862 E.06124
G1 X116.625 Y101.862 E.03347
G1 X115.212 Y103.275 E.10857
G1 X115.212 Y103.891 E.03347
G1 X117.241 Y101.862 E.1559
G1 X117.857 Y101.862 E.03347
G1 X115.212 Y104.507 E.20324
G1 X115.212 Y105.123 E.03347
G1 X118.473 Y101.862 E.25057
G1 X119.089 Y101.862 E.03347
G1 X115.212 Y105.739 E.2979
G1 X115.212 Y106.355 E.03347
G1 X119.705 Y101.862 E.34523
G1 X120.321 Y101.862 E.03347
M73 Q33 S1
G1 X115.212 Y106.971 E.39257
G1 X115.212 Y107.587 E.03347
M73 P33 R1
G1 X120.937 Y101.862 E.4399
G1 X121.553 Y101.862 E.03347
G1 X115.278 Y108.138 E.4822
G1 X115.161 Y108.096 E.00675
;WIDTH:0.45219
G1 X115.045 Y108.054 E.00597
;WIDTH:0.404381
G1 X115.059 Y108.291 E.01007
;WIDTH:0.5
G1 X115.894 Y108.138 E.04612
G1 X122.169 Y101.862 E.4822
G1 X122.785 Y101.862 E.03347
G1 X116.51 Y108.138 E.4822
G1 X117.126 Y108.138 E.03347
G1 X123.402 Y101.862 E.48224
M73 Q34 S1
G1 X124.018 Y101.862 E.03347
M73 P34 R1
G1 X117.742 Y108.138 E.48224
G1 X118.358 Y108.138 E.03347
G1 X124.634 Y101.862 E.48224
G1 X125.25 Y101.862 E.03347
G1 X118.974 Y108.138 E.48224
G1 X119.59 Y108.138 E.03347
G1 X125.866 Y101.862 E.48224
G1 X126.482 Y101.862 E.03347
G1 X120.206 Y108.138 E.48224
G1 X120.823 Y108.138 E.03352
M73 Q35 S1
G1 X127.098 Y101.862 E.4822
G1 X127.714 Y101.862 E.03347
M73 P35 R1
G1 X121.439 Y108.138 E.4822
G1 X122.055 Y108.138 E.03347
G1 X128.33 Y101.862 E.4822
G1 X128.946 Y101.862 E.03347
G1 X122.671 Y108.138 E.4822
G1 X123.287 Y108.138 E.03347
G1 X129.562 Y101.862 E.4822
G1 X130.178 Y101.862 E.03347
M73 Q36 S1
G1 X123.903 Y108.138 E.4822
G1 X124.519 Y108.138 E.03347
M73 P36 R1
G1 X130.794 Y101.862 E.4822
G1 X131.41 Y101.862 E.03347
G1 X125.135 Y108.138 E.4822
G1 X125.751 Y108.138 E.03347
G1 X132.026 Y101.862 E.4822
G1 X132.642 Y101.862 E.03347
G1 X126.367 Y108.138 E.4822
G1 X126.983 Y108.138 E.03347
G1 X133.258 Y101.862 E.4822
G1 X133.875 Y101.862 E.03352
M73 Q37 S1
G1 X127.599 Y108.138 E.48224
G1 X128.215 Y108.138 E.03347
M73 P37 R1
G1 X134.491 Y101.862 E.48224
G1 X134.699 Y101.832 E.01142
;WIDTH:0.45219
G1 X134.908 Y101.802 E.01021
;WIDTH:0.404381
G1 X134.867 Y101.813 E.0018
G1 X134.848 Y101.742 E.00312
G1 X134.919 Y101.761 E.00312
;WIDTH:0.5
G1 X134.788 Y102.181 E.0239
G1 X128.831 Y108.138 E.45773
G1 X129.447 Y108.138 E.03347
G1 X134.788 Y102.797 E.41039
G1 X134.788 Y103.413 E.03347
G1 X130.063 Y108.138 E.36306
G1 X130.679 Y108.138 E.03347
G1 X134.788 Y104.029 E.31573
G1 X134.788 Y104.646 E.03352
M73 Q38 S1
G1 X131.296 Y108.138 E.26832
G1 X131.912 Y108.138 E.03347
M73 P38 R1
G1 X134.788 Y105.262 E.22099
G1 X134.788 Y105.878 E.03347
G1 X132.528 Y108.138 E.17365
G1 X133.144 Y108.138 E.03347
G1 X134.788 Y106.494 E.12632
G1 X134.788 Y107.11 E.03347
G1 X133.76 Y108.138 E.07899
G1 X134.239 Y108.354 E.02855
;WIDTH:0.404381
G1 X134.198 Y108.365 E.0018
G1 X134.179 Y108.294 E.00312
G1 X134.25 Y108.313 E.00312
;WIDTH:0.45219
G1 X134.313 Y108.225 E.00523
;WIDTH:0.5
G1 X134.376 Y108.138 E.00584
G1 X134.788 Y107.726 E.03166
G1 X134.896 Y107.657 E.00696
;WIDTH:0.45219
G1 X135.004 Y107.589 E.00617
;WIDTH:0.404381
G1 X134.963 Y107.6 E.0018
G1 X134.944 Y107.529 E.00312
G1 X135.015 Y107.548 E.00312
; stop printing object RasentrimmerHalterung.stl id:0 copy 0
M106 S170.85
;LAYER_CHANGE
;Z:0.8
;HEIGHT:0.3
;BEFORE_LAYER_CHANGE
G92 E0.0
;0.8


;WIPE_START
G1 F8640
G1 X134.944 Y107.529 E-.01697
G1 X134.963 Y107.6 E-.01697
G1 X135.004 Y107.589 E-.0098
G1 X134.896 Y107.657 E-.02947
G1 X134.788 Y107.726 E-.02959
G1 X134.376 Y108.138 E-.13454
G1 X134.313 Y108.225 E-.0248
G1 X134.25 Y108.313 E-.02499
G1 X134.179 Y108.294 E-.01697
G1 X134.198 Y108.365 E-.01697
G1 X134.239 Y108.354 E-.0098
G1 X133.76 Y108.138 E-.12133
G1 X134.788 Y107.11 E-.33569
G1 X134.788 Y107.058 E-.01211
;WIPE_END
G1 Z.8 F720
;AFTER_LAYER_CHANGE
;0.8
G1 Z1.2
G1 X138.654 Y107.058 F10800
G1 Z.8 F720
G1 E.8 F2100
;TYPE:Skirt/Brim
;WIDTH:0.42
G1 F2429
G1 X138.654 Y109.25 E.09723
G1 X138.261 Y110.667 E.06522
M73 Q39 S1
G1 X137.195 Y111.681 E.06526
G1 X135.9 Y112.004 E.0592
G1 X114.1 Y112.004 E.96693
G1 X112.683 Y111.611 E.06522
M73 P39 R1
G1 X111.669 Y110.545 E.06526
G1 X111.346 Y109.25 E.0592
G1 X111.346 Y100.75 E.37702
G1 X111.739 Y99.333 E.06522
G1 X112.805 Y98.319 E.06526
G1 X114.1 Y97.996 E.0592
G1 X135.9 Y97.996 E.96693
G1 X137.317 Y98.389 E.06522
M73 Q40 S1
G1 X138.331 Y99.455 E.06526
M73 P40 R1
G1 X138.654 Y100.75 E.0592
G1 X138.654 Y106.998 E.27713
G1 X138.654 Y106.998 F10800
G1 X138.277 Y106.998
G1 F2429
G1 X138.277 Y109.25 E.09989
G1 X137.885 Y110.557 E.06052
G1 X136.84 Y111.433 E.06048
G1 X135.9 Y111.627 E.04257
G1 X114.1 Y111.627 E.96693
G1 X112.793 Y111.235 E.06052
G1 X111.917 Y110.19 E.06048
G1 X111.723 Y109.25 E.04257
G1 X111.723 Y100.75 E.37702
G1 X112.115 Y99.443 E.06052
M73 Q41 S1
G1 X113.16 Y98.567 E.06048
G1 X114.1 Y98.373 E.04257
G1 X135.9 Y98.373 E.96693
G1 X137.207 Y98.765 E.06052
M73 P41 R1
G1 X138.083 Y99.81 E.06048
G1 X138.277 Y100.75 E.04257
G1 X138.277 Y106.938 E.27447
; printing object RasentrimmerHalterung.stl id:0 copy 0
;WIPE_START
G1 F8640
G1 X138.277 Y106.998 E-.01385
G1 X138.277 Y109.25 E-.51999
G1 X137.946 Y110.354 E-.26616
;WIPE_END
G1 Z1.2 F720
G1 X135.114 Y108.464 F10800
G1 Z.8 F720
G1 E.8 F2100
M204 S800
;TYPE:Perimeter
;WIDTH:0.5
G1 F2429
G1 X114.886 Y108.464 E1.09904
G1 X114.886 Y101.536 E.37642
M73 P42 R1
M73 Q42 S1
G1 X135.114 Y101.536 E1.09904
G1 X135.114 Y105 E.18821
G1 X135.114 Y108.404 E.18495
M204 S1000
G1 X135.114 Y108.404 F10800
G1 X135.6 Y108.95
M204 S800
;TYPE:External perimeter
;WIDTH:0.6
G1 F2100
G1 X114.4 Y108.95 E1.41627
G1 X114.4 Y101.05 E.52776
M73 P43 R1
M73 Q43 S1
G1 X135.6 Y101.05 E1.41627
G1 X135.6 Y105 E.26388
G1 X135.6 Y108.89 E.25987
M73 Q44 S1
M204 S1000
;WIPE_START
G1 F8640
G1 X135.6 Y108.95 E-.01385
G1 X132.195 Y108.95 E-.78615
;WIPE_END
G1 Z1.2 F720
M73 P44 R1
G1 X115.248 Y108.019 F10800
G1 Z.8 F720
G1 E.8 F2100
;TYPE:Solid infill
;WIDTH:0.605691
G1 F2429
G1 X115.2 Y108.067 E.00458
G1 X115.217 Y108.133 E.0046
G1 X115.283 Y108.15 E.0046
G1 X115.331 Y108.102 E.00458
G1 X115.313 Y108.037 E.00455
;WIDTH:0.5
G1 X115.212 Y107.341 E.03821
G1 X116.087 Y108.21 E.067
;WIDTH:0.45219
G1 X116.165 Y108.283 E.00517
;WIDTH:0.404381
G1 X116.146 Y108.354 E.00312
G1 X116.217 Y108.335 E.00312
G1 X116.206 Y108.294 E.0018
;WIDTH:0.5
G1 X116.625 Y108.138 E.02429
G1 X115.212 Y106.725 E.10857
G1 X115.212 Y106.109 E.03347
G1 X117.241 Y108.138 E.1559
G1 X117.857 Y108.138 E.03347
G1 X115.212 Y105.493 E.20324
G1 X115.212 Y104.877 E.03347
