; generated by PrusaSlicer 2.7.2+win64 on 2024-08-09 at 14:25:23 UTC


;
;
; 

; external perimeters extrusion width = 0.60mm
; perimeters extrusion width = 0.50mm
; infill extrusion width = 0.50mm
; solid infill extrusion width = 0.50mm
; top infill extrusion width = 0.45mm
; first layer extrusion width = 0.42mm

M73 P0 R17
M73 Q0 S17
M201 X1000 Y1000 Z200 E5000 ; sets maximum accelerations, mm/sec^2
M203 X200 Y200 Z12 E120 ; sets maximum feedrates, mm / sec
M204 S1250 T1250 ; sets acceleration (S) and retract acceleration (R), mm/sec^2
M205 X8.00 Y8.00 Z0.40 E4.50 ; sets the jerk limits, mm/sec
M205 S0 T0 ; sets the minimum extruding and travel feed rate, mm/sec

; printing object RasentrimmerRing67.stl id:0 copy 0
; stop printing object RasentrimmerRing67.stl id:0 copy 0

;TYPE:Custom
M862.3 P "MK3S" ; printer model check
M862.1 P0.4 ; nozzle diameter check
M115 U3.11.0 ; tell printer latest fw version
G90 ; use absolute coordinates
M83 ; extruder relative mode
M104 S215 ; set extruder temp
M140 S60 ; set bed temp
M190 S60 ; wait for bed temp
M109 S215 ; wait for extruder temp
G28 W ; home all without mesh bed level
G80 ; mesh bed leveling

G1 Z0.2 F720
G1 Y-3 F1000 ; go outside print area
G92 E0
G1 X60 E9 F1000 ; intro line
G1 X100 E12.5 F1000 ; intro line

G92 E0
M221 S95

; Don't change E values below. Excessive value can damage the printer.

M907 E538 ; set extruder motor current
G21 ; set units to millimeters
G90 ; use absolute coordinates
M83 ; use relative distances for extrusion
M900 K0.05 ; Filament gcode LA 1.5
M900 K30 ; Filament gcode LA 1.0
M107
;LAYER_CHANGE
;Z:0.2
;HEIGHT:0.2
G1 E-.8 F2100
G1 Z.6 F720
G1 X93.67 Y81.155 F10800
G1 Z.2 F720
G1 E.8 F2100
M204 S800
;TYPE:Skirt/Brim
;WIDTH:0.42
G1 F1200
G1 X97.27 Y77.05 E.17119
G1 X100.909 Y73.859 E.15175
G1 X105.179 Y70.981 E.16145
G1 X110.077 Y68.565 E.17124
G1 X114.66 Y67.01 E.15174
G1 X119.707 Y65.986 E.16147
G1 X125.156 Y65.628 E.17122
G1 X130.293 Y65.986 E.16146
G1 X135.04 Y66.93 E.15175
G1 X140.21 Y68.684 E.17118
G1 X144.551 Y70.825 E.15176
G1 X148.845 Y73.67 E.1615
G1 X152.95 Y77.27 E.17119
M73 Q1 S17
G1 X156.141 Y80.909 E.15175
M73 P1 R17
G1 X159.019 Y85.179 E.16145
G1 X161.435 Y90.077 E.17124
G1 X163.07 Y94.96 E.16146
G1 X164.014 Y99.707 E.15175
G1 X164.372 Y105.156 E.17122
G1 X164.014 Y110.293 E.16146
G1 X163.07 Y115.04 E.15175
G1 X161.316 Y120.21 E.17118
G1 X159.175 Y124.551 E.15176
G1 X156.33 Y128.845 E.1615
G1 X152.73 Y132.95 E.17119
G1 X149.091 Y136.141 E.15175
G1 X144.821 Y139.019 E.16145
G1 X139.923 Y141.435 E.17124
G1 X135.04 Y143.07 E.16146
G1 X130.293 Y144.014 E.15175
G1 X124.844 Y144.372 E.17122
G1 X119.707 Y144.014 E.16146
G1 X114.96 Y143.07 E.15175
G1 X109.79 Y141.316 E.17118
G1 X105.449 Y139.175 E.15176
G1 X101.155 Y136.33 E.1615
G1 X97.05 Y132.73 E.17119
G1 X93.67 Y128.845 E.16146
G1 X90.981 Y124.821 E.15175
G1 X88.565 Y119.923 E.17124
G1 X86.93 Y115.04 E.16146
G1 X85.986 Y110.293 E.15175
G1 X85.628 Y104.844 E.17122
G1 X85.986 Y99.707 E.16146
G1 X86.93 Y94.96 E.15175
G1 X88.684 Y89.79 E.17118
G1 X90.825 Y85.449 E.15176
G1 X93.636 Y81.205 E.15961
M204 S1000
; printing object RasentrimmerRing67.stl id:0 copy 0
;WIPE_START
G1 F8640
G1 X93.67 Y81.155 E-.01396
G1 X95.914 Y78.595 E-.78604
;WIPE_END
G1 Z.6 F720
G1 X96.272 Y82.956 F10800
G1 Z.2 F720
G1 E.8 F2100
M204 S800
;TYPE:Perimeter
;WIDTH:0.419999
G1 F1200
G1 X99.395 Y79.395 E.14851
G1 X102.956 Y76.272 E.14851
G1 X106.894 Y73.64 E.14851
G1 X111.143 Y71.545 E.14854
G1 X115.628 Y70.023 E.1485
M73 Q2 S17
G1 X120.274 Y69.099 E.14852
M73 P2 R17
G1 X125 Y68.789 E.1485
G1 X129.726 Y69.099 E.1485
G1 X134.372 Y70.023 E.14852
G1 X138.857 Y71.545 E.1485
G1 X143.106 Y73.64 E.14854
G1 X147.044 Y76.272 E.14851
G1 X150.605 Y79.395 E.14851
G1 X153.728 Y82.956 E.14851
G1 X156.36 Y86.894 E.14851
G1 X158.455 Y91.143 E.14854
G1 X159.977 Y95.628 E.1485
G1 X160.901 Y100.274 E.14852
G1 X161.206 Y105.08 E.15099
G1 X160.901 Y109.726 E.14599
G1 X159.977 Y114.372 E.14852
G1 X158.455 Y118.857 E.1485
G1 X156.36 Y123.106 E.14854
G1 X153.728 Y127.044 E.14851
G1 X150.605 Y130.605 E.14851
G1 X147.044 Y133.728 E.14851
G1 X143.106 Y136.36 E.14851
G1 X138.857 Y138.455 E.14854
G1 X134.372 Y139.977 E.1485
G1 X129.726 Y140.901 E.14852
G1 X125 Y141.211 E.1485
M73 P2 R16
G1 X120.274 Y140.901 E.1485
G1 X115.628 Y139.977 E.14852
G1 X111.143 Y138.455 E.1485
G1 X106.894 Y136.36 E.14854
G1 X102.956 Y133.728 E.14851
G1 X99.395 Y130.605 E.14851
G1 X96.272 Y127.044 E.14851
G1 X93.64 Y123.106 E.14851
G1 X91.545 Y118.857 E.14854
G1 X90.023 Y114.372 E.1485
M73 Q2 S16
G1 X89.099 Y109.726 E.14852
G1 X88.789 Y105 E.1485
G1 X89.099 Y100.274 E.1485
G1 X90.023 Y95.628 E.14852
G1 X91.545 Y91.143 E.1485
G1 X93.64 Y86.894 E.14854
G1 X96.238 Y83.006 E.14662
M204 S1000
G1 X96.238 Y83.006 F10800
M73 Q3 S16
G1 X95.972 Y82.726
M204 S800
;TYPE:External perimeter
G1 F1200
G1 X99.128 Y79.128 E.15006
G1 X102.726 Y75.972 E.15006
M73 P3 R16
G1 X106.705 Y73.313 E.15005
G1 X110.998 Y71.196 E.15008
G1 X115.53 Y69.658 E.15006
G1 X120.225 Y68.724 E.15009
G1 X125 Y68.411 E.15004
G1 X129.775 Y68.724 E.15004
G1 X134.47 Y69.658 E.15009
G1 X139.002 Y71.196 E.15006
G1 X143.295 Y73.313 E.15008
G1 X147.274 Y75.972 E.15005
G1 X150.872 Y79.128 E.15006
G1 X154.028 Y82.726 E.15006
G1 X156.687 Y86.705 E.15005
G1 X158.804 Y90.998 E.15008
G1 X160.342 Y95.53 E.15006
G1 X161.276 Y100.225 E.15009
G1 X161.582 Y104.896 E.14677
G1 X161.582 Y105.104 E.00652
G1 X161.276 Y109.775 E.14677
G1 X160.342 Y114.47 E.15009
G1 X158.804 Y119.002 E.15006
G1 X156.687 Y123.295 E.15008
G1 X154.028 Y127.274 E.15005
G1 X150.872 Y130.872 E.15006
G1 X147.274 Y134.028 E.15006
G1 X143.295 Y136.687 E.15005
G1 X139.002 Y138.804 E.15008
G1 X134.47 Y140.342 E.15006
G1 X129.775 Y141.276 E.15009
G1 X125 Y141.589 E.15004
G1 X120.225 Y141.276 E.15004
G1 X115.53 Y140.342 E.15009
G1 X110.998 Y138.804 E.15006
G1 X106.705 Y136.687 E.15008
G1 X102.726 Y134.028 E.15005
G1 X99.128 Y130.872 E.15006
G1 X95.972 Y127.274 E.15006
G1 X93.313 Y123.295 E.15005
G1 X91.196 Y119.002 E.15008
G1 X89.658 Y114.47 E.15006
G1 X88.724 Y109.775 E.15009
G1 X88.411 Y105 E.15004
G1 X88.724 Y100.225 E.15004
G1 X89.658 Y95.53 E.15009
M73 Q4 S16
G1 X91.196 Y90.998 E.15006
M73 P4 R16
G1 X93.313 Y86.705 E.15008
G1 X95.939 Y82.776 E.14817
M204 S1000
;WIPE_START
G1 F8640
G1 X95.972 Y82.726 E-.01383
G1 X98.217 Y80.166 E-.78617
;WIPE_END
G1 Z.6 F720
G1 X95.912 Y85.566 F10800
G1 Z.2 F720
G1 E.8 F2100
M204 S800
;TYPE:Perimeter
G1 F1200
G1 X97.291 Y83.732 E.07195
G1 X98.471 Y82.176 E.06123
G1 X101.415 Y79.146 E.13246
G1 X104.651 Y76.539 E.13029
G1 X108.24 Y74.312 E.13243
G1 X112.14 Y72.516 E.13462
G1 X116.166 Y71.239 E.13243
G1 X120.25 Y70.476 E.13027
G1 X124.465 Y70.211 E.13242
G1 X124.955 Y70.237 E.01539
G1 X128.683 Y70.467 E.11711
G1 X132.902 Y71.256 E.13458
G1 X136.86 Y72.516 E.13024
G1 X140.699 Y74.279 E.13245
G1 X144.349 Y76.539 E.1346
G1 X147.637 Y79.192 E.13247
G1 X150.574 Y82.229 E.13247
G1 X153.077 Y85.546 E.13029
G1 X155.193 Y89.202 E.13245
G1 X156.866 Y93.159 E.1347
G1 X158.003 Y97.156 E.13029
G1 X158.655 Y101.331 E.13249
G1 X158.788 Y105.623 E.13464
G1 X158.394 Y109.831 E.13252
G1 X157.505 Y113.891 E.13031
G1 X156.078 Y117.941 E.13464
G1 X154.227 Y121.662 E.13031
G1 X151.895 Y125.189 E.13257
G1 X149.152 Y128.398 E.13236
G1 X148.805 Y128.721 E.01486
G1 X146.033 Y131.249 E.11763
G1 X142.589 Y133.693 E.13241
G1 X138.87 Y135.697 E.13246
G1 X137.904 Y136.076 E.03254
G1 X134.866 Y137.248 E.1021
G1 X130.769 Y138.274 E.13243
G1 X126.646 Y138.785 E.13026
G1 X122.423 Y138.789 E.13241
G1 X118.162 Y138.262 E.13462
G1 X114.067 Y137.227 E.13243
G1 X110.194 Y135.726 E.13024
G1 X106.47 Y133.73 E.13248
G1 X103.021 Y131.292 E.13243
G1 X99.848 Y128.398 E.13465
G1 X97.103 Y125.187 E.13245
G1 X94.808 Y121.722 E.13031
G1 X92.895 Y117.877 E.13465
G1 X91.514 Y113.958 E.13028
M73 Q5 S16
G1 X90.606 Y109.831 E.13249
M73 P5 R16
G1 X90.212 Y105.623 E.13252
G1 X90.226 Y105.022 E.01885
G1 X90.339 Y101.4 E.11362
G1 X90.997 Y97.156 E.13466
G1 X92.157 Y93.092 E.13251
G1 X93.813 Y89.202 E.13256
G1 X95.878 Y85.615 E.12977
M204 S1000
G1 X95.878 Y85.615 F10800
G1 X96.225 Y85.774
M204 S800
;TYPE:External perimeter
G1 F1200
G1 X97.592 Y83.959 E.07124
G1 X98.742 Y82.438 E.05979
G1 X101.651 Y79.439 E.131
G1 X104.888 Y76.833 E.1303
G1 X108.439 Y74.632 E.13099
G1 X112.255 Y72.875 E.13172
G1 X116.235 Y71.609 E.13095
G1 X120.319 Y70.846 E.13027
G1 X124.488 Y70.587 E.13097
G1 X124.932 Y70.613 E.01395
G1 X128.659 Y70.844 E.11708
G1 X132.767 Y71.61 E.13102
G1 X136.767 Y72.884 E.13162
G1 X140.561 Y74.632 E.13098
G1 X144.112 Y76.833 E.13099
G1 X147.366 Y79.455 E.13103
G1 X150.273 Y82.456 E.131
G1 X152.789 Y85.792 E.13101
G1 X154.866 Y89.391 E.13029
G1 X156.504 Y93.262 E.13179
G1 X157.64 Y97.259 E.13029
G1 X158.282 Y101.389 E.13105
G1 X158.413 Y105.588 E.13172
G1 X158.025 Y109.75 E.13106
G1 X157.137 Y113.81 E.13031
G1 X155.74 Y117.773 E.13175
G1 X153.889 Y121.494 E.13031
G1 X151.582 Y124.979 E.13104
G1 X148.864 Y128.155 E.13107
G1 X148.551 Y128.442 E.01331
G1 X145.779 Y130.97 E.11763
G1 X142.371 Y133.385 E.13096
G1 X138.691 Y135.365 E.13102
G1 X137.767 Y135.724 E.03108
G1 X134.774 Y136.882 E.10062
G1 X130.723 Y137.9 E.13097
G1 X126.6 Y138.411 E.13026
G1 X122.423 Y138.412 E.13097
G1 X118.254 Y137.896 E.13171
G1 X114.204 Y136.875 E.13096
G1 X110.33 Y135.374 E.13027
G1 X106.649 Y133.398 E.13099
G1 X103.239 Y130.985 E.13098
G1 X100.134 Y128.153 E.13177
G1 X97.418 Y124.979 E.13098
G1 X95.123 Y121.514 E.13031
G1 X93.251 Y117.752 E.13175
M73 Q6 S16
G1 X91.869 Y113.83 E.13038
M73 P6 R16
G1 X90.975 Y109.75 E.13096
G1 X90.587 Y105.588 E.13106
G1 X90.603 Y105.034 E.01738
G1 X90.716 Y101.412 E.11362
G1 X91.36 Y97.259 E.13177
G1 X92.504 Y93.239 E.13105
G1 X94.16 Y89.35 E.13253
G1 X96.192 Y85.824 E.1276
M204 S1000
;WIPE_START
G1 F8640
G1 X96.225 Y85.774 E-.01383
G1 X97.592 Y83.959 E-.52466
G1 X98.275 Y83.056 E-.26151
;WIPE_END
G1 Z.6 F720
G1 X152.24 Y81.431 F10800
G1 Z.2 F720
G1 E.8 F2100
M204 S800
;TYPE:Solid infill
;WIDTH:0.421106
G1 F1200
G1 X150.403 Y79.593 E.08172
G1 X146.871 Y76.497 E.1477
G1 X146.57 Y76.295 E.0114
G1 X153.705 Y83.43 E.31731
G1 X154.782 Y85.043 E.06099
G1 X144.957 Y75.218 E.43694
G1 X143.345 Y74.14 E.06098
G1 X155.86 Y86.655 E.55656
G1 X156.114 Y87.036 E.0144
G1 X156.512 Y87.842 E.02827
G1 X142.158 Y73.488 E.63835
G1 X141.103 Y72.968 E.03699
G1 X144.318 Y76.182 E.14295
G1 X142.917 Y75.317 E.05178
G1 X140.048 Y72.447 E.12761
G1 X138.992 Y71.927 E.03702
G1 X141.517 Y74.451 E.11227
G1 X140.84 Y74.033 E.02502
G1 X140.329 Y73.798 E.01769
G1 X138.126 Y71.595 E.09797
G1 X137.317 Y71.321 E.02686
G1 X139.34 Y73.344 E.08997
G1 X138.35 Y72.889 E.03426
G1 X136.507 Y71.046 E.08196
G1 X135.698 Y70.771 E.02687
G1 X137.361 Y72.435 E.07398
G1 X136.965 Y72.253 E.0137
G1 X136.495 Y72.104 E.0155
G1 X134.888 Y70.497 E.07147
G1 X134.299 Y70.297 E.01956
G1 X134.117 Y70.261 E.00583
G1 X135.712 Y71.856 E.07093
G1 X134.929 Y71.607 E.02584
G1 X133.45 Y70.128 E.06577
G1 X132.782 Y69.995 E.02142
G1 X134.145 Y71.359 E.06064
G1 X133.362 Y71.11 E.02584
G1 X132.114 Y69.862 E.0555
G1 X131.447 Y69.73 E.02138
G1 X132.63 Y70.913 E.05261
G1 X131.973 Y70.79 E.02102
G1 X130.779 Y69.597 E.05308
G1 X130.112 Y69.464 E.02139
G1 X131.315 Y70.667 E.0535
G1 X130.657 Y70.544 E.02105
G1 X129.479 Y69.366 E.05239
G1 X128.906 Y69.329 E.01806
G1 X129.999 Y70.422 E.04861
G1 X129.342 Y70.299 E.02102
G1 X128.334 Y69.291 E.04483
G1 X127.762 Y69.253 E.01803
G1 X128.699 Y70.191 E.04169
G1 X128.129 Y70.155 E.01796
G1 X127.189 Y69.216 E.04178
G1 X126.617 Y69.178 E.01803
G1 X127.559 Y70.12 E.04189
G1 X126.989 Y70.085 E.01796
G1 X126.044 Y69.141 E.042
G1 X125.472 Y69.103 E.01803
G1 X126.418 Y70.05 E.04209
G1 X125.848 Y70.014 E.01796
G1 X124.916 Y69.082 E.04145
G1 X124.414 Y69.115 E.01582
G1 X125.278 Y69.979 E.03842
M73 Q7 S16
G1 X124.708 Y69.944 E.01796
G1 X123.911 Y69.147 E.03544
G1 X123.409 Y69.18 E.01582
G1 X124.175 Y69.946 E.03407
G1 X123.672 Y69.977 E.01585
G1 X122.907 Y69.212 E.03402
M73 P7 R16
G1 X122.404 Y69.245 E.01585
G1 X123.169 Y70.009 E.034
G1 X122.666 Y70.041 E.01585
G1 X121.902 Y69.277 E.03398
G1 X121.4 Y69.31 E.01582
G1 X122.163 Y70.073 E.03393
G1 X121.66 Y70.105 E.01585
G1 X120.897 Y69.342 E.03393
G1 X120.395 Y69.375 E.01582
G1 X121.157 Y70.136 E.03387
G1 X120.654 Y70.168 E.01585
G1 X119.94 Y69.454 E.03175
G1 X119.493 Y69.543 E.01433
G1 X120.156 Y70.206 E.02948
G1 X119.706 Y70.29 E.0144
G1 X119.047 Y69.631 E.02931
G1 X118.601 Y69.72 E.0143
G1 X119.255 Y70.374 E.02908
G1 X118.804 Y70.458 E.01443
G1 X118.155 Y69.809 E.02886
G1 X117.709 Y69.897 E.0143
G1 X118.354 Y70.542 E.02868
G1 X117.903 Y70.627 E.01443
G1 X117.263 Y69.986 E.02848
G1 X116.817 Y70.075 E.0143
G1 X117.453 Y70.711 E.02828
G1 X117.002 Y70.795 E.01443
G1 X116.371 Y70.164 E.02806
G1 X115.924 Y70.252 E.01433
G1 X116.551 Y70.879 E.02788
G1 X116.101 Y70.964 E.0144
G1 X115.502 Y70.364 E.02666
G1 X115.102 Y70.5 E.01329
G1 X115.696 Y71.093 E.02639
G1 X115.29 Y71.222 E.0134
G1 X114.703 Y70.635 E.0261
G1 X114.304 Y70.771 E.01326
G1 X114.884 Y71.352 E.02582
G1 X114.479 Y71.481 E.01337
G1 X113.904 Y70.906 E.02557
G1 X113.505 Y71.042 E.01326
G1 X114.073 Y71.61 E.02526
G1 X113.667 Y71.739 E.0134
G1 X113.106 Y71.177 E.02497
G1 X112.706 Y71.313 E.01329
G1 X113.262 Y71.868 E.0247
G1 X112.856 Y71.997 E.0134
G1 X112.307 Y71.448 E.02442
G1 X111.908 Y71.584 E.01326
G1 X112.45 Y72.127 E.02413
G1 X112.045 Y72.256 E.01337
G1 X111.508 Y71.719 E.02388
G1 X111.251 Y71.807 E.00854
G1 X111.124 Y71.87 E.00446
G1 X111.67 Y72.416 E.02428
G1 X111.304 Y72.585 E.01268
G1 X110.765 Y72.046 E.02397
G1 X110.407 Y72.223 E.01256
G1 X110.938 Y72.754 E.02361
G1 X110.572 Y72.922 E.01266
G1 X110.049 Y72.4 E.02324
G1 X109.691 Y72.576 E.01254
G1 X110.206 Y73.091 E.0229
G1 X109.839 Y73.26 E.01271
G1 X109.333 Y72.753 E.02252
G1 X108.975 Y72.929 E.01254
G1 X109.473 Y73.428 E.02217
G1 X109.107 Y73.597 E.01268
G1 X108.616 Y73.106 E.02184
G1 X108.258 Y73.283 E.01256
G1 X108.741 Y73.765 E.02146
G1 X108.375 Y73.934 E.01268
G1 X107.9 Y73.459 E.02112
G1 X107.542 Y73.636 E.01256
G1 X108.023 Y74.117 E.02139
G1 X107.693 Y74.322 E.01222
G1 X107.184 Y73.813 E.02264
G1 X106.848 Y74.012 E.01228
G1 X107.362 Y74.526 E.02286
G1 X107.032 Y74.73 E.0122
G1 X106.527 Y74.226 E.02244
G1 X106.206 Y74.44 E.01213
G1 X106.701 Y74.935 E.02201
G1 X106.371 Y75.139 E.0122
G1 X105.886 Y74.654 E.02157
G1 X105.565 Y74.868 E.01213
G1 X106.04 Y75.343 E.02112
G1 X105.71 Y75.548 E.01222
G1 X105.245 Y75.083 E.02068
G1 X104.924 Y75.297 E.01213
G1 X105.379 Y75.752 E.02023
G1 X105.049 Y75.956 E.0122
G1 X104.603 Y75.511 E.01981
G1 X104.283 Y75.725 E.01211
G1 X104.718 Y76.161 E.01937
G1 X104.403 Y76.38 E.01206
G1 X103.962 Y75.94 E.01959
G1 X103.642 Y76.154 E.01211
G1 X104.106 Y76.618 E.02063
G1 X103.81 Y76.857 E.01196
G1 X103.321 Y76.368 E.02175
G1 X103.129 Y76.497 E.00727
G1 X103.015 Y76.597 E.00477
G1 X103.513 Y77.095 E.02215
G1 X103.217 Y77.334 E.01196
G1 X102.73 Y76.846 E.02168
G1 X102.445 Y77.096 E.01192
G1 X102.921 Y77.572 E.02117
G1 X102.624 Y77.811 E.01199
G1 X102.16 Y77.346 E.02066
G1 X101.875 Y77.596 E.01192
G1 X102.328 Y78.049 E.02015
G1 X102.031 Y78.287 E.01197
G1 X101.59 Y77.846 E.01961
G1 X101.305 Y78.096 E.01192
G1 X101.735 Y78.526 E.01912
G1 X101.439 Y78.764 E.01194
G1 X101.02 Y78.346 E.01861
G1 X100.735 Y78.596 E.01192
G1 X101.15 Y79.01 E.01843
G1 X100.886 Y79.282 E.01192
G1 X100.45 Y78.846 E.01939
G1 X100.165 Y79.095 E.0119
G1 X100.623 Y79.553 E.02037
G1 X100.359 Y79.824 E.0119
G1 X99.88 Y79.345 E.0213
G1 X99.595 Y79.595 E.01192
G1 X100.096 Y80.096 E.02228
G1 X99.832 Y80.367 E.0119
G1 X99.345 Y79.88 E.02166
G1 X99.095 Y80.165 E.01192
G1 X99.569 Y80.639 E.02108
G1 X99.306 Y80.91 E.01188
G1 X98.846 Y80.45 E.02046
G1 X98.596 Y80.735 E.01192
G1 X99.042 Y81.182 E.01986
G1 X98.779 Y81.453 E.01188
G1 X98.346 Y81.02 E.01926
G1 X98.096 Y81.305 E.01192
G1 X98.515 Y81.724 E.01863
G1 X98.254 Y81.997 E.01188
G1 X97.846 Y81.59 E.01812
G1 X97.596 Y81.875 E.01192
G1 X98.024 Y82.302 E.01901
G1 X97.793 Y82.607 E.01203
G1 X97.346 Y82.16 E.01988
G1 X97.096 Y82.445 E.01192
G1 X97.563 Y82.912 E.02077
G1 X97.333 Y83.217 E.01201
