; generated by PrusaSlicer 2.7.2+win64 on 2024-07-31 at 11:50:12 UTC


;
;
; 

; external perimeters extrusion width = 0.60mm
; perimeters extrusion width = 0.50mm
; infill extrusion width = 0.50mm
; solid infill extrusion width = 0.50mm
; top infill extrusion width = 0.45mm
; first layer extrusion width = 0.42mm

M73 P0 R10
M73 Q0 S10
M201 X1000 Y1000 Z200 E5000 ; sets maximum accelerations, mm/sec^2
M203 X200 Y200 Z12 E120 ; sets maximum feedrates, mm / sec
M204 S1250 T1250 ; sets acceleration (S) and retract acceleration (R), mm/sec^2
M205 X8.00 Y8.00 Z0.40 E4.50 ; sets the jerk limits, mm/sec
M205 S0 T0 ; sets the minimum extruding and travel feed rate, mm/sec

; printing object RasentrimmerRing.stl id:0 copy 0
; stop printing object RasentrimmerRing.stl id:0 copy 0

;TYPE:Custom
M862.3 P "MK3S" ; printer model check
M862.1 P0.4 ; nozzle diameter check
M115 U3.11.0 ; tell printer latest fw version
G90 ; use absolute coordinates
M83 ; extruder relative mode
M104 S215 ; set extruder temp
M140 S60 ; set bed temp
M190 S60 ; wait for bed temp
M109 S215 ; wait for extruder temp
G28 W ; home all without mesh bed level
G80 ; mesh bed leveling

G1 Z0.2 F720
G1 Y-3 F1000 ; go outside print area
G92 E0
G1 X60 E9 F1000 ; intro line
G1 X100 E12.5 F1000 ; intro line

G92 E0
M221 S95

; Don't change E values below. Excessive value can damage the printer.

M907 E538 ; set extruder motor current
G21 ; set units to millimeters
G90 ; use absolute coordinates
M83 ; use relative distances for extrusion
M900 K0.05 ; Filament gcode LA 1.5
M900 K30 ; Filament gcode LA 1.0
M107
;LAYER_CHANGE
;Z:0.2
;HEIGHT:0.2
G1 E-.8 F2100
M73 P1 R10
M73 Q1 S10
G1 Z.6 F720
G1 X93.67 Y81.155 F10800
G1 Z.2 F720
G1 E.8 F2100
M204 S800
;TYPE:Skirt/Brim
;WIDTH:0.42
G1 F1200
G1 X97.27 Y77.05 E.17119
G1 X100.909 Y73.859 E.15175
G1 X105.179 Y70.981 E.16145
G1 X110.077 Y68.565 E.17124
G1 X114.66 Y67.01 E.15174
G1 X119.707 Y65.986 E.16147
G1 X125.156 Y65.628 E.17122
G1 X130.293 Y65.986 E.16146
G1 X135.04 Y66.93 E.15175
G1 X140.21 Y68.684 E.17118
G1 X144.551 Y70.825 E.15176
G1 X148.845 Y73.67 E.1615
G1 X152.95 Y77.27 E.17119
G1 X156.33 Y81.155 E.16146
G1 X159.019 Y85.179 E.15175
G1 X161.435 Y90.077 E.17124
G1 X163.07 Y94.96 E.16146
G1 X164.014 Y99.707 E.15175
G1 X164.372 Y105.156 E.17122
G1 X164.014 Y110.293 E.16146
G1 X163.07 Y115.04 E.15175
M73 Q2 S10
G1 X161.316 Y120.21 E.17118
M73 P2 R10
G1 X159.175 Y124.551 E.15176
G1 X156.33 Y128.845 E.1615
G1 X152.73 Y132.95 E.17119
G1 X149.091 Y136.141 E.15175
G1 X144.821 Y139.019 E.16145
G1 X139.923 Y141.435 E.17124
G1 X135.04 Y143.07 E.16146
G1 X130.293 Y144.014 E.15175
G1 X124.844 Y144.372 E.17122
G1 X119.707 Y144.014 E.16146
G1 X114.96 Y143.07 E.15175
G1 X109.79 Y141.316 E.17118
G1 X105.449 Y139.175 E.15176
G1 X101.155 Y136.33 E.1615
G1 X97.05 Y132.73 E.17119
G1 X93.67 Y128.845 E.16146
G1 X90.981 Y124.821 E.15175
G1 X88.565 Y119.923 E.17124
M73 P2 R9
G1 X86.93 Y115.04 E.16146
G1 X85.986 Y110.293 E.15175
M73 Q2 S9
G1 X85.628 Y104.844 E.17122
G1 X85.986 Y99.707 E.16146
G1 X86.93 Y94.96 E.15175
M73 Q3 S9
G1 X88.684 Y89.79 E.17118
M73 P3 R9
G1 X90.825 Y85.449 E.15176
G1 X93.636 Y81.205 E.15961
M204 S1000
; printing object RasentrimmerRing.stl id:0 copy 0
;WIPE_START
G1 F8640
G1 X93.67 Y81.155 E-.01396
G1 X95.914 Y78.595 E-.78604
;WIPE_END
G1 Z.6 F720
G1 X96.292 Y82.972 F10800
G1 Z.2 F720
G1 E.8 F2100
M204 S800
;TYPE:Perimeter
;WIDTH:0.46794
G1 F1200
G1 X96.907 Y82.242 E.03373
;WIDTH:0.433546
G1 X97.514 Y81.523 E.03056
;WIDTH:0.399152
G1 X97.574 Y81.455 E.00269
;WIDTH:0.432872
G1 X98.488 Y80.439 E.04431
;WIDTH:0.467111
G1 X99.402 Y79.422 E.04823
G1 X100.014 Y78.862 E.02926
;WIDTH:0.434675
G1 X100.605 Y78.321 E.0261
;WIDTH:0.402238
G1 X100.673 Y78.261 E.00271
;WIDTH:0.43325
G1 X101.816 Y77.28 E.04889
;WIDTH:0.465136
G1 X102.96 Y76.299 E.05291
G1 X103.524 Y75.902 E.02421
;WIDTH:0.435819
G1 X104.066 Y75.522 E.02163
;WIDTH:0.406501
G1 X104.142 Y75.471 E.00277
;WIDTH:0.433762
G1 X105.518 Y74.568 E.05349
;WIDTH:0.462248
G1 X106.894 Y73.666 E.05737
G1 X107.381 Y73.41 E.01918
;WIDTH:0.437044
G1 X107.845 Y73.167 E.01717
;WIDTH:0.411839
G1 X107.927 Y73.126 E.00281
;WIDTH:0.458493
G1 X111.138 Y71.569 E.12331
G1 X111.971 Y71.262 E.03068
;WIDTH:0.453513
G1 X115.62 Y70.043 E.13135
G1 X116.207 Y69.91 E.02055
;WIDTH:0.44742
G1 X120.263 Y69.115 E.13902
G1 X120.592 Y69.084 E.01111
;WIDTH:0.440208
G1 X124.922 Y68.804 E.14334
;WIDTH:0.441321
G1 X129.372 Y69.082 E.1477
;WIDTH:0.450451
G1 X129.737 Y69.117 E.01243
G1 X133.752 Y69.903 E.13864
;WIDTH:0.429341
G1 X133.844 Y69.923 E.00303
;WIDTH:0.458509
G1 X134.38 Y70.046 E.019
G1 X137.998 Y71.254 E.13181
;WIDTH:0.423819
G1 X138.086 Y71.285 E.00296
;WIDTH:0.465385
G1 X138.861 Y71.572 E.02903
G1 X142.045 Y73.116 E.1243
;WIDTH:0.419156
G1 X142.128 Y73.157 E.0029
;WIDTH:0.445043
G1 X142.604 Y73.407 E.01798
;WIDTH:0.470929
G1 X143.104 Y73.67 E.02011
G1 X144.469 Y74.564 E.05807
;WIDTH:0.442687
G1 X145.833 Y75.459 E.05423
;WIDTH:0.415693
G1 X145.909 Y75.511 E.00285
;WIDTH:0.44563
G1 X146.462 Y75.898 E.0226
;WIDTH:0.475567
G1 X147.038 Y76.303 E.02533
G1 X148.171 Y77.276 E.05373
;WIDTH:0.44407
G1 X149.304 Y78.248 E.04979
;WIDTH:0.413464
G1 X149.372 Y78.309 E.00281
;WIDTH:0.446384
G1 X149.973 Y78.858 E.02731
;WIDTH:0.479303
G1 X150.594 Y79.427 E.03056
G1 X151.5 Y80.434 E.04915
;WIDTH:0.445363
G1 X152.406 Y81.442 E.04535
;WIDTH:0.411947
G1 X152.467 Y81.511 E.00283
;WIDTH:0.446633
G1 X153.08 Y82.238 E.03192
;WIDTH:0.481318
G1 X153.712 Y82.987 E.03572
G1 X154.403 Y83.989 E.04437
;WIDTH:0.446061
G1 X155.094 Y84.992 E.04083
;WIDTH:0.410983
G1 X155.145 Y85.069 E.00283
;WIDTH:0.446702
G1 X155.735 Y85.983 E.03653
;WIDTH:0.482421
G1 X156.325 Y86.898 E.03979
G1 X156.833 Y87.884 E.04053
;WIDTH:0.447164
G1 X157.326 Y88.845 E.0363
;WIDTH:0.411907
G1 X157.367 Y88.927 E.00281
;WIDTH:0.447172
G1 X157.893 Y90.034 E.0412
;WIDTH:0.482609
G1 X158.42 Y91.142 E.04486
G1 X158.75 Y92.055 E.03549
;WIDTH:0.448053
G1 X159.069 Y92.942 E.03175
;WIDTH:0.413496
G1 X159.099 Y93.029 E.00284
;WIDTH:0.446887
G1 X159.521 Y94.326 E.04581
;WIDTH:0.480818
G1 X159.943 Y95.622 E.04963
G1 X160.123 Y96.436 E.03035
;WIDTH:0.448178
G1 X160.297 Y97.223 E.02716
;WIDTH:0.415537
G1 X160.315 Y97.313 E.00284
;WIDTH:0.446386
G1 X160.592 Y98.789 E.05038
;WIDTH:0.478131
G1 X160.869 Y100.264 E.05431
G1 X160.931 Y100.957 E.02518
;WIDTH:0.448601
G1 X160.99 Y101.622 E.02252
;WIDTH:0.41907
G1 X160.997 Y101.714 E.00289
;WIDTH:0.446436
G1 X161.09 Y103.35 E.05498
;WIDTH:0.475044
G1 X161.183 Y105.014 E.05988
G1 X161.161 Y105.544 E.01906
;WIDTH:0.449524
G1 X161.139 Y106.074 E.01793
M73 Q4 S9
;WIDTH:0.424003
G1 X161.133 Y106.167 E.00295
;WIDTH:0.469804
G1 X160.877 Y109.709 E.12605
G1 X160.723 Y110.603 E.0322
;WIDTH:0.463828
G1 X159.959 Y114.353 E.13394
G1 X159.772 Y114.958 E.02216
M73 P4 R9
;WIDTH:0.457343
G1 X158.442 Y118.837 E.14131
G1 X158.294 Y119.16 E.01224
;WIDTH:0.448751
G1 X156.309 Y123.157 E.1506
;WIDTH:0.448204
G1 X153.903 Y126.765 E.14614
;WIDTH:0.455248
G1 X153.705 Y127.043 E.0117
G1 X150.999 Y130.147 E.14118
;WIDTH:0.434197
G1 X150.936 Y130.217 E.00306
;WIDTH:0.461836
G1 X150.58 Y130.599 E.01819
G1 X147.703 Y133.147 E.13387
;WIDTH:0.426569
G1 X147.632 Y133.208 E.00299
;WIDTH:0.466579
G1 X147.018 Y133.717 E.0281
G1 X144.066 Y135.719 E.12565
;WIDTH:0.42008
G1 X143.988 Y135.77 E.00292
;WIDTH:0.445281
G1 X143.547 Y136.05 E.01748
;WIDTH:0.470482
G1 X143.08 Y136.344 E.01962
G1 X141.611 Y137.085 E.05849
;WIDTH:0.442002
G1 X140.141 Y137.825 E.05461
;WIDTH:0.414769
G1 X140.058 Y137.866 E.00286
;WIDTH:0.444116
G1 X139.459 Y138.145 E.02204
;WIDTH:0.473462
G1 X138.834 Y138.435 E.02467
G1 X137.412 Y138.934 E.05395
;WIDTH:0.441539
G1 X135.99 Y139.434 E.04996
;WIDTH:0.410488
G1 X135.903 Y139.463 E.0028
;WIDTH:0.442713
G1 X135.141 Y139.704 E.02657
;WIDTH:0.474938
G1 X134.351 Y139.953 E.02975
G1 X133.011 Y140.237 E.04921
;WIDTH:0.440529
G1 X131.672 Y140.521 E.04525
;WIDTH:0.406646
G1 X131.582 Y140.539 E.00278
;WIDTH:0.440997
G1 X130.659 Y140.705 E.03104
;WIDTH:0.475347
G1 X129.708 Y140.874 E.03473
G1 X128.481 Y140.973 E.04426
;WIDTH:0.439945
G1 X127.254 Y141.071 E.04064
;WIDTH:0.404725
G1 X127.163 Y141.077 E.00274
;WIDTH:0.439998
G1 X126.089 Y141.13 E.0355
;WIDTH:0.47527
G1 X124.986 Y141.183 E.0397
G1 X123.895 Y141.129 E.03927
;WIDTH:0.439457
G1 X122.804 Y141.075 E.03602
;WIDTH:0.403643
G1 X122.713 Y141.069 E.00274
;WIDTH:0.438392
G1 X121.502 Y140.972 E.03995
;WIDTH:0.473324
G1 X120.292 Y140.875 E.04344
G1 X119.325 Y140.703 E.03515
;WIDTH:0.438374
G1 X118.386 Y140.534 E.03137
;WIDTH:0.403424
G1 X118.296 Y140.516 E.00275
;WIDTH:0.436908
G1 X116.972 Y140.236 E.04433
;WIDTH:0.470915
G1 X115.648 Y139.955 E.04817
G1 X114.844 Y139.701 E.03001
;WIDTH:0.438047
G1 X114.066 Y139.455 E.02681
;WIDTH:0.405179
G1 X113.98 Y139.426 E.00273
;WIDTH:0.435911
G1 X112.573 Y138.932 E.04873
;WIDTH:0.467511
G1 X111.165 Y138.438 E.05268
G1 X110.526 Y138.141 E.02488
;WIDTH:0.437484
G1 X109.913 Y137.856 E.02218
;WIDTH:0.407457
G1 X109.831 Y137.816 E.00277
;WIDTH:0.434451
G1 X108.374 Y137.082 E.05311
;WIDTH:0.462682
G1 X106.917 Y136.347 E.05696
G1 X106.44 Y136.046 E.01969
;WIDTH:0.436788
G1 X105.985 Y135.758 E.01764
;WIDTH:0.410894
G1 X105.909 Y135.708 E.00278
;WIDTH:0.456816
G1 X102.979 Y133.721 E.12184
G1 X102.274 Y133.134 E.03157
;WIDTH:0.450687
G1 X99.416 Y130.603 E.12944
G1 X98.982 Y130.135 E.02164
;WIDTH:0.442726
G1 X96.289 Y127.047 E.13621
G1 X96.083 Y126.756 E.01185
;WIDTH:0.434069
G1 X93.616 Y123.04 E.14507
;WIDTH:0.433507
G1 X91.693 Y119.153 E.14084
;WIDTH:0.441342
G1 X91.55 Y118.841 E.01137
G1 X90.218 Y114.95 E.13625
;WIDTH:0.419659
G1 X90.189 Y114.862 E.0029
;WIDTH:0.447719
G1 X90.034 Y114.355 E.01784
G1 X89.268 Y110.598 E.12906
;WIDTH:0.412664
G1 X89.251 Y110.508 E.00282
;WIDTH:0.453298
G1 X89.115 Y109.71 E.02762
G1 X88.858 Y106.165 E.12128
;WIDTH:0.407006
G1 X88.853 Y106.074 E.00276
;WIDTH:0.432598
G1 X88.831 Y105.544 E.01719
;WIDTH:0.458189
G1 X88.809 Y104.986 E.01928
G1 X88.902 Y103.351 E.05655
;WIDTH:0.429773
G1 X88.995 Y101.715 E.05271
;WIDTH:0.402576
G1 X89.002 Y101.625 E.0027
;WIDTH:0.432209
G1 X89.06 Y100.958 E.02167
;WIDTH:0.461842
G1 X89.122 Y100.263 E.02431
G1 X89.399 Y98.79 E.05221
;WIDTH:0.430146
G1 X89.676 Y97.317 E.04826
;WIDTH:0.399328
G1 X89.694 Y97.229 E.00266
;WIDTH:0.432147
G1 X89.868 Y96.438 E.02621
;WIDTH:0.464966
G1 X90.049 Y95.621 E.02937
G1 X90.47 Y94.328 E.04772
;WIDTH:0.431143
G1 X90.89 Y93.036 E.04386
M73 Q5 S9
;WIDTH:0.397846
G1 X90.92 Y92.951 E.00266
;WIDTH:0.432539
G1 X91.241 Y92.058 E.03074
;WIDTH:0.467231
G1 X91.573 Y91.139 E.03447
G1 X92.096 Y90.038 E.043
;WIDTH:0.431856
G1 X92.62 Y88.936 E.03946
;WIDTH:0.396651
G1 X92.66 Y88.855 E.00266
M73 P5 R9
;WIDTH:0.432292
G1 X93.157 Y87.887 E.03523
;WIDTH:0.467932
G1 X93.655 Y86.919 E.03847
G1 X94.254 Y85.987 E.03915
;WIDTH:0.432589
G1 X94.839 Y85.079 E.035
;WIDTH:0.397245
G1 X94.889 Y85.004 E.00266
;WIDTH:0.432506
G1 X95.586 Y83.993 E.03978
;WIDTH:0.46794
G1 X96.257 Y83.02 E.04177
M204 S1000
G1 X96.257 Y83.02 F10800
G1 X95.972 Y82.726
M204 S800
;TYPE:External perimeter
;WIDTH:0.419999
G1 F1200
G1 X99.128 Y79.128 E.15006
G1 X102.726 Y75.972 E.15006
G1 X106.705 Y73.313 E.15005
G1 X110.998 Y71.196 E.15008
G1 X115.53 Y69.658 E.15006
G1 X120.225 Y68.724 E.15009
G1 X125 Y68.411 E.15004
G1 X129.775 Y68.724 E.15004
G1 X134.47 Y69.658 E.15009
G1 X139.002 Y71.196 E.15006
G1 X143.295 Y73.313 E.15008
G1 X147.274 Y75.972 E.15005
G1 X150.872 Y79.128 E.15006
G1 X154.028 Y82.726 E.15006
G1 X156.687 Y86.705 E.15005
G1 X158.804 Y90.998 E.15008
G1 X160.342 Y95.53 E.15006
G1 X161.276 Y100.225 E.15009
G1 X161.586 Y105.041 E.15131
G1 X161.276 Y109.775 E.14875
G1 X160.342 Y114.47 E.15009
G1 X158.804 Y119.002 E.15006
G1 X156.687 Y123.295 E.15008
G1 X154.028 Y127.274 E.15005
M73 Q6 S9
G1 X150.872 Y130.872 E.15006
M73 P6 R9
G1 X147.274 Y134.028 E.15006
G1 X143.295 Y136.687 E.15005
G1 X139.002 Y138.804 E.15008
G1 X134.47 Y140.342 E.15006
G1 X129.775 Y141.276 E.15009
G1 X125 Y141.589 E.15004
G1 X120.225 Y141.276 E.15004
G1 X115.53 Y140.342 E.15009
G1 X110.998 Y138.804 E.15006
G1 X106.705 Y136.687 E.15008
G1 X102.726 Y134.028 E.15005
G1 X99.128 Y130.872 E.15006
G1 X95.972 Y127.274 E.15006
G1 X93.313 Y123.295 E.15005
G1 X91.196 Y119.002 E.15008
G1 X89.658 Y114.47 E.15006
G1 X88.724 Y109.775 E.15009
G1 X88.411 Y105 E.15004
G1 X88.724 Y100.225 E.15004
G1 X89.658 Y95.53 E.15009
G1 X91.196 Y90.998 E.15006
G1 X93.313 Y86.705 E.15008
G1 X95.939 Y82.776 E.14817
M204 S1000
;WIPE_START
G1 F8640
G1 X95.972 Y82.726 E-.01383
G1 X98.217 Y80.166 E-.78617
;WIPE_END
G1 Z.6 F720
G1 X97.806 Y81.73 F10800
M73 Q7 S9
G1 Z.2 F720
G1 E.8 F2100
M204 S800
;TYPE:Perimeter
;WIDTH:0.399152
G1 F1200
G1 X97.835 Y81.696 E.00132
;WIDTH:0.432872
G1 X98.775 Y80.703 E.04434
;WIDTH:0.467111
G1 X99.714 Y79.709 E.04823
M73 P7 R9
G1 X100.283 Y79.145 E.02826
;WIDTH:0.434675
G1 X100.853 Y78.581 E.02612
;WIDTH:0.402238
G1 X100.904 Y78.536 E.00203
;WIDTH:0.43325
G1 X102.067 Y77.579 E.04888
;WIDTH:0.465136
G1 X103.231 Y76.622 E.0529
G1 X103.756 Y76.218 E.02326
;WIDTH:0.435819
G1 X104.281 Y75.814 E.02164
;WIDTH:0.406501
G1 X104.338 Y75.775 E.00209
;WIDTH:0.433762
G1 X105.729 Y74.897 E.05346
;WIDTH:0.462248
G1 X107.12 Y74.019 E.05735
G1 X107.572 Y73.754 E.01827
;WIDTH:0.437044
G1 X108.023 Y73.489 E.01714
;WIDTH:0.411839
G1 X108.085 Y73.457 E.00214
;WIDTH:0.458493
G1 X111.317 Y71.944 E.12331
G1 X112.023 Y71.641 E.02655
;WIDTH:0.418502
G1 X112.088 Y71.617 E.00216
;WIDTH:0.453513
G1 X115.748 Y70.434 E.13132
G1 X116.281 Y70.283 E.01891
;WIDTH:0.44742
G1 X120.619 Y69.472 E.14843
;WIDTH:0.440208
G1 X124.947 Y69.2 E.14326
;WIDTH:0.441321
G1 X129.348 Y69.472 E.14607
;WIDTH:0.450451
G1 X129.66 Y69.517 E.01068
G1 X133.686 Y70.282 E.13887
;WIDTH:0.458509
G1 X134.25 Y70.441 E.02025
G1 X137.88 Y71.614 E.13183
;WIDTH:0.465385
G1 X138.679 Y71.953 E.03049
G1 X141.884 Y73.454 E.12432
;WIDTH:0.419156
G1 X141.946 Y73.486 E.00218
;WIDTH:0.445043
G1 X142.409 Y73.758 E.01795
;WIDTH:0.470929
G1 X142.873 Y74.03 E.01914
G1 X144.252 Y74.901 E.05805
;WIDTH:0.442687
G1 X145.632 Y75.771 E.05423
;WIDTH:0.415693
G1 X145.689 Y75.811 E.00216
;WIDTH:0.44563
G1 X146.224 Y76.223 E.02261
;WIDTH:0.475567
G1 X146.759 Y76.634 E.02427
G1 X147.913 Y77.583 E.05375
;WIDTH:0.44407
G1 X149.066 Y78.531 E.04979
;WIDTH:0.413464
G1 X149.117 Y78.578 E.00214
;WIDTH:0.446384
G1 X149.695 Y79.15 E.02728
;WIDTH:0.479303
G1 X150.273 Y79.722 E.02951
G1 X151.204 Y80.707 E.04918
;WIDTH:0.445363
G1 X152.135 Y81.692 E.04535
;WIDTH:0.411947
G1 X152.181 Y81.744 E.00213
;WIDTH:0.446633
G1 X152.768 Y82.492 E.03192
;WIDTH:0.481318
G1 X153.355 Y83.241 E.03469
G1 X154.075 Y84.223 E.04439
;WIDTH:0.446061
G1 X154.795 Y85.205 E.04082
;WIDTH:0.410983
G1 X154.833 Y85.263 E.00212
;WIDTH:0.446702
G1 X155.392 Y86.196 E.03652
;WIDTH:0.482421
G1 X155.952 Y87.13 E.0398
G1 X156.476 Y88.074 E.03946
;WIDTH:0.447164
G1 X157.001 Y89.018 E.03631
;WIDTH:0.411907
G1 X157.032 Y89.08 E.00213
;WIDTH:0.447172
G1 X157.526 Y90.203 E.04124
;WIDTH:0.482609
G1 X158.02 Y91.325 E.04482
G1 X158.372 Y92.199 E.03445
;WIDTH:0.448053
G1 X158.723 Y93.074 E.03176
;WIDTH:0.413496
G1 X158.746 Y93.139 E.00212
;WIDTH:0.446887
G1 X159.135 Y94.446 E.04581
;WIDTH:0.480818
G1 X159.525 Y95.753 E.04966
G1 X159.73 Y96.531 E.02929
;WIDTH:0.448178
G1 X159.935 Y97.31 E.02714
;WIDTH:0.415537
G1 X159.949 Y97.378 E.00215
;WIDTH:0.446386
G1 X160.195 Y98.859 E.05037
;WIDTH:0.478131
G1 X160.441 Y100.34 E.05433
G1 X160.529 Y101.001 E.02413
;WIDTH:0.448601
G1 X160.616 Y101.663 E.02252
;WIDTH:0.41907
G1 X160.622 Y101.732 E.00217
;WIDTH:0.446436
G1 X160.687 Y103.369 E.05497
;WIDTH:0.475044
G1 X160.751 Y105.007 E.0589
G1 X160.755 Y105.537 E.01904
;WIDTH:0.449524
G1 X160.758 Y106.067 E.01792
;WIDTH:0.424003
G1 X160.755 Y106.137 E.00222
;WIDTH:0.469804
G1 X160.452 Y109.675 E.12604
G1 X160.359 Y110.456 E.02792
;WIDTH:0.428898
G1 X160.347 Y110.525 E.00225
;WIDTH:0.463828
G1 X159.547 Y114.267 E.13392
G1 X159.423 Y114.762 E.01786
;WIDTH:0.43533
G1 X159.403 Y114.83 E.00231
;WIDTH:0.457343
G1 X158.051 Y118.702 E.14133
G1 X157.937 Y118.986 E.01055
;WIDTH:0.448751
G1 X155.971 Y122.932 E.14877
