; generated by PrusaSlicer 2.7.2+win64 on 2024-07-11 at 07:14:09 UTC


;
;
; 

; external perimeters extrusion width = 0.60mm
; perimeters extrusion width = 0.50mm
; infill extrusion width = 0.50mm
; solid infill extrusion width = 0.50mm
; top infill extrusion width = 0.45mm
; first layer extrusion width = 0.42mm

M73 P0 R4
M73 Q0 S4
M201 X1000 Y1000 Z200 E5000 ; sets maximum accelerations, mm/sec^2
M203 X200 Y200 Z12 E120 ; sets maximum feedrates, mm / sec
M204 S1250 T1250 ; sets acceleration (S) and retract acceleration (R), mm/sec^2
M205 X8.00 Y8.00 Z0.40 E4.50 ; sets the jerk limits, mm/sec
M205 S0 T0 ; sets the minimum extruding and travel feed rate, mm/sec

; printing object RasentrimmerHalterung.stl id:0 copy 0
; stop printing object RasentrimmerHalterung.stl id:0 copy 0

;TYPE:Custom
M862.3 P "MK3S" ; printer model check
M862.1 P0.4 ; nozzle diameter check
M115 U3.11.0 ; tell printer latest fw version
G90 ; use absolute coordinates
M83 ; extruder relative mode
M104 S215 ; set extruder temp
M140 S60 ; set bed temp
M190 S60 ; wait for bed temp
M109 S215 ; wait for extruder temp
G28 W ; home all without mesh bed level
G80 ; mesh bed leveling

G1 Z0.2 F720
G1 Y-3 F1000 ; go outside print area
G92 E0
G1 X60 E9 F1000 ; intro line
G1 X100 E12.5 F1000 ; intro line
M73 P1 R4
M73 Q1 S4

G92 E0
M221 S95

; Don't change E values below. Excessive value can damage the printer.

M907 E538 ; set extruder motor current
G21 ; set units to millimeters
G90 ; use absolute coordinates
M83 ; use relative distances for extrusion
M900 K0.05 ; Filament gcode LA 1.5
M900 K30 ; Filament gcode LA 1.0
M107
;LAYER_CHANGE
;Z:0.2
;HEIGHT:0.2
G1 E-.8 F2100
M73 P2 R4
M73 Q2 S4
G1 Z.6 F720
G1 X112.139 Y99.333 F10800
G1 Z.2 F720
G1 E.8 F2100
M204 S800
;TYPE:Skirt/Brim
;WIDTH:0.42
G1 F1200
G1 X113.205 Y98.319 E.04613
G1 X114.5 Y97.996 E.04185
G1 X135.5 Y97.996 E.65844
G1 X136.917 Y98.389 E.04611
M73 P3 R4
M73 Q3 S4
G1 X137.931 Y99.455 E.04613
G1 X138.254 Y100.75 E.04185
G1 X138.254 Y109.25 E.26651
G1 X137.861 Y110.667 E.04611
G1 X136.795 Y111.681 E.04613
G1 X135.5 Y112.004 E.04185
G1 X114.5 Y112.004 E.65844
G1 X113.083 Y111.611 E.04611
M73 Q4 S4
G1 X112.069 Y110.545 E.04613
G1 X111.746 Y109.25 E.04185
G1 X111.746 Y100.75 E.26651
G1 X112.123 Y99.39 E.04425
M73 P4 R4
M204 S1000
G1 X112.123 Y99.39 F10800
G1 X112.497 Y99.502
M204 S800
G1 F1200
G1 X112.515 Y99.443 E.00193
G1 X113.56 Y98.567 E.04275
G1 X114.5 Y98.373 E.03009
G1 X135.5 Y98.373 E.65844
G1 X136.807 Y98.765 E.04278
G1 X137.683 Y99.81 E.04275
G1 X137.877 Y100.75 E.03009
G1 X137.877 Y109.25 E.26651
G1 X137.485 Y110.557 E.04278
G1 X136.44 Y111.433 E.04275
G1 X135.5 Y111.627 E.03009
M73 Q5 S4
G1 X114.5 Y111.627 E.65844
G1 X113.193 Y111.235 E.04278
M73 P5 R4
G1 X112.317 Y110.19 E.04275
G1 X112.123 Y109.25 E.03009
G1 X112.123 Y100.75 E.26651
G1 X112.479 Y99.56 E.03895
M204 S1000
; printing object RasentrimmerHalterung.stl id:0 copy 0
;WIPE_START
G1 F8640
G1 X112.497 Y99.502 E-.01402
G1 X112.515 Y99.443 E-.01424
G1 X113.56 Y98.567 E-.31486
G1 X114.5 Y98.373 E-.22162
G1 X115.519 Y98.373 E-.23526
;WIPE_END
G1 Z.6 F720
G1 X115.287 Y101.537 F10800
G1 Z.2 F720
G1 E.8 F2100
M204 S800
;TYPE:Perimeter
;WIDTH:0.419999
G1 F1200
G1 X134.713 Y101.537 E.60909
G1 X134.713 Y105 E.10858
M73 P6 R4
M73 Q6 S4
G1 X134.713 Y108.463 E.10858
G1 X115.287 Y108.463 E.60909
G1 X115.287 Y101.597 E.21528
M204 S1000
G1 X114.91 Y101.16 F10800
M204 S800
;TYPE:External perimeter
G1 F1200
G1 X135.09 Y101.16 E.63273
G1 X135.09 Y105 E.1204
M73 P7 R4
M73 Q7 S4
G1 X135.09 Y108.84 E.1204
G1 X114.91 Y108.84 E.63273
G1 X114.91 Y101.22 E.23892
M204 S1000
;WIPE_START
G1 F8640
G1 X114.91 Y101.16 E-.01385
G1 X118.315 Y101.16 E-.78615
;WIPE_END
G1 Z.6 F720
G1 X134.6 Y102.424 F10800
G1 Z.2 F720
M73 Q8 S4
G1 E.8 F2100
M204 S800
;TYPE:Solid infill
;WIDTH:0.425562
G1 F1200
M73 P8 R4
G1 X133.995 Y101.82 E.0272
G1 X133.454 Y101.82 E.01721
G1 X134.43 Y102.796 E.04392
G1 X134.43 Y103.337 E.01721
G1 X132.913 Y101.82 E.06826
G1 X132.372 Y101.82 E.01721
G1 X134.43 Y103.878 E.0926
G1 X134.43 Y104.419 E.01721
G1 X131.831 Y101.82 E.11694
G1 X131.29 Y101.82 E.01721
G1 X134.43 Y104.96 E.14129
G1 X134.43 Y105.501 E.01721
G1 X130.749 Y101.82 E.16563
G1 X130.207 Y101.82 E.01724
G1 X134.43 Y106.043 E.19002
G1 X134.43 Y106.584 E.01721
G1 X129.666 Y101.82 E.21436
G1 X129.125 Y101.82 E.01721
G1 X134.43 Y107.125 E.2387
G1 X134.43 Y107.666 E.01721
M73 Q9 S4
G1 X128.584 Y101.82 E.26305
G1 X128.043 Y101.82 E.01721
M73 P9 R4
G1 X134.403 Y108.18 E.28617
G1 X133.862 Y108.18 E.01721
G1 X127.502 Y101.82 E.28617
G1 X126.961 Y101.82 E.01721
G1 X133.321 Y108.18 E.28617
G1 X132.78 Y108.18 E.01721
M73 P9 R3
G1 X126.419 Y101.82 E.2862
G1 X125.878 Y101.82 E.01721
M73 Q9 S3
G1 X132.239 Y108.18 E.2862
G1 X131.697 Y108.18 E.01724
M73 P10 R3
M73 Q10 S3
G1 X125.337 Y101.82 E.28617
G1 X124.796 Y101.82 E.01721
G1 X131.156 Y108.18 E.28617
G1 X130.615 Y108.18 E.01721
G1 X124.255 Y101.82 E.28617
G1 X123.714 Y101.82 E.01721
G1 X130.074 Y108.18 E.28617
G1 X129.533 Y108.18 E.01721
G1 X123.173 Y101.82 E.28617
G1 X122.632 Y101.82 E.01721
M73 Q11 S3
G1 X128.992 Y108.18 E.28617
G1 X128.451 Y108.18 E.01721
M73 P11 R3
G1 X122.09 Y101.82 E.2862
G1 X121.549 Y101.82 E.01721
G1 X127.909 Y108.18 E.28617
G1 X127.368 Y108.18 E.01721
G1 X121.008 Y101.82 E.28617
G1 X120.467 Y101.82 E.01721
G1 X126.827 Y108.18 E.28617
G1 X126.286 Y108.18 E.01721
G1 X119.926 Y101.82 E.28617
M73 Q12 S3
G1 X119.385 Y101.82 E.01721
M73 P12 R3
G1 X125.745 Y108.18 E.28617
G1 X125.204 Y108.18 E.01721
G1 X118.844 Y101.82 E.28617
G1 X118.302 Y101.82 E.01724
G1 X124.663 Y108.18 E.2862
G1 X124.122 Y108.18 E.01721
G1 X117.761 Y101.82 E.2862
G1 X117.22 Y101.82 E.01721
G1 X123.58 Y108.18 E.28617
G1 X123.039 Y108.18 E.01721
M73 Q13 S3
G1 X116.679 Y101.82 E.28617
G1 X116.138 Y101.82 E.01721
M73 P13 R3
G1 X122.498 Y108.18 E.28617
G1 X121.957 Y108.18 E.01721
G1 X115.597 Y101.82 E.28617
G1 X115.57 Y101.82 E.00086
G1 X115.57 Y102.334 E.01635
G1 X121.416 Y108.18 E.26305
G1 X120.875 Y108.18 E.01721
G1 X115.57 Y102.875 E.2387
G1 X115.57 Y103.416 E.01721
G1 X120.334 Y108.18 E.21436
G1 X119.792 Y108.18 E.01724
M73 P14 R3
M73 Q14 S3
G1 X115.57 Y103.958 E.18997
G1 X115.57 Y104.499 E.01721
G1 X119.251 Y108.18 E.16563
G1 X118.71 Y108.18 E.01721
G1 X115.57 Y105.04 E.14129
G1 X115.57 Y105.581 E.01721
G1 X118.169 Y108.18 E.11694
G1 X117.628 Y108.18 E.01721
G1 X115.57 Y106.122 E.0926
G1 X115.57 Y106.663 E.01721
G1 X117.087 Y108.18 E.06826
G1 X116.546 Y108.18 E.01721
G1 X115.57 Y107.204 E.04392
G1 X115.57 Y107.746 E.01724
G1 X116.174 Y108.35 E.02718
M204 S1000
; stop printing object RasentrimmerHalterung.stl id:0 copy 0
M106 S84.15
;LAYER_CHANGE
;Z:0.5
;HEIGHT:0.3
;BEFORE_LAYER_CHANGE
G92 E0.0
;0.5


;WIPE_START
G1 F8640
G1 X115.57 Y107.746 E-.19723
G1 X115.57 Y107.204 E-.12515
G1 X116.546 Y108.18 E-.31871
G1 X117.087 Y108.18 E-.12492
G1 X116.983 Y108.076 E-.03399
;WIPE_END
G1 Z.5 F720
;AFTER_LAYER_CHANGE
;0.5
M104 S210 ; set temperature
G1 Z.9
G1 X116.983 Y112.004 F10800
G1 Z.5 F720
G1 E.8 F2100
;TYPE:Skirt/Brim
;WIDTH:0.42
G1 F2334
G1 X114.5 Y112.004 E.11013
G1 X113.083 Y111.611 E.06522
G1 X112.069 Y110.545 E.06526
G1 X111.746 Y109.25 E.0592
G1 X111.746 Y100.75 E.37702
M73 Q15 S3
G1 X112.139 Y99.333 E.06522
G1 X113.205 Y98.319 E.06526
M73 P15 R3
G1 X114.5 Y97.996 E.0592
G1 X135.5 Y97.996 E.93145
G1 X136.917 Y98.389 E.06522
G1 X137.931 Y99.455 E.06526
G1 X138.254 Y100.75 E.0592
G1 X138.254 Y109.25 E.37702
G1 X137.861 Y110.667 E.06522
G1 X136.795 Y111.681 E.06526
G1 X135.5 Y112.004 E.0592
G1 X117.043 Y112.004 E.81866
G1 X117.043 Y112.004 F10800
G1 X117.043 Y111.627
G1 F2334
G1 X114.5 Y111.627 E.11279
G1 X113.193 Y111.235 E.06052
G1 X112.317 Y110.19 E.06048
G1 X112.123 Y109.25 E.04257
G1 X112.123 Y100.75 E.37702
G1 X112.515 Y99.443 E.06052
G1 X113.56 Y98.567 E.06048
G1 X114.5 Y98.373 E.04257
G1 X135.5 Y98.373 E.93145
G1 X136.807 Y98.765 E.06052
M73 P16 R3
M73 Q16 S3
G1 X137.683 Y99.81 E.06048
G1 X137.877 Y100.75 E.04257
G1 X137.877 Y109.25 E.37702
G1 X137.485 Y110.557 E.06052
G1 X136.44 Y111.433 E.06048
G1 X135.5 Y111.627 E.04257
G1 X117.103 Y111.627 E.816
; printing object RasentrimmerHalterung.stl id:0 copy 0
;WIPE_START
G1 F8640
G1 X117.043 Y111.627 E-.01385
G1 X114.5 Y111.627 E-.58719
G1 X113.675 Y111.38 E-.19896
;WIPE_END
G1 Z.9 F720
G1 X115.286 Y108.464 F10800
G1 Z.5 F720
G1 E.8 F2100
M204 S800
;TYPE:Perimeter
;WIDTH:0.5
G1 F2334
G1 X115.286 Y101.536 E.37642
G1 X134.714 Y101.536 E1.05558
G1 X134.714 Y105 E.18821
G1 X134.714 Y108.464 E.18821
G1 X115.346 Y108.464 E1.05232
M204 S1000
G1 X115.346 Y108.464 F10800
M73 P17 R3
M73 Q17 S3
G1 X114.8 Y108.95
M204 S800
;TYPE:External perimeter
;WIDTH:0.6
G1 F2100
G1 X114.8 Y101.05 E.52776
G1 X135.2 Y101.05 E1.36283
G1 X135.2 Y105 E.26388
G1 X135.2 Y108.95 E.26388
G1 X114.86 Y108.95 E1.35882
M204 S1000
;WIPE_START
G1 F8640
G1 X114.8 Y108.95 E-.01385
G1 X114.8 Y105.545 E-.78615
;WIPE_END
G1 Z.9 F720
G1 X115.731 Y101.898 F10800
G1 Z.5 F720
G1 E.8 F2100
M73 Q18 S3
;TYPE:Solid infill
;WIDTH:0.605691
G1 F2334
G1 X115.683 Y101.85 E.00458
G1 X115.617 Y101.867 E.0046
G1 X115.6 Y101.933 E.0046
G1 X115.648 Y101.981 E.00458
G1 X115.713 Y101.963 E.00455
;WIDTH:0.5
G1 X115.612 Y102.659 E.03821
G1 X116.409 Y101.862 E.06124
G1 X117.025 Y101.862 E.03347
G1 X115.612 Y103.275 E.10857
G1 X115.612 Y103.891 E.03347
G1 X117.641 Y101.862 E.1559
M73 P18 R3
G1 X118.257 Y101.862 E.03347
G1 X115.612 Y104.507 E.20324
G1 X115.612 Y105.123 E.03347
G1 X118.873 Y101.862 E.25057
G1 X119.489 Y101.862 E.03347
G1 X115.612 Y105.739 E.2979
G1 X115.612 Y106.355 E.03347
G1 X120.105 Y101.862 E.34523
G1 X120.721 Y101.862 E.03347
G1 X115.612 Y106.971 E.39257
G1 X115.612 Y107.587 E.03347
G1 X121.337 Y101.862 E.4399
G1 X121.953 Y101.862 E.03347
G1 X115.678 Y108.138 E.4822
G1 X115.561 Y108.096 E.00675
;WIDTH:0.45219
G1 X115.445 Y108.054 E.00597
;WIDTH:0.404381
G1 X115.459 Y108.291 E.01007
;WIDTH:0.5
G1 X116.294 Y108.138 E.04612
G1 X122.569 Y101.862 E.4822
G1 X123.185 Y101.862 E.03347
G1 X116.91 Y108.138 E.4822
G1 X117.526 Y108.138 E.03347
G1 X123.802 Y101.862 E.48224
G1 X124.418 Y101.862 E.03347
M73 Q19 S3
G1 X118.142 Y108.138 E.48224
G1 X118.758 Y108.138 E.03347
M73 P19 R3
G1 X125.034 Y101.862 E.48224
G1 X125.65 Y101.862 E.03347
G1 X119.374 Y108.138 E.48224
G1 X119.99 Y108.138 E.03347
G1 X126.266 Y101.862 E.48224
G1 X126.882 Y101.862 E.03347
G1 X120.606 Y108.138 E.48224
G1 X121.223 Y108.138 E.03352
G1 X127.498 Y101.862 E.4822
G1 X128.114 Y101.862 E.03347
G1 X121.839 Y108.138 E.4822
G1 X122.455 Y108.138 E.03347
G1 X128.73 Y101.862 E.4822
G1 X129.346 Y101.862 E.03347
G1 X123.071 Y108.138 E.4822
G1 X123.687 Y108.138 E.03347
M73 Q20 S3
G1 X129.962 Y101.862 E.4822
G1 X130.578 Y101.862 E.03347
M73 P20 R3
G1 X124.303 Y108.138 E.4822
G1 X124.919 Y108.138 E.03347
G1 X131.194 Y101.862 E.4822
G1 X131.81 Y101.862 E.03347
G1 X125.535 Y108.138 E.4822
G1 X126.151 Y108.138 E.03347
G1 X132.426 Y101.862 E.4822
G1 X133.042 Y101.862 E.03347
G1 X126.767 Y108.138 E.4822
G1 X127.383 Y108.138 E.03347
G1 X133.658 Y101.862 E.4822
G1 X134.275 Y101.862 E.03352
G1 X127.999 Y108.138 E.48224
G1 X128.615 Y108.138 E.03347
G1 X134.388 Y102.365 E.44359
G1 X134.388 Y102.981 E.03347
G1 X129.231 Y108.138 E.39625
M73 Q21 S3
G1 X129.847 Y108.138 E.03347
G1 X134.388 Y103.597 E.34892
G1 X134.388 Y104.213 E.03347
M73 P21 R3
G1 X130.463 Y108.138 E.30159
G1 X131.079 Y108.138 E.03347
G1 X134.388 Y104.829 E.25426
G1 X134.388 Y105.446 E.03352
G1 X131.696 Y108.138 E.20685
G1 X132.312 Y108.138 E.03347
G1 X134.388 Y106.062 E.15952
G1 X134.388 Y106.678 E.03347
G1 X132.928 Y108.138 E.11218
G1 X133.407 Y108.354 E.02855
;WIDTH:0.404381
G1 X133.365 Y108.365 E.00184
G1 X133.346 Y108.294 E.00312
G1 X133.418 Y108.313 E.00316
;WIDTH:0.45219
G1 X133.481 Y108.225 E.00523
;WIDTH:0.5
G1 X133.544 Y108.138 E.00584
G1 X134.388 Y107.294 E.06485
G1 X134.39 Y108.053 E.04124
;WIDTH:0.633489
G1 X134.339 Y108.002 E.00512
G1 X134.271 Y108.021 E.00501
G1 X134.252 Y108.089 E.00501
G1 X134.303 Y108.14 E.00512
G1 X134.371 Y108.121 E.00501
; stop printing object RasentrimmerHalterung.stl id:0 copy 0
M106 S170.85
;LAYER_CHANGE
;Z:0.8
;HEIGHT:0.3
;BEFORE_LAYER_CHANGE
G92 E0.0
;0.8


;WIPE_START
G1 F8640
G1 X134.303 Y108.14 E-.0163
G1 X134.252 Y108.089 E-.01665
G1 X134.271 Y108.021 E-.0163
G1 X134.339 Y108.002 E-.0163
G1 X134.39 Y108.053 E-.01665
G1 X134.388 Y107.294 E-.17526
G1 X133.544 Y108.138 E-.2756
G1 X133.481 Y108.225 E-.0248
G1 X133.418 Y108.313 E-.02499
G1 X133.346 Y108.294 E-.01719
G1 X133.365 Y108.365 E-.01697
G1 X133.407 Y108.354 E-.01003
G1 X132.928 Y108.138 E-.12133
G1 X133.086 Y107.98 E-.05163
;WIPE_END
G1 Z.8 F720
;AFTER_LAYER_CHANGE
;0.8
G1 Z1.2
G1 X133.086 Y112.004 F10800
G1 Z.8 F720
G1 E.8 F2100
;TYPE:Skirt/Brim
;WIDTH:0.42
G1 F2342
G1 X114.5 Y112.004 E.82438
G1 X113.083 Y111.611 E.06522
G1 X112.069 Y110.545 E.06526
G1 X111.746 Y109.25 E.0592
G1 X111.746 Y100.75 E.37702
G1 X112.139 Y99.333 E.06522
M73 Q22 S3
G1 X113.205 Y98.319 E.06526
G1 X114.5 Y97.996 E.0592
G1 X135.5 Y97.996 E.93145
G1 X136.917 Y98.389 E.06522
M73 P22 R3
G1 X137.931 Y99.455 E.06526
G1 X138.254 Y100.75 E.0592
G1 X138.254 Y109.25 E.37702
G1 X137.861 Y110.667 E.06522
G1 X136.795 Y111.681 E.06526
G1 X135.5 Y112.004 E.0592
G1 X133.146 Y112.004 E.10441
G1 X133.146 Y112.004 F10800
G1 X133.146 Y111.627
G1 F2342
G1 X114.5 Y111.627 E.82704
G1 X113.193 Y111.235 E.06052
G1 X112.317 Y110.19 E.06048
G1 X112.123 Y109.25 E.04257
G1 X112.123 Y100.75 E.37702
G1 X112.515 Y99.443 E.06052
G1 X113.56 Y98.567 E.06048
G1 X114.5 Y98.373 E.04257
G1 X135.5 Y98.373 E.93145
G1 X136.807 Y98.765 E.06052
M73 Q23 S3
G1 X137.683 Y99.81 E.06048
G1 X137.877 Y100.75 E.04257
M73 P23 R3
G1 X137.877 Y109.25 E.37702
G1 X137.485 Y110.557 E.06052
G1 X136.44 Y111.433 E.06048
G1 X135.5 Y111.627 E.04257
G1 X133.206 Y111.627 E.10175
; printing object RasentrimmerHalterung.stl id:0 copy 0
;WIPE_START
G1 F8640
G1 X133.146 Y111.627 E-.01385
G1 X129.741 Y111.627 E-.78615
;WIPE_END
G1 Z1.2 F720
G1 X134.714 Y108.464 F10800
G1 Z.8 F720
G1 E.8 F2100
M204 S800
;TYPE:Perimeter
;WIDTH:0.5
G1 F2342
G1 X115.286 Y108.464 E1.05558
G1 X115.286 Y101.536 E.37642
G1 X134.714 Y101.536 E1.05558
G1 X134.714 Y105 E.18821
G1 X134.714 Y108.404 E.18495
M204 S1000
G1 X134.714 Y108.404 F10800
G1 X135.2 Y108.95
M204 S800
;TYPE:External perimeter
;WIDTH:0.6
G1 F2100
M73 Q24 S3
G1 X114.8 Y108.95 E1.36283
G1 X114.8 Y101.05 E.52776
M73 P24 R3
G1 X135.2 Y101.05 E1.36283
G1 X135.2 Y105 E.26388
G1 X135.2 Y108.89 E.25987
M204 S1000
;WIPE_START
G1 F8640
G1 X135.2 Y108.95 E-.01385
G1 X131.795 Y108.95 E-.78615
;WIPE_END
G1 Z1.2 F720
G1 X115.648 Y108.019 F10800
G1 Z.8 F720
G1 E.8 F2100
;TYPE:Solid infill
;WIDTH:0.605691
G1 F2342
G1 X115.6 Y108.067 E.00458
G1 X115.617 Y108.133 E.0046
G1 X115.683 Y108.15 E.0046
G1 X115.731 Y108.102 E.00458
G1 X115.713 Y108.037 E.00455
;WIDTH:0.5
G1 X115.612 Y107.341 E.03821
G1 X116.487 Y108.21 E.067
;WIDTH:0.45219
G1 X116.565 Y108.283 E.00517
;WIDTH:0.404381
G1 X116.546 Y108.354 E.00312
G1 X116.617 Y108.335 E.00312
G1 X116.606 Y108.294 E.0018
;WIDTH:0.5
G1 X117.025 Y108.138 E.02429
G1 X115.612 Y106.725 E.10857
G1 X115.612 Y106.109 E.03347
G1 X117.641 Y108.138 E.1559
G1 X118.257 Y108.138 E.03347
M73 Q25 S3
G1 X115.612 Y105.493 E.20324
G1 X115.612 Y104.877 E.03347
G1 X118.873 Y108.138 E.25057
G1 X119.489 Y108.138 E.03347
M73 P25 R3
G1 X115.612 Y104.261 E.2979
G1 X115.612 Y103.645 E.03347
G1 X120.105 Y108.138 E.34523
G1 X120.721 Y108.138 E.03347
G1 X115.612 Y103.029 E.39257
G1 X115.612 Y102.413 E.03347
G1 X121.337 Y108.138 E.4399
G1 X121.953 Y108.138 E.03347
G1 X115.678 Y101.862 E.4822
G1 X115.569 Y101.786 E.00722
;WIDTH:0.45219
G1 X115.459 Y101.709 E.00649
;WIDTH:0.404381
G1 X115.445 Y101.946 E.01007
;WIDTH:0.5
G1 X116.294 Y101.862 E.04635
G1 X122.569 Y108.138 E.4822
G1 X123.185 Y108.138 E.03347
G1 X116.91 Y101.862 E.4822
G1 X117.526 Y101.862 E.03347
G1 X123.802 Y108.138 E.48224
G1 X124.418 Y108.138 E.03347
G1 X118.142 Y101.862 E.48224
G1 X118.758 Y101.862 E.03347
M73 Q26 S3
G1 X125.034 Y108.138 E.48224
G1 X125.65 Y108.138 E.03347
M73 P26 R3
G1 X119.374 Y101.862 E.48224
