; generated by PrusaSlicer 2.7.2+win64 on 2024-05-06 at 12:04:56 UTC


;
;
; 

; external perimeters extrusion width = 0.60mm
; perimeters extrusion width = 0.50mm
; infill extrusion width = 0.50mm
; solid infill extrusion width = 0.50mm
; top infill extrusion width = 0.45mm
; first layer extrusion width = 0.42mm

M73 P0 R65
M73 Q0 S65
M201 X1000 Y1000 Z200 E5000 ; sets maximum accelerations, mm/sec^2
M203 X200 Y200 Z12 E120 ; sets maximum feedrates, mm / sec
M204 S1250 T1250 ; sets acceleration (S) and retract acceleration (R), mm/sec^2
M205 X8.00 Y8.00 Z0.40 E4.50 ; sets the jerk limits, mm/sec
M205 S0 T0 ; sets the minimum extruding and travel feed rate, mm/sec

; printing object Ring150.stl id:0 copy 0
; stop printing object Ring150.stl id:0 copy 0

;TYPE:Custom
M862.3 P "MK3S" ; printer model check
M862.1 P0.4 ; nozzle diameter check
M115 U3.11.0 ; tell printer latest fw version
G90 ; use absolute coordinates
M83 ; extruder relative mode
M104 S215 ; set extruder temp
M140 S60 ; set bed temp
M190 S60 ; wait for bed temp
M109 S215 ; wait for extruder temp
G28 W ; home all without mesh bed level
G80 ; mesh bed leveling

G1 Z0.2 F720
G1 Y-3 F1000 ; go outside print area
G92 E0
G1 X60 E9 F1000 ; intro line
G1 X100 E12.5 F1000 ; intro line

G92 E0
M221 S95

; Don't change E values below. Excessive value can damage the printer.

M907 E538 ; set extruder motor current
G21 ; set units to millimeters
G90 ; use absolute coordinates
M83 ; use relative distances for extrusion
M900 K0.05 ; Filament gcode LA 1.5
M900 K30 ; Filament gcode LA 1.0
M107
;LAYER_CHANGE
;Z:0.2
;HEIGHT:0.2
G1 E-.8 F2100
G1 Z.6 F720
G1 X65.175 Y55.794 F10800
G1 Z.2 F720
G1 E.8 F2100
M204 S800
;TYPE:Skirt/Brim
;WIDTH:0.42
G1 F1200
G1 X72.044 Y48.494 E.31428
G1 X79.557 Y42.316 E.30498
G1 X87.525 Y37.269 E.29573
G1 X96.603 Y33.006 E.31446
G1 X105.578 Y30.095 E.29584
G1 X115.136 Y28.256 E.30518
G1 X124.851 Y27.628 E.30524
G1 X134.474 Y28.213 E.30228
G1 X144.422 Y30.095 E.31745
G1 X153.397 Y33.006 E.29584
G1 X162.213 Y37.125 E.3051
G1 X170.684 Y42.491 E.31441
G1 X177.956 Y48.494 E.29566
G1 X184.634 Y55.564 E.30493
G1 X190.532 Y63.666 E.31421
G1 X195.206 Y72.19 E.30481
G1 X198.772 Y81.232 E.30476
G1 X201.119 Y90.354 E.29533
G1 X202.358 Y99.992 E.30468
G1 X202.358 Y110.008 E.31404
G1 X201.175 Y119.353 E.29534
G1 X198.772 Y128.768 E.30466
G1 X195.078 Y138.08 E.31411
G1 X190.372 Y146.586 E.3048
G1 X184.825 Y154.206 E.29552
G1 X177.956 Y161.506 E.31428
G1 X170.443 Y167.684 E.30498
G1 X162.213 Y172.875 E.30509
G1 X153.397 Y176.994 E.3051
G1 X144.422 Y179.905 E.29584
G1 X134.568 Y181.781 E.31451
G1 X125.149 Y182.372 E.29591
M73 P0 R64
G1 X115.432 Y181.781 E.30523
G1 X105.578 Y179.905 E.31451
G1 X96.326 Y176.885 E.30515
G1 X87.525 Y172.731 E.30514
G1 X79.557 Y167.684 E.29573
G1 X72.044 Y161.506 E.30498
G1 X65.175 Y154.206 E.31428
G1 X59.628 Y146.586 E.29552
G1 X54.922 Y138.08 E.3048
G1 X51.228 Y128.768 E.31411
G1 X48.825 Y119.353 E.30466
G1 X47.642 Y110.008 E.29534
G1 X47.642 Y99.992 E.31404
G1 X48.825 Y90.647 E.29534
G1 X51.228 Y81.232 E.30466
G1 X54.922 Y71.92 E.31411
G1 X59.628 Y63.414 E.3048
G1 X65.14 Y55.843 E.29363
M204 S1000
; printing object Ring150.stl id:0 copy 0
;WIPE_START
G1 F8640
G1 X65.175 Y55.794 E-.0139
G1 X67.508 Y53.315 E-.7861
;WIPE_END
G1 Z.6 F720
G1 X67.704 Y57.696 F10800
G1 Z.2 F720
G1 E.8 F2100
M204 S800
;TYPE:Perimeter
;WIDTH:0.419999
G1 F1200
G1 X74.096 Y50.902 E.29248
G1 X81.292 Y44.962 E.29256
G1 X89.176 Y39.968 E.29262
M73 Q0 S64
G1 X97.626 Y36 E.2927
G1 X106.507 Y33.12 E.29273
G1 X115.68 Y31.373 E.29278
G1 X125 Y30.789 E.29279
G1 X134.32 Y31.373 E.29279
G1 X143.493 Y33.12 E.29278
G1 X152.374 Y36 E.29273
G1 X160.824 Y39.968 E.2927
G1 X168.708 Y44.962 E.29262
G1 X175.904 Y50.902 E.29256
G1 X182.296 Y57.696 E.29248
G1 X187.784 Y65.236 E.2924
G1 X192.283 Y73.403 E.29235
G1 X195.72 Y82.068 E.29228
M73 Q1 S64
G1 X198.042 Y91.094 E.29222
M73 P1 R64
G1 X199.181 Y100.09 E.28431
G1 X199.213 Y100.449 E.0113
G1 X199.213 Y109.659 E.28877
G1 X198.042 Y118.906 E.29225
G1 X195.72 Y127.932 E.29222
G1 X192.283 Y136.597 E.29228
G1 X187.784 Y144.764 E.29235
G1 X182.296 Y152.304 E.2924
G1 X175.904 Y159.098 E.29248
G1 X168.708 Y165.038 E.29256
G1 X160.824 Y170.032 E.29262
G1 X152.374 Y174 E.2927
G1 X143.493 Y176.88 E.29273
G1 X134.32 Y178.627 E.29278
G1 X125 Y179.211 E.29279
G1 X115.68 Y178.627 E.29279
G1 X106.507 Y176.88 E.29278
G1 X97.626 Y174 E.29273
G1 X89.176 Y170.032 E.2927
G1 X81.292 Y165.038 E.29262
G1 X74.096 Y159.098 E.29256
G1 X67.704 Y152.304 E.29248
G1 X62.216 Y144.764 E.2924
G1 X57.717 Y136.597 E.29235
G1 X54.28 Y127.932 E.29228
G1 X51.958 Y118.906 E.29222
G1 X50.787 Y109.659 E.29225
G1 X50.787 Y100.341 E.29216
G1 X51.958 Y91.094 E.29225
G1 X54.28 Y82.068 E.29222
G1 X57.717 Y73.403 E.29228
G1 X62.216 Y65.236 E.29235
G1 X67.669 Y57.745 E.29051
M204 S1000
G1 X67.669 Y57.745 F10800
G1 X67.413 Y57.455
M204 S800
;TYPE:External perimeter
G1 F1200
G1 X73.838 Y50.627 E.29397
G1 X81.07 Y44.657 E.29403
G1 X88.995 Y39.637 E.29414
G1 X97.487 Y35.649 E.29416
G1 X106.413 Y32.754 E.29422
G1 X115.632 Y30.999 E.29425
G1 X125 Y30.411 E.2943
G1 X134.368 Y30.999 E.2943
G1 X143.587 Y32.754 E.29425
G1 X152.513 Y35.649 E.29422
G1 X161.005 Y39.637 E.29416
G1 X168.93 Y44.657 E.29414
G1 X176.162 Y50.627 E.29403
G1 X182.587 Y57.455 E.29397
G1 X188.103 Y65.033 E.29388
G1 X192.624 Y73.242 E.29384
G1 X196.079 Y81.951 E.29377
G1 X198.413 Y91.023 E.29371
G1 X199.555 Y100.043 E.28507
G1 X199.59 Y100.449 E.01278
G1 X199.59 Y109.683 E.28953
G1 X198.413 Y118.977 E.29373
G1 X196.079 Y128.049 E.29371
G1 X192.624 Y136.758 E.29377
G1 X188.103 Y144.967 E.29384
G1 X182.587 Y152.545 E.29388
G1 X176.162 Y159.373 E.29397
G1 X168.93 Y165.343 E.29403
G1 X161.005 Y170.363 E.29414
G1 X152.513 Y174.351 E.29416
G1 X143.587 Y177.246 E.29422
G1 X134.368 Y179.001 E.29425
G1 X125 Y179.589 E.2943
G1 X115.632 Y179.001 E.2943
G1 X106.413 Y177.246 E.29425
G1 X97.487 Y174.351 E.29422
G1 X88.995 Y170.363 E.29416
G1 X81.07 Y165.343 E.29414
G1 X73.838 Y159.373 E.29403
G1 X67.413 Y152.545 E.29397
G1 X61.897 Y144.967 E.29388
G1 X57.376 Y136.758 E.29384
G1 X53.921 Y128.049 E.29377
G1 X51.587 Y118.977 E.29371
G1 X50.41 Y109.683 E.29373
G1 X50.41 Y100.317 E.29366
G1 X51.587 Y91.023 E.29373
G1 X53.921 Y81.951 E.29371
G1 X57.376 Y73.242 E.29377
G1 X61.897 Y65.033 E.29384
G1 X67.378 Y57.504 E.29199
M204 S1000
;WIPE_START
G1 F8640
M73 P2 R64
M73 Q2 S64
G1 X67.413 Y57.455 E-.0139
G1 X69.746 Y54.976 E-.7861
;WIPE_END
G1 Z.6 F720
G1 X70.36 Y59.868 F10800
G1 Z.2 F720
G1 E.8 F2100
M204 S800
;TYPE:Perimeter
G1 F1200
G1 X70.373 Y59.85 E.0007
G1 X76.421 Y53.421 E.27675
G1 X83.282 Y47.751 E.27907
G1 X90.862 Y42.949 E.28134
G1 X98.857 Y39.195 E.27694
G1 X107.328 Y36.444 E.27926
G1 X116.146 Y34.764 E.28145
G1 X124.965 Y34.211 E.27706
G1 X133.854 Y34.764 E.27925
M73 P2 R63
G1 X142.604 Y36.426 E.27925
G1 X151.077 Y39.169 E.27924
G1 X159.2 Y42.984 E.28138
G1 X166.661 Y47.71 E.27692
G1 X173.527 Y53.372 E.27904
G1 X179.627 Y59.85 E.27899
G1 X184.867 Y67.039 E.27893
G1 X189.191 Y74.891 E.28106
G1 X192.445 Y83.091 E.27661
G1 X194.665 Y91.7 E.27876
G1 X195.789 Y100.591 E.28099
G1 X195.785 Y109.48 E.27871
G1 X194.678 Y118.23 E.27654
G1 X192.445 Y126.909 E.28099
G1 X189.161 Y135.174 E.27885
G1 X184.905 Y142.901 E.27659
G1 X179.627 Y150.15 E.28115
G1 X173.579 Y156.579 E.27675
G1 X166.718 Y162.249 E.27907
G1 X159.138 Y167.051 E.28134
G1 X151.143 Y170.805 E.27694
G1 X142.673 Y173.556 E.27923
G1 X133.854 Y175.236 E.28149
G1 X125.035 Y175.789 E.27706
M73 Q2 S63
G1 X116.146 Y175.236 E.27925
G1 X107.396 Y173.574 E.27925
G1 X98.923 Y170.831 E.27924
G1 X90.8 Y167.016 E.28138
G1 X83.339 Y162.29 E.27692
G1 X76.473 Y156.628 E.27904
G1 X70.373 Y150.15 E.27899
G1 X65.133 Y142.961 E.27893
G1 X60.809 Y135.109 E.28106
G1 X57.555 Y126.909 E.27661
G1 X55.335 Y118.3 E.27876
G1 X54.21 Y109.409 E.28099
G1 X54.214 Y100.52 E.27871
G1 X55.322 Y91.77 E.27654
G1 X57.555 Y83.091 E.28099
G1 X60.809 Y74.891 E.27661
G1 X65.095 Y67.099 E.27883
G1 X70.324 Y59.917 E.27855
M204 S1000
G1 X70.324 Y59.917 F10800
G1 X70.648 Y60.108
M204 S800
;TYPE:External perimeter
G1 F1200
G1 X76.696 Y53.679 E.27675
G1 X83.522 Y48.042 E.27757
G1 X91.022 Y43.291 E.27837
G1 X99.039 Y39.527 E.27769
G1 X107.444 Y36.803 E.27703
G1 X116.169 Y35.141 E.27848
G1 X124.988 Y34.587 E.27706
G1 X133.831 Y35.141 E.27781
G1 X142.533 Y36.797 E.27774
G1 X150.961 Y39.527 E.27777
G1 X158.999 Y43.302 E.27844
G1 X166.459 Y48.028 E.27689
G1 X173.287 Y53.663 E.27758
G1 X179.352 Y60.108 E.27748
G1 X184.562 Y67.261 E.27746
G1 X188.841 Y75.03 E.2781
G1 X192.094 Y83.23 E.2766
G1 X194.3 Y91.794 E.27728
G1 X195.412 Y100.591 E.27802
G1 X195.411 Y109.433 E.27723
G1 X194.304 Y118.182 E.27651
G1 X192.094 Y126.77 E.27804
G1 X188.841 Y134.97 E.2766
G1 X184.574 Y142.719 E.27736
G1 X179.352 Y149.892 E.27819
G1 X173.304 Y156.321 E.27675
G1 X166.478 Y161.958 E.27757
G1 X158.978 Y166.709 E.27837
G1 X150.983 Y170.464 E.27695
G1 X142.556 Y173.197 E.27777
G1 X133.831 Y174.859 E.27848
G1 X125.012 Y175.413 E.27706
G1 X116.169 Y174.859 E.27781
G1 X107.467 Y173.203 E.27774
G1 X99.039 Y170.473 E.27777
G1 X91.001 Y166.698 E.27844
G1 X83.541 Y161.972 E.27689
G1 X76.713 Y156.337 E.27758
G1 X70.648 Y149.892 E.27748
M73 P3 R63
M73 Q3 S63
G1 X65.438 Y142.739 E.27746
G1 X61.159 Y134.97 E.2781
G1 X57.906 Y126.77 E.2766
G1 X55.7 Y118.206 E.27728
G1 X54.587 Y109.409 E.27802
G1 X54.588 Y100.567 E.27723
G1 X55.696 Y91.818 E.27651
G1 X57.906 Y83.23 E.27804
G1 X61.159 Y75.03 E.2766
G1 X65.426 Y67.281 E.27736
G1 X70.613 Y60.157 E.2763
M204 S1000
;WIPE_START
G1 F8640
G1 X70.648 Y60.108 E-.0139
G1 X72.981 Y57.628 E-.7861
;WIPE_END
G1 Z.6 F720
G1 X171.391 Y47.324 F10800
G1 Z.2 F720
G1 E.8 F2100
M204 S800
;TYPE:Solid infill
;WIDTH:0.420287
G1 F1200
G1 X182.435 Y58.367 E.49006
G1 X183.863 Y60.329 E.07614
G1 X169.594 Y46.061 E.63317
G1 X168.542 Y45.192 E.04282
G1 X167.587 Y44.587 E.03547
G1 X185.291 Y62.291 E.78562
G1 X186.719 Y64.252 E.07612
G1 X166.131 Y43.665 E.91358
G1 X164.675 Y42.743 E.05408
G1 X187.821 Y65.888 E1.02709
G1 X188.475 Y67.076 E.04255
G1 X163.22 Y41.821 E1.1207
G1 X161.764 Y40.899 E.05408
G1 X189.129 Y68.264 E1.21433
G1 X189.784 Y69.452 E.04257
G1 X160.425 Y40.094 E1.3028
G1 X159.419 Y39.621 E.03488
G1 X169.388 Y49.59 E.44238
G1 X166.859 Y47.502 E.10291
G1 X166.606 Y47.342 E.00939
G1 X158.413 Y39.149 E.36357
G1 X157.407 Y38.676 E.03488
G1 X165.149 Y46.418 E.34355
G1 X163.692 Y45.495 E.05412
G1 X156.4 Y38.204 E.32356
G1 X155.394 Y37.731 E.03488
G1 X162.235 Y44.572 E.30357
G1 X160.778 Y43.648 E.05414
G1 X154.388 Y37.259 E.28354
G1 X153.382 Y36.786 E.03488
G1 X159.329 Y42.733 E.2639
G1 X158.321 Y42.259 E.03495
G1 X152.376 Y36.314 E.26381
G1 X152.27 Y36.264 E.00368
M73 P3 R62
G1 X151.563 Y36.035 E.02332
G1 X157.314 Y41.786 E.2552
G1 X156.307 Y41.312 E.03492
G1 X150.773 Y35.778 E.24557
G1 X149.983 Y35.522 E.02606
G1 X155.299 Y40.838 E.2359
G1 X154.292 Y40.364 E.03492
G1 X149.193 Y35.266 E.22625
G1 X148.404 Y35.01 E.02603
G1 X153.284 Y39.891 E.21657
G1 X152.277 Y39.417 E.03492
G1 X147.614 Y34.754 E.20692
G1 X146.824 Y34.498 E.02606
G1 X151.269 Y38.943 E.19725
G1 X150.468 Y38.676 E.02649
G1 X146.034 Y34.241 E.19678
G1 X145.244 Y33.985 E.02606
G1 X149.679 Y38.42 E.19681
G1 X148.889 Y38.164 E.02606
G1 X144.454 Y33.729 E.19681
G1 X143.664 Y33.473 E.02606
G1 X148.099 Y37.908 E.19681
G1 X147.309 Y37.651 E.02607
G1 X142.965 Y33.307 E.19277
G1 X142.306 Y33.182 E.02105
G1 X146.52 Y37.395 E.18698
G1 X145.73 Y37.139 E.02606
G1 X141.647 Y33.056 E.18119
G1 X140.988 Y32.931 E.02105
G1 X144.94 Y36.883 E.17537
G1 X144.151 Y36.627 E.02603
G1 X140.328 Y32.805 E.16963
G1 X139.669 Y32.68 E.02105
G1 X143.361 Y36.371 E.16381
G1 X142.71 Y36.16 E.02147
G1 X142.594 Y36.138 E.0037
G1 X139.01 Y32.554 E.15904
G1 X138.351 Y32.429 E.02105
G1 X141.935 Y36.013 E.15904
G1 X141.275 Y35.887 E.02108
G1 X137.692 Y32.303 E.15902
G1 X137.033 Y32.178 E.02105
G1 X140.616 Y35.761 E.159
G1 X139.956 Y35.635 E.02108
G1 X136.373 Y32.052 E.159
G1 X135.714 Y31.927 E.02105
G1 X139.297 Y35.51 E.159
G1 X138.638 Y35.384 E.02105
G1 X135.055 Y31.801 E.159
G1 X134.396 Y31.676 E.02105
G1 X137.978 Y35.258 E.15895
G1 X137.319 Y35.132 E.02105
G1 X133.811 Y31.625 E.15565
G1 X133.242 Y31.589 E.01789
G1 X136.659 Y35.007 E.15165
G1 X136 Y34.881 E.02105
G1 X132.672 Y31.553 E.14768
G1 X132.103 Y31.518 E.01789
G1 X135.341 Y34.755 E.14367
G1 X134.681 Y34.63 E.02108
G1 X131.534 Y31.482 E.13967
G1 X130.964 Y31.446 E.01792
G1 X134.022 Y34.504 E.1357
G1 X133.446 Y34.461 E.01812
M73 Q3 S62
G1 X130.395 Y31.41 E.13539
G1 X129.825 Y31.375 E.01792
G1 X132.876 Y34.425 E.13537
G1 X132.307 Y34.39 E.01789
G1 X129.256 Y31.339 E.13539
G1 X128.687 Y31.303 E.01789
G1 X131.737 Y34.354 E.13537
G1 X131.168 Y34.318 E.01789
G1 X128.117 Y31.268 E.13537
G1 X127.548 Y31.232 E.01789
G1 X130.598 Y34.282 E.13535
G1 X130.029 Y34.247 E.01789
G1 X126.978 Y31.196 E.13539
G1 X126.409 Y31.16 E.01789
G1 X129.46 Y34.211 E.13539
G1 X128.89 Y34.175 E.01792
G1 X125.84 Y31.125 E.13535
G1 X125.27 Y31.089 E.01792
G1 X128.321 Y34.139 E.13537
G1 X127.751 Y34.104 E.01792
G1 X124.747 Y31.099 E.13333
G1 X124.244 Y31.13 E.01581
G1 X127.182 Y34.068 E.13038
G1 X126.612 Y34.032 E.01792
G1 X123.741 Y31.161 E.1274
G1 X123.239 Y31.192 E.01578
G1 X126.043 Y33.996 E.12443
G1 X125.474 Y33.961 E.01789
G1 X122.736 Y31.223 E.1215
G1 X122.233 Y31.254 E.01581
G1 X124.91 Y33.931 E.11879
G1 X124.408 Y33.962 E.01578
G1 X121.73 Y31.285 E.11882
G1 X121.228 Y31.316 E.01578
G1 X123.906 Y33.994 E.11884
G1 X123.404 Y34.026 E.01578
G1 X120.725 Y31.347 E.11888
G1 X120.222 Y31.378 E.01581
M73 P4 R62
M73 Q4 S62
G1 X122.902 Y34.057 E.1189
G1 X122.4 Y34.089 E.01578
G1 X119.719 Y31.408 E.11897
G1 X119.216 Y31.439 E.01581
G1 X121.897 Y34.12 E.11897
G1 X121.395 Y34.152 E.01578
G1 X118.714 Y31.47 E.11899
G1 X118.211 Y31.501 E.01581
G1 X120.893 Y34.184 E.11904
G1 X120.391 Y34.215 E.01578
G1 X117.708 Y31.532 E.11906
G1 X117.205 Y31.563 E.01581
G1 X119.889 Y34.247 E.1191
G1 X119.387 Y34.278 E.01578
G1 X116.703 Y31.594 E.1191
G1 X116.2 Y31.625 E.01581
G1 X118.885 Y34.31 E.11915
G1 X118.383 Y34.342 E.01578
G1 X115.699 Y31.658 E.1191
G1 X115.251 Y31.743 E.01431
G1 X117.881 Y34.373 E.11671
G1 X117.379 Y34.405 E.01578
G1 X114.802 Y31.828 E.11436
G1 X114.354 Y31.914 E.01431
G1 X116.877 Y34.436 E.11194
G1 X116.375 Y34.468 E.01578
G1 X113.906 Y31.999 E.10956
G1 X113.457 Y32.084 E.01434
G1 X115.894 Y34.521 E.10814
G1 X115.446 Y34.607 E.01431
G1 X113.009 Y32.17 E.10814
G1 X112.561 Y32.255 E.01431
G1 X114.998 Y34.692 E.10814
G1 X114.549 Y34.777 E.01434
G1 X112.112 Y32.341 E.10812
G1 X111.664 Y32.426 E.01431
G1 X114.101 Y34.863 E.10814
G1 X113.652 Y34.948 E.01434
G1 X111.216 Y32.511 E.10812
G1 X110.768 Y32.597 E.01431
G1 X113.204 Y35.033 E.1081
G1 X112.756 Y35.119 E.01431
G1 X110.319 Y32.682 E.10814
G1 X109.871 Y32.767 E.01431
G1 X112.307 Y35.204 E.10812
G1 X111.859 Y35.289 E.01431
G1 X109.423 Y32.853 E.1081
G1 X108.974 Y32.938 E.01434
G1 X111.411 Y35.375 E.10814
G1 X110.962 Y35.46 E.01434
G1 X108.526 Y33.023 E.10812
G1 X108.078 Y33.109 E.01431
G1 X110.514 Y35.545 E.1081
G1 X110.066 Y35.63 E.01431
G1 X107.629 Y33.194 E.10812
G1 X107.181 Y33.279 E.01431
G1 X109.617 Y35.716 E.10812
G1 X109.169 Y35.801 E.01431
G1 X106.733 Y33.365 E.1081
G1 X106.577 Y33.394 E.00498
G1 X106.314 Y33.48 E.00868
G1 X108.721 Y35.886 E.10679
G1 X108.272 Y35.972 E.01434
G1 X105.911 Y33.611 E.10477
G1 X105.508 Y33.741 E.01329
G1 X107.824 Y36.057 E.10277
G1 X107.376 Y36.142 E.01431
G1 X105.105 Y33.872 E.10075
G1 X104.702 Y34.003 E.0133
G1 X106.969 Y36.269 E.10058
G1 X106.565 Y36.4 E.01333
G1 X104.299 Y34.133 E.10058
G1 X103.896 Y34.264 E.0133
G1 X106.162 Y36.53 E.10055
G1 X105.759 Y36.661 E.0133
G1 X103.493 Y34.395 E.10055
G1 X103.09 Y34.525 E.01329
G1 X105.356 Y36.791 E.10055
G1 X104.953 Y36.922 E.0133
G1 X102.687 Y34.656 E.10055
G1 X102.284 Y34.787 E.0133
G1 X104.549 Y37.052 E.10051
G1 X104.146 Y37.183 E.0133
G1 X101.881 Y34.918 E.10051
G1 X101.478 Y35.048 E.01329
G1 X103.743 Y37.313 E.10051
G1 X103.34 Y37.444 E.0133
G1 X101.075 Y35.179 E.10051
G1 X100.672 Y35.31 E.0133
G1 X102.937 Y37.574 E.10049
