; generated by PrusaSlicer 2.7.2+win64 on 2024-05-06 at 08:21:31 UTC


;
;
; 

; external perimeters extrusion width = 0.60mm
; perimeters extrusion width = 0.50mm
; infill extrusion width = 0.50mm
; solid infill extrusion width = 0.50mm
; top infill extrusion width = 0.45mm
; first layer extrusion width = 0.42mm

M73 P0 R45
M73 Q0 S45
M201 X1000 Y1000 Z200 E5000 ; sets maximum accelerations, mm/sec^2
M203 X200 Y200 Z12 E120 ; sets maximum feedrates, mm / sec
M204 S1250 T1250 ; sets acceleration (S) and retract acceleration (R), mm/sec^2
M205 X8.00 Y8.00 Z0.40 E4.50 ; sets the jerk limits, mm/sec
M205 S0 T0 ; sets the minimum extruding and travel feed rate, mm/sec

; printing object Ring120.stl id:0 copy 0
; stop printing object Ring120.stl id:0 copy 0

;TYPE:Custom
M862.3 P "MK3S" ; printer model check
M862.1 P0.4 ; nozzle diameter check
M115 U3.11.0 ; tell printer latest fw version
G90 ; use absolute coordinates
M83 ; extruder relative mode
M104 S215 ; set extruder temp
M140 S60 ; set bed temp
M190 S60 ; wait for bed temp
M109 S215 ; wait for extruder temp
G28 W ; home all without mesh bed level
G80 ; mesh bed leveling

G1 Z0.2 F720
G1 Y-3 F1000 ; go outside print area
G92 E0
G1 X60 E9 F1000 ; intro line
G1 X100 E12.5 F1000 ; intro line

G92 E0
M221 S95

; Don't change E values below. Excessive value can damage the printer.

M907 E538 ; set extruder motor current
G21 ; set units to millimeters
G90 ; use absolute coordinates
M83 ; use relative distances for extrusion
M900 K0.05 ; Filament gcode LA 1.5
M900 K30 ; Filament gcode LA 1.0
M107
;LAYER_CHANGE
;Z:0.2
;HEIGHT:0.2
G1 E-.8 F2100
G1 Z.6 F720
G1 X76.947 Y65.126 F10800
G1 Z.2 F720
G1 E.8 F2100
M204 S800
;TYPE:Skirt/Brim
;WIDTH:0.42
G1 F1200
G1 X82.115 Y59.633 E.23647
G1 X88.391 Y54.451 E.25519
G1 X95.027 Y50.27 E.24592
G1 X102.136 Y46.952 E.24598
G1 X109.316 Y44.624 E.23666
G1 X117.02 Y43.138 E.24601
G1 X125.149 Y42.628 E.25538
G1 X132.684 Y43.101 E.23672
G1 X140.396 Y44.55 E.24604
G1 X148.142 Y47.061 E.25531
G1 X154.973 Y50.27 E.23664
G1 X161.609 Y54.451 E.24592
G1 X167.885 Y59.633 E.25519
G1 X173.053 Y65.126 E.23647
G1 X177.682 Y71.451 E.24575
G1 X181.607 Y78.577 E.25508
G1 X184.478 Y85.867 E.24566
G1 X186.412 Y93.459 E.24564
G1 X187.358 Y100.935 E.23627
G1 X187.377 Y108.767 E.24557
G1 X186.356 Y116.835 E.25498
G1 X184.386 Y124.417 E.24562
G1 X181.607 Y131.423 E.23632
G1 X177.682 Y138.549 E.25508
G1 X173.053 Y144.874 E.24575
G1 X167.885 Y150.367 E.23647
G1 X161.609 Y155.549 E.25519
G1 X154.973 Y159.73 E.24592
G1 X147.864 Y163.048 E.24598
G1 X140.396 Y165.45 E.24597
G1 X132.98 Y166.862 E.2367
G1 X124.851 Y167.372 E.25538
G1 X117.316 Y166.899 E.23672
G1 X109.604 Y165.45 E.24604
G1 X101.858 Y162.939 E.25531
G1 X95.027 Y159.73 E.23664
G1 X88.391 Y155.549 E.24592
G1 X82.115 Y150.367 E.25519
G1 X76.947 Y144.874 E.23647
G1 X72.318 Y138.549 E.24575
G1 X68.393 Y131.423 E.25508
G1 X65.522 Y124.133 E.24566
G1 X63.588 Y116.541 E.24564
G1 X62.642 Y109.065 E.23627
G1 X62.623 Y101.233 E.24557
G1 X63.644 Y93.165 E.25498
G1 X65.614 Y85.583 E.24562
G1 X68.393 Y78.576 E.23635
G1 X72.318 Y71.451 E.25505
G1 X76.911 Y65.175 E.24385
M204 S1000
; printing object Ring120.stl id:0 copy 0
;WIPE_START
G1 F8640
G1 X76.947 Y65.126 E-.01404
G1 X79.279 Y62.647 E-.78596
;WIPE_END
G1 Z.6 F720
G1 X79.285 Y67.258 F10800
G1 Z.2 F720
G1 E.8 F2100
M204 S800
;TYPE:Perimeter
;WIDTH:0.419999
G1 F1200
G1 X84.385 Y61.837 E.23337
G1 X90.126 Y57.097 E.23343
M73 P1 R45
M73 Q1 S45
G1 X96.417 Y53.113 E.23348
G1 X103.159 Y49.946 E.23355
G1 X110.245 Y47.649 E.23356
G1 X117.564 Y46.255 E.23361
G1 X125 Y45.789 E.23361
G1 X132.436 Y46.255 E.23361
G1 X139.755 Y47.649 E.23361
G1 X146.841 Y49.946 E.23356
G1 X153.583 Y53.113 E.23355
G1 X159.874 Y57.097 E.23348
G1 X165.615 Y61.837 E.23343
G1 X170.715 Y67.258 E.23337
G1 X175.095 Y73.273 E.2333
G1 X178.684 Y79.789 E.23325
G1 X181.426 Y86.703 E.23321
G1 X183.279 Y93.905 E.23317
G1 X184.181 Y101.031 E.22521
G1 X184.213 Y101.391 E.01133
G1 X184.213 Y108.717 E.2297
G1 X183.279 Y116.095 E.23318
G1 X181.426 Y123.297 E.23317
G1 X178.684 Y130.211 E.23321
G1 X175.095 Y136.727 E.23325
G1 X170.715 Y142.742 E.2333
G1 X165.615 Y148.163 E.23337
G1 X159.874 Y152.903 E.23343
G1 X153.583 Y156.887 E.23348
M73 P1 R44
G1 X146.841 Y160.054 E.23355
G1 X139.755 Y162.351 E.23356
G1 X132.436 Y163.745 E.23361
G1 X125 Y164.211 E.23361
G1 X117.564 Y163.745 E.23361
G1 X110.245 Y162.351 E.23361
G1 X103.159 Y160.054 E.23356
G1 X96.417 Y156.887 E.23355
G1 X90.126 Y152.903 E.23348
G1 X84.385 Y148.163 E.23343
G1 X79.285 Y142.742 E.23337
G1 X74.905 Y136.727 E.2333
G1 X71.316 Y130.211 E.23325
G1 X68.574 Y123.297 E.23321
G1 X66.721 Y116.095 E.23317
G1 X65.787 Y108.717 E.23318
G1 X65.787 Y101.283 E.23309
G1 X66.721 Y93.905 E.23318
G1 X68.574 Y86.703 E.23317
G1 X71.316 Y79.789 E.23321
G1 X74.905 Y73.273 E.23325
G1 X79.25 Y67.307 E.23141
M204 S1000
G1 X79.25 Y67.307 F10800
G1 X78.994 Y67.017
M204 S800
;TYPE:External perimeter
G1 F1200
G1 X84.127 Y61.562 E.23485
G1 X89.904 Y56.792 E.2349
G1 X96.236 Y52.782 E.235
G1 X103.02 Y49.595 E.23501
G1 X110.151 Y47.283 E.23504
G1 X117.516 Y45.881 E.23507
G1 X125 Y45.411 E.23512
G1 X132.484 Y45.881 E.23512
G1 X139.849 Y47.283 E.23507
G1 X146.98 Y49.595 E.23504
G1 X153.764 Y52.782 E.23501
G1 X160.096 Y56.792 E.235
G1 X165.873 Y61.562 E.2349
G1 X171.006 Y67.017 E.23485
G1 X175.413 Y73.07 E.23476
G1 X179.025 Y79.628 E.23475
G1 X181.785 Y86.586 E.2347
M73 Q1 S44
G1 X183.65 Y93.834 E.23466
G1 X184.555 Y100.984 E.22597
G1 X184.59 Y101.391 E.01281
G1 X184.59 Y108.741 E.23045
G1 X183.65 Y116.166 E.23466
G1 X181.785 Y123.414 E.23466
G1 X179.025 Y130.372 E.2347
G1 X175.413 Y136.93 E.23475
G1 X171.006 Y142.983 E.23476
G1 X165.873 Y148.438 E.23485
M73 P2 R44
M73 Q2 S44
G1 X160.096 Y153.208 E.2349
G1 X153.764 Y157.218 E.235
G1 X146.98 Y160.405 E.23501
G1 X139.849 Y162.717 E.23504
G1 X132.484 Y164.119 E.23507
G1 X125 Y164.589 E.23512
G1 X117.516 Y164.119 E.23512
G1 X110.151 Y162.717 E.23507
G1 X103.02 Y160.405 E.23504
G1 X96.236 Y157.218 E.23501
G1 X89.904 Y153.208 E.235
G1 X84.127 Y148.438 E.2349
G1 X78.994 Y142.983 E.23485
G1 X74.587 Y136.93 E.23476
G1 X70.975 Y130.372 E.23475
G1 X68.215 Y123.414 E.2347
G1 X66.35 Y116.166 E.23466
G1 X65.41 Y108.741 E.23466
G1 X65.41 Y101.259 E.23459
G1 X66.35 Y93.834 E.23466
G1 X68.215 Y86.586 E.23466
G1 X70.975 Y79.628 E.2347
G1 X74.587 Y73.07 E.23475
G1 X78.959 Y67.066 E.23287
M204 S1000
;WIPE_START
G1 F8640
G1 X78.994 Y67.017 E-.0139
G1 X81.327 Y64.537 E-.7861
;WIPE_END
G1 Z.6 F720
G1 X81.941 Y69.431 F10800
G1 Z.2 F720
G1 E.8 F2100
M204 S800
;TYPE:Perimeter
G1 F1200
G1 X86.71 Y64.355 E.21838
G1 X92.173 Y59.845 E.22212
G1 X98.103 Y56.095 E.21999
G1 X104.39 Y53.142 E.21779
G1 X111.133 Y50.954 E.22227
G1 X117.959 Y49.655 E.21787
G1 X124.965 Y49.211 E.22011
G1 X132.041 Y49.655 E.2223
G1 X138.867 Y50.954 E.21787
G1 X145.544 Y53.116 E.22005
G1 X151.897 Y56.095 E.22001
G1 X157.827 Y59.845 E.21999
G1 X163.29 Y64.355 E.22212
G1 X168.047 Y69.411 E.21766
G1 X172.177 Y75.076 E.21981
G1 X175.592 Y81.278 E.22199
G1 X178.151 Y87.726 E.21751
G1 X179.901 Y94.511 E.2197
G1 X180.79 Y101.532 E.2219
G1 X180.786 Y108.539 E.2197
G1 X179.914 Y115.419 E.21744
G1 X178.151 Y122.274 E.22193
G1 X175.562 Y128.787 E.21975
G1 X172.177 Y134.924 E.21975
G1 X168.092 Y140.535 E.21761
G1 X163.29 Y145.645 E.21986
G1 X157.827 Y150.155 E.22212
G1 X151.959 Y153.871 E.21778
G1 X145.61 Y156.858 E.22
G1 X138.867 Y159.045 E.22226
G1 X132.041 Y160.345 E.21787
G1 X125.035 Y160.789 E.22011
G1 X117.959 Y160.345 E.2223
G1 X111.064 Y159.027 E.2201
G1 X104.39 Y156.858 E.22003
G1 X98.103 Y153.905 E.21779
G1 X92.173 Y150.155 E.21999
G1 X86.71 Y145.645 E.22212
G1 X81.953 Y140.589 E.21766
G1 X77.823 Y134.924 E.21981
G1 X74.438 Y128.787 E.21975
G1 X71.849 Y122.274 E.21975
G1 X70.086 Y115.419 E.22193
G1 X69.214 Y108.539 E.21744
G1 X69.21 Y101.532 E.2197
G1 X70.099 Y94.511 E.2219
G1 X71.827 Y87.793 E.21749
G1 X74.408 Y81.278 E.21972
G1 X77.823 Y75.076 E.22199
G1 X81.901 Y69.475 E.21723
M204 S1000
G1 X81.901 Y69.475 F10800
M73 P3 R44
M73 Q3 S44
G1 X82.229 Y69.67
M204 S800
;TYPE:External perimeter
G1 F1200
G1 X86.985 Y64.614 E.21764
G1 X92.375 Y60.163 E.21917
G1 X98.242 Y56.447 E.21775
G1 X104.55 Y53.483 E.21853
G1 X111.204 Y51.325 E.21933
G1 X118.03 Y50.026 E.21787
G1 X124.988 Y49.587 E.2186
G1 X131.97 Y50.026 E.21935
G1 X138.796 Y51.325 E.21787
G1 X145.428 Y53.474 E.21859
G1 X151.737 Y56.436 E.21853
G1 X157.625 Y60.163 E.21849
G1 X163.015 Y64.614 E.21917
G1 X167.772 Y69.669 E.21764
G1 X171.872 Y75.298 E.21835
G1 X175.232 Y81.395 E.21827
G1 X177.8 Y87.865 E.21826
G1 X179.54 Y94.629 E.21898
G1 X180.412 Y101.508 E.21741
G1 X180.413 Y108.468 E.21823
G1 X179.536 Y115.395 E.21892
G1 X177.808 Y122.113 E.21749
G1 X175.242 Y128.583 E.21823
G1 X171.872 Y134.702 E.21903
G1 X167.787 Y140.313 E.21761
G1 X163.015 Y145.386 E.21837
G1 X157.625 Y149.837 E.21917
G1 X151.758 Y153.553 E.21775
G1 X145.45 Y156.517 E.21853
G1 X138.796 Y158.674 E.21932
G1 X131.97 Y159.974 E.21787
G1 X125.012 Y160.413 E.2186
G1 X118.03 Y159.974 E.21935
G1 X111.181 Y158.668 E.21861
G1 X104.572 Y156.526 E.21783
G1 X98.263 Y153.564 E.21853
G1 X92.375 Y149.837 E.21849
G1 X86.985 Y145.386 E.21917
G1 X82.228 Y140.331 E.21764
G1 X78.128 Y134.702 E.21835
G1 X74.768 Y128.605 E.21827
G1 X72.2 Y122.135 E.21826
G1 X70.46 Y115.371 E.21898
M73 P3 R43
G1 X69.588 Y108.492 E.21741
G1 X69.587 Y101.532 E.21823
G1 X70.464 Y94.605 E.21892
G1 X72.192 Y87.887 E.21749
G1 X74.758 Y81.417 E.21823
G1 X78.128 Y75.298 E.21903
G1 X82.191 Y69.717 E.21645
M204 S1000
;WIPE_START
G1 F8640
G1 X82.229 Y69.67 E-.01396
G1 X84.561 Y67.19 E-.78604
;WIPE_END
G1 Z.6 F720
G1 X169.363 Y65.987 F10800
G1 Z.2 F720
G1 E.8 F2100
M204 S800
;TYPE:Solid infill
;WIDTH:0.420843
G1 F1200
G1 X165.419 Y62.043 E.17527
G1 X162.353 Y59.511 E.12495
G1 X171.074 Y68.232 E.38757
G1 X172.505 Y70.198 E.07641
G1 X159.508 Y57.2 E.57762
G1 X158.051 Y56.277 E.0542
G1 X173.937 Y72.164 E.70601
G1 X174.855 Y73.425 E.04901
G1 X175.09 Y73.852 E.01532
G1 X156.593 Y55.355 E.82202
G1 X155.136 Y54.432 E.0542
G1 X175.746 Y75.042 E.91593
G1 X176.401 Y76.231 E.04266
G1 X153.679 Y53.509 E1.00979
G1 X153.446 Y53.362 E.00866
G1 X152.599 Y52.964 E.02941
G1 X177.056 Y77.421 E1.08689
G1 X177.712 Y78.611 E.0427
M73 P4 R43
M73 Q4 S44
G1 X151.591 Y52.49 E1.16084
G1 X150.583 Y52.017 E.03499
M73 Q4 S43
G1 X159.078 Y60.512 E.37753
G1 X157.983 Y59.609 E.0446
G1 X157.05 Y59.018 E.03471
G1 X149.575 Y51.543 E.3322
G1 X148.567 Y51.07 E.03499
G1 X155.593 Y58.096 E.31224
G1 X154.137 Y57.174 E.05416
G1 X147.559 Y50.596 E.29233
G1 X146.737 Y50.21 E.02854
G1 X146.591 Y50.163 E.00482
G1 X152.68 Y56.252 E.2706
G1 X152.067 Y55.864 E.0228
G1 X151.484 Y55.59 E.02024
G1 X145.8 Y49.906 E.2526
G1 X145.009 Y49.65 E.02613
G1 X150.476 Y55.116 E.24294
G1 X149.468 Y54.643 E.03499
G1 X144.218 Y49.393 E.23331
G1 X143.428 Y49.137 E.0261
G1 X148.46 Y54.169 E.22363
G1 X147.452 Y53.696 E.03499
G1 X142.637 Y48.88 E.214
G1 X141.846 Y48.624 E.02613
G1 X146.444 Y53.223 E.20436
G1 X145.683 Y52.865 E.02643
G1 X145.489 Y52.802 E.00641
G1 X141.055 Y48.368 E.19705
G1 X140.264 Y48.111 E.02614
G1 X144.698 Y52.546 E.19707
G1 X143.907 Y52.289 E.02614
G1 X139.508 Y47.89 E.1955
G1 X138.848 Y47.764 E.02111
G1 X143.116 Y52.032 E.18967
G1 X142.325 Y51.776 E.02613
G1 X138.188 Y47.638 E.18387
G1 X137.528 Y47.513 E.02111
G1 X141.534 Y51.519 E.17803
G1 X140.743 Y51.262 E.02614
G1 X136.867 Y47.387 E.17223
G1 X136.207 Y47.261 E.02111
G1 X139.952 Y51.006 E.16643
G1 X139.161 Y50.749 E.02614
G1 X135.547 Y47.136 E.16059
G1 X134.887 Y47.01 E.02111
G1 X138.469 Y50.592 E.15919
G1 X137.809 Y50.467 E.02111
G1 X134.227 Y46.884 E.15921
G1 X133.567 Y46.759 E.02111
G1 X137.149 Y50.341 E.15919
G1 X136.489 Y50.215 E.02111
G1 X132.906 Y46.633 E.15921
G1 X132.401 Y46.537 E.01615
G1 X132.267 Y46.528 E.00422
G1 X135.828 Y50.089 E.15825
G1 X135.168 Y49.963 E.02111
G1 X131.697 Y46.492 E.15425
G1 X131.127 Y46.457 E.01795
G1 X134.508 Y49.837 E.15023
G1 X133.847 Y49.712 E.02114
G1 X130.557 Y46.421 E.14623
G1 X129.986 Y46.385 E.01798
G1 X133.187 Y49.586 E.14226
G1 X132.527 Y49.46 E.02111
G1 X129.416 Y46.349 E.13826
G1 X128.846 Y46.313 E.01795
G1 X131.897 Y49.364 E.13559
G1 X131.326 Y49.328 E.01798
G1 X128.276 Y46.278 E.13554
G1 X127.705 Y46.242 E.01798
G1 X130.756 Y49.293 E.13559
G1 X130.186 Y49.257 E.01795
G1 X127.135 Y46.206 E.13559
G1 X126.565 Y46.17 E.01795
G1 X129.615 Y49.221 E.13557
G1 X129.045 Y49.185 E.01795
G1 X125.994 Y46.134 E.13559
G1 X125.424 Y46.099 E.01795
G1 X128.475 Y49.149 E.13557
G1 X127.905 Y49.113 E.01795
G1 X124.882 Y46.091 E.13432
G1 X124.378 Y46.122 E.01587
G1 X127.334 Y49.078 E.13137
G1 X126.764 Y49.042 E.01795
G1 X123.875 Y46.153 E.12839
G1 X123.371 Y46.183 E.01587
G1 X126.194 Y49.006 E.12546
G1 X125.623 Y48.97 E.01798
G1 X122.868 Y46.214 E.12246
G1 X122.364 Y46.245 E.01587
G1 X125.053 Y48.934 E.1195
G1 X124.538 Y48.954 E.0162
G1 X121.86 Y46.276 E.11901
G1 X121.357 Y46.307 E.01584
G1 X124.036 Y48.986 E.11906
G1 X123.533 Y49.018 E.01584
G1 X120.853 Y46.338 E.1191
G1 X120.349 Y46.368 E.01587
G1 X123.03 Y49.049 E.11915
G1 X122.527 Y49.081 E.01584
G1 X119.846 Y46.399 E.11917
G1 X119.342 Y46.43 E.01587
G1 X122.025 Y49.113 E.11923
G1 X121.522 Y49.144 E.01584
G1 X118.838 Y46.461 E.11926
G1 X118.335 Y46.492 E.01584
G1 X121.019 Y49.176 E.11928
G1 X120.516 Y49.208 E.01584
G1 X117.831 Y46.522 E.11935
G1 X117.599 Y46.537 E.00731
G1 X117.357 Y46.583 E.00774
G1 X120.014 Y49.239 E.11806
G1 X119.511 Y49.271 E.01584
G1 X116.908 Y46.668 E.11568
G1 X116.459 Y46.754 E.01437
G1 X119.008 Y49.303 E.11328
G1 X118.505 Y49.335 E.01584
G1 X116.01 Y46.839 E.1109
G1 X115.561 Y46.925 E.01437
G1 X118.003 Y49.366 E.1085
G1 X117.549 Y49.447 E.01449
G1 X115.112 Y47.01 E.1083
G1 X114.663 Y47.096 E.01437
G1 X117.1 Y49.532 E.10828
G1 X116.651 Y49.618 E.01437
G1 X114.214 Y47.181 E.1083
G1 X113.765 Y47.267 E.01437
G1 X116.201 Y49.703 E.10826
G1 X115.752 Y49.788 E.01436
G1 X113.316 Y47.352 E.10826
G1 X112.867 Y47.438 E.01437
G1 X115.303 Y49.874 E.10826
G1 X114.854 Y49.959 E.01436
G1 X112.418 Y47.523 E.10826
G1 X111.969 Y47.609 E.01437
G1 X114.405 Y50.044 E.10824
G1 X113.956 Y50.13 E.01437
G1 X111.52 Y47.694 E.10826
G1 X111.071 Y47.779 E.01436
G1 X113.507 Y50.215 E.10826
G1 X113.058 Y50.301 E.01437
G1 X110.622 Y47.865 E.10826
G1 X110.315 Y47.923 E.00982
G1 X110.188 Y47.965 E.0042
G1 X112.609 Y50.386 E.10759
G1 X112.16 Y50.471 E.01436
G1 X109.784 Y48.096 E.10557
G1 X109.38 Y48.227 E.01335
G1 X111.711 Y50.557 E.10357
G1 X111.261 Y50.642 E.01439
G1 X108.977 Y48.357 E.10153
G1 X108.573 Y48.488 E.01335
G1 X110.839 Y50.754 E.1007
G1 X110.435 Y50.885 E.01335
G1 X108.17 Y48.619 E.10068
G1 X107.766 Y48.75 E.01335
G1 X110.032 Y51.016 E.1007
G1 X109.628 Y51.147 E.01335
G1 X107.362 Y48.881 E.1007
G1 X106.959 Y49.012 E.01332
G1 X109.225 Y51.278 E.1007
G1 X108.821 Y51.409 E.01335
G1 X106.555 Y49.143 E.1007
G1 X106.152 Y49.273 E.01331
G1 X108.418 Y51.539 E.1007
G1 X108.014 Y51.67 E.01335
G1 X105.748 Y49.404 E.1007
G1 X105.344 Y49.535 E.01335
G1 X107.61 Y51.801 E.1007
G1 X107.207 Y51.932 E.01332
G1 X104.941 Y49.666 E.1007
G1 X104.537 Y49.797 E.01335
G1 X106.803 Y52.063 E.1007
G1 X106.4 Y52.194 E.01332
G1 X104.134 Y49.928 E.1007
G1 X103.73 Y50.059 E.01335
G1 X105.996 Y52.325 E.1007
G1 X105.593 Y52.456 E.01332
G1 X103.326 Y50.189 E.10075
G1 X103.263 Y50.21 E.00209
G1 X102.956 Y50.354 E.01066
G1 X105.189 Y52.587 E.09924
G1 X104.786 Y52.718 E.01332
G1 X102.593 Y50.525 E.09746
G1 X102.229 Y50.696 E.01264
G1 X104.382 Y52.849 E.09568
G1 X104.008 Y53.009 E.01278
G1 X101.865 Y50.866 E.09524
G1 X101.502 Y51.037 E.01261
G1 X103.644 Y53.18 E.09521
M73 P5 R43
G1 X103.281 Y53.351 E.01261
G1 X101.138 Y51.208 E.09524
G1 X100.775 Y51.379 E.01261
M73 Q5 S43
G1 X102.917 Y53.521 E.09519
G1 X102.553 Y53.692 E.01264
G1 X100.411 Y51.55 E.09519
G1 X100.047 Y51.721 E.01264
G1 X102.19 Y53.863 E.09521
G1 X101.826 Y54.034 E.01264
G1 X99.684 Y51.891 E.09521
G1 X99.32 Y52.062 E.01264
G1 X101.463 Y54.205 E.09524
G1 X101.099 Y54.376 E.01264
G1 X98.956 Y52.233 E.09524
G1 X98.593 Y52.404 E.01261
G1 X100.735 Y54.547 E.09521
G1 X100.372 Y54.717 E.0126
