; generated by PrusaSlicer 2.4.1+win64 on 2023-05-05 at 09:52:36 UTC


;
;
; 

; external perimeters extrusion width = 0.60mm
; perimeters extrusion width = 0.50mm
; infill extrusion width = 0.50mm
; solid infill extrusion width = 0.50mm
; top infill extrusion width = 0.45mm
; first layer extrusion width = 0.42mm

M73 P0 R25
M73 Q0 S25
M201 X1000 Y1000 Z200 E5000 ; sets maximum accelerations, mm/sec^2
M203 X200 Y200 Z12 E120 ; sets maximum feedrates, mm / sec
M204 P1250 R1250 T1250 ; sets acceleration (P, T) and retract acceleration (R), mm/sec^2
M205 X8.00 Y8.00 Z0.40 E4.50 ; sets the jerk limits, mm/sec
M205 S0 T0 ; sets the minimum extruding and travel feed rate, mm/sec
M107
;TYPE:Custom
M862.3 P "MK3S" ; printer model check
M862.1 P0.4 ; nozzle diameter check
M115 U3.11.0 ; tell printer latest fw version
G90 ; use absolute coordinates
M83 ; extruder relative mode
M104 S215 ; set extruder temp
M140 S60 ; set bed temp
M190 S60 ; wait for bed temp
M109 S215 ; wait for extruder temp
G28 W ; home all without mesh bed level
G80 ; mesh bed leveling

G1 Z0.2 F720
G1 Y-3 F1000 ; go outside print area
G92 E0
G1 X60 E9 F1000 ; intro line
G1 X100 E12.5 F1000 ; intro line

G92 E0
M221 S95

; Don't change E values below. Excessive value can damage the printer.

M907 E538 ; set extruder motor current
G21 ; set units to millimeters
G90 ; use absolute coordinates
M83 ; use relative distances for extrusion
M900 K0.05 ; Filament gcode LA 1.5
M900 K30 ; Filament gcode LA 1.0
M107
;LAYER_CHANGE
;Z:0.2
;HEIGHT:0.2
;BEFORE_LAYER_CHANGE
G92 E0.0
;0.2


G1 E-.8 F2100
G1 Z.4 F720
;AFTER_LAYER_CHANGE
;0.2
G1 X81.757 Y67.304 F10800
G1 Z.2 F720
G1 E.8 F2100
M204 S800
;TYPE:Skirt/Brim
;WIDTH:0.42
G1 F1200
G1 X84.189 Y64.683 E.11209
G1 X86.673 Y62.314 E.10763
G1 X89.183 Y60.186 E.10318
G1 X92.236 Y57.915 E.1193
G1 X94.911 Y56.154 E.10041
G1 X97.886 Y54.441 E.10763
G1 X100.958 Y52.91 E.10763
G1 X103.984 Y51.616 E.10318
G1 X107.76 Y50.29 E.12548
G1 X110.646 Y49.452 E.09422
G1 X113.994 Y48.692 E.10763
G1 X117.381 Y48.134 E.10763
G1 X120.654 Y47.79 E.10318
G1 X124.291 Y47.63 E.11415
G1 X127.658 Y47.685 E.10557
G1 X131.08 Y47.946 E.10763
G1 X134.341 Y48.387 E.10318
G1 X137.71 Y49.047 E.10763
G1 X141.034 Y49.906 E.10764
G1 X144.3 Y50.963 E.10763
G1 X147.628 Y52.269 E.11209
G1 X150.741 Y53.716 E.10764
G1 X153.639 Y55.275 E.10318
G1 X156.68 Y57.155 E.11209
G1 X159.485 Y59.134 E.10763
G1 X162.057 Y61.186 E.10318
G1 X164.611 Y63.48 E.10764
G1 X167.024 Y65.922 E.10763
G1 X169.376 Y68.615 E.11209
G1 X171.389 Y71.218 E.10318
G1 X173.326 Y74.052 E.10764
G1 X175.19 Y77.179 E.11415
G1 X176.737 Y80.17 E.10557
G1 X178.13 Y83.307 E.10764
G1 X179.332 Y86.523 E.10763
G1 X180.34 Y89.804 E.10763
G1 X181.149 Y93.14 E.10763
G1 X181.737 Y96.378 E.10318
G1 X182.164 Y99.928 E.11209
G1 X182.361 Y103.212 E.10318
G1 X182.365 Y106.645 E.10764
G1 X182.164 Y110.072 E.10763
G1 X181.758 Y113.481 E.10764
G1 X181.12 Y116.999 E.11209
G1 X180.34 Y120.196 E.10318
G1 X179.332 Y123.477 E.10763
G1 X178.076 Y126.824 E.11209
G1 X176.675 Y129.959 E.10763
G1 X175.16 Y132.879 E.10318
M73 Q1 S25
G1 X173.289 Y136.003 E.11415
M73 P1 R25
G1 X171.389 Y138.782 E.10557
G1 X169.285 Y141.495 E.10763
G1 X167.12 Y143.973 E.10318
G1 X164.714 Y146.422 E.10764
G1 X161.877 Y148.958 E.1193
G1 X159.371 Y150.951 E.10041
G1 X156.561 Y152.924 E.10764
G1 X153.639 Y154.725 E.10764
G1 X150.741 Y156.284 E.10318
G1 X147.497 Y157.787 E.11209
G1 X144.3 Y159.037 E.10764
G1 X141.17 Y160.054 E.10318
G1 X137.646 Y160.966 E.11415
G1 X134.341 Y161.613 E.10557
G1 X130.939 Y162.069 E.10764
G1 X127.515 Y162.321 E.10763
G1 X124.225 Y162.371 E.10318
G1 X120.425 Y162.186 E.1193
G1 X117.24 Y161.847 E.10041
G1 X113.854 Y161.281 E.10764
G1 X110.508 Y160.513 E.10763
G1 X107.215 Y159.546 E.10764
G1 X103.984 Y158.384 E.10763
G1 X100.958 Y157.091 E.10318
G1 X97.704 Y155.458 E.11415
G1 X94.79 Y153.771 E.10557
G1 X91.928 Y151.877 E.10764
G1 X89.183 Y149.814 E.10763
G1 X86.673 Y147.686 E.10318
G1 X84.089 Y145.216 E.11209
G1 X81.757 Y142.696 E.10764
G1 X79.58 Y140.042 E.10763
G1 X77.566 Y137.262 E.10764
G1 X75.794 Y134.489 E.10318
G1 X74.053 Y131.367 E.11209
G1 X72.626 Y128.402 E.10318
G1 X71.32 Y125.227 E.10764
G1 X70.206 Y121.98 E.10763
G1 X69.289 Y118.672 E.10764
G1 X68.546 Y115.175 E.11209
G1 X68.038 Y111.78 E.10763
G1 X67.743 Y108.502 E.10318
G1 X67.636 Y104.929 E.11209
G1 X67.743 Y101.498 E.10763
G1 X68.038 Y98.22 E.10318
G1 X68.546 Y94.825 E.10764
G1 X69.255 Y91.466 E.10763
G1 X70.206 Y88.02 E.11209
G1 X71.32 Y84.773 E.10763
G1 X72.568 Y81.728 E.10318
G1 X74.119 Y78.507 E.11209
G1 X75.794 Y75.511 E.10764
G1 X77.566 Y72.738 E.10318
G1 X79.58 Y69.958 E.10763
G1 X81.719 Y67.35 E.10575
M204 S1000
; printing object Ring.stl id:0 copy 0
;WIPE_START
G1 F8640
G1 X83.956 Y64.935 E-.76
;WIPE_END
G1 E-.04 F2100
G1 Z.6 F720
G1 X86.71 Y71.687 F10800
G1 Z.2 F720
G1 E.8 F2100
M204 S800
;TYPE:Perimeter
G1 F1200
G1 X87.731 Y70.511 E.04884
G1 X89.948 Y68.26 E.09905
G1 X92.3 Y66.151 E.09905
G1 X94.778 Y64.192 E.09905
G1 X97.374 Y62.392 E.09905
G1 X100.076 Y60.756 E.09905
G1 X102.875 Y59.291 E.09906
G1 X105.824 Y57.979 E.10119
G1 X108.718 Y56.897 E.09689
G1 X111.74 Y55.977 E.09905
G1 X114.814 Y55.247 E.09905
G1 X117.927 Y54.709 E.09905
G1 X121.067 Y54.366 E.09905
G1 X124.222 Y54.219 E.09905
G1 X127.381 Y54.268 E.09905
G1 X130.53 Y54.513 E.09905
G1 X133.659 Y54.954 E.09905
G1 X136.753 Y55.588 E.09905
G1 X139.802 Y56.414 E.09905
G1 X142.794 Y57.427 E.09905
G1 X145.718 Y58.625 E.09905
G1 X148.561 Y60.002 E.09905
G1 X151.313 Y61.553 E.09905
G1 X153.963 Y63.272 E.09905
G1 X156.501 Y65.152 E.09905
G1 X158.918 Y67.187 E.09906
G1 X161.249 Y69.419 E.10119
G1 X163.348 Y71.687 E.09689
G1 X165.345 Y74.135 E.09905
G1 X167.186 Y76.702 E.09905
G1 X168.863 Y79.379 E.09905
G1 X170.371 Y82.154 E.09905
G1 X171.704 Y85.019 E.09905
G1 X172.856 Y87.96 E.09905
M73 Q2 S25
G1 X173.823 Y90.967 E.09905
M73 P2 R25
G1 X174.601 Y94.029 E.09905
G1 X175.187 Y97.133 E.09905
G1 X175.579 Y100.268 E.09905
G1 X175.775 Y103.421 E.09905
G1 X175.775 Y106.579 E.09905
G1 X175.579 Y109.732 E.09905
G1 X175.187 Y112.867 E.09905
G1 X174.601 Y115.971 E.09905
G1 X173.823 Y119.033 E.09906
M73 P2 R24
G1 X172.831 Y122.104 E.10119
G1 X171.704 Y124.981 E.09689
G1 X170.371 Y127.846 E.09905
G1 X168.863 Y130.621 E.09905
G1 X167.185 Y133.298 E.09906
G1 X165.301 Y135.919 E.10119
G1 X163.348 Y138.313 E.09689
G1 X161.203 Y140.632 E.09905
G1 X158.917 Y142.813 E.09905
G1 X156.501 Y144.848 E.09905
G1 X153.962 Y146.728 E.09906
G1 X151.253 Y148.481 E.10119
G1 X148.561 Y149.998 E.09689
G1 X145.718 Y151.375 E.09905
G1 X142.794 Y152.573 E.09905
G1 X139.802 Y153.586 E.09905
G1 X136.753 Y154.412 E.09906
G1 X133.59 Y155.056 E.10119
G1 X130.53 Y155.487 E.09689
G1 X127.381 Y155.732 E.09905
G1 X124.222 Y155.781 E.09905
G1 X121.067 Y155.634 E.09905
G1 X117.926 Y155.291 E.09906
G1 X114.747 Y154.737 E.10119
G1 X111.74 Y154.023 E.09689
G1 X108.718 Y153.103 E.09905
G1 X105.759 Y151.997 E.09905
G1 X102.875 Y150.709 E.09905
G1 X100.076 Y149.244 E.09905
G1 X97.374 Y147.608 E.09905
G1 X94.778 Y145.808 E.09905
G1 X92.3 Y143.849 E.09905
G1 X89.948 Y141.74 E.09905
G1 X87.731 Y139.489 E.09905
G1 X85.659 Y137.105 E.09905
M73 Q2 S24
G1 X83.739 Y134.596 E.09905
G1 X81.979 Y131.973 E.09905
G1 X80.386 Y129.245 E.09905
G1 X78.965 Y126.424 E.09905
G1 X78.78 Y125.993 E.0147
G1 X77.722 Y123.52 E.08435
G1 X76.662 Y120.544 E.09905
G1 X75.789 Y117.508 E.09905
G1 X75.107 Y114.424 E.09905
G1 X74.617 Y111.303 E.09905
G1 X74.323 Y108.157 E.09905
G1 X74.225 Y105 E.09905
G1 X74.323 Y101.843 E.09905
G1 X74.617 Y98.697 E.09905
G1 X75.107 Y95.576 E.09905
G1 X75.789 Y92.492 E.09906
G1 X76.685 Y89.391 E.10119
G1 X77.722 Y86.48 E.09689
G1 X78.965 Y83.576 E.09905
G1 X80.386 Y80.755 E.09905
G1 X81.98 Y78.027 E.09906
G1 X83.781 Y75.349 E.10119
G1 X85.659 Y72.895 E.09689
G1 X86.67 Y71.732 E.04833
M204 S1000
G1 X86.994 Y71.934 F10800
M204 S800
;TYPE:External perimeter
G1 F1200
G1 X88.008 Y70.767 E.04847
G1 X90.208 Y68.533 E.09831
G1 X92.543 Y66.44 E.09831
G1 X95.003 Y64.496 E.09831
G1 X97.579 Y62.708 E.09831
G1 X100.261 Y61.085 E.09831
G1 X103.039 Y59.631 E.09832
G1 X105.967 Y58.328 E.10045
G1 X108.839 Y57.255 E.09616
G1 X111.839 Y56.341 E.09831
G1 X114.89 Y55.617 E.09831
G1 X117.979 Y55.083 E.09831
G1 X121.096 Y54.742 E.09831
G1 X124.228 Y54.596 E.09831
G1 X127.363 Y54.645 E.09831
G1 X130.489 Y54.888 E.09831
G1 X133.594 Y55.326 E.09831
G1 X136.666 Y55.955 E.09831
G1 X139.692 Y56.775 E.09831
G1 X142.662 Y57.781 E.09831
G1 X145.564 Y58.969 E.09831
G1 X148.386 Y60.336 E.09831
G1 X151.117 Y61.876 E.09831
G1 X153.748 Y63.582 E.09831
G1 X156.267 Y65.448 E.09831
G1 X158.666 Y67.468 E.09832
G1 X160.98 Y69.683 E.10045
G1 X163.063 Y71.935 E.09616
G1 X165.045 Y74.364 E.09831
G1 X166.872 Y76.912 E.09831
M73 Q3 S24
G1 X168.538 Y79.569 E.09831
M73 P3 R24
G1 X170.034 Y82.324 E.09831
G1 X171.357 Y85.167 E.09831
G1 X172.5 Y88.087 E.09831
G1 X173.46 Y91.072 E.09831
G1 X174.232 Y94.111 E.09831
G1 X174.814 Y97.192 E.09831
G1 X175.203 Y100.303 E.09831
G1 X175.398 Y103.432 E.09831
G1 X175.398 Y106.568 E.09831
G1 X175.203 Y109.697 E.09831
G1 X174.814 Y112.808 E.09831
G1 X174.232 Y115.889 E.09831
G1 X173.46 Y118.929 E.09832
G1 X172.475 Y121.977 E.10045
G1 X171.357 Y124.833 E.09616
G1 X170.034 Y127.676 E.09831
G1 X168.538 Y130.431 E.09831
G1 X166.872 Y133.088 E.09832
G1 X165.002 Y135.689 E.10045
G1 X163.063 Y138.065 E.09616
G1 X160.934 Y140.367 E.09831
G1 X158.666 Y142.532 E.09831
G1 X156.267 Y144.552 E.09831
G1 X153.748 Y146.418 E.09832
G1 X151.057 Y148.158 E.10045
G1 X148.386 Y149.664 E.09616
G1 X145.564 Y151.031 E.09831
G1 X142.662 Y152.219 E.09831
G1 X139.692 Y153.225 E.09831
G1 X136.666 Y154.045 E.09832
G1 X133.526 Y154.684 E.10045
G1 X130.489 Y155.112 E.09616
G1 X127.363 Y155.355 E.09831
G1 X124.228 Y155.404 E.09831
G1 X121.096 Y155.258 E.09831
G1 X117.979 Y154.917 E.09832
G1 X114.823 Y154.368 E.10045
G1 X111.839 Y153.659 E.09616
G1 X108.839 Y152.745 E.09831
G1 X105.902 Y151.648 E.09831
G1 X103.039 Y150.369 E.09831
G1 X100.261 Y148.915 E.09831
G1 X97.579 Y147.292 E.09831
G1 X95.003 Y145.504 E.09831
G1 X92.543 Y143.56 E.09831
G1 X90.208 Y141.467 E.09831
G1 X88.008 Y139.233 E.09831
G1 X85.952 Y136.866 E.09831
G1 X84.046 Y134.376 E.09831
G1 X82.299 Y131.772 E.09831
G1 X80.717 Y129.065 E.09831
G1 X79.307 Y126.265 E.09831
G1 X79.127 Y125.845 E.01433
G1 X78.073 Y123.382 E.08398
G1 X77.021 Y120.428 E.09831
G1 X76.155 Y117.415 E.09831
G1 X75.477 Y114.354 E.09831
G1 X74.992 Y111.256 E.09831
G1 X74.7 Y108.134 E.09831
G1 X74.602 Y105 E.09831
G1 X74.7 Y101.866 E.09831
G1 X74.992 Y98.744 E.09831
G1 X75.477 Y95.646 E.09831
G1 X76.155 Y92.585 E.09832
G1 X77.044 Y89.507 E.10045
G1 X78.073 Y86.618 E.09616
G1 X79.307 Y83.735 E.09831
G1 X80.717 Y80.935 E.09831
G1 X82.299 Y78.227 E.09832
G1 X84.088 Y75.569 E.10045
G1 X85.952 Y73.134 E.09616
G1 X86.955 Y71.979 E.04796
M204 S1000
G1 X86.859 Y71.558 F10800
;WIPE_START
G1 F8640
G1 X88.008 Y70.767 E-.3708
G1 X89.191 Y69.566 E-.3892
;WIPE_END
G1 E-.04 F2100
G1 Z.6 F720
G1 X84.042 Y69.507 F10800
G1 Z.2 F720
G1 E.8 F2100
M204 S800
;TYPE:Perimeter
G1 F1200
G1 X84.186 Y69.331 E.00711
G1 X86.392 Y66.954 E.10169
G1 X88.782 Y64.674 E.10357
G1 X91.211 Y62.615 E.09983
G1 X93.807 Y60.669 E.1017
G1 X96.514 Y58.882 E.1017
G1 X99.323 Y57.261 E.1017
G1 X102.224 Y55.81 E.1017
G1 X105.206 Y54.535 E.1017
G1 X108.26 Y53.441 E.1017
G1 X111.373 Y52.531 E.1017
G1 X114.535 Y51.809 E.1017
G1 X117.735 Y51.278 E.1017
G1 X120.961 Y50.939 E.10169
G1 X124.261 Y50.794 E.10357
G1 X127.445 Y50.842 E.09984
G1 X130.679 Y51.084 E.1017
G1 X133.893 Y51.52 E.1017
G1 X137.076 Y52.147 E.1017
G1 X140.215 Y52.963 E.1017
G1 X143.3 Y53.965 E.1017
G1 X146.319 Y55.15 E.1017
G1 X149.262 Y56.514 E.1017
G1 X152.119 Y58.051 E.1017
M73 P4 R24
M73 Q4 S24
G1 X154.878 Y59.756 E.1017
G1 X157.53 Y61.623 E.1017
G1 X160.066 Y63.645 E.1017
G1 X162.477 Y65.815 E.1017
G1 X164.753 Y68.126 E.1017
G1 X166.887 Y70.569 E.1017
G1 X168.871 Y73.135 E.1017
G1 X170.698 Y75.815 E.1017
G1 X172.362 Y78.599 E.1017
G1 X173.856 Y81.478 E.1017
G1 X175.175 Y84.441 E.1017
G1 X176.315 Y87.478 E.1017
G1 X177.271 Y90.577 E.1017
G1 X178.04 Y93.729 E.1017
G1 X178.619 Y96.92 E.1017
G1 X179.007 Y100.14 E.1017
G1 X179.201 Y103.378 E.1017
G1 X179.201 Y106.622 E.1017
G1 X179.007 Y109.86 E.1017
G1 X178.619 Y113.08 E.1017
G1 X178.04 Y116.271 E.1017
G1 X177.271 Y119.422 E.10169
G1 X176.294 Y122.578 E.10357
G1 X175.175 Y125.559 E.09983
G1 X173.856 Y128.522 E.10169
G1 X172.331 Y131.452 E.10357
G1 X170.698 Y134.185 E.09984
G1 X168.871 Y136.865 E.1017
G1 X166.887 Y139.431 E.1017
G1 X164.753 Y141.874 E.1017
G1 X162.477 Y144.185 E.1017
G1 X160.066 Y146.355 E.1017
G1 X157.53 Y148.377 E.10169
G1 X154.827 Y150.276 E.10357
G1 X152.119 Y151.949 E.09983
G1 X149.262 Y153.486 E.1017
G1 X146.319 Y154.85 E.1017
G1 X143.3 Y156.035 E.1017
G1 X140.215 Y157.037 E.1017
G1 X137.076 Y157.853 E.1017
G1 X133.893 Y158.48 E.1017
G1 X130.679 Y158.916 E.1017
G1 X127.445 Y159.158 E.1017
G1 X124.201 Y159.207 E.1017
G1 X120.961 Y159.061 E.1017
G1 X117.735 Y158.722 E.1017
G1 X114.535 Y158.191 E.1017
G1 X111.373 Y157.469 E.1017
G1 X108.26 Y156.559 E.1017
G1 X105.206 Y155.465 E.1017
G1 X102.224 Y154.19 E.1017
G1 X99.323 Y152.739 E.1017
G1 X96.514 Y151.118 E.1017
G1 X93.807 Y149.331 E.1017
G1 X91.211 Y147.385 E.1017
G1 X88.737 Y145.288 E.1017
G1 X86.393 Y143.046 E.1017
G1 X84.186 Y140.669 E.1017
G1 X82.126 Y138.163 E.1017
G1 X80.22 Y135.539 E.1017
G1 X78.474 Y132.806 E.1017
G1 X76.894 Y129.973 E.1017
G1 X75.487 Y127.05 E.1017
G1 X74.257 Y124.049 E.1017
G1 X73.208 Y120.979 E.1017
G1 X72.345 Y117.853 E.1017
G1 X71.671 Y114.68 E.10169
G1 X71.182 Y111.413 E.10357
G1 X70.897 Y108.242 E.09983
G1 X70.8 Y105 E.1017
G1 X70.897 Y101.758 E.1017
G1 X71.188 Y98.527 E.1017
G1 X71.671 Y95.32 E.1017
G1 X72.345 Y92.147 E.1017
G1 X73.208 Y89.021 E.10169
G1 X74.279 Y85.896 E.10357
G1 X75.487 Y82.95 E.09983
G1 X76.894 Y80.027 E.1017
G1 X78.474 Y77.194 E.1017
G1 X80.22 Y74.461 E.1017
G1 X82.126 Y71.837 E.1017
G1 X84.004 Y69.553 E.09271
M204 S1000
G1 X83.751 Y69.267 F10800
M204 S800
;TYPE:External perimeter
G1 F1200
G1 X83.902 Y69.083 E.00747
G1 X86.124 Y66.689 E.1024
G1 X88.53 Y64.393 E.10428
G1 X90.976 Y62.32 E.10054
G1 X93.589 Y60.361 E.10241
G1 X96.315 Y58.562 E.10241
G1 X99.144 Y56.928 E.10241
G1 X102.065 Y55.467 E.10241
G1 X105.068 Y54.184 E.10241
G1 X108.143 Y53.082 E.10241
G1 X111.278 Y52.166 E.10241
G1 X114.462 Y51.439 E.10241
G1 X117.685 Y50.904 E.10241
M73 P5 R24
G1 X120.933 Y50.563 E.1024
M73 Q5 S24
G1 X124.255 Y50.417 E.10428
G1 X127.461 Y50.465 E.10054
G1 X130.718 Y50.709 E.10241
G1 X133.955 Y51.148 E.10241
G1 X137.16 Y51.779 E.10241
G1 X140.321 Y52.601 E.10241
G1 X143.427 Y53.61 E.10241
G1 X146.467 Y54.803 E.10241
G1 X149.431 Y56.176 E.10241
G1 X152.307 Y57.724 E.10241
G1 X155.086 Y59.441 E.10241
G1 X157.756 Y61.321 E.10241
G1 X160.31 Y63.357 E.10241
G1 X162.737 Y65.543 E.10241
G1 X165.029 Y67.869 E.10241
G1 X167.178 Y70.329 E.10241
G1 X169.176 Y72.913 E.10241
G1 X171.016 Y75.612 E.10241
G1 X172.692 Y78.415 E.10241
G1 X174.196 Y81.314 E.10241
G1 X175.525 Y84.298 E.10241
G1 X176.672 Y87.356 E.10241
G1 X177.635 Y90.477 E.10241
G1 X178.409 Y93.65 E.10241
G1 X178.992 Y96.864 E.10241
G1 X179.382 Y100.107 E.10241
G1 X179.578 Y103.367 E.10241
G1 X179.578 Y106.633 E.10241
G1 X179.382 Y109.893 E.10241
G1 X178.992 Y113.136 E.10241
G1 X178.409 Y116.35 E.10241
G1 X177.635 Y119.523 E.1024
G1 X176.651 Y122.7 E.10428
G1 X175.524 Y125.702 E.10054
G1 X174.196 Y128.686 E.1024
G1 X172.661 Y131.636 E.10428
G1 X171.016 Y134.388 E.10054
G1 X169.176 Y137.087 E.10241
G1 X167.178 Y139.671 E.10241
G1 X165.029 Y142.131 E.10241
G1 X162.737 Y144.457 E.10241
G1 X160.31 Y146.643 E.10241
G1 X157.757 Y148.679 E.1024
G1 X155.035 Y150.591 E.10428
G1 X152.307 Y152.276 E.10054
G1 X149.431 Y153.824 E.10241
G1 X146.467 Y155.197 E.10241
G1 X143.427 Y156.39 E.10241
G1 X140.321 Y157.399 E.10241
G1 X137.16 Y158.221 E.10241
G1 X133.955 Y158.852 E.10241
G1 X130.718 Y159.291 E.10241
G1 X127.461 Y159.535 E.10241
G1 X124.196 Y159.584 E.10241
G1 X120.933 Y159.437 E.10241
G1 X117.685 Y159.096 E.10241
