; generated by PrusaSlicer 2.4.1+win64 on 2023-05-08 at 12:36:25 UTC


;
;
; 

; external perimeters extrusion width = 0.60mm
; perimeters extrusion width = 0.50mm
; infill extrusion width = 0.50mm
; solid infill extrusion width = 0.50mm
; top infill extrusion width = 0.45mm
; first layer extrusion width = 0.42mm

M73 P0 R195
M73 Q0 S196
M201 X1000 Y1000 Z200 E5000 ; sets maximum accelerations, mm/sec^2
M203 X200 Y200 Z12 E120 ; sets maximum feedrates, mm / sec
M204 P1250 R1250 T1250 ; sets acceleration (P, T) and retract acceleration (R), mm/sec^2
M205 X8.00 Y8.00 Z0.40 E4.50 ; sets the jerk limits, mm/sec
M205 S0 T0 ; sets the minimum extruding and travel feed rate, mm/sec
M107
;TYPE:Custom
M862.3 P "MK3S" ; printer model check
M862.1 P0.4 ; nozzle diameter check
M115 U3.11.0 ; tell printer latest fw version
G90 ; use absolute coordinates
M83 ; extruder relative mode
M104 S215 ; set extruder temp
M140 S60 ; set bed temp
M190 S60 ; wait for bed temp
M109 S215 ; wait for extruder temp
G28 W ; home all without mesh bed level
G80 ; mesh bed leveling

G1 Z0.2 F720
G1 Y-3 F1000 ; go outside print area
G92 E0
G1 X60 E9 F1000 ; intro line
G1 X100 E12.5 F1000 ; intro line

G92 E0
M221 S95

; Don't change E values below. Excessive value can damage the printer.

M907 E538 ; set extruder motor current
G21 ; set units to millimeters
G90 ; use absolute coordinates
M83 ; use relative distances for extrusion
M900 K0.05 ; Filament gcode LA 1.5
M900 K30 ; Filament gcode LA 1.0
M107
;LAYER_CHANGE
;Z:0.2
;HEIGHT:0.2
;BEFORE_LAYER_CHANGE
G92 E0.0
;0.2


G1 E-.8 F2100
G1 Z.4 F720
;AFTER_LAYER_CHANGE
;0.2
G1 X44.06 Y62.817 F10800
G1 Z.2 F720
G1 E.8 F2100
M204 S800
;TYPE:Skirt/Brim
;WIDTH:0.42
G1 F1200
G1 X45 Y62.623 E.03008
G1 X205 Y62.623 E5.01669
G1 X206.307 Y63.015 E.04278
G1 X207.183 Y64.06 E.04278
M73 Q0 S195
G1 X207.377 Y65 E.03008
G1 X207.377 Y145 E2.50834
G1 X206.985 Y146.307 E.04278
G1 X205.94 Y147.183 E.04278
G1 X205 Y147.377 E.03008
G1 X45 Y147.377 E5.01669
G1 X43.693 Y146.985 E.04278
G1 X42.817 Y145.94 E.04278
G1 X42.623 Y145 E.03008
G1 X42.623 Y65 E2.50834
G1 X43.015 Y63.693 E.04278
G1 X44.014 Y62.855 E.0409
M204 S1000
; printing object SAT Halterung.stl id:0 copy 0
;WIPE_START
G1 F8640
G1 X45 Y62.623 E-.23384
G1 X47.279 Y62.623 E-.52616
;WIPE_END
G1 E-.04 F2100
G1 Z.6 F720
G1 X144.465 Y96.744 F10800
G1 Z.2 F720
G1 E.8 F2100
M204 S800
;TYPE:Perimeter
G1 F1200
G1 X145.713 Y93.593 E.10627
G1 X147.336 Y90.644 E.10555
G1 X149.318 Y87.922 E.10557
G1 X151.626 Y85.47 E.10558
G1 X154.223 Y83.326 E.1056
G1 X157.069 Y81.523 E.10562
G1 X160.119 Y80.09 E.10568
G1 X163.325 Y79.05 E.10568
G1 X166.636 Y78.421 E.10567
G1 X170 Y78.208 E.10567
G1 X173.364 Y78.421 E.10567
G1 X176.675 Y79.05 E.10567
G1 X179.881 Y80.09 E.10568
G1 X182.931 Y81.523 E.10568
G1 X185.777 Y83.326 E.10562
G1 X188.374 Y85.47 E.1056
G1 X190.682 Y87.922 E.10558
G1 X192.664 Y90.644 E.10557
G1 X194.287 Y93.593 E.10555
G1 X195.529 Y96.721 E.10553
G1 X196.367 Y99.98 E.10551
G1 X196.79 Y103.317 E.10548
G1 X196.79 Y106.683 E.10552
G1 X196.367 Y110.02 E.10548
G1 X195.529 Y113.279 E.10551
G1 X194.287 Y116.407 E.10553
G1 X192.664 Y119.356 E.10555
G1 X190.682 Y122.078 E.10557
G1 X188.374 Y124.53 E.10558
G1 X185.777 Y126.674 E.1056
G1 X182.931 Y128.477 E.10562
G1 X179.881 Y129.91 E.10568
G1 X176.675 Y130.95 E.10568
G1 X173.364 Y131.579 E.10567
G1 X170 Y131.792 E.10567
G1 X166.636 Y131.579 E.10567
G1 X163.325 Y130.95 E.10567
G1 X160.119 Y129.91 E.10568
G1 X157.069 Y128.477 E.10568
G1 X154.223 Y126.674 E.10562
G1 X151.626 Y124.53 E.1056
G1 X149.318 Y122.078 E.10558
G1 X147.336 Y119.356 E.10557
G1 X145.713 Y116.407 E.10555
G1 X144.471 Y113.279 E.10553
G1 X143.633 Y110.02 E.10551
G1 X143.211 Y106.683 E.10548
G1 X143.211 Y103.317 E.10551
G1 X143.633 Y99.98 E.10548
G1 X144.45 Y96.802 E.10288
M204 S1000
M73 P0 R194
G1 X144.83 Y96.838 F10800
M204 S800
;TYPE:External perimeter
G1 F1200
G1 X146.054 Y93.754 E.10404
G1 X147.655 Y90.847 E.10406
G1 X149.609 Y88.163 E.10408
G1 X151.884 Y85.745 E.1041
G1 X154.445 Y83.631 E.10411
G1 X157.25 Y81.854 E.10413
G1 X160.258 Y80.441 E.10419
G1 X163.419 Y79.416 E.10419
G1 X166.684 Y78.795 E.10419
G1 X170 Y78.586 E.10419
G1 X173.316 Y78.795 E.10419
G1 X176.581 Y79.416 E.10419
G1 X179.742 Y80.441 E.10419
G1 X182.75 Y81.854 E.10419
G1 X185.555 Y83.631 E.10413
G1 X188.116 Y85.745 E.10411
G1 X190.391 Y88.163 E.1041
G1 X192.345 Y90.847 E.10408
G1 X193.946 Y93.754 E.10406
G1 X195.17 Y96.838 E.10404
G1 X195.995 Y100.051 E.10402
G1 X196.413 Y103.341 E.10399
G1 X196.413 Y106.659 E.10403
G1 X195.995 Y109.949 E.10399
G1 X195.17 Y113.162 E.10402
G1 X193.946 Y116.246 E.10404
G1 X192.345 Y119.153 E.10406
G1 X190.391 Y121.837 E.10408
G1 X188.116 Y124.255 E.1041
G1 X185.555 Y126.369 E.10411
G1 X182.75 Y128.146 E.10413
G1 X179.742 Y129.559 E.10419
G1 X176.581 Y130.584 E.10419
G1 X173.316 Y131.205 E.10419
G1 X170 Y131.414 E.10419
G1 X166.684 Y131.205 E.10419
G1 X163.419 Y130.584 E.10419
G1 X160.258 Y129.559 E.10419
G1 X157.25 Y128.146 E.10419
G1 X154.445 Y126.369 E.10413
G1 X151.884 Y124.255 E.10411
G1 X149.609 Y121.837 E.1041
G1 X147.655 Y119.153 E.10408
G1 X146.054 Y116.246 E.10406
G1 X144.83 Y113.162 E.10404
G1 X144.004 Y109.949 E.10402
G1 X143.588 Y106.659 E.10399
G1 X143.588 Y103.341 E.10402
G1 X144.004 Y100.051 E.10399
G1 X144.815 Y96.896 E.10214
M204 S1000
G1 X144.563 Y96.54 F10800
;WIPE_START
G1 F8640
G1 X146.023 Y93.834 E-.76
;WIPE_END
G1 E-.04 F2100
G1 Z.6 F720
G1 X204.213 Y65.787 F10800
G1 Z.2 F720
G1 E.8 F2100
M204 S800
;TYPE:Perimeter
G1 F1200
G1 X204.213 Y144.213 E2.45899
G1 X45.787 Y144.213 E4.96733
G1 X45.787 Y65.787 E2.45899
G1 X204.153 Y65.787 E4.96545
M204 S1000
G1 X204.59 Y65.41 F10800
M204 S800
;TYPE:External perimeter
G1 F1200
G1 X204.59 Y144.59 E2.48263
G1 X45.41 Y144.59 E4.99098
M73 Q0 S194
G1 X45.41 Y65.41 E2.48263
G1 X204.53 Y65.41 E4.9891
M204 S1000
G1 X204.445 Y65.783 F10800
;WIPE_START
G1 F8640
G1 X204.532 Y68.701 E-.76
;WIPE_END
G1 E-.04 F2100
G1 Z.6 F720
G1 X203.337 Y65.9 F10800
G1 Z.2 F720
G1 E.8 F2100
M204 S800
;TYPE:Solid infill
;WIDTH:0.420375
G1 F1200
G1 X203.93 Y66.494 E.02634
G1 X203.93 Y67.027 E.01675
G1 X202.973 Y66.07 E.0425
G1 X202.439 Y66.07 E.01675
G1 X203.93 Y67.561 E.06619
G1 X203.93 Y68.095 E.01675
G1 X201.905 Y66.07 E.08989
G1 X201.371 Y66.07 E.01675
G1 X203.93 Y68.629 E.11358
G1 X203.93 Y69.163 E.01675
G1 X200.837 Y66.07 E.13727
G1 X200.304 Y66.07 E.01675
G1 X203.93 Y69.696 E.16097
G1 X203.93 Y70.23 E.01675
G1 X199.77 Y66.07 E.18466
G1 X199.236 Y66.07 E.01675
G1 X203.93 Y70.764 E.20835
G1 X203.93 Y71.298 E.01675
G1 X198.702 Y66.07 E.23205
G1 X198.168 Y66.07 E.01675
G1 X203.93 Y71.832 E.25574
G1 X203.93 Y72.365 E.01675
M73 P0 R193
G1 X197.635 Y66.07 E.27943
G1 X197.101 Y66.07 E.01675
G1 X203.93 Y72.899 E.30312
G1 X203.93 Y73.433 E.01675
G1 X196.567 Y66.07 E.32682
G1 X196.033 Y66.07 E.01675
G1 X203.93 Y73.967 E.35051
G1 X203.93 Y74.501 E.01675
G1 X195.499 Y66.07 E.3742
G1 X194.966 Y66.07 E.01675
G1 X203.93 Y75.034 E.3979
G1 X203.93 Y75.568 E.01675
G1 X194.432 Y66.07 E.42159
G1 X193.898 Y66.07 E.01675
G1 X203.93 Y76.102 E.44528
G1 X203.93 Y76.636 E.01675
G1 X193.364 Y66.07 E.46898
G1 X192.83 Y66.07 E.01675
G1 X203.93 Y77.17 E.49267
G1 X203.93 Y77.703 E.01675
G1 X192.297 Y66.07 E.51636
G1 X191.763 Y66.07 E.01675
G1 X203.93 Y78.237 E.54006
G1 X203.93 Y78.771 E.01675
G1 X191.229 Y66.07 E.56375
G1 X190.695 Y66.07 E.01675
G1 X203.93 Y79.305 E.58744
G1 X203.93 Y79.839 E.01675
G1 X190.161 Y66.07 E.61114
G1 X189.628 Y66.07 E.01675
G1 X203.93 Y80.372 E.63483
G1 X203.93 Y80.906 E.01675
G1 X189.094 Y66.07 E.65852
G1 X188.56 Y66.07 E.01675
G1 X203.93 Y81.44 E.68222
G1 X203.93 Y81.974 E.01675
G1 X188.026 Y66.07 E.70591
G1 X187.492 Y66.07 E.01675
G1 X203.93 Y82.508 E.7296
G1 X203.93 Y83.041 E.01675
M73 P1 R193
M73 Q1 S194
G1 X186.959 Y66.07 E.7533
G1 X186.425 Y66.07 E.01675
G1 X203.93 Y83.575 E.77699
G1 X203.93 Y84.109 E.01675
G1 X185.891 Y66.07 E.80068
G1 X185.357 Y66.07 E.01675
G1 X203.93 Y84.643 E.82438
G1 X203.93 Y85.177 E.01675
G1 X184.823 Y66.07 E.84807
G1 X184.29 Y66.07 E.01675
G1 X203.93 Y85.71 E.87176
G1 X203.93 Y86.244 E.01675
G1 X183.756 Y66.07 E.89546
G1 X183.222 Y66.07 E.01675
G1 X203.93 Y86.778 E.91915
G1 X203.93 Y87.312 E.01675
G1 X182.688 Y66.07 E.94284
G1 X182.154 Y66.07 E.01675
G1 X203.93 Y87.846 E.96654
G1 X203.93 Y88.379 E.01675
G1 X181.621 Y66.07 E.99023
G1 X181.087 Y66.07 E.01675
G1 X203.93 Y88.913 E1.01392
G1 X203.93 Y89.447 E.01675
M73 Q1 S193
G1 X180.553 Y66.07 E1.03762
G1 X180.019 Y66.07 E.01675
G1 X203.93 Y89.981 E1.06131
G1 X203.93 Y90.515 E.01675
G1 X179.485 Y66.07 E1.085
G1 X178.952 Y66.07 E.01675
G1 X203.93 Y91.048 E1.10869
G1 X203.93 Y91.582 E.01675
G1 X178.418 Y66.07 E1.13239
G1 X177.884 Y66.07 E.01675
G1 X203.93 Y92.116 E1.15608
G1 X203.93 Y92.65 E.01675
G1 X177.35 Y66.07 E1.17977
G1 X176.816 Y66.07 E.01675
G1 X203.93 Y93.184 E1.20347
G1 X203.93 Y93.717 E.01675
G1 X176.283 Y66.07 E1.22716
G1 X175.749 Y66.07 E.01675
G1 X203.93 Y94.251 E1.25085
G1 X203.93 Y94.785 E.01675
G1 X175.215 Y66.07 E1.27455
G1 X174.681 Y66.07 E.01675
G1 X203.93 Y95.319 E1.29824
G1 X203.93 Y95.853 E.01675
G1 X174.147 Y66.07 E1.32193
G1 X173.614 Y66.07 E.01675
G1 X203.93 Y96.386 E1.34563
G1 X203.93 Y96.92 E.01675
M73 P1 R192
G1 X173.08 Y66.07 E1.36932
G1 X172.546 Y66.07 E.01675
G1 X203.93 Y97.454 E1.39301
G1 X203.93 Y97.988 E.01675
G1 X172.012 Y66.07 E1.41671
G1 X171.478 Y66.07 E.01675
G1 X203.93 Y98.522 E1.4404
G1 X203.93 Y99.055 E.01675
G1 X170.945 Y66.07 E1.46409
G1 X170.411 Y66.07 E.01675
G1 X203.93 Y99.589 E1.48779
G1 X203.93 Y100.123 E.01675
G1 X169.877 Y66.07 E1.51148
G1 X169.343 Y66.07 E.01675
G1 X203.93 Y100.657 E1.53517
G1 X203.93 Y101.191 E.01675
G1 X192.024 Y89.284 E.52848
G1 X192.903 Y90.492 E.04688
G1 X193.154 Y90.948 E.01636
G1 X203.93 Y101.725 E.4783
G1 X203.93 Y102.258 E.01675
G1 X193.808 Y92.136 E.44927
G1 X194.462 Y93.324 E.04256
G1 X203.93 Y102.792 E.42023
G1 X203.93 Y103.326 E.01675
G1 X194.851 Y94.247 E.40297
G1 X195.203 Y95.132 E.02989
G1 X203.93 Y103.86 E.38738
G1 X203.93 Y104.394 E.01675
G1 X195.554 Y96.017 E.37178
G1 X195.798 Y96.633 E.0208
G1 X195.855 Y96.852 E.00708
G1 X203.93 Y104.927 E.35844
G1 X203.93 Y105.461 E.01675
G1 X196.039 Y97.57 E.35024
G1 X196.224 Y98.289 E.02328
G1 X203.93 Y105.995 E.34205
G1 X203.93 Y106.529 E.01675
G1 X196.409 Y99.007 E.33385
G1 X196.593 Y99.726 E.02328
G1 X203.93 Y107.063 E.32565
G1 X203.93 Y107.596 E.01675
G1 X196.701 Y100.367 E.32088
G1 X196.778 Y100.978 E.01934
G1 X203.93 Y108.13 E.31744
G1 X203.93 Y108.664 E.01675
G1 X196.856 Y101.59 E.31399
G1 X196.934 Y102.201 E.01934
G1 X203.93 Y109.198 E.31055
G1 X203.93 Y109.732 E.01675
G1 X197.011 Y102.813 E.30711
G1 X197.073 Y103.408 E.01879
G1 X203.93 Y110.265 E.30436
G1 X203.93 Y110.799 E.01675
G1 X197.073 Y103.942 E.30436
G1 X197.073 Y104.476 E.01675
G1 X203.93 Y111.333 E.30436
G1 X203.93 Y111.867 E.01675
G1 X197.073 Y105.009 E.30436
G1 X197.073 Y105.543 E.01675
G1 X203.93 Y112.401 E.30436
G1 X203.93 Y112.934 E.01675
M73 Q1 S192
G1 X197.073 Y106.077 E.30436
G1 X197.073 Y106.611 E.01675
G1 X203.93 Y113.468 E.30436
G1 X203.93 Y114.002 E.01675
G1 X197.023 Y107.095 E.30658
G1 X196.963 Y107.568 E.01499
G1 X203.93 Y114.536 E.30925
G1 X203.93 Y115.07 E.01675
G1 X196.903 Y108.042 E.31192
G1 X196.843 Y108.516 E.01499
G1 X203.93 Y115.603 E.31459
G1 X203.93 Y116.137 E.01675
G1 X196.782 Y108.989 E.31726
G1 X196.722 Y109.463 E.01499
G1 X203.93 Y116.671 E.31992
G1 X203.93 Y117.205 E.01675
G1 X196.662 Y109.937 E.32259
G1 X196.567 Y110.376 E.01409
G1 X203.93 Y117.739 E.32681
G1 X203.93 Y118.272 E.01675
G1 X196.458 Y110.8 E.33165
G1 X196.349 Y111.225 E.01376
G1 X203.93 Y118.806 E.3365
G1 X203.93 Y119.34 E.01675
G1 X196.24 Y111.65 E.34134
G1 X196.131 Y112.074 E.01376
G1 X203.93 Y119.874 E.34619
G1 X203.93 Y120.408 E.01675
G1 X196.021 Y112.499 E.35103
G1 X195.912 Y112.924 E.01376
G1 X203.93 Y120.941 E.35588
G1 X203.93 Y121.475 E.01675
G1 X195.803 Y113.348 E.36072
G1 X195.653 Y113.732 E.01294
G1 X203.93 Y122.009 E.36737
G1 X203.93 Y122.543 E.01675
G1 X195.502 Y114.114 E.3741
G1 X195.35 Y114.496 E.0129
G1 X203.93 Y123.077 E.38084
G1 X203.93 Y123.61 E.01675
G1 X195.198 Y114.879 E.38757
G1 X195.047 Y115.261 E.0129
G1 X203.93 Y124.144 E.3943
G1 X203.93 Y124.678 E.01675
G1 X194.895 Y115.643 E.40103
G1 X194.743 Y116.025 E.0129
G1 X203.93 Y125.212 E.40776
G1 X203.93 Y125.746 E.01675
G1 X194.592 Y116.407 E.4145
G1 X194.414 Y116.763 E.01249
G1 X203.93 Y126.279 E.42238
G1 X203.93 Y126.813 E.01675
G1 X194.225 Y117.108 E.43079
G1 X194.035 Y117.452 E.01233
G1 X203.93 Y127.347 E.4392
G1 X203.93 Y127.881 E.01675
G1 X193.845 Y117.796 E.44762
G1 X193.656 Y118.14 E.01233
G1 X203.93 Y128.415 E.45603
G1 X203.93 Y128.948 E.01675
G1 X193.466 Y118.485 E.46445
G1 X193.277 Y118.829 E.01233
G1 X203.93 Y129.482 E.47286
G1 X203.93 Y130.016 E.01675
G1 X193.087 Y119.173 E.48127
G1 X192.897 Y119.516 E.01232
G1 X203.93 Y130.55 E.48973
G1 X203.93 Y131.084 E.01675
G1 X192.672 Y119.825 E.49971
G1 X192.447 Y120.134 E.01199
G1 X203.93 Y131.617 E.50969
G1 X203.93 Y132.151 E.01675
G1 X192.222 Y120.443 E.51967
G1 X191.997 Y120.752 E.01199
G1 X203.93 Y132.685 E.52965
G1 X203.93 Y133.219 E.01675
G1 X191.772 Y121.061 E.53963
G1 X191.547 Y121.37 E.01199
M73 P1 R191
G1 X203.93 Y133.753 E.54961
G1 X203.93 Y134.286 E.01675
G1 X191.323 Y121.679 E.55959
G1 X191.098 Y121.988 E.01199
G1 X203.93 Y134.82 E.56957
G1 X203.93 Y135.354 E.01675
G1 X190.869 Y122.293 E.57974
G1 X190.61 Y122.568 E.01185
G1 X203.93 Y135.888 E.59123
G1 X203.93 Y136.422 E.01675
G1 X190.351 Y122.843 E.60271
G1 X190.092 Y123.118 E.01185
G1 X203.93 Y136.955 E.6142
G1 X203.93 Y137.489 E.01675
G1 X189.834 Y123.393 E.62569
G1 X189.575 Y123.668 E.01185
G1 X203.93 Y138.023 E.63718
G1 X203.93 Y138.557 E.01675
G1 X189.316 Y123.943 E.64867
G1 X189.057 Y124.218 E.01185
G1 X203.93 Y139.091 E.66015
G1 X203.93 Y139.624 E.01675
G1 X188.798 Y124.493 E.67164
G1 X188.536 Y124.764 E.01185
G1 X203.93 Y140.158 E.68329
G1 X203.93 Y140.692 E.01675
G1 X188.243 Y125.005 E.69627
G1 X187.951 Y125.247 E.0119
M73 P2 R191
M73 Q2 S192
G1 X203.93 Y141.226 E.70925
G1 X203.93 Y141.76 E.01675
G1 X187.658 Y125.488 E.72223
G1 X187.366 Y125.729 E.0119
G1 X203.93 Y142.293 E.73521
G1 X203.93 Y142.827 E.01675
G1 X187.074 Y125.971 E.74819
G1 X186.781 Y126.212 E.0119
G1 X203.93 Y143.361 E.76117
G1 X203.93 Y143.895 E.01675
G1 X186.489 Y126.454 E.77415
G1 X186.196 Y126.695 E.0119
G1 X203.432 Y143.93 E.765
G1 X202.898 Y143.93 E.01675
G1 X185.899 Y126.932 E.75449
G1 X185.573 Y127.139 E.01214
G1 X202.364 Y143.93 E.7453
G1 X201.83 Y143.93 E.01675
G1 X185.246 Y127.346 E.73611
G1 X184.919 Y127.553 E.01214
G1 X201.296 Y143.93 E.72692
G1 X200.763 Y143.93 E.01675
G1 X184.592 Y127.76 E.71773
G1 X184.266 Y127.967 E.01214
G1 X200.229 Y143.93 E.70854
G1 X199.695 Y143.93 E.01675
G1 X183.939 Y128.174 E.69935
G1 X183.612 Y128.381 E.01214
G1 X199.161 Y143.93 E.69016
G1 X198.627 Y143.93 E.01675
G1 X183.285 Y128.588 E.68097
G1 X182.946 Y128.783 E.01227
G1 X198.094 Y143.93 E.67232
G1 X197.56 Y143.93 E.01675
M73 Q2 S191
G1 X182.583 Y128.953 E.66475
G1 X182.22 Y129.124 E.01259
G1 X197.026 Y143.93 E.65718
G1 X196.492 Y143.93 E.01675
G1 X181.857 Y129.295 E.64961
G1 X181.494 Y129.465 E.01259
G1 X195.958 Y143.93 E.64203
G1 X195.425 Y143.93 E.01675
G1 X181.13 Y129.636 E.63446
G1 X180.767 Y129.807 E.01259
G1 X194.891 Y143.93 E.62689
G1 X194.357 Y143.93 E.01675
G1 X180.404 Y129.977 E.61931
G1 X180.041 Y130.148 E.01259
G1 X193.823 Y143.93 E.61174
G1 X193.289 Y143.93 E.01675
G1 X179.644 Y130.285 E.60567
G1 X179.241 Y130.415 E.0133
G1 X192.756 Y143.93 E.59987
G1 X192.222 Y143.93 E.01675
G1 X178.838 Y130.546 E.59407
G1 X178.434 Y130.677 E.0133
G1 X191.688 Y143.93 E.58826
G1 X191.154 Y143.93 E.01675
G1 X178.031 Y130.807 E.58246
G1 X177.628 Y130.938 E.0133
G1 X190.62 Y143.93 E.57666
G1 X190.087 Y143.93 E.01675
G1 X177.225 Y131.069 E.57086
G1 X176.822 Y131.199 E.0133
G1 X189.553 Y143.93 E.56506
G1 X189.019 Y143.93 E.01675
G1 X176.382 Y131.293 E.56089
G1 X175.934 Y131.379 E.01433
G1 X188.485 Y143.93 E.55711
G1 X187.951 Y143.93 E.01675
G1 X175.485 Y131.464 E.55332
