; generated by PrusaSlicer 2.8.1+win64 on 2024-12-17 at 10:19:01 UTC


;
;
; 

; external perimeters extrusion width = 0.60mm
; perimeters extrusion width = 0.50mm
; infill extrusion width = 0.50mm
; solid infill extrusion width = 0.50mm
; top infill extrusion width = 0.45mm
; first layer extrusion width = 0.42mm

M73 P0 R17
M73 Q0 S17
M201 X1000 Y1000 Z200 E5000 ; sets maximum accelerations, mm/sec^2
M203 X200 Y200 Z12 E120 ; sets maximum feedrates, mm / sec
M204 S1250 T1250 ; sets acceleration (S) and retract acceleration (R), mm/sec^2
M205 X8.00 Y8.00 Z0.40 E4.50 ; sets the jerk limits, mm/sec
M205 S0 T0 ; sets the minimum extruding and travel feed rate, mm/sec

; printing object SpannGurtHalterung.stl id:0 copy 0
; stop printing object SpannGurtHalterung.stl id:0 copy 0

;TYPE:Custom
M862.3 P "MK3S" ; printer model check
M862.1 P0.4 ; nozzle diameter check
M115 U3.13.3 ; tell printer latest fw version
G90 ; use absolute coordinates
M83 ; extruder relative mode
M104 S215 ; set extruder temp
M140 S60 ; set bed temp
M190 S60 ; wait for bed temp
M109 S215 ; wait for extruder temp
G28 W ; home all without mesh bed level
G80 X99.6229 Y80.1229 W50.7542 H49.7542 ; mesh bed levelling

G1 Z0.2 F720
G1 Y-3 F1000 ; go outside print area
G92 E0
G1 X60 E9 F1000 ; intro line
G1 X100 E12.5 F1000 ; intro line

G92 E0
M221 S95

; Don't change E values below. Excessive value can damage the printer.

M907 E538 ; set extruder motor current
G21 ; set units to millimeters
G90 ; use absolute coordinates
M83 ; use relative distances for extrusion

M900 K0.05 ; Filament gcode LA 1.5
M900 K30 ; Filament gcode LA 1.0




M107
;LAYER_CHANGE
;Z:0.2
;HEIGHT:0.2
G1 E-.8 F2100
G1 Z.6 F720
G1 X100.202 Y81.252 F10800
G1 Z.2 F720
G1 E.8 F2100
M204 S800
;TYPE:Skirt/Brim
;WIDTH:0.42
G1 F1200
G1 X101.235 Y80.449 E.04102
G1 X102 Y80.311 E.02437
G1 X148 Y80.311 E1.4423
G1 X149.248 Y80.702 E.04101
G1 X150.051 Y81.735 E.04102
G1 X150.189 Y82.5 E.02437
G1 X150.189 Y127.5 E1.41094
G1 X149.798 Y128.748 E.04101
M73 P1 R17
M73 Q1 S17
G1 X148.765 Y129.551 E.04102
G1 X148 Y129.689 E.02437
G1 X102 Y129.689 E1.4423
G1 X100.752 Y129.298 E.04101
G1 X99.949 Y128.265 E.04102
G1 X99.811 Y127.5 E.02437
G1 X99.811 Y82.5 E1.41094
G1 X100.184 Y81.309 E.03913
M204 S1000
;WIPE_START
G1 F8640
G1 X100.202 Y81.252 E-.0138
G1 X101.235 Y80.449 E-.30211
G1 X102 Y80.311 E-.17949
G1 X103.319 Y80.311 E-.3046
;WIPE_END
G1 Z.6 F720
; printing object SpannGurtHalterung.stl id:0 copy 0
G1 X118.522 Y110.942 F10800
G1 Z.2 F720
G1 E.8 F2100
M204 S800
;TYPE:Perimeter
;WIDTH:0.419999
G1 F1200
G1 X118.495 Y110.858 E.00277
G1 X118.214 Y109.089 E.05616
G1 X118.214 Y108.911 E.00558
G1 X118.495 Y107.142 E.05616
G1 X118.55 Y106.974 E.00554
G1 X119.363 Y105.378 E.05616
G1 X119.467 Y105.234 E.00557
G1 X120.734 Y103.967 E.05618
G1 X120.878 Y103.863 E.00557
G1 X122.474 Y103.05 E.05616
G1 X122.642 Y102.995 E.00554
G1 X124.411 Y102.714 E.05616
G1 X124.589 Y102.714 E.00558
G1 X126.358 Y102.995 E.05616
G1 X126.526 Y103.05 E.00554
G1 X128.122 Y103.863 E.05616
G1 X128.266 Y103.967 E.00557
G1 X129.533 Y105.234 E.05618
G1 X129.637 Y105.378 E.00557
G1 X130.45 Y106.974 E.05616
G1 X130.505 Y107.142 E.00554
G1 X130.786 Y108.911 E.05616
G1 X130.786 Y109.089 E.00558
G1 X130.505 Y110.858 E.05616
G1 X130.45 Y111.026 E.00554
G1 X129.637 Y112.622 E.05616
G1 X129.533 Y112.766 E.00557
G1 X128.266 Y114.033 E.05618
G1 X128.122 Y114.137 E.00557
G1 X126.526 Y114.95 E.05616
G1 X126.358 Y115.005 E.00554
G1 X124.588 Y115.285 E.05619
G1 X124.412 Y115.285 E.00552
G1 X122.642 Y115.005 E.05619
G1 X122.474 Y114.95 E.00554
G1 X120.878 Y114.137 E.05616
G1 X120.734 Y114.033 E.00557
G1 X119.467 Y112.766 E.05618
G1 X119.363 Y112.622 E.00557
G1 X118.55 Y111.026 E.05616
G1 X118.541 Y110.999 E.00089
M204 S1000
G1 X118.881 Y110.826 F10800
M204 S800
;TYPE:External perimeter
G1 F1200
G1 X118.587 Y108.97 E.05892
G1 X118.886 Y107.145 E.05798
G1 X119.733 Y105.501 E.05799
G1 X121.001 Y104.233 E.05623
G1 X122.645 Y103.386 E.05799
G1 X124.47 Y103.087 E.05798
G1 X126.355 Y103.386 E.05984
G1 X127.999 Y104.233 E.05799
G1 X129.301 Y105.549 E.05804
G1 X130.132 Y107.201 E.05798
G1 X130.413 Y108.97 E.05616
G1 X130.132 Y110.802 E.05811
M73 Q2 S17
G1 X129.267 Y112.499 E.05972
G1 X127.951 Y113.801 E.05804
G1 X126.355 Y114.614 E.05616
M73 P2 R17
G1 X124.529 Y114.912 E.05801
G1 X122.645 Y114.614 E.05981
M73 P2 R16
G1 X121.001 Y113.767 E.05799
G1 X119.733 Y112.499 E.05623
G1 X118.9 Y110.882 E.05703
M204 S1000
;WIPE_START
G1 F8640
G1 X118.881 Y110.826 E-.01365
G1 X118.587 Y108.97 E-.4339
G1 X118.834 Y107.464 E-.35245
;WIPE_END
G1 Z.6 F720
G1 X140.606 Y92.881 F10800
G1 Z.2 F720
G1 E.8 F2100
M204 S800
;TYPE:Perimeter
G1 F1200
G1 X140.675 Y92.934 E.00273
G1 X140.776 Y93.15 E.00748
G1 X140.79 Y93.276 E.00397
G1 X140.79 Y96.723 E.10808
G1 X140.737 Y96.963 E.00771
G1 X140.603 Y97.143 E.00704
G1 X140.364 Y97.272 E.00852
G1 X140.224 Y97.289 E.00442
G1 X109.776 Y97.289 E.95467
G1 X109.558 Y97.246 E.00697
M73 Q2 S16
G1 X109.323 Y97.063 E.00934
G1 X109.218 Y96.821 E.00827
G1 X109.21 Y93.276 E.11115
G1 X109.264 Y93.034 E.00777
G1 X109.399 Y92.854 E.00705
G1 X109.63 Y92.729 E.00824
G1 X109.776 Y92.71 E.00462
G1 X140.224 Y92.71 E.95467
G1 X140.438 Y92.752 E.00684
G1 X140.558 Y92.844 E.00474
M204 S1000
G1 X140.367 Y93.174 F10800
M204 S800
;TYPE:External perimeter
G1 F1200
G1 X140.413 Y93.276 E.00351
G1 X140.413 Y96.723 E.10808
G1 X140.351 Y96.863 E.0048
G1 X140.224 Y96.912 E.00427
G1 X109.776 Y96.912 E.95467
G1 X109.649 Y96.863 E.00427
G1 X109.587 Y96.723 E.0048
G1 X109.587 Y93.276 E.10808
G1 X109.65 Y93.135 E.00484
G1 X109.776 Y93.087 E.00423
G1 X140.224 Y93.087 E.95467
G1 X140.334 Y93.129 E.00369
M204 S1000
;WIPE_START
G1 F8640
G1 X140.367 Y93.174 E-.01289
G1 X140.413 Y93.276 E-.02584
G1 X140.413 Y96.573 E-.76127
;WIPE_END
G1 Z.6 F720
G1 X147.213 Y126.713 F10800
G1 Z.2 F720
G1 E.8 F2100
M204 S800
;TYPE:Perimeter
G1 F1200
G1 X102.787 Y126.713 E1.39294
G1 X102.787 Y83.287 E1.36159
M73 P3 R16
M73 Q3 S16
G1 X147.213 Y83.287 E1.39294
G1 X147.213 Y88.202 E.15411
G1 X147.213 Y126.653 E1.2056
M204 S1000
G1 X147.59 Y127.09 F10800
M204 S800
;TYPE:External perimeter
G1 F1200
G1 X102.41 Y127.09 E1.41658
G1 X102.41 Y82.91 E1.38523
G1 X147.59 Y82.91 E1.41658
M73 P4 R16
M73 Q4 S16
G1 X147.59 Y88.202 E.16593
G1 X147.59 Y127.03 E1.21742
M204 S1000
;WIPE_START
G1 F8640
G1 X147.59 Y127.09 E-.01385
G1 X144.185 Y127.09 E-.78615
;WIPE_END
G1 Z.6 F720
G1 X146.278 Y83.457 F10800
G1 Z.2 F720
G1 E.8 F2100
M204 S800
;TYPE:Solid infill
;WIDTH:0.42141
G1 F1200
G1 X146.874 Y84.052 E.0265
G1 X146.874 Y84.588 E.01687
G1 X145.912 Y83.626 E.04282
G1 X145.377 Y83.626 E.01684
G1 X146.874 Y85.123 E.06663
G1 X146.874 Y85.658 E.01684
G1 X144.842 Y83.626 E.09044
G1 X144.307 Y83.626 E.01684
G1 X146.874 Y86.193 E.11425
G1 X146.874 Y86.729 E.01687
G1 X143.771 Y83.626 E.13811
G1 X143.236 Y83.626 E.01684
G1 X146.874 Y87.264 E.16192
G1 X146.874 Y87.799 E.01684
G1 X142.701 Y83.626 E.18573
G1 X142.166 Y83.626 E.01684
G1 X146.874 Y88.334 E.20954
G1 X146.874 Y88.87 E.01687
G1 X141.63 Y83.626 E.2334
G1 X141.095 Y83.626 E.01684
G1 X146.874 Y89.405 E.25721
G1 X146.874 Y89.94 E.01684
G1 X140.56 Y83.626 E.28102
G1 X140.024 Y83.626 E.01687
M73 Q5 S16
G1 X146.874 Y90.476 E.30488
G1 X146.874 Y91.011 E.01684
M73 P5 R16
G1 X139.489 Y83.626 E.32869
G1 X138.954 Y83.626 E.01684
G1 X146.874 Y91.546 E.3525
G1 X146.874 Y92.081 E.01684
G1 X138.419 Y83.626 E.37631
G1 X137.883 Y83.626 E.01687
G1 X146.874 Y92.617 E.40017
G1 X146.874 Y93.152 E.01684
G1 X137.348 Y83.626 E.42398
G1 X136.813 Y83.626 E.01684
G1 X146.874 Y93.687 E.44779
G1 X146.874 Y94.222 E.01684
G1 X136.278 Y83.626 E.4716
G1 X135.742 Y83.626 E.01687
G1 X146.874 Y94.758 E.49546
G1 X146.874 Y95.293 E.01684
G1 X135.207 Y83.626 E.51927
G1 X134.672 Y83.626 E.01684
G1 X146.874 Y95.828 E.54308
G1 X146.874 Y96.363 E.01684
G1 X134.137 Y83.626 E.56689
G1 X133.601 Y83.626 E.01687
G1 X146.874 Y96.899 E.59075
G1 X146.874 Y97.434 E.01684
G1 X133.066 Y83.626 E.61456
G1 X132.531 Y83.626 E.01684
M73 Q6 S16
G1 X146.874 Y97.969 E.63837
G1 X146.874 Y98.505 E.01687
M73 P6 R16
G1 X131.995 Y83.626 E.66223
G1 X131.46 Y83.626 E.01684
G1 X140.211 Y92.377 E.38949
G1 X140.342 Y92.377 E.00412
G1 X140.57 Y92.437 E.00742
G1 X140.824 Y92.596 E.00943
G1 X140.947 Y92.729 E.0057
G1 X141.044 Y92.89 E.00592
G1 X141.108 Y93.075 E.00616
G1 X141.129 Y93.296 E.00699
G1 X146.874 Y99.04 E.25567
G1 X146.874 Y99.575 E.01684
G1 X141.128 Y93.829 E.25574
G1 X141.126 Y94.363 E.01681
G1 X146.874 Y100.11 E.25581
G1 X146.874 Y100.646 E.01687
G1 X141.124 Y94.896 E.25592
G1 X141.123 Y95.43 E.01681
G1 X146.874 Y101.181 E.25596
G1 X146.874 Y101.716 E.01684
G1 X141.121 Y95.963 E.25605
G1 X141.119 Y96.497 E.01681
G1 X146.874 Y102.251 E.25612
G1 X146.874 Y102.787 E.01687
G1 X141.081 Y96.994 E.25783
G1 X141.046 Y97.105 E.00366
G1 X140.887 Y97.335 E.0088
G1 X146.874 Y103.322 E.26647
G1 X146.874 Y103.857 E.01684
G1 X140.575 Y97.558 E.28035
G1 X140.444 Y97.602 E.00435
G1 X140.11 Y97.628 E.01054
G1 X146.874 Y104.392 E.30105
G1 X146.874 Y104.928 E.01687
G1 X139.574 Y97.628 E.3249
G1 X139.039 Y97.628 E.01684
G1 X146.874 Y105.463 E.34872
G1 X146.874 Y105.998 E.01684
G1 X138.503 Y97.628 E.37255
G1 X137.968 Y97.628 E.01684
G1 X146.874 Y106.534 E.39638
G1 X146.874 Y107.069 E.01684
M73 Q7 S16
G1 X137.433 Y97.628 E.4202
G1 X136.897 Y97.628 E.01687
M73 P7 R16
G1 X146.874 Y107.604 E.44403
G1 X146.874 Y108.139 E.01684
G1 X136.362 Y97.628 E.46784
G1 X135.827 Y97.628 E.01684
G1 X146.874 Y108.675 E.49167
G1 X146.874 Y109.21 E.01684
G1 X135.291 Y97.628 E.51551
G1 X134.756 Y97.628 E.01684
G1 X146.874 Y109.745 E.53932
G1 X146.874 Y110.28 E.01684
G1 X134.221 Y97.627 E.56315
G1 X133.685 Y97.627 E.01687
G1 X146.874 Y110.816 E.58701
G1 X146.874 Y111.351 E.01684
G1 X133.15 Y97.627 E.61082
G1 X132.615 Y97.627 E.01684
G1 X146.874 Y111.886 E.63463
G1 X146.874 Y112.421 E.01684
M73 P7 R15
G1 X132.079 Y97.627 E.65847
G1 X131.544 Y97.627 E.01684
M73 Q7 S15
G1 X146.874 Y112.957 E.6823
G1 X146.874 Y113.492 E.01684
M73 P8 R15
M73 Q8 S15
G1 X131.008 Y97.627 E.70613
G1 X130.473 Y97.627 E.01684
G1 X146.874 Y114.027 E.72995
G1 X146.874 Y114.562 E.01684
G1 X129.938 Y97.627 E.75376
G1 X129.402 Y97.627 E.01687
G1 X146.874 Y115.098 E.77761
G1 X146.874 Y115.633 E.01684
G1 X128.867 Y97.627 E.80142
G1 X128.332 Y97.626 E.01684
G1 X146.874 Y116.168 E.82526
G1 X146.874 Y116.704 E.01687
G1 X127.796 Y97.626 E.84911
G1 X127.261 Y97.626 E.01684
G1 X146.874 Y117.239 E.87293
G1 X146.874 Y117.774 E.01684
M73 P9 R15
M73 Q9 S15
G1 X126.726 Y97.626 E.89674
G1 X126.19 Y97.626 E.01687
G1 X146.874 Y118.309 E.92057
G1 X146.874 Y118.845 E.01687
G1 X125.655 Y97.626 E.94441
G1 X125.12 Y97.626 E.01684
G1 X146.874 Y119.38 E.96822
G1 X146.874 Y119.915 E.01684
G1 X124.584 Y97.626 E.99205
G1 X124.049 Y97.626 E.01684
G1 X146.874 Y120.45 E1.01586
G1 X146.874 Y120.986 E.01687
G1 X123.513 Y97.626 E1.03972
G1 X122.978 Y97.626 E.01684
M73 P10 R15
M73 Q10 S15
G1 X146.874 Y121.521 E1.06353
G1 X146.874 Y122.056 E.01684
G1 X122.443 Y97.625 E1.08736
G1 X121.907 Y97.625 E.01687
G1 X127.392 Y103.11 E.24412
G1 X128.287 Y103.565 E.0316
G1 X128.498 Y103.718 E.0082
G1 X129.87 Y105.105 E.0614
G1 X130.382 Y106.1 E.03522
G1 X146.874 Y122.591 E.734
G1 X146.874 Y123.127 E.01687
G1 X130.841 Y107.094 E.71359
G1 X130.938 Y107.726 E.02012
G1 X146.874 Y123.662 E.70927
G1 X146.874 Y124.197 E.01684
G1 X131.035 Y108.359 E.70493
G1 X131.133 Y108.992 E.02016
G1 X146.874 Y124.733 E.70059
G1 X146.874 Y125.268 E.01684
M73 P11 R15
M73 Q11 S15
G1 X131.064 Y109.458 E.70366
G1 X130.992 Y109.922 E.01478
G1 X146.874 Y125.803 E.70685
G1 X146.874 Y126.338 E.01684
G1 X130.921 Y110.386 E.71001
G1 X130.849 Y110.849 E.01475
G1 X146.374 Y126.374 E.69098
G1 X145.838 Y126.374 E.01687
G1 X130.716 Y111.251 E.67307
G1 X130.534 Y111.605 E.01253
G1 X145.303 Y126.374 E.65733
G1 X144.768 Y126.374 E.01684
G1 X130.353 Y111.959 E.64158
G1 X130.171 Y112.312 E.0125
G1 X144.232 Y126.374 E.62584
G1 X143.697 Y126.374 E.01684
G1 X129.99 Y112.666 E.61009
G1 X129.878 Y112.883 E.00769
M73 P12 R15
M73 Q12 S15
G1 X129.775 Y112.987 E.00461
G1 X143.162 Y126.374 E.59582
G1 X142.627 Y126.374 E.01684
G1 X129.51 Y113.256 E.58383
G1 X129.244 Y113.526 E.01193
G1 X142.091 Y126.374 E.57181
G1 X141.556 Y126.374 E.01684
G1 X128.978 Y113.795 E.55984
G1 X128.712 Y114.065 E.01193
G1 X141.021 Y126.374 E.54784
G1 X140.486 Y126.374 E.01684
G1 X128.437 Y114.325 E.53627
G1 X128.287 Y114.435 E.00585
G1 X128.104 Y114.527 E.00645
G1 X139.95 Y126.374 E.52726
G1 X139.415 Y126.374 E.01684
G1 X127.749 Y114.707 E.51925
G1 X127.393 Y114.887 E.01255
G1 X138.88 Y126.374 E.51126
G1 X138.345 Y126.374 E.01684
G1 X127.038 Y115.067 E.50325
G1 X126.683 Y115.247 E.01253
G1 X137.809 Y126.374 E.49521
G1 X137.274 Y126.374 E.01684
G1 X126.263 Y115.363 E.49007
G1 X125.799 Y115.434 E.01477
M73 P13 R15
M73 Q13 S15
G1 X136.739 Y126.374 E.48691
G1 X136.203 Y126.374 E.01687
G1 X125.335 Y115.505 E.48373
G1 X124.871 Y115.576 E.01477
G1 X135.668 Y126.374 E.48057
G1 X135.133 Y126.374 E.01684
G1 X124.373 Y115.613 E.47892
G1 X123.741 Y115.517 E.02012
G1 X134.598 Y126.374 E.48322
G1 X134.062 Y126.374 E.01687
G1 X123.109 Y115.42 E.48751
G1 X122.46 Y115.306 E.02074
G1 X133.697 Y126.543 E.50013
M204 S1000
;WIPE_START
G1 F8640
M73 P13 R14
G1 X131.247 Y124.093 E-.8
;WIPE_END
G1 Z.6 F720
G1 X126.689 Y102.942 F10800
G1 Z.2 F720
G1 E.8 F2100
M204 S800
G1 F1200
G1 X121.372 Y97.625 E.23665
G1 X120.837 Y97.625 E.01684
G1 X125.77 Y102.558 E.21956
G1 X125.133 Y102.457 E.0203
M73 Q13 S14
G1 X120.301 Y97.625 E.21506
G1 X119.766 Y97.625 E.01684
G1 X124.518 Y102.377 E.2115
G1 X124.37 Y102.377 E.00466
G1 X124.036 Y102.43 E.01064
G1 X119.231 Y97.625 E.21386
G1 X118.695 Y97.625 E.01687
G1 X123.574 Y102.504 E.21715
G1 X123.112 Y102.577 E.01472
G1 X118.16 Y97.625 E.2204
G1 X117.625 Y97.625 E.01684
G1 X122.65 Y102.65 E.22365
G1 X122.564 Y102.664 E.00274
G1 X122.248 Y102.784 E.01064
G1 X117.089 Y97.625 E.22961
G1 X116.554 Y97.624 E.01684
M73 Q14 S14
G1 X121.894 Y102.964 E.23767
G1 X121.539 Y103.145 E.01254
M73 P14 R14
G1 X116.018 Y97.624 E.24573
G1 X115.483 Y97.624 E.01684
G1 X121.184 Y103.326 E.25376
G1 X120.83 Y103.506 E.0125
G1 X114.948 Y97.624 E.26179
G1 X114.412 Y97.624 E.01687
G1 X120.505 Y103.717 E.27118
G1 X120.237 Y103.984 E.01191
G1 X113.877 Y97.624 E.28307
G1 X113.342 Y97.624 E.01684
G1 X119.969 Y104.252 E.29497
G1 X119.702 Y104.519 E.01188
G1 X112.806 Y97.624 E.3069
G1 X112.271 Y97.624 E.01684
G1 X119.434 Y104.787 E.31881
G1 X119.175 Y105.063 E.01191
G1 X111.736 Y97.624 E.33109
G1 X111.2 Y97.624 E.01687
G1 X118.973 Y105.396 E.34593
G1 X118.793 Y105.752 E.01255
G1 X110.665 Y97.623 E.36178
G1 X110.13 Y97.623 E.01684
G1 X118.74 Y106.234 E.38323
M204 S1000
;WIPE_START
G1 F8640
G1 X116.29 Y103.784 E-.8
;WIPE_END
G1 Z.6 F720
G1 X139.845 Y92.547 F10800
G1 Z.2 F720
G1 E.8 F2100
M204 S800
G1 F1200
G1 X130.925 Y83.626 E.39703
G1 X130.39 Y83.626 E.01684
G1 X139.14 Y92.377 E.38946
G1 X138.605 Y92.377 E.01684
G1 X129.854 Y83.626 E.38949
G1 X129.319 Y83.626 E.01684
G1 X138.069 Y92.377 E.38946
G1 X137.534 Y92.376 E.01684
G1 X128.784 Y83.626 E.38944
G1 X128.249 Y83.626 E.01684
M73 Q15 S14
G1 X136.998 Y92.376 E.38942
G1 X136.463 Y92.376 E.01684
M73 P15 R14
G1 X127.713 Y83.626 E.38944
G1 X127.178 Y83.626 E.01684
G1 X135.928 Y92.376 E.38944
G1 X135.392 Y92.376 E.01687
G1 X126.643 Y83.626 E.38942
G1 X126.108 Y83.626 E.01684
G1 X134.857 Y92.376 E.38942
G1 X134.322 Y92.376 E.01684
G1 X125.572 Y83.626 E.38944
G1 X125.037 Y83.626 E.01684
G1 X133.786 Y92.376 E.38942
G1 X133.251 Y92.376 E.01684
G1 X124.502 Y83.626 E.38942
G1 X123.967 Y83.626 E.01684
G1 X132.715 Y92.375 E.38937
G1 X132.18 Y92.375 E.01684
G1 X123.431 Y83.626 E.3894
G1 X122.896 Y83.626 E.01684
G1 X131.645 Y92.375 E.3894
G1 X131.109 Y92.375 E.01687
G1 X122.361 Y83.626 E.38937
G1 X121.825 Y83.626 E.01687
G1 X130.574 Y92.375 E.3894
G1 X130.039 Y92.375 E.01684
G1 X121.29 Y83.626 E.3894
G1 X120.755 Y83.626 E.01684
G1 X129.503 Y92.375 E.38937
G1 X128.968 Y92.375 E.01684
G1 X120.22 Y83.626 E.38937
G1 X119.684 Y83.626 E.01687
M73 P16 R14
M73 Q16 S14
G1 X128.432 Y92.374 E.38935
