; generated by PrusaSlicer 2.8.1+win64 on 2024-12-18 at 07:34:06 UTC


;
;
; 

; external perimeters extrusion width = 0.60mm
; perimeters extrusion width = 0.50mm
; infill extrusion width = 0.50mm
; solid infill extrusion width = 0.50mm
; top infill extrusion width = 0.45mm
; first layer extrusion width = 0.42mm

M73 P0 R21
M73 Q0 S21
M201 X1000 Y1000 Z200 E5000 ; sets maximum accelerations, mm/sec^2
M203 X200 Y200 Z12 E120 ; sets maximum feedrates, mm / sec
M204 S1250 T1250 ; sets acceleration (S) and retract acceleration (R), mm/sec^2
M205 X8.00 Y8.00 Z0.40 E4.50 ; sets the jerk limits, mm/sec
M205 S0 T0 ; sets the minimum extruding and travel feed rate, mm/sec

; printing object SpannGurtHalterungB5.stl id:0 copy 0
; stop printing object SpannGurtHalterungB5.stl id:0 copy 0

;TYPE:Custom
M862.3 P "MK3S" ; printer model check
M862.1 P0.4 ; nozzle diameter check
M115 U3.13.3 ; tell printer latest fw version
G90 ; use absolute coordinates
M83 ; extruder relative mode
M104 S215 ; set extruder temp
M140 S60 ; set bed temp
M190 S60 ; wait for bed temp
M109 S215 ; wait for extruder temp
G28 W ; home all without mesh bed level
G80 X99.6229 Y80.1229 W50.7542 H49.7542 ; mesh bed levelling

G1 Z0.2 F720
G1 Y-3 F1000 ; go outside print area
G92 E0
G1 X60 E9 F1000 ; intro line
G1 X100 E12.5 F1000 ; intro line
M73 P0 R20

G92 E0
M221 S95

; Don't change E values below. Excessive value can damage the printer.

M907 E538 ; set extruder motor current
G21 ; set units to millimeters
G90 ; use absolute coordinates
M83 ; use relative distances for extrusion

M900 K0.05 ; Filament gcode LA 1.5
M900 K30 ; Filament gcode LA 1.0




M107
;LAYER_CHANGE
;Z:0.2
;HEIGHT:0.2
G1 E-.8 F2100
M73 Q0 S20
G1 Z.6 F720
G1 X100.202 Y81.252 F10800
G1 Z.2 F720
G1 E.8 F2100
M204 S800
;TYPE:Skirt/Brim
;WIDTH:0.42
G1 F1200
G1 X101.235 Y80.449 E.04102
G1 X102 Y80.311 E.02437
G1 X148 Y80.311 E1.4423
G1 X149.248 Y80.702 E.04101
G1 X150.051 Y81.735 E.04102
G1 X150.189 Y82.5 E.02437
G1 X150.189 Y127.5 E1.41094
G1 X149.798 Y128.748 E.04101
G1 X148.765 Y129.551 E.04102
G1 X148 Y129.689 E.02437
G1 X102 Y129.689 E1.4423
G1 X100.752 Y129.298 E.04101
M73 P1 R20
M73 Q1 S20
G1 X99.949 Y128.265 E.04102
G1 X99.811 Y127.5 E.02437
G1 X99.811 Y82.5 E1.41094
G1 X100.184 Y81.309 E.03913
M204 S1000
;WIPE_START
G1 F8640
G1 X100.202 Y81.252 E-.0138
G1 X101.235 Y80.449 E-.30211
G1 X102 Y80.311 E-.17949
G1 X103.319 Y80.311 E-.3046
;WIPE_END
G1 Z.6 F720
; printing object SpannGurtHalterungB5.stl id:0 copy 0
G1 X122.577 Y112.35 F10800
G1 Z.2 F720
G1 E.8 F2100
M204 S800
;TYPE:Perimeter
;WIDTH:0.419999
G1 F1200
G1 X123.401 Y111.903 E.02939
G1 X124.411 Y111.714 E.03222
G1 X125.431 Y111.848 E.03226
G1 X126.359 Y112.289 E.03222
G1 X127.106 Y112.997 E.03227
G1 X127.4 Y113.514 E.01865
G1 X127.631 Y113.982 E.01636
G1 X127.785 Y114.912 E.02956
G1 X127.652 Y115.93 E.03219
G1 X127.211 Y116.859 E.03224
G1 X126.503 Y117.606 E.03227
G1 X125.599 Y118.097 E.03226
G1 X124.588 Y118.285 E.03224
G1 X123.57 Y118.152 E.03219
G1 X122.641 Y117.711 E.03224
G1 X121.894 Y117.003 E.03227
G1 X121.403 Y116.099 E.03226
G1 X121.214 Y115.089 E.03222
G1 X121.348 Y114.069 E.03226
G1 X121.789 Y113.141 E.03222
G1 X122.497 Y112.394 E.03227
G1 X122.524 Y112.379 E.00097
M204 S1000
G1 X122.524 Y112.379 F10800
G1 X122.791 Y112.646
M204 S800
;TYPE:External perimeter
G1 F1200
G1 X123.572 Y112.239 E.02761
G1 X124.47 Y112.087 E.02856
G1 X125.372 Y112.221 E.02859
G1 X126.188 Y112.625 E.02855
G1 X126.84 Y113.264 E.02862
G1 X127.261 Y114.072 E.02857
G1 X127.412 Y114.971 E.02858
G1 X127.28 Y115.872 E.02855
G1 X126.875 Y116.688 E.02856
G1 X126.236 Y117.34 E.02862
G1 X125.428 Y117.761 E.02857
G1 X124.529 Y117.912 E.02858
G1 X123.628 Y117.78 E.02855
G1 X122.812 Y117.375 E.02856
G1 X122.16 Y116.736 E.02862
G1 X121.739 Y115.928 E.02857
G1 X121.587 Y115.03 E.02856
G1 X121.721 Y114.128 E.02859
G1 X122.125 Y113.312 E.02855
G1 X122.743 Y112.681 E.02769
M204 S1000
;WIPE_START
G1 F8640
G1 X122.791 Y112.646 E-.01372
G1 X123.572 Y112.239 E-.20335
G1 X124.47 Y112.087 E-.2103
G1 X125.372 Y112.221 E-.21056
G1 X126.001 Y112.533 E-.16207
;WIPE_END
G1 Z.6 F720
G1 X141.62 Y98.11 F10800
G1 Z.2 F720
G1 E.8 F2100
M204 S800
;TYPE:Perimeter
G1 F1200
G1 X141.564 Y98.176 E.00271
G1 X141.3 Y98.284 E.00894
G1 X141.224 Y98.289 E.00239
G1 X110.776 Y98.289 E.95467
G1 X110.536 Y98.236 E.00771
G1 X110.342 Y98.087 E.00767
G1 X110.218 Y97.821 E.0092
G1 X110.21 Y94.276 E.11115
G1 X110.29 Y93.986 E.00943
G1 X110.474 Y93.797 E.00827
G1 X110.694 Y93.716 E.00735
G1 X110.776 Y93.71 E.00258
G1 X141.224 Y93.71 E.95467
G1 X141.471 Y93.766 E.00794
G1 X141.65 Y93.903 E.00707
G1 X141.773 Y94.136 E.00826
G1 X141.79 Y94.276 E.00442
G1 X141.79 Y97.723 E.10808
G1 X141.724 Y97.99 E.00862
G1 X141.659 Y98.065 E.00311
M204 S1000
G1 X141.659 Y98.065 F10800
G1 X141.326 Y97.866
M204 S800
;TYPE:External perimeter
G1 F1200
G1 X141.224 Y97.912 E.00351
G1 X110.776 Y97.912 E.95467
G1 X110.631 Y97.845 E.00501
M73 P2 R20
M73 Q2 S20
G1 X110.587 Y97.723 E.00407
G1 X110.587 Y94.276 E.10808
G1 X110.653 Y94.132 E.00497
G1 X110.776 Y94.087 E.00411
G1 X141.224 Y94.087 E.95467
G1 X141.366 Y94.151 E.00488
G1 X141.413 Y94.276 E.00419
G1 X141.413 Y97.723 E.10808
G1 X141.372 Y97.832 E.00365
M204 S1000
;WIPE_START
G1 F8640
G1 X141.326 Y97.866 E-.01321
G1 X141.224 Y97.912 E-.02584
G1 X137.928 Y97.912 E-.76095
;WIPE_END
G1 Z.6 F720
G1 X102.787 Y83.287 F10800
G1 Z.2 F720
G1 E.8 F2100
M204 S800
;TYPE:Perimeter
G1 F1200
G1 X147.213 Y83.287 E1.39294
G1 X147.213 Y88.523 E.16417
G1 X147.213 Y126.713 E1.19742
G1 X102.787 Y126.713 E1.39294
G1 X102.787 Y83.347 E1.35971
M204 S1000
G1 X102.41 Y82.91 F10800
M204 S800
;TYPE:External perimeter
G1 F1200
G1 X147.59 Y82.91 E1.41658
G1 X147.59 Y88.523 E.17599
M73 P3 R20
M73 Q3 S20
G1 X147.59 Y127.09 E1.20924
G1 X102.41 Y127.09 E1.41658
G1 X102.41 Y82.97 E1.38335
M204 S1000
;WIPE_START
G1 F8640
G1 X102.41 Y82.91 E-.01385
G1 X105.815 Y82.91 E-.78615
;WIPE_END
G1 Z.6 F720
G1 X146.278 Y83.457 F10800
G1 Z.2 F720
G1 E.8 F2100
M204 S800
;TYPE:Solid infill
;WIDTH:0.42141
G1 F1200
G1 X146.874 Y84.052 E.0265
G1 X146.874 Y84.588 E.01687
G1 X145.912 Y83.626 E.04282
G1 X145.377 Y83.626 E.01684
G1 X146.874 Y85.123 E.06663
G1 X146.874 Y85.658 E.01684
G1 X144.842 Y83.626 E.09044
G1 X144.307 Y83.626 E.01684
G1 X146.874 Y86.193 E.11425
G1 X146.874 Y86.729 E.01687
G1 X143.771 Y83.626 E.13811
G1 X143.236 Y83.626 E.01684
G1 X146.874 Y87.264 E.16192
G1 X146.874 Y87.799 E.01684
G1 X142.701 Y83.626 E.18573
G1 X142.166 Y83.626 E.01684
G1 X146.874 Y88.334 E.20954
G1 X146.874 Y88.87 E.01687
G1 X141.63 Y83.626 E.2334
G1 X141.095 Y83.626 E.01684
G1 X146.874 Y89.405 E.25721
G1 X146.874 Y89.94 E.01684
G1 X140.56 Y83.626 E.28102
G1 X140.024 Y83.626 E.01687
G1 X146.874 Y90.476 E.30488
G1 X146.874 Y91.011 E.01684
M73 Q4 S20
G1 X139.489 Y83.626 E.32869
G1 X138.954 Y83.626 E.01684
M73 P4 R20
G1 X146.874 Y91.546 E.3525
G1 X146.874 Y92.081 E.01684
G1 X138.419 Y83.626 E.37631
G1 X137.883 Y83.626 E.01687
G1 X146.874 Y92.617 E.40017
G1 X146.874 Y93.152 E.01684
G1 X137.348 Y83.626 E.42398
G1 X136.813 Y83.626 E.01684
G1 X146.874 Y93.687 E.44779
G1 X146.874 Y94.222 E.01684
G1 X136.278 Y83.626 E.4716
G1 X135.742 Y83.626 E.01687
G1 X146.874 Y94.758 E.49546
G1 X146.874 Y95.293 E.01684
G1 X135.207 Y83.626 E.51927
G1 X134.672 Y83.626 E.01684
G1 X146.874 Y95.828 E.54308
G1 X146.874 Y96.363 E.01684
G1 X134.137 Y83.626 E.56689
G1 X133.601 Y83.626 E.01687
G1 X146.874 Y96.899 E.59075
G1 X146.874 Y97.434 E.01684
G1 X133.066 Y83.626 E.61456
G1 X132.531 Y83.626 E.01684
G1 X146.874 Y97.969 E.63837
G1 X146.874 Y98.505 E.01687
G1 X131.995 Y83.626 E.66223
G1 X131.46 Y83.626 E.01684
M73 P4 R19
G1 X141.211 Y93.377 E.43399
G1 X141.344 Y93.377 E.00419
M73 P5 R19
M73 Q5 S20
G1 X141.615 Y93.458 E.0089
G1 X141.767 Y93.55 E.00559
G1 X141.906 Y93.679 E.00597
G1 X142.024 Y93.848 E.00649
G1 X142.103 Y94.052 E.00688
G1 X142.129 Y94.296 E.00772
G1 X146.874 Y99.04 E.21117
G1 X146.874 Y99.575 E.01684
G1 X142.128 Y94.829 E.21123
G1 X142.126 Y95.363 E.01681
G1 X146.874 Y100.11 E.2113
G1 X146.874 Y100.646 E.01687
G1 X142.124 Y95.896 E.21141
G1 X142.123 Y96.43 E.01681
G1 X146.874 Y101.181 E.21146
G1 X146.874 Y101.716 E.01684
M73 Q5 S19
G1 X142.121 Y96.963 E.21154
G1 X142.119 Y97.497 E.01681
G1 X146.874 Y102.251 E.21161
G1 X146.874 Y102.787 E.01687
G1 X142.079 Y97.992 E.21341
G1 X142.026 Y98.147 E.00516
G1 X141.888 Y98.337 E.00739
G1 X146.874 Y103.322 E.22189
G1 X146.874 Y103.857 E.01684
G1 X141.567 Y98.55 E.2362
G1 X141.481 Y98.593 E.00303
G1 X141.11 Y98.628 E.01173
G1 X146.874 Y104.392 E.25654
G1 X146.874 Y104.928 E.01687
G1 X140.574 Y98.628 E.2804
G1 X140.039 Y98.628 E.01684
G1 X146.874 Y105.463 E.30421
G1 X146.874 Y105.998 E.01684
G1 X139.504 Y98.628 E.32802
G1 X138.968 Y98.628 E.01687
G1 X146.874 Y106.534 E.35188
G1 X146.874 Y107.069 E.01684
G1 X138.433 Y98.628 E.37569
G1 X137.898 Y98.628 E.01684
G1 X146.874 Y107.604 E.3995
G1 X146.874 Y108.139 E.01684
G1 X137.362 Y98.628 E.42333
G1 X136.827 Y98.628 E.01684
G1 X146.874 Y108.675 E.44717
G1 X146.874 Y109.21 E.01684
G1 X136.292 Y98.628 E.47098
G1 X135.756 Y98.628 E.01687
G1 X146.874 Y109.745 E.49481
G1 X146.874 Y110.28 E.01684
G1 X135.221 Y98.628 E.51862
G1 X134.686 Y98.628 E.01684
G1 X146.874 Y110.816 E.54246
G1 X146.874 Y111.351 E.01684
M73 P6 R19
M73 Q6 S19
G1 X134.15 Y98.628 E.56629
G1 X133.615 Y98.628 E.01684
G1 X146.874 Y111.886 E.5901
G1 X146.874 Y112.421 E.01684
G1 X133.08 Y98.628 E.61391
G1 X132.544 Y98.627 E.01687
G1 X146.874 Y112.957 E.63779
G1 X146.874 Y113.492 E.01684
G1 X132.009 Y98.627 E.6616
G1 X131.474 Y98.627 E.01684
G1 X146.874 Y114.027 E.68542
G1 X146.874 Y114.562 E.01684
G1 X130.938 Y98.627 E.70925
G1 X130.403 Y98.627 E.01684
G1 X146.874 Y115.098 E.73308
G1 X146.874 Y115.633 E.01684
G1 X129.868 Y98.627 E.75689
G1 X129.332 Y98.627 E.01687
G1 X146.874 Y116.168 E.78073
G1 X146.874 Y116.704 E.01687
G1 X128.797 Y98.627 E.80456
G1 X128.262 Y98.627 E.01684
M73 P7 R19
M73 Q7 S19
G1 X146.874 Y117.239 E.82837
G1 X146.874 Y117.774 E.01684
G1 X127.726 Y98.627 E.85221
G1 X127.191 Y98.627 E.01684
G1 X146.874 Y118.309 E.87602
G1 X146.874 Y118.845 E.01687
G1 X126.656 Y98.627 E.89985
G1 X126.12 Y98.627 E.01687
G1 X146.874 Y119.38 E.92369
G1 X146.874 Y119.915 E.01684
G1 X125.585 Y98.627 E.9475
G1 X125.05 Y98.627 E.01684
G1 X146.874 Y120.45 E.97131
G1 X146.874 Y120.986 E.01687
G1 X124.514 Y98.627 E.99517
G1 X123.979 Y98.627 E.01684
G1 X146.874 Y121.521 E1.01898
G1 X146.874 Y122.056 E.01684
M73 P8 R19
M73 Q8 S19
G1 X123.444 Y98.626 E1.04281
G1 X122.908 Y98.626 E.01687
G1 X146.874 Y122.591 E1.06665
G1 X146.874 Y123.127 E.01687
G1 X122.373 Y98.626 E1.09048
G1 X121.838 Y98.626 E.01684
G1 X146.874 Y123.662 E1.11429
G1 X146.874 Y124.197 E.01684
G1 X121.303 Y98.626 E1.1381
G1 X120.767 Y98.626 E.01687
G1 X146.874 Y124.733 E1.16196
G1 X146.874 Y125.268 E.01684
G1 X120.232 Y98.626 E1.18577
G1 X119.697 Y98.626 E.01684
M73 P9 R19
M73 Q9 S19
G1 X146.874 Y125.803 E1.20958
G1 X146.874 Y126.338 E.01684
G1 X119.161 Y98.626 E1.23341
G1 X118.626 Y98.626 E.01684
G1 X146.374 Y126.374 E1.23499
G1 X145.838 Y126.374 E.01687
G1 X118.091 Y98.626 E1.23497
G1 X117.555 Y98.626 E.01687
M73 P9 R18
G1 X145.303 Y126.374 E1.23499
G1 X144.768 Y126.374 E.01684
G1 X117.02 Y98.626 E1.23499
G1 X116.485 Y98.626 E.01684
M73 P10 R18
M73 Q10 S18
G1 X144.232 Y126.374 E1.23497
G1 X143.697 Y126.374 E.01684
G1 X115.949 Y98.626 E1.23499
G1 X115.414 Y98.626 E.01684
G1 X143.162 Y126.374 E1.23499
G1 X142.627 Y126.374 E.01684
G1 X114.879 Y98.626 E1.23499
G1 X114.343 Y98.625 E.01687
G1 X142.091 Y126.374 E1.23502
G1 X141.556 Y126.374 E.01684
G1 X113.808 Y98.625 E1.23502
G1 X113.273 Y98.625 E.01684
M73 Q11 S18
G1 X141.021 Y126.374 E1.23502
G1 X140.486 Y126.374 E.01684
M73 P11 R18
G1 X127.922 Y113.81 E.55919
G1 X127.443 Y112.869 E.03323
G1 X126.735 Y112.146 E.03185
G1 X126.523 Y111.992 E.00825
G1 X125.679 Y111.567 E.02974
G1 X112.737 Y98.625 E.57602
G1 X112.202 Y98.625 E.01684
G1 X125.015 Y111.438 E.57027
G1 X124.634 Y111.378 E.01214
G1 X124.415 Y111.374 E.00689
G1 X111.667 Y98.625 E.5674
G1 X111.131 Y98.625 E.01687
G1 X124.101 Y111.594 E.57724
M204 S1000
;WIPE_START
G1 F8640
G1 X121.651 Y109.144 E-.8
;WIPE_END
G1 Z.6 F720
G1 X127.854 Y114.278 F10800
G1 Z.2 F720
G1 E.8 F2100
M204 S800
G1 F1200
G1 X139.95 Y126.374 E.53836
G1 X139.415 Y126.374 E.01684
G1 X128.121 Y115.08 E.50267
G1 X128.052 Y115.546 E.01483
G1 X138.88 Y126.374 E.48193
G1 X138.345 Y126.374 E.01684
G1 X127.981 Y116.01 E.46128
G1 X127.942 Y116.16 E.00488
G1 X127.826 Y116.39 E.00811
G1 X137.809 Y126.374 E.44434
G1 X137.274 Y126.374 E.01684
G1 X127.647 Y116.747 E.42847
G1 X127.458 Y117.093 E.01241
G1 X136.739 Y126.374 E.41307
G1 X136.203 Y126.374 E.01687
M73 P12 R18
M73 Q12 S18
G1 X127.208 Y117.378 E.40037
G1 X126.938 Y117.644 E.01193
G1 X135.668 Y126.374 E.38855
G1 X135.133 Y126.374 E.01684
G1 X126.668 Y117.909 E.37676
G1 X126.325 Y118.101 E.01237
G1 X134.598 Y126.374 E.36821
G1 X134.062 Y126.374 E.01687
G1 X125.974 Y118.285 E.36
G1 X125.743 Y118.405 E.00819
G1 X125.605 Y118.451 E.00458
G1 X133.527 Y126.374 E.35261
G1 X132.992 Y126.374 E.01684
G1 X125.154 Y118.536 E.34885
G1 X124.688 Y118.605 E.01483
G1 X132.457 Y126.374 E.34578
G1 X131.921 Y126.374 E.01687
G1 X124.121 Y118.573 E.34718
G1 X123.485 Y118.473 E.02026
G1 X131.556 Y126.543 E.3592
M204 S1000
;WIPE_START
G1 F8640
G1 X129.106 Y124.093 E-.8
;WIPE_END
G1 Z.6 F720
G1 X140.845 Y93.547 F10800
G1 Z.2 F720
G1 E.8 F2100
M204 S800
G1 F1200
G1 X130.925 Y83.626 E.44154
G1 X130.39 Y83.626 E.01684
G1 X140.14 Y93.377 E.43397
G1 X139.605 Y93.377 E.01684
G1 X129.854 Y83.626 E.43399
G1 X129.319 Y83.626 E.01684
G1 X139.069 Y93.376 E.43395
G1 X138.534 Y93.376 E.01684
G1 X128.784 Y83.626 E.43395
G1 X128.249 Y83.626 E.01684
G1 X137.998 Y93.376 E.43393
G1 X137.463 Y93.376 E.01684
G1 X127.713 Y83.626 E.43395
G1 X127.178 Y83.626 E.01684
G1 X136.928 Y93.376 E.43395
G1 X136.392 Y93.376 E.01687
M73 P13 R18
M73 Q13 S18
G1 X126.643 Y83.626 E.43393
G1 X126.108 Y83.626 E.01684
G1 X135.857 Y93.376 E.43393
G1 X135.322 Y93.376 E.01684
G1 X125.572 Y83.626 E.43395
G1 X125.037 Y83.626 E.01684
G1 X134.786 Y93.376 E.43393
G1 X134.251 Y93.375 E.01684
G1 X124.502 Y83.626 E.4339
G1 X123.967 Y83.626 E.01684
G1 X133.715 Y93.375 E.43388
G1 X133.18 Y93.375 E.01684
G1 X123.431 Y83.626 E.4339
G1 X122.896 Y83.626 E.01684
G1 X132.645 Y93.375 E.4339
G1 X132.109 Y93.375 E.01687
G1 X122.361 Y83.626 E.43388
G1 X121.825 Y83.626 E.01687
G1 X131.574 Y93.375 E.4339
G1 X131.039 Y93.375 E.01684
G1 X121.29 Y83.626 E.4339
G1 X120.755 Y83.626 E.01684
G1 X130.503 Y93.375 E.43388
G1 X129.968 Y93.375 E.01684
G1 X120.22 Y83.626 E.43388
G1 X119.684 Y83.626 E.01687
G1 X129.432 Y93.374 E.43386
G1 X128.897 Y93.374 E.01684
G1 X119.149 Y83.626 E.43386
G1 X118.614 Y83.626 E.01684
G1 X128.362 Y93.374 E.43386
G1 X127.826 Y93.374 E.01687
G1 X118.079 Y83.626 E.43384
G1 X117.543 Y83.626 E.01687
G1 X127.291 Y93.374 E.43386
G1 X126.755 Y93.374 E.01687
M73 P14 R18
M73 Q14 S18
G1 X117.008 Y83.626 E.43384
G1 X116.473 Y83.626 E.01684
G1 X126.22 Y93.374 E.43384
G1 X125.685 Y93.374 E.01684
G1 X115.938 Y83.626 E.43384
G1 X115.402 Y83.626 E.01687
G1 X125.149 Y93.374 E.43384
G1 X124.614 Y93.373 E.01684
G1 X114.867 Y83.626 E.43381
G1 X114.332 Y83.626 E.01684
G1 X124.079 Y93.373 E.43381
G1 X123.543 Y93.373 E.01687
G1 X113.796 Y83.626 E.43381
G1 X113.261 Y83.626 E.01684
M73 P14 R17
G1 X123.008 Y93.373 E.43381
G1 X122.472 Y93.373 E.01687
G1 X112.726 Y83.626 E.43379
G1 X112.191 Y83.626 E.01684
G1 X121.937 Y93.373 E.43379
G1 X121.402 Y93.373 E.01684
G1 X111.655 Y83.626 E.43381
G1 X111.12 Y83.626 E.01684
M73 Q14 S17
G1 X120.866 Y93.373 E.43379
G1 X120.331 Y93.373 E.01684
G1 X110.585 Y83.626 E.43379
G1 X110.05 Y83.626 E.01684
G1 X119.796 Y93.372 E.43377
G1 X119.26 Y93.372 E.01687
G1 X109.514 Y83.626 E.43377
G1 X108.979 Y83.626 E.01684
G1 X118.725 Y93.372 E.43377
G1 X118.189 Y93.372 E.01687
G1 X108.444 Y83.626 E.43375
G1 X107.909 Y83.626 E.01684
M73 P15 R17
M73 Q15 S17
G1 X117.654 Y93.372 E.43375
G1 X117.119 Y93.372 E.01684
G1 X107.373 Y83.626 E.43377
G1 X106.838 Y83.626 E.01684
G1 X116.583 Y93.372 E.43375
