; generated by PrusaSlicer 2.8.1+win64 on 2024-12-17 at 10:21:05 UTC


;
;
; 

; external perimeters extrusion width = 0.60mm
; perimeters extrusion width = 0.50mm
; infill extrusion width = 0.50mm
; solid infill extrusion width = 0.50mm
; top infill extrusion width = 0.45mm
; first layer extrusion width = 0.42mm

M73 P0 R17
M73 Q0 S17
M201 X1000 Y1000 Z200 E5000 ; sets maximum accelerations, mm/sec^2
M203 X200 Y200 Z12 E120 ; sets maximum feedrates, mm / sec
M204 S1250 T1250 ; sets acceleration (S) and retract acceleration (R), mm/sec^2
M205 X8.00 Y8.00 Z0.40 E4.50 ; sets the jerk limits, mm/sec
M205 S0 T0 ; sets the minimum extruding and travel feed rate, mm/sec

; printing object SpannGurtHalterung5.stl id:0 copy 0
; stop printing object SpannGurtHalterung5.stl id:0 copy 0

;TYPE:Custom
M862.3 P "MK3S" ; printer model check
M862.1 P0.4 ; nozzle diameter check
M115 U3.13.3 ; tell printer latest fw version
G90 ; use absolute coordinates
M83 ; extruder relative mode
M104 S215 ; set extruder temp
M140 S60 ; set bed temp
M190 S60 ; wait for bed temp
M109 S215 ; wait for extruder temp
G28 W ; home all without mesh bed level
G80 X99.6229 Y80.1229 W50.7542 H49.7542 ; mesh bed levelling

G1 Z0.2 F720
G1 Y-3 F1000 ; go outside print area
G92 E0
G1 X60 E9 F1000 ; intro line
G1 X100 E12.5 F1000 ; intro line

G92 E0
M221 S95

; Don't change E values below. Excessive value can damage the printer.

M907 E538 ; set extruder motor current
G21 ; set units to millimeters
G90 ; use absolute coordinates
M83 ; use relative distances for extrusion

M900 K0.05 ; Filament gcode LA 1.5
M900 K30 ; Filament gcode LA 1.0




M107
;LAYER_CHANGE
;Z:0.2
;HEIGHT:0.2
G1 E-.8 F2100
G1 Z.6 F720
G1 X100.202 Y81.252 F10800
G1 Z.2 F720
G1 E.8 F2100
M204 S800
;TYPE:Skirt/Brim
;WIDTH:0.42
G1 F1200
G1 X101.235 Y80.449 E.04102
G1 X102 Y80.311 E.02437
G1 X148 Y80.311 E1.4423
G1 X149.248 Y80.702 E.04101
G1 X150.051 Y81.735 E.04102
G1 X150.189 Y82.5 E.02437
G1 X150.189 Y127.5 E1.41094
G1 X149.798 Y128.748 E.04101
M73 P1 R17
M73 Q1 S17
G1 X148.765 Y129.551 E.04102
G1 X148 Y129.689 E.02437
G1 X102 Y129.689 E1.4423
G1 X100.752 Y129.298 E.04101
G1 X99.949 Y128.265 E.04102
G1 X99.811 Y127.5 E.02437
G1 X99.811 Y82.5 E1.41094
G1 X100.184 Y81.309 E.03913
M204 S1000
;WIPE_START
G1 F8640
G1 X100.202 Y81.252 E-.0138
G1 X101.235 Y80.449 E-.30211
G1 X102 Y80.311 E-.17949
G1 X103.319 Y80.311 E-.3046
;WIPE_END
G1 Z.6 F720
; printing object SpannGurtHalterung5.stl id:0 copy 0
G1 X124.499 Y112.273 F10800
G1 Z.2 F720
G1 E.8 F2100
M204 S800
;TYPE:Perimeter
;WIDTH:0.419999
G1 F1200
G1 X123.57 Y112.152 E.02937
G1 X122.641 Y111.711 E.03224
G1 X121.894 Y111.003 E.03227
G1 X121.403 Y110.099 E.03226
G1 X121.217 Y109.104 E.03174
G1 X121.214 Y108.911 E.00605
G1 X121.348 Y108.069 E.02673
G1 X121.789 Y107.141 E.03222
G1 X122.497 Y106.394 E.03227
G1 X123.401 Y105.903 E.03226
G1 X124.411 Y105.714 E.03222
G1 X125.431 Y105.848 E.03226
G1 X126.359 Y106.289 E.03222
G1 X127.106 Y106.997 E.03227
G1 X127.597 Y107.901 E.03226
G1 X127.785 Y108.912 E.03224
G1 X127.709 Y109.572 E.02083
G1 X127.597 Y110.099 E.01689
G1 X127.211 Y110.859 E.02673
G1 X126.503 Y111.606 E.03227
G1 X125.599 Y112.097 E.03226
G1 X124.588 Y112.285 E.03224
G1 X124.559 Y112.281 E.00092
M204 S1000
G1 X124.559 Y112.281 F10800
G1 X124.499 Y111.908
M204 S800
;TYPE:External perimeter
G1 F1200
G1 X123.628 Y111.78 E.0276
G1 X122.812 Y111.375 E.02856
G1 X122.16 Y110.736 E.02862
G1 X121.739 Y109.928 E.02857
G1 X121.589 Y109.045 E.02808
G1 X121.721 Y108.128 E.02905
G1 X122.125 Y107.312 E.02855
G1 X122.764 Y106.66 E.02862
G1 X123.572 Y106.239 E.02857
G1 X124.47 Y106.087 E.02856
G1 X125.372 Y106.221 E.02859
G1 X126.188 Y106.625 E.02855
G1 X126.84 Y107.264 E.02862
G1 X127.261 Y108.072 E.02857
G1 X127.412 Y108.971 E.02858
G1 X127.261 Y109.928 E.03038
G1 X126.875 Y110.688 E.02673
G1 X126.236 Y111.34 E.02862
G1 X125.428 Y111.761 E.02857
G1 X124.559 Y111.908 E.02763
M204 S1000
;WIPE_START
G1 F8640
G1 X124.499 Y111.908 E-.01385
G1 X123.628 Y111.78 E-.20328
G1 X122.812 Y111.375 E-.21035
G1 X122.16 Y110.736 E-.2108
G1 X121.836 Y110.115 E-.16172
;WIPE_END
G1 Z.6 F720
G1 X141.611 Y96.873 F10800
G1 Z.2 F720
G1 E.8 F2100
M204 S800
;TYPE:Perimeter
G1 F1200
G1 X141.651 Y96.904 E.00159
G1 X141.773 Y97.136 E.00822
G1 X141.79 Y97.276 E.00442
G1 X141.79 Y100.723 E.10808
G1 X141.724 Y100.99 E.00862
G1 X141.564 Y101.176 E.00769
G1 X141.3 Y101.284 E.00894
G1 X141.224 Y101.289 E.00239
G1 X110.776 Y101.289 E.95467
G1 X110.536 Y101.236 E.00771
M73 P2 R17
M73 Q2 S17
G1 X110.342 Y101.087 E.00767
G1 X110.218 Y100.821 E.0092
G1 X110.21 Y97.276 E.11115
G1 X110.248 Y97.07 E.00657
G1 X110.414 Y96.84 E.00889
G1 X110.681 Y96.718 E.0092
G1 X110.776 Y96.71 E.00299
G1 X141.224 Y96.71 E.95467
G1 X141.472 Y96.767 E.00798
G1 X141.563 Y96.837 E.0036
M204 S1000
G1 X141.563 Y96.837 F10800
G1 X141.326 Y97.133
M204 S800
;TYPE:External perimeter
G1 F1200
G1 X141.367 Y97.152 E.00142
G1 X141.413 Y97.276 E.00415
G1 X141.413 Y100.723 E.10808
G1 X141.367 Y100.847 E.00415
G1 X141.224 Y100.912 E.00493
G1 X110.776 Y100.912 E.95467
G1 X110.631 Y100.845 E.00501
G1 X110.587 Y100.723 E.00407
G1 X110.587 Y97.276 E.10808
G1 X110.655 Y97.131 E.00502
G1 X110.776 Y97.087 E.00404
G1 X141.224 Y97.087 E.95467
G1 X141.272 Y97.109 E.00166
M204 S1000
;WIPE_START
G1 F8640
G1 X141.326 Y97.133 E-.01364
G1 X141.367 Y97.152 E-.01043
G1 X141.413 Y97.276 E-.03054
G1 X141.413 Y100.505 E-.74539
;WIPE_END
G1 Z.6 F720
G1 X147.213 Y126.713 F10800
G1 Z.2 F720
G1 E.8 F2100
M204 S800
;TYPE:Perimeter
G1 F1200
G1 X102.787 Y126.713 E1.39294
G1 X102.787 Y83.287 E1.36159
G1 X147.213 Y83.287 E1.39294
M73 P3 R17
M73 Q3 S17
G1 X147.213 Y89.999 E.21045
M73 P3 R16
M73 Q3 S16
G1 X147.213 Y126.653 E1.14926
M204 S1000
G1 X147.59 Y127.09 F10800
M204 S800
;TYPE:External perimeter
G1 F1200
G1 X102.41 Y127.09 E1.41658
G1 X102.41 Y82.91 E1.38523
G1 X147.59 Y82.91 E1.41658
G1 X147.59 Y89.999 E.22227
M73 P4 R16
M73 Q4 S16
G1 X147.59 Y127.03 E1.16108
M204 S1000
;WIPE_START
G1 F8640
G1 X147.59 Y127.09 E-.01385
G1 X144.185 Y127.09 E-.78615
;WIPE_END
G1 Z.6 F720
G1 X147.043 Y84.222 F10800
G1 Z.2 F720
G1 E.8 F2100
M204 S800
;TYPE:Solid infill
;WIDTH:0.42141
G1 F1200
G1 X146.448 Y83.626 E.0265
G1 X145.912 Y83.626 E.01687
G1 X146.874 Y84.588 E.04282
G1 X146.874 Y85.123 E.01684
G1 X145.377 Y83.626 E.06663
G1 X144.842 Y83.626 E.01684
G1 X146.874 Y85.658 E.09044
G1 X146.874 Y86.193 E.01684
G1 X144.307 Y83.626 E.11425
G1 X143.771 Y83.626 E.01687
G1 X146.874 Y86.729 E.13811
G1 X146.874 Y87.264 E.01684
G1 X143.236 Y83.626 E.16192
G1 X142.701 Y83.626 E.01684
G1 X146.874 Y87.799 E.18573
G1 X146.874 Y88.334 E.01684
G1 X142.166 Y83.626 E.20954
G1 X141.63 Y83.626 E.01687
G1 X146.874 Y88.87 E.2334
G1 X146.874 Y89.405 E.01684
G1 X141.095 Y83.626 E.25721
G1 X140.56 Y83.626 E.01684
G1 X146.874 Y89.94 E.28102
G1 X146.874 Y90.476 E.01687
G1 X140.024 Y83.626 E.30488
G1 X139.489 Y83.626 E.01684
G1 X146.874 Y91.011 E.32869
G1 X146.874 Y91.546 E.01684
G1 X138.954 Y83.626 E.3525
G1 X138.419 Y83.626 E.01684
G1 X146.874 Y92.081 E.37631
G1 X146.874 Y92.617 E.01687
G1 X137.883 Y83.626 E.40017
G1 X137.348 Y83.626 E.01684
M73 P5 R16
M73 Q5 S16
G1 X146.874 Y93.152 E.42398
G1 X146.874 Y93.687 E.01684
G1 X136.813 Y83.626 E.44779
G1 X136.278 Y83.626 E.01684
G1 X146.874 Y94.222 E.4716
G1 X146.874 Y94.758 E.01687
G1 X135.742 Y83.626 E.49546
G1 X135.207 Y83.626 E.01684
G1 X146.874 Y95.293 E.51927
G1 X146.874 Y95.828 E.01684
G1 X134.672 Y83.626 E.54308
G1 X134.137 Y83.626 E.01684
G1 X146.874 Y96.363 E.56689
G1 X146.874 Y96.899 E.01687
G1 X133.601 Y83.626 E.59075
G1 X133.066 Y83.626 E.01684
G1 X146.874 Y97.434 E.61456
G1 X146.874 Y97.969 E.01684
G1 X132.531 Y83.626 E.63837
G1 X131.995 Y83.626 E.01687
G1 X146.874 Y98.505 E.66223
G1 X146.874 Y99.04 E.01684
G1 X131.46 Y83.626 E.68604
G1 X130.925 Y83.626 E.01684
M73 P6 R16
M73 Q6 S16
G1 X146.874 Y99.575 E.70985
G1 X146.874 Y100.11 E.01684
G1 X130.39 Y83.626 E.73366
G1 X129.854 Y83.626 E.01687
G1 X146.874 Y100.646 E.75752
G1 X146.874 Y101.181 E.01684
G1 X129.319 Y83.626 E.78133
G1 X128.784 Y83.626 E.01684
G1 X146.874 Y101.716 E.80514
G1 X146.874 Y102.251 E.01684
G1 X142.129 Y97.507 E.21117
G1 X142.127 Y98.04 E.01677
G1 X146.874 Y102.787 E.21128
G1 X146.874 Y103.322 E.01684
G1 X142.125 Y98.574 E.21134
G1 X142.124 Y99.107 E.01677
G1 X146.874 Y103.857 E.21141
G1 X146.874 Y104.392 E.01684
G1 X142.122 Y99.641 E.21148
G1 X142.12 Y100.174 E.01677
G1 X146.874 Y104.928 E.21159
G1 X146.874 Y105.463 E.01684
G1 X142.119 Y100.708 E.21163
G1 X142.118 Y100.879 E.00538
G1 X142.024 Y101.149 E.009
G1 X146.874 Y105.998 E.21584
G1 X146.874 Y106.534 E.01687
G1 X141.778 Y101.438 E.22681
G1 X141.481 Y101.593 E.01054
M73 Q7 S16
G1 X141.408 Y101.604 E.00232
G1 X146.874 Y107.069 E.24326
G1 X146.874 Y107.604 E.01684
M73 P7 R16
G1 X140.898 Y101.628 E.26598
G1 X140.363 Y101.628 E.01684
G1 X146.874 Y108.139 E.28979
G1 X146.874 Y108.675 E.01687
G1 X139.827 Y101.628 E.31364
G1 X139.292 Y101.628 E.01684
G1 X146.874 Y109.21 E.33746
G1 X146.874 Y109.745 E.01684
G1 X138.757 Y101.628 E.36127
G1 X138.221 Y101.628 E.01687
G1 X146.874 Y110.28 E.3851
G1 X146.874 Y110.816 E.01687
G1 X137.686 Y101.628 E.40894
G1 X137.151 Y101.628 E.01684
G1 X146.874 Y111.351 E.43275
G1 X146.874 Y111.886 E.01684
G1 X136.615 Y101.628 E.45658
G1 X136.08 Y101.628 E.01684
G1 X146.874 Y112.421 E.48039
G1 X146.874 Y112.957 E.01687
G1 X135.545 Y101.628 E.50423
G1 X135.009 Y101.628 E.01687
G1 X146.874 Y113.492 E.52806
G1 X146.874 Y114.027 E.01684
G1 X134.474 Y101.628 E.55187
G1 X133.939 Y101.628 E.01684
G1 X146.874 Y114.562 E.57568
G1 X146.874 Y115.098 E.01687
G1 X133.403 Y101.628 E.59954
G1 X132.868 Y101.628 E.01684
M73 P8 R16
M73 Q8 S16
G1 X146.874 Y115.633 E.62335
G1 X146.874 Y116.168 E.01684
G1 X132.333 Y101.627 E.64718
G1 X131.797 Y101.627 E.01687
G1 X146.874 Y116.704 E.67104
G1 X146.874 Y117.239 E.01684
G1 X131.262 Y101.627 E.69485
G1 X130.727 Y101.627 E.01684
G1 X146.874 Y117.774 E.71866
G1 X146.874 Y118.309 E.01684
G1 X130.191 Y101.627 E.7425
G1 X129.656 Y101.627 E.01684
G1 X146.874 Y118.845 E.76633
G1 X146.874 Y119.38 E.01684
G1 X129.121 Y101.627 E.79014
G1 X128.585 Y101.627 E.01687
M73 P8 R15
G1 X146.874 Y119.915 E.81398
G1 X146.874 Y120.45 E.01684
M73 P9 R15
M73 Q9 S15
G1 X128.05 Y101.627 E.83779
G1 X127.515 Y101.627 E.01684
G1 X146.874 Y120.986 E.86162
G1 X146.874 Y121.521 E.01684
G1 X126.979 Y101.627 E.88545
G1 X126.444 Y101.627 E.01684
G1 X146.874 Y122.056 E.90927
G1 X146.874 Y122.591 E.01684
G1 X125.909 Y101.627 E.93308
G1 X125.373 Y101.627 E.01687
G1 X146.874 Y123.127 E.95693
G1 X146.874 Y123.662 E.01684
G1 X124.838 Y101.627 E.98075
G1 X124.303 Y101.627 E.01684
M73 P10 R15
M73 Q10 S15
G1 X146.874 Y124.197 E1.00456
G1 X146.874 Y124.733 E.01687
G1 X123.768 Y101.627 E1.02839
G1 X123.232 Y101.626 E.01687
G1 X146.874 Y125.268 E1.05225
G1 X146.874 Y125.803 E.01684
G1 X122.697 Y101.626 E1.07606
G1 X122.162 Y101.626 E.01684
G1 X146.874 Y126.338 E1.09987
G1 X146.874 Y126.374 E.00113
G1 X146.374 Y126.374 E.01574
G1 X127.976 Y107.976 E.81885
G1 X128.078 Y108.613 E.0203
M73 Q11 S15
G1 X145.838 Y126.374 E.79048
G1 X145.303 Y126.374 E.01684
M73 P11 R15
G1 X128.113 Y109.184 E.76508
G1 X128.036 Y109.642 E.01462
G1 X144.768 Y126.374 E.7447
G1 X144.232 Y126.374 E.01687
G1 X127.959 Y110.1 E.72429
G1 X127.786 Y110.463 E.01266
G1 X143.697 Y126.374 E.70816
G1 X143.162 Y126.374 E.01684
G1 X127.608 Y110.82 E.69227
G1 X127.495 Y111.047 E.00798
G1 X127.412 Y111.158 E.00436
G1 X142.627 Y126.374 E.6772
G1 X142.091 Y126.374 E.01687
G1 X127.152 Y111.434 E.66492
G1 X126.882 Y111.699 E.01191
G1 X141.556 Y126.374 E.65313
G1 X141.021 Y126.374 E.01684
M73 Q12 S15
G1 X126.604 Y111.956 E.64169
G1 X126.252 Y112.14 E.0125
M73 P12 R15
G1 X140.486 Y126.374 E.63352
G1 X139.95 Y126.374 E.01687
G1 X125.9 Y112.323 E.62535
G1 X125.743 Y112.405 E.00557
G1 X125.521 Y112.479 E.00736
G1 X139.415 Y126.374 E.61841
G1 X138.88 Y126.374 E.01684
G1 X125.057 Y112.55 E.61525
G1 X124.59 Y112.619 E.01486
G1 X138.345 Y126.374 E.6122
G1 X137.809 Y126.374 E.01687
G1 X123.792 Y112.356 E.62388
M204 S1000
;WIPE_START
G1 F8640
G1 X126.242 Y114.806 E-.8
;WIPE_END
G1 Z.6 F720
G1 X125.83 Y105.83 F10800
G1 Z.2 F720
G1 E.8 F2100
M204 S800
G1 F1200
G1 X121.626 Y101.626 E.18711
G1 X121.091 Y101.626 E.01684
G1 X124.882 Y105.417 E.16873
G1 X124.63 Y105.377 E.00803
G1 X124.315 Y105.386 E.00992
G1 X120.556 Y101.626 E.16733
G1 X120.02 Y101.626 E.01687
G1 X123.853 Y105.459 E.1706
G1 X123.405 Y105.546 E.01436
G1 X119.485 Y101.626 E.17447
G1 X118.95 Y101.626 E.01684
G1 X123.033 Y105.709 E.18172
G1 X122.678 Y105.89 E.01254
G1 X118.414 Y101.626 E.18978
G1 X117.879 Y101.626 E.01684
G1 X122.343 Y106.089 E.19866
G1 X122.064 Y106.347 E.01196
G1 X117.344 Y101.626 E.2101
G1 X116.808 Y101.626 E.01687
M73 P13 R15
M73 Q13 S15
G1 X121.797 Y106.614 E.22203
G1 X121.645 Y106.766 E.00677
G1 X121.548 Y106.9 E.00521
G1 X116.273 Y101.626 E.23475
G1 X115.738 Y101.626 E.01684
G1 X121.358 Y107.246 E.25013
G1 X121.181 Y107.604 E.01257
G1 X115.202 Y101.626 E.26609
G1 X114.667 Y101.625 E.01684
G1 X121.026 Y107.984 E.28302
G1 X120.949 Y108.442 E.01462
G1 X114.132 Y101.625 E.30341
G1 X113.596 Y101.625 E.01687
G1 X120.876 Y108.905 E.32401
G1 X120.869 Y109.056 E.00476
G1 X120.938 Y109.502 E.0142
G1 X113.061 Y101.625 E.35059
G1 X112.526 Y101.625 E.01684
G1 X121.071 Y110.171 E.38034
G1 X121.563 Y111.139 E.03417
G1 X122.265 Y111.854 E.03153
G1 X122.477 Y112.008 E.00825
G1 X123.342 Y112.441 E.03044
G1 X137.274 Y126.374 E.6201
G1 X136.739 Y126.374 E.01684
G1 X111.99 Y101.625 E1.10152
G1 X111.455 Y101.625 E.01684
G1 X136.373 Y126.543 E1.10904
M204 S1000
;WIPE_START
G1 F8640
G1 X133.923 Y124.093 E-.8
;WIPE_END
G1 Z.6 F720
G1 X141.169 Y96.547 F10800
G1 Z.2 F720
G1 E.8 F2100
M204 S800
G1 F1200
G1 X128.249 Y83.626 E.57506
G1 X127.713 Y83.626 E.01687
M73 P14 R15
M73 Q14 S15
G1 X140.464 Y96.377 E.56752
G1 X139.929 Y96.377 E.01684
G1 X127.178 Y83.626 E.56752
G1 X126.643 Y83.626 E.01684
G1 X139.393 Y96.377 E.56749
G1 X138.858 Y96.377 E.01684
G1 X126.108 Y83.626 E.56749
G1 X125.572 Y83.626 E.01687
G1 X138.322 Y96.377 E.56749
G1 X137.787 Y96.376 E.01684
G1 X125.037 Y83.626 E.56747
G1 X124.502 Y83.626 E.01684
M73 P14 R14
G1 X137.252 Y96.376 E.56747
G1 X136.716 Y96.376 E.01687
G1 X123.967 Y83.626 E.56745
G1 X123.431 Y83.626 E.01687
M73 Q14 S14
G1 X136.181 Y96.376 E.56747
G1 X135.646 Y96.376 E.01684
G1 X122.896 Y83.626 E.56747
G1 X122.361 Y83.626 E.01684
G1 X135.11 Y96.376 E.56745
G1 X134.575 Y96.376 E.01684
M73 P15 R14
M73 Q15 S14
G1 X121.825 Y83.626 E.56747
G1 X121.29 Y83.626 E.01684
G1 X134.039 Y96.376 E.56745
G1 X133.504 Y96.376 E.01684
G1 X120.755 Y83.626 E.56745
G1 X120.22 Y83.626 E.01684
G1 X132.969 Y96.375 E.56743
G1 X132.433 Y96.375 E.01687
G1 X119.684 Y83.626 E.56743
G1 X119.149 Y83.626 E.01684
G1 X131.898 Y96.375 E.56743
G1 X131.362 Y96.375 E.01687
G1 X118.614 Y83.626 E.5674
G1 X118.079 Y83.626 E.01684
G1 X130.827 Y96.375 E.5674
G1 X130.292 Y96.375 E.01684
G1 X117.543 Y83.626 E.56743
G1 X117.008 Y83.626 E.01684
G1 X129.756 Y96.375 E.5674
G1 X129.221 Y96.375 E.01684
G1 X116.473 Y83.626 E.5674
G1 X115.938 Y83.626 E.01684
M73 Q16 S14
G1 X128.686 Y96.374 E.56738
M73 P16 R14
G1 X128.15 Y96.374 E.01687
G1 X115.402 Y83.626 E.56738
G1 X114.867 Y83.626 E.01684
G1 X127.615 Y96.374 E.56738
G1 X127.079 Y96.374 E.01687
G1 X114.332 Y83.626 E.56736
G1 X113.796 Y83.626 E.01687
G1 X126.544 Y96.374 E.56738
G1 X126.009 Y96.374 E.01684
G1 X113.261 Y83.626 E.56738
G1 X112.726 Y83.626 E.01684
G1 X125.473 Y96.374 E.56736
G1 X124.938 Y96.374 E.01684
G1 X112.191 Y83.626 E.56736
G1 X111.655 Y83.626 E.01687
G1 X124.402 Y96.374 E.56736
G1 X123.867 Y96.373 E.01684
G1 X111.12 Y83.626 E.56734
G1 X110.585 Y83.626 E.01684
G1 X123.332 Y96.373 E.56734
G1 X122.796 Y96.373 E.01687
M73 Q17 S14
G1 X110.05 Y83.626 E.56732
G1 X109.514 Y83.626 E.01687
M73 P17 R14
G1 X122.261 Y96.373 E.56734
G1 X121.726 Y96.373 E.01684
G1 X108.979 Y83.626 E.56734
G1 X108.444 Y83.626 E.01684
G1 X121.19 Y96.373 E.56732
G1 X120.655 Y96.373 E.01684
G1 X107.909 Y83.626 E.56732
G1 X107.373 Y83.626 E.01687
G1 X120.119 Y96.373 E.56732
