; generated by PrusaSlicer 2.8.0+win64 on 2024-09-25 at 08:24:42 UTC


;
;
; 

; external perimeters extrusion width = 0.60mm
; perimeters extrusion width = 0.50mm
; infill extrusion width = 0.50mm
; solid infill extrusion width = 0.50mm
; top infill extrusion width = 0.45mm
; first layer extrusion width = 0.42mm

M73 P0 R10
M73 Q0 S10
M201 X1000 Y1000 Z200 E5000 ; sets maximum accelerations, mm/sec^2
M203 X200 Y200 Z12 E120 ; sets maximum feedrates, mm / sec
M204 S1250 T1250 ; sets acceleration (S) and retract acceleration (R), mm/sec^2
M205 X8.00 Y8.00 Z0.40 E4.50 ; sets the jerk limits, mm/sec
M205 S0 T0 ; sets the minimum extruding and travel feed rate, mm/sec

; printing object VorhangStoppel.stl id:0 copy 0
; stop printing object VorhangStoppel.stl id:0 copy 0

;TYPE:Custom
M862.3 P "MK3S" ; printer model check
M862.1 P0.4 ; nozzle diameter check
M115 U3.13.3 ; tell printer latest fw version
G90 ; use absolute coordinates
M83 ; extruder relative mode
M104 S215 ; set extruder temp
M140 S60 ; set bed temp
M190 S60 ; wait for bed temp
M109 S215 ; wait for extruder temp
G28 W ; home all without mesh bed level
G80 X109.28 Y89.2797 W31.4405 H31.4406 ; mesh bed levelling

G1 Z0.2 F720
G1 Y-3 F1000 ; go outside print area
G92 E0
G1 X60 E9 F1000 ; intro line
G1 X100 E12.5 F1000 ; intro line

G92 E0
M221 S95

; Don't change E values below. Excessive value can damage the printer.

M907 E538 ; set extruder motor current
G21 ; set units to millimeters
G90 ; use absolute coordinates
M83 ; use relative distances for extrusion

M900 K0.05 ; Filament gcode LA 1.5
M900 K30 ; Filament gcode LA 1.0




M107
;LAYER_CHANGE
;Z:0.2
;HEIGHT:0.2
G1 E-.8 F2100
G1 Z.6 F720
G1 X112.669 Y95.545 F10800
M73 P1 R10
M73 Q1 S10
G1 Z.2 F720
G1 E.8 F2100
M204 S800
;TYPE:Skirt/Brim
;WIDTH:0.42
G1 F1200
G1 X115.545 Y92.669 E.12753
G1 X116.194 Y92.197 E.02516
G1 X119.818 Y90.35 E.12753
G1 X120.582 Y90.102 E.02519
G1 X124.599 Y89.466 E.12752
G1 X125.401 Y89.466 E.02515
G1 X129.418 Y90.102 E.12752
G1 X130.182 Y90.35 E.02519
G1 X133.806 Y92.197 E.12753
G1 X134.455 Y92.669 E.02516
G1 X137.331 Y95.545 E.12753
G1 X137.803 Y96.194 E.02516
G1 X139.65 Y99.818 E.12753
G1 X139.898 Y100.582 E.02519
G1 X140.534 Y104.599 E.12752
G1 X140.534 Y105.401 E.02515
G1 X139.898 Y109.418 E.12752
G1 X139.65 Y110.182 E.02519
G1 X137.803 Y113.806 E.12753
G1 X137.331 Y114.455 E.02516
G1 X134.455 Y117.331 E.12753
G1 X133.806 Y117.803 E.02516
G1 X130.182 Y119.65 E.12753
G1 X129.418 Y119.898 E.02519
G1 X125.401 Y120.534 E.12752
G1 X124.599 Y120.534 E.02515
G1 X120.582 Y119.898 E.12752
G1 X119.818 Y119.65 E.02519
G1 X116.194 Y117.803 E.12753
G1 X115.545 Y117.331 E.02516
G1 X112.669 Y114.455 E.12753
G1 X112.197 Y113.806 E.02516
G1 X110.35 Y110.182 E.12753
G1 X110.102 Y109.418 E.02519
G1 X109.466 Y105.401 E.12752
G1 X109.466 Y104.599 E.02515
G1 X110.102 Y100.582 E.12752
G1 X110.35 Y99.818 E.02519
G1 X112.197 Y96.194 E.12753
G1 X112.634 Y95.593 E.0233
M204 S1000
G1 X112.634 Y95.593 F10800
G1 X112.935 Y95.811
M204 S800
G1 F1200
G1 X115.811 Y92.935 E.12753
G1 X116.365 Y92.533 E.02146
M73 Q2 S10
G1 X119.989 Y90.686 E.12753
G1 X120.641 Y90.474 E.0215
G1 X124.658 Y89.838 E.12752
G1 X125.342 Y89.838 E.02145
M73 P2 R10
G1 X129.359 Y90.474 E.12752
G1 X130.011 Y90.686 E.0215
G1 X133.635 Y92.533 E.12753
G1 X134.188 Y92.935 E.02144
G1 X137.065 Y95.811 E.12755
G1 X137.467 Y96.365 E.02146
G1 X139.314 Y99.989 E.12753
G1 X139.526 Y100.641 E.0215
G1 X140.162 Y104.658 E.12752
G1 X140.162 Y105.342 E.02145
G1 X139.526 Y109.359 E.12752
G1 X139.314 Y110.011 E.0215
G1 X137.467 Y113.635 E.12753
G1 X137.065 Y114.189 E.02146
G1 X134.189 Y117.065 E.12753
G1 X133.635 Y117.467 E.02146
G1 X130.011 Y119.314 E.12753
G1 X129.359 Y119.526 E.0215
G1 X125.342 Y120.162 E.12752
G1 X124.658 Y120.162 E.02145
G1 X120.641 Y119.526 E.12752
G1 X119.989 Y119.314 E.0215
G1 X116.365 Y117.467 E.12753
G1 X115.811 Y117.065 E.02146
G1 X112.935 Y114.189 E.12753
G1 X112.533 Y113.635 E.02146
G1 X110.686 Y110.011 E.12753
G1 X110.474 Y109.359 E.0215
G1 X109.838 Y105.342 E.12752
G1 X109.838 Y104.658 E.02145
G1 X110.474 Y100.641 E.12752
G1 X110.686 Y99.989 E.0215
G1 X112.533 Y96.365 E.12753
G1 X112.9 Y95.86 E.01957
M204 S1000
;WIPE_START
G1 F8640
G1 X112.935 Y95.811 E-.0139
G1 X115.343 Y93.404 E-.7861
;WIPE_END
G1 Z.6 F720
; printing object VorhangStoppel.stl id:0 copy 0
G1 X121.229 Y93.394 F10800
G1 Z.2 F720
G1 E.8 F2100
M204 S800
;TYPE:Perimeter
;WIDTH:0.419999
G1 F1200
G1 X125 Y92.797 E.11971
G1 X128.771 Y93.394 E.11971
G1 X132.173 Y95.128 E.11972
G1 X134.872 Y97.827 E.11968
G1 X136.606 Y101.229 E.11972
G1 X137.203 Y105 E.11971
G1 X136.905 Y106.885 E.05984
G1 X136.606 Y108.771 E.05987
G1 X134.872 Y112.173 E.11972
M73 Q3 S10
G1 X132.173 Y114.872 E.11968
G1 X128.771 Y116.606 E.11972
M73 P3 R10
G1 X125 Y117.203 E.11971
G1 X121.229 Y116.606 E.11971
G1 X117.827 Y114.872 E.11972
G1 X115.128 Y112.173 E.11968
G1 X113.394 Y108.771 E.11972
G1 X112.797 Y105 E.11971
G1 X113.394 Y101.229 E.11971
G1 X115.128 Y97.827 E.11972
G1 X117.827 Y95.128 E.11968
G1 X121.176 Y93.421 E.11786
M204 S1000
G1 X121.176 Y93.421 F10800
G1 X121.111 Y93.031
M204 S800
;TYPE:External perimeter
G1 F1200
G1 X125 Y92.415 E.12346
G1 X128.889 Y93.031 E.12346
G1 X132.397 Y94.819 E.12345
G1 X135.181 Y97.603 E.12345
G1 X136.969 Y101.111 E.12345
G1 X137.585 Y105 E.12346
G1 X137.277 Y106.943 E.06168
G1 X136.969 Y108.889 E.06177
G1 X135.181 Y112.397 E.12345
G1 X132.397 Y115.181 E.12345
G1 X128.889 Y116.969 E.12345
G1 X125 Y117.585 E.12346
G1 X121.111 Y116.969 E.12346
G1 X117.603 Y115.181 E.12345
G1 X114.819 Y112.397 E.12345
G1 X113.031 Y108.889 E.12345
G1 X112.415 Y105 E.12346
G1 X113.031 Y101.111 E.12346
G1 X114.819 Y97.603 E.12345
G1 X117.603 Y94.819 E.12345
G1 X121.058 Y93.058 E.12159
M204 S1000
;WIPE_START
G1 F8640
M73 Q4 S10
G1 X121.111 Y93.031 E-.01373
G1 X124.474 Y92.498 E-.78627
;WIPE_END
G1 Z.6 F720
G1 X134.983 Y98.419 F10800
M73 P4 R10
G1 Z.2 F720
G1 E.8 F2100
M204 S800
;TYPE:Solid infill
;WIDTH:0.420752
G1 F1200
G1 X131.969 Y95.405 E.13391
G1 X130.88 Y94.85 E.0384
G1 X135.15 Y99.12 E.18972
G1 X135.706 Y100.21 E.03844
G1 X129.79 Y94.294 E.26285
G1 X128.7 Y93.739 E.03843
G1 X136.261 Y101.3 E.33594
G1 X136.377 Y101.95 E.02074
G1 X128.05 Y93.623 E.36997
G1 X127.416 Y93.523 E.02016
G1 X136.477 Y102.584 E.40258
G1 X136.578 Y103.219 E.0202
G1 X126.781 Y93.422 E.43528
G1 X126.146 Y93.322 E.0202
G1 X136.678 Y103.854 E.46794
G1 X136.779 Y104.489 E.0202
M73 P4 R9
G1 X125.511 Y93.221 E.50064
G1 X125 Y93.14 E.01625
G1 X124.91 Y93.155 E.00287
G1 X136.845 Y105.09 E.53027
G1 X136.772 Y105.551 E.01466
M73 P5 R9
M73 Q5 S9
G1 X124.449 Y93.228 E.54751
G1 X123.987 Y93.301 E.01469
G1 X136.699 Y106.013 E.5648
G1 X136.626 Y106.474 E.01466
G1 X123.526 Y93.374 E.58203
G1 X123.065 Y93.447 E.01466
G1 X136.553 Y106.935 E.59927
G1 X136.48 Y107.396 E.01466
G1 X122.604 Y93.52 E.61651
G1 X122.142 Y93.593 E.01469
G1 X136.407 Y107.858 E.6338
G1 X136.334 Y108.319 E.01466
M73 Q6 S9
G1 X121.681 Y93.666 E.65103
G1 X121.335 Y93.721 E.01101
M73 P6 R9
G1 X121.247 Y93.766 E.00311
G1 X136.234 Y108.753 E.66587
G1 X136.054 Y109.107 E.01248
G1 X120.893 Y93.946 E.67361
G1 X120.539 Y94.127 E.01249
G1 X135.873 Y109.461 E.68129
G1 X135.693 Y109.815 E.01248
G1 X120.185 Y94.307 E.68902
G1 X119.831 Y94.488 E.01249
G1 X135.512 Y110.169 E.69671
G1 X135.332 Y110.523 E.01248
M73 P7 R9
M73 Q7 S9
G1 X119.477 Y94.668 E.70444
G1 X119.123 Y94.848 E.01248
G1 X135.152 Y110.877 E.71217
G1 X134.971 Y111.231 E.01249
G1 X118.769 Y95.029 E.71986
G1 X118.415 Y95.209 E.01248
G1 X134.791 Y111.585 E.72759
G1 X134.611 Y111.939 E.01248
G1 X118.061 Y95.389 E.73532
G1 X118.029 Y95.406 E.00114
M73 Q8 S9
G1 X117.786 Y95.649 E.0108
G1 X134.351 Y112.214 E.73599
G1 X134.084 Y112.481 E.01186
M73 P8 R9
G1 X117.519 Y95.916 E.73599
G1 X117.252 Y96.183 E.01186
G1 X133.817 Y112.748 E.73599
G1 X133.55 Y113.015 E.01186
G1 X116.985 Y96.45 E.73599
G1 X116.718 Y96.718 E.01189
G1 X133.282 Y113.282 E.73594
G1 X133.015 Y113.55 E.01189
G1 X116.45 Y96.985 E.73599
G1 X116.183 Y97.252 E.01186
M73 P9 R9
M73 Q9 S9
G1 X132.748 Y113.817 E.73599
G1 X132.481 Y114.084 E.01186
G1 X115.916 Y97.519 E.73599
G1 X115.649 Y97.786 E.01186
G1 X132.214 Y114.351 E.73599
G1 X131.939 Y114.611 E.01189
G1 X115.389 Y98.061 E.73532
G1 X115.209 Y98.415 E.01248
G1 X131.585 Y114.791 E.72759
G1 X131.231 Y114.971 E.01248
M73 P10 R9
M73 Q10 S9
G1 X115.029 Y98.769 E.71986
G1 X114.848 Y99.123 E.01249
G1 X130.877 Y115.152 E.71217
G1 X130.523 Y115.332 E.01248
G1 X114.668 Y99.477 E.70444
G1 X114.487 Y99.831 E.01249
G1 X130.169 Y115.513 E.69675
G1 X129.815 Y115.693 E.01248
G1 X114.307 Y100.185 E.68902
G1 X114.127 Y100.539 E.01248
M73 Q11 S9
G1 X129.461 Y115.873 E.68129
G1 X129.107 Y116.054 E.01249
M73 P11 R9
G1 X113.946 Y100.893 E.67361
G1 X113.766 Y101.247 E.01248
G1 X128.753 Y116.234 E.66587
G1 X128.665 Y116.279 E.00311
G1 X128.319 Y116.334 E.01101
G1 X113.666 Y101.681 E.65103
G1 X113.593 Y102.142 E.01466
G1 X127.858 Y116.407 E.6338
G1 X127.396 Y116.48 E.01469
G1 X113.52 Y102.604 E.61651
G1 X113.447 Y103.065 E.01466
M73 P12 R9
M73 Q12 S9
G1 X126.935 Y116.553 E.59927
G1 X126.474 Y116.626 E.01466
G1 X113.374 Y103.526 E.58203
G1 X113.301 Y103.988 E.01469
G1 X126.012 Y116.699 E.56475
G1 X125.551 Y116.772 E.01466
G1 X113.228 Y104.449 E.54751
G1 X113.155 Y104.91 E.01466
G1 X125.09 Y116.845 E.53027
G1 X125 Y116.86 E.00287
G1 X124.489 Y116.779 E.01625
G1 X113.221 Y105.511 E.50064
G1 X113.322 Y106.146 E.0202
G1 X123.854 Y116.678 E.46794
G1 X123.219 Y116.578 E.0202
M73 P13 R9
M73 Q13 S9
G1 X113.422 Y106.781 E.43528
G1 X113.523 Y107.416 E.0202
G1 X122.584 Y116.477 E.40258
G1 X121.949 Y116.377 E.0202
G1 X113.623 Y108.051 E.36993
G1 X113.739 Y108.7 E.02071
G1 X121.3 Y116.261 E.33594
G1 X120.21 Y115.706 E.03843
G1 X114.294 Y109.79 E.26285
G1 X114.85 Y110.88 E.03844
G1 X119.12 Y115.15 E.18972
G1 X118.031 Y114.595 E.0384
G1 X115.017 Y111.581 E.13391
M204 S1000
M106 S84.15
;LAYER_CHANGE
;Z:0.5
;HEIGHT:0.3
;BEFORE_LAYER_CHANGE
G92 E0.0
;0.5


;WIPE_START
G1 F8640
G1 X117.466 Y114.031 E-.8
;WIPE_END
G1 Z.5 F720
;AFTER_LAYER_CHANGE
;0.5
M104 S210 ; set temperature
; stop printing object VorhangStoppel.stl id:0 copy 0
G1 Z.9
G1 X114.855 Y116.642 F10800
G1 Z.5 F720
G1 E.8 F2100
;TYPE:Skirt/Brim
;WIDTH:0.42
G1 F2700
G1 X112.669 Y114.455 E.13715
G1 X112.197 Y113.806 E.03559
G1 X110.35 Y110.182 E.18041
G1 X110.102 Y109.418 E.03563
G1 X109.466 Y105.401 E.18039
G1 X109.466 Y104.599 E.03557
G1 X110.102 Y100.582 E.18039
G1 X110.35 Y99.818 E.03563
G1 X112.197 Y96.194 E.18041
G1 X112.669 Y95.545 E.03559
G1 X115.545 Y92.669 E.1804
G1 X116.194 Y92.197 E.03559
G1 X119.818 Y90.35 E.18041
G1 X120.582 Y90.102 E.03563
G1 X124.599 Y89.466 E.18039
G1 X125.401 Y89.466 E.03557
G1 X129.418 Y90.102 E.18039
G1 X130.182 Y90.35 E.03563
G1 X133.806 Y92.197 E.18041
G1 X134.455 Y92.669 E.03559
G1 X137.331 Y95.545 E.1804
G1 X137.803 Y96.194 E.03559
G1 X139.65 Y99.818 E.18041
G1 X139.898 Y100.582 E.03563
G1 X140.534 Y104.599 E.18039
G1 X140.534 Y105.401 E.03557
G1 X139.898 Y109.418 E.18039
G1 X139.65 Y110.182 E.03563
G1 X137.803 Y113.806 E.18041
G1 X137.331 Y114.455 E.03559
G1 X134.455 Y117.331 E.1804
G1 X133.806 Y117.803 E.03559
G1 X130.182 Y119.65 E.18041
G1 X129.418 Y119.898 E.03563
G1 X125.401 Y120.534 E.18039
G1 X124.599 Y120.534 E.03557
M73 Q14 S9
G1 X120.582 Y119.898 E.18039
G1 X119.818 Y119.65 E.03563
M73 P14 R9
G1 X116.194 Y117.803 E.18041
G1 X115.545 Y117.331 E.03559
G1 X114.898 Y116.684 E.04058
G1 X114.898 Y116.684 F10800
G1 X115.164 Y116.417
G1 F2700
G1 X112.935 Y114.189 E.13979
G1 X112.533 Y113.635 E.03036
G1 X110.686 Y110.011 E.18041
G1 X110.474 Y109.359 E.03041
G1 X109.838 Y105.342 E.18039
G1 X109.838 Y104.658 E.03034
G1 X110.474 Y100.641 E.18039
G1 X110.686 Y99.989 E.03041
G1 X112.533 Y96.365 E.18041
G1 X112.935 Y95.811 E.03036
G1 X115.811 Y92.935 E.1804
G1 X116.365 Y92.533 E.03036
G1 X119.989 Y90.686 E.18041
G1 X120.641 Y90.474 E.03041
G1 X124.658 Y89.838 E.18039
G1 X125.342 Y89.838 E.03034
G1 X129.359 Y90.474 E.18039
G1 X130.011 Y90.686 E.03041
G1 X133.635 Y92.533 E.18041
G1 X134.188 Y92.935 E.03032
G1 X137.065 Y95.811 E.18043
G1 X137.467 Y96.365 E.03036
G1 X139.314 Y99.989 E.18041
G1 X139.526 Y100.641 E.03041
G1 X140.162 Y104.658 E.18039
G1 X140.162 Y105.342 E.03034
G1 X139.526 Y109.359 E.18039
G1 X139.314 Y110.011 E.03041
G1 X137.467 Y113.635 E.18041
G1 X137.065 Y114.189 E.03036
G1 X134.189 Y117.065 E.1804
G1 X133.635 Y117.467 E.03036
G1 X130.011 Y119.314 E.18041
G1 X129.359 Y119.526 E.03041
M73 P14 R8
G1 X125.342 Y120.162 E.18039
G1 X124.658 Y120.162 E.03034
G1 X120.641 Y119.526 E.18039
G1 X119.989 Y119.314 E.03041
G1 X116.365 Y117.467 E.18041
G1 X115.811 Y117.065 E.03036
G1 X115.207 Y116.46 E.03792
;WIPE_START
G1 F8640
G1 X115.164 Y116.417 E-.01404
G1 X112.935 Y114.189 E-.72771
G1 X112.787 Y113.985 E-.05825
;WIPE_END
G1 Z.9 F720
; printing object VorhangStoppel.stl id:0 copy 0
G1 X121.229 Y93.392 F10800
G1 Z.5 F720
G1 E.8 F2100
M204 S800
;TYPE:Perimeter
;WIDTH:0.5
G1 F3000
G1 X125 Y92.795 E.20744
G1 X128.771 Y93.392 E.20744
G1 X132.173 Y95.126 E.20747
M73 Q14 S8
G1 X134.874 Y97.827 E.20754
G1 X136.608 Y101.229 E.20747
G1 X137.205 Y105 E.20744
G1 X136.906 Y106.885 E.1037
G1 X136.608 Y108.771 E.10374
G1 X134.874 Y112.173 E.20747
G1 X132.173 Y114.874 E.20754
G1 X128.771 Y116.608 E.20747
G1 X125 Y117.205 E.20744
G1 X121.229 Y116.608 E.20744
G1 X117.827 Y114.874 E.20747
G1 X115.126 Y112.173 E.20754
G1 X113.392 Y108.771 E.20747
G1 X112.795 Y105 E.20744
G1 X113.392 Y101.229 E.20744
G1 X115.126 Y97.827 E.20747
G1 X117.827 Y95.126 E.20754
G1 X121.175 Y93.42 E.20416
M204 S1000
G1 X121.175 Y93.42 F10800
G1 X121.077 Y92.925
M204 S800
;TYPE:External perimeter
;WIDTH:0.6
G1 F2099.995
G1 X125 Y92.304 E.26534
G1 X128.923 Y92.925 E.26534
G1 X132.462 Y94.729 E.26537
G1 X135.271 Y97.538 E.26539
G1 X137.075 Y101.077 E.26537
G1 X137.696 Y105 E.26534
G1 X137.386 Y106.961 E.13263
G1 X137.075 Y108.923 E.13271
G1 X135.271 Y112.462 E.26537
G1 X132.462 Y115.271 E.26539
G1 X128.923 Y117.075 E.26537
G1 X125 Y117.696 E.26534
G1 X121.077 Y117.075 E.26534
G1 X117.538 Y115.271 E.26537
G1 X114.729 Y112.462 E.26539
M73 Q15 S8
G1 X112.925 Y108.923 E.26537
G1 X112.304 Y105 E.26534
M73 P15 R8
G1 X112.925 Y101.077 E.26534
G1 X114.729 Y97.538 E.26537
G1 X117.538 Y94.729 E.26539
G1 X121.023 Y92.952 E.26134
M204 S1000
;WIPE_START
G1 F8640
G1 X121.077 Y92.925 E-.01394
G1 X124.439 Y92.393 E-.78606
;WIPE_END
G1 Z.9 F720
G1 X117.995 Y95.358 F10800
G1 Z.5 F720
G1 E.8 F2100
;TYPE:Solid infill
;WIDTH:0.404381
G1 F4800
G1 X115.36 Y97.994 E.15806
;WIPE_START
G1 F8640
G1 X117.809 Y95.544 E-.8
;WIPE_END
G1 Z.9 F720
G1 X114.934 Y99.026 F10800
G1 Z.5 F720
G1 E.8 F2100
G1 F4800
G1 X114.893 Y99.037 E.0018
G1 X114.874 Y98.966 E.00312
G1 X114.945 Y98.985 E.00312
;WIDTH:0.45219
G1 X115.036 Y98.837 E.0084
;WIDTH:0.5
G1 X115.127 Y98.688 E.00949
G1 X118.688 Y95.127 E.27362
G1 X118.857 Y95.031 E.01056
;WIDTH:0.45219
G1 X119.026 Y94.934 E.00943
;WIDTH:0.404381
G1 X118.985 Y94.945 E.0018
G1 X118.966 Y94.874 E.00312
G1 X119.037 Y94.893 E.00312
G1 X119.037 Y94.893 F10800
G1 X119.944 Y94.487
;WIDTH:0.5
G1 F4800
G1 X114.487 Y99.944 E.41931
G1 X114.39 Y100.114 E.01063
;WIDTH:0.45219
G1 X114.293 Y100.283 E.00943
;WIDTH:0.404381
G1 X114.252 Y100.294 E.0018
G1 X114.233 Y100.222 E.00316
G1 X114.304 Y100.241 E.00312
;WIPE_START
G1 F8640
G1 X114.233 Y100.222 E-.01697
G1 X114.252 Y100.294 E-.01719
G1 X114.293 Y100.283 E-.0098
G1 X114.39 Y100.114 E-.04499
G1 X114.487 Y99.944 E-.04519
G1 X116.526 Y97.905 E-.66586
;WIPE_END
G1 Z.9 F720
G1 X113.501 Y101.978 F10800
G1 Z.5 F720
G1 E.8 F2100
G1 F4800
G1 X113.616 Y101.377 E.02595
;WIDTH:0.45219
G1 X113.731 Y101.289 E.007
;WIDTH:0.5
G1 X113.847 Y101.201 E.00791
G1 X121.201 Y93.847 E.56507
G1 X121.377 Y93.616 E.01578
;WIDTH:0.404381
G1 X121.978 Y93.501 E.02595
;WIDTH:0.45219
G1 X121.987 Y93.585 E.00409
;WIDTH:0.5
G1 X121.996 Y93.668 E.00454
G1 X113.668 Y101.996 E.63991
G1 X113.552 Y102.728 E.04027
G1 X122.728 Y93.552 E.70507
G1 X123.46 Y93.436 E.04027
G1 X113.436 Y103.46 E.77023
G1 X113.32 Y104.192 E.04027
G1 X124.192 Y93.32 E.83538
