; generated by PrusaSlicer 2.6.0+win64 on 2023-09-12 at 11:42:58 UTC


;
;

;
;

;
;
; 

; external perimeters extrusion width = 0.50mm
; perimeters extrusion width = 0.50mm
; infill extrusion width = 0.50mm
; solid infill extrusion width = 0.50mm
; top infill extrusion width = 0.45mm
; first layer extrusion width = 0.50mm

M73 P0 R46
M201 X2500 Y2500 Z200 E2500 ; sets maximum accelerations, mm/sec^2
M203 X200 Y200 Z40 E100 ; sets maximum feedrates, mm / sec
M204 P2000 R1200 T2000 ; sets acceleration (P, T) and retract acceleration (R), mm/sec^2
M205 X8.00 Y8.00 Z2.00 E10.00 ; sets the jerk limits, mm/sec
M205 S0 T0 ; sets the minimum extruding and travel feed rate, mm/sec
;TYPE:Custom
M17 ; enable steppers
M862.3 P "MK4" ; printer model check
M862.1 P0.4 ; nozzle diameter check
M330 SYSLOG
M331 loadcell_raw
M331 loadcell_threshold
M331 loadcell_hysteresis
M331 loadcell_scale
M331 probe_z
M331 probe_z_raw
M331 probe_z_diff
M331 home_diff
M331 fsensor_raw
M331 temp_hbr
M331 temp_bed
M331 temp_noz
M331 temp_brd
M331 ttemp_bed
M331 ttemp_noz
M331 pos_z
M331 fan_speed
M331 fan_hbr_speed
M331 tmc_sg_x
M331 tmc_sg_y
M331 tmc_sg_z
M331 tmc_sg_e

M555 X79.5 Y55.7493 W91 H94.5014

G90 ; use absolute coordinates
M92 E380 ; set steps/mm for extruder
M83 ; extruder relative mode

M140 S60 ; set bed temp

M104 S170 ; set extruder temp for bed leveling
M109 R170 ; wait for temp


M84 E ; turn off E motor

G28 ; home all without mesh bed level

; probe to clean the nozzle
G1 X111.5 Y55.7493 Z5 F4800

M302 S160 ; lower cold extrusion limit to 160C


G1 E-2 F2400 ; retraction


M84 E ; turn off E motor

G29 P9 X79.5 Y55.7493 W32 H4

M106 S100

G0 X79.5 Y55.7493 Z40 F10000

M190 S60 ; wait for bed temp

M107

;
; MBL
;
M84 E ; turn off E motor
G29 ; mesh bed leveling
M104 S215 ; set extruder temp
G0 X79.5 Y55.2493 Z30 F4800

M109 S215 ; wait for extruder temp
G1 Z0.2 F720
G92 E0

M569 S0 E ; set spreadcycle mode for extruder

;
; Extrude purge line
;

G1 E2 F2400 ; deretraction


; move right
G1 X111.5 E4.8 F1000
; move down
G1 Y53.7493 E0.225 F1000
; move left
G1 X79.5 E9.6 F800

G92 E0
M221 S100 ; set flow to 100%
G21 ; set units to millimeters
G90 ; use absolute coordinates
M83 ; use relative distances for extrusion
M900 K0.06 ; Filament gcode

M142 S36 ; set heatbreak target temp
M107
;LAYER_CHANGE
;Z:0.2
;HEIGHT:0.2
;BEFORE_LAYER_CHANGE
G92 E0.0
;0.2


G1 E-.8 F2100
G1 Z.2 F720
;AFTER_LAYER_CHANGE
;0.2
; printing object wespenfalle.stl id:0 copy 0
G1 Z.4
G1 X129.556 Y90.975 F12000
G1 Z.2 F720
G1 E.8 F1500
M204 P600
;TYPE:Perimeter
;WIDTH:0.577486
G1 F1200
G1 X129.686 Y90.943 E.00595
;WIDTH:0.530928
G1 X129.817 Y90.911 E.00547
;WIDTH:0.48437
G1 X129.948 Y90.879 E.00495
;WIDTH:0.437812
G1 X130.078 Y90.847 E.0044
;WIDTH:0.391254
G1 X130.13 Y90.986 E.0043
;WIDTH:0.437842
G1 X130.194 Y91.074 E.00357
;WIDTH:0.484429
G1 X130.259 Y91.163 E.00405
;WIDTH:0.531017
G1 X130.323 Y91.252 E.00445
;WIDTH:0.577604
G1 X130.387 Y91.341 E.00487
G1 X130.267 Y91.313 E.00548
;WIDTH:0.531017
G1 X130.147 Y91.285 E.005
;WIDTH:0.484429
G1 X130.027 Y91.257 E.00452
;WIDTH:0.437812
G1 X129.907 Y91.229 E.00405
G1 X129.819 Y91.166 E.00355
;WIDTH:0.48437
G1 X129.731 Y91.102 E.00399
;WIDTH:0.530928
G1 X129.643 Y91.039 E.00439
;WIDTH:0.577486
G1 X129.604 Y91.011 E.00213
M204 P1000
G1 E-.64 F2100
;WIPE_START
G1 F9600
G1 X129.686 Y90.943 E-.02214
G1 X129.817 Y90.911 E-.02802
G1 X129.948 Y90.879 E-.02802
G1 X130.078 Y90.847 E-.02782
G1 X130.13 Y90.986 E-.03084
G1 X130.194 Y91.074 E-.02261
G1 X130.196 Y91.076 E-.00055
;WIPE_END
G1 Z.4 F720
G1 X137.428 Y96.535 F12000
G1 Z.2 F720
G1 E.8 F1500
M204 P600
;WIDTH:0.391268
G1 F1200
G1 X137.388 Y96.677 E.00427
;WIDTH:0.437861
G1 X137.387 Y96.787 E.00361
;WIDTH:0.484453
G1 X137.387 Y96.897 E.00404
;WIDTH:0.531045
G1 X137.387 Y97.007 E.00446
;WIDTH:0.577637
G1 X137.387 Y97.116 E.00485
G1 X137.306 Y97.023 E.00548
;WIDTH:0.531045
G1 X137.225 Y96.93 E.00501
;WIDTH:0.484453
G1 X137.145 Y96.837 E.0045
;WIDTH:0.437831
G1 X137.064 Y96.743 E.00407
G1 X137.03 Y96.64 E.00356
;WIDTH:0.484394
G1 X136.996 Y96.537 E.00398
;WIDTH:0.530957
G1 X136.963 Y96.434 E.00439
;WIDTH:0.57752
G1 X136.929 Y96.331 E.00482
G1 X137.054 Y96.382 E.006
;WIDTH:0.530957
G1 X137.178 Y96.433 E.00544
;WIDTH:0.484394
G1 X137.303 Y96.484 E.00496
;WIDTH:0.437831
G1 X137.372 Y96.512 E.00245
M204 P1000
G1 E-.64 F2100
;WIPE_START
G1 F9600
G1 X137.388 Y96.677 E-.03445
G1 X137.387 Y96.787 E-.02286
G1 X137.387 Y96.897 E-.02286
G1 X137.387 Y97.007 E-.02286
G1 X137.387 Y97.116 E-.02265
G1 X137.306 Y97.023 E-.02563
G1 X137.279 Y96.991 E-.00869
;WIPE_END
G1 Z.4 F720
G1 X139.838 Y105.146 F12000
G1 Z.2 F720
G1 E.8 F1500
M204 P600
;WIDTH:0.535897
G1 F1200
G1 X139.888 Y105.228 E.00394
;WIDTH:0.487682
G1 X139.959 Y105.342 E.00497
;WIDTH:0.439467
G1 X140.03 Y105.456 E.00443
;WIDTH:0.391252
G1 X139.914 Y105.548 E.00429
;WIDTH:0.437844
G1 X139.849 Y105.637 E.00362
;WIDTH:0.484435
G1 X139.784 Y105.726 E.00405
;WIDTH:0.531027
G1 X139.72 Y105.814 E.00442
;WIDTH:0.577618
G1 X139.655 Y105.903 E.0049
G1 X139.645 Y105.78 E.00549
;WIDTH:0.531027
G1 X139.634 Y105.657 E.00501
;WIDTH:0.484435
G1 X139.624 Y105.534 E.00453
;WIDTH:0.437844
G1 X139.613 Y105.411 E.00406
;WIDTH:0.439467
G1 X139.646 Y105.308 E.00357
;WIDTH:0.487682
G1 X139.68 Y105.205 E.00401
;WIDTH:0.535897
G1 X139.713 Y105.102 E.00443
;WIDTH:0.584112
G1 X139.747 Y104.999 E.00488
G1 X139.806 Y105.095 E.00507
M204 P1000
G1 E-.64 F2100
;WIPE_START
G1 F9600
G1 X139.888 Y105.228 E-.03247
G1 X139.959 Y105.342 E-.02791
G1 X140.03 Y105.456 E-.02791
G1 X139.914 Y105.548 E-.03077
G1 X139.849 Y105.637 E-.0229
G1 X139.798 Y105.707 E-.01804
;WIPE_END
G1 Z.4 F720
G1 X136.914 Y113.692 F12000
G1 Z.2 F720
G1 E.8 F1500
M204 P600
;WIDTH:0.588666
G1 F1200
G1 X136.908 Y113.819 E.00577
;WIDTH:0.539755
G1 X136.902 Y113.947 E.00529
;WIDTH:0.490844
G1 X136.896 Y114.075 E.00477
;WIDTH:0.441933
G1 X136.89 Y114.203 E.00425
;WIDTH:0.393022
G1 X136.742 Y114.209 E.00431
;WIDTH:0.439968
G1 X136.638 Y114.243 E.00361
;WIDTH:0.486913
G1 X136.533 Y114.276 E.00406
;WIDTH:0.533859
G1 X136.429 Y114.31 E.00447
;WIDTH:0.580804
G1 X136.324 Y114.343 E.00492
G1 X136.388 Y114.238 E.0055
;WIDTH:0.533859
G1 X136.451 Y114.132 E.00503
;WIDTH:0.486913
G1 X136.515 Y114.026 E.00457
;WIDTH:0.439968
G1 X136.578 Y113.92 E.00407
;WIDTH:0.441933
G1 X136.662 Y113.863 E.00337
;WIDTH:0.490844
G1 X136.746 Y113.806 E.00378
;WIDTH:0.539755
G1 X136.83 Y113.749 E.00419
;WIDTH:0.588666
G1 X136.864 Y113.725 E.00189
M204 P1000
G1 E-.64 F2100
;WIPE_START
G1 F9600
G1 X136.908 Y113.819 E-.02157
G1 X136.902 Y113.947 E-.02663
G1 X136.896 Y114.075 E-.02663
G1 X136.89 Y114.203 E-.02663
G1 X136.742 Y114.209 E-.03078
G1 X136.638 Y114.243 E-.02274
G1 X136.615 Y114.25 E-.00502
;WIPE_END
G1 Z.4 F720
G1 X129.211 Y119.435 F12000
G1 Z.2 F720
G1 E.8 F1500
M204 P600
;WIDTH:0.391245
G1 F1200
G1 X129.087 Y119.353 E.00431
;WIDTH:0.437828
G1 X128.983 Y119.319 E.00359
;WIDTH:0.484411
G1 X128.879 Y119.285 E.00402
;WIDTH:0.530994
G1 X128.774 Y119.251 E.00448
;WIDTH:0.577576
G1 X128.67 Y119.217 E.00486
G1 X128.784 Y119.169 E.0055
;WIDTH:0.530994
G1 X128.897 Y119.121 E.00498
;WIDTH:0.484411
G1 X129.011 Y119.073 E.00454
;WIDTH:0.437828
G1 X129.125 Y119.025 E.00406
;WIDTH:0.439464
G1 X129.233 Y119.025 E.00356
;WIDTH:0.487683
G1 X129.341 Y119.025 E.00399
;WIDTH:0.535902
G1 X129.45 Y119.025 E.00447
;WIDTH:0.58412
G1 X129.558 Y119.024 E.00486
G1 X129.471 Y119.127 E.00607
;WIDTH:0.535902
G1 X129.384 Y119.23 E.00553
;WIDTH:0.487683
G1 X129.297 Y119.333 E.00499
;WIDTH:0.439464
G1 X129.249 Y119.389 E.00243
M204 P1000
G1 E-.64 F2100
;WIPE_START
G1 F9600
G1 X129.087 Y119.353 E-.03449
G1 X128.983 Y119.319 E-.02274
G1 X128.879 Y119.285 E-.02274
G1 X128.774 Y119.251 E-.02294
G1 X128.67 Y119.217 E-.02274
G1 X128.784 Y119.169 E-.0257
G1 X128.822 Y119.153 E-.00865
;WIPE_END
G1 Z.4 F720
G1 X120.454 Y119.026 F12000
G1 Z.2 F720
G1 E.8 F1500
M204 P600
;WIDTH:0.578958
G1 F1200
G1 X120.321 Y119.058 E.0061
;WIDTH:0.532469
G1 X120.188 Y119.089 E.00556
;WIDTH:0.48598
G1 X120.055 Y119.121 E.00504
;WIDTH:0.439491
G1 X119.922 Y119.152 E.0045
;WIDTH:0.393002
G1 X119.87 Y119.013 E.00432
;WIDTH:0.43995
G1 X119.806 Y118.924 E.00362
;WIDTH:0.486898
G1 X119.742 Y118.835 E.00405
;WIDTH:0.533846
G1 X119.678 Y118.746 E.00447
;WIDTH:0.580794
G1 X119.613 Y118.657 E.00493
G1 X119.734 Y118.685 E.00555
;WIDTH:0.533846
G1 X119.854 Y118.713 E.00503
;WIDTH:0.486898
G1 X119.974 Y118.74 E.00454
;WIDTH:0.43995
G1 X120.094 Y118.768 E.00407
;WIDTH:0.439491
G1 X120.184 Y118.832 E.00364
;WIDTH:0.48598
G1 X120.274 Y118.897 E.00409
;WIDTH:0.532469
G1 X120.364 Y118.961 E.0045
;WIDTH:0.578958
G1 X120.405 Y118.991 E.00226
M204 P1000
G1 E-.64 F2100
;WIPE_START
G1 F9600
G1 X120.321 Y119.058 E-.02233
G1 X120.188 Y119.089 E-.02838
G1 X120.055 Y119.121 E-.02843
G1 X119.922 Y119.152 E-.02838
G1 X119.87 Y119.013 E-.03084
G1 X119.809 Y118.928 E-.02164
;WIPE_END
G1 Z.4 F720
G1 X110.254 Y105.001 F12000
G1 Z.2 F720
G1 E.8 F1500
M204 P600
;WIDTH:0.57748
G1 F1200
G1 X110.183 Y104.887 E.00597
;WIDTH:0.530924
G1 X110.112 Y104.772 E.00548
;WIDTH:0.484367
G1 X110.041 Y104.658 E.00493
;WIDTH:0.43781
G1 X109.97 Y104.544 E.00441
;WIDTH:0.391253
G1 X110.086 Y104.452 E.00429
G1 X110.149 Y104.267 E.00566
;WIDTH:0.350762
G1 X110.212 Y104.083 E.00498
;WIDTH:0.310308
G1 X110.431 Y101.995 E.04668
G1 X110.469 Y101.82 E.00398
G1 X111.375 Y99.032 E.06518
G1 X111.447 Y98.868 E.00398
G1 X112.902 Y96.348 E.0647
;WIDTH:0.351663
G1 X113.01 Y96.147 E.00586
;WIDTH:0.393022
G1 X113.118 Y95.946 E.00664
G1 X113.11 Y95.797 E.00434
G1 X113.258 Y95.791 E.00431
G1 X113.417 Y95.679 E.00566
;WIDTH:0.352442
G1 X113.576 Y95.567 E.00501
;WIDTH:0.311862
G1 X114.979 Y94.007 E.04692
;WIDTH:0.310276
G1 X115.113 Y93.886 E.00401
G1 X117.485 Y92.163 E.06517
G1 X117.64 Y92.073 E.00398
G1 X120.318 Y90.881 E.06517
;WIDTH:0.350761
G1 X120.514 Y90.785 E.00559
;WIDTH:0.391245
G1 X120.709 Y90.689 E.0063
G1 X120.789 Y90.565 E.00427
G1 X120.913 Y90.647 E.00431
;WIDTH:0.437828
G1 X121.017 Y90.681 E.00359
;WIDTH:0.484411
G1 X121.121 Y90.715 E.00402
;WIDTH:0.530994
G1 X121.226 Y90.749 E.00448
;WIDTH:0.577576
G1 X121.33 Y90.783 E.00486
G1 X121.179 Y90.84 E.00718
;WIDTH:0.533026
G1 X121.029 Y90.897 E.00654
;WIDTH:0.488476
G1 X120.878 Y90.954 E.00598
;WIDTH:0.443926
G1 X120.728 Y91.011 E.00535
;WIDTH:0.399376
G1 X120.577 Y91.068 E.00478
;WIDTH:0.354826
G1 X120.427 Y91.125 E.00416
;WIDTH:0.310258
G1 X117.642 Y92.379 E.06789
G1 X115.179 Y94.185 E.06789
;WIDTH:0.311862
G1 X113.776 Y95.746 E.04694
;WIDTH:0.352442
G1 X113.599 Y95.913 E.00626
;WIDTH:0.393022
G1 X113.422 Y96.08 E.00708
G1 X113.278 Y96.281 E.0072
;WIDTH:0.351663
G1 X113.134 Y96.482 E.00635
;WIDTH:0.31027
G1 X111.629 Y99.114 E.0674
G1 X110.723 Y101.902 E.06517
G1 X110.478 Y104.111 E.04941
;WIDTH:0.34728
G1 X110.432 Y104.366 E.00656
;WIDTH:0.38429
G1 X110.387 Y104.621 E.00735
;WIDTH:0.432588
G1 X110.354 Y104.716 E.00326
;WIDTH:0.480885
G1 X110.321 Y104.811 E.00366
;WIDTH:0.529183
G1 X110.287 Y104.906 E.00408
;WIDTH:0.57748
G1 X110.274 Y104.945 E.00183
M204 P1000
G1 E-.64 F2100
;WIPE_START
G1 F9600
G1 X110.183 Y104.887 E-.02243
G1 X110.112 Y104.772 E-.02809
G1 X110.041 Y104.658 E-.02791
G1 X109.97 Y104.544 E-.02791
G1 X110.086 Y104.452 E-.03077
G1 X110.122 Y104.348 E-.02289
;WIPE_END
G1 Z.4 F720
G1 X111.973 Y110.774 F12000
G1 Z.2 F720
G1 E.8 F1500
M204 P600
;TYPE:External perimeter
;WIDTH:0.499999
G1 F1200
G1 X111.067 Y107.977 E.11174
G1 X110.751 Y105.024 E.11287
G1 X111.058 Y102.061 E.11322
G1 X111.973 Y99.226 E.11322
G1 X113.448 Y96.663 E.11239
G1 X115.448 Y94.427 E.11402
G1 X117.896 Y92.648 E.11501
G1 X120.574 Y91.456 E.11141
G1 X123.487 Y90.832 E.11322
G1 X126.466 Y90.827 E.11322
G1 X129.38 Y91.441 E.11318
G1 X132.104 Y92.648 E.11324
G1 X134.517 Y94.395 E.11322
G1 X136.513 Y96.605 E.11318
G1 X138.007 Y99.183 E.11324
G1 X138.943 Y102.069 E.11531
G1 X139.249 Y104.976 E.11109
G1 X138.933 Y107.986 E.11503
G1 X138.027 Y110.774 E.11142
G1 X136.552 Y113.337 E.11239
G1 X134.552 Y115.573 E.11402
G1 X132.104 Y117.352 E.11501
G1 X129.426 Y118.544 E.11141
G1 X126.513 Y119.168 E.11322
G1 X123.534 Y119.173 E.11322
G1 X120.641 Y118.563 E.11237
G1 X117.896 Y117.352 E.11403
G1 X115.483 Y115.605 E.11322
G1 X113.487 Y113.395 E.11318
G1 X111.999 Y110.828 E.11277
M204 P1000
G1 X111.576 Y110.732 F12000
G1 E-.64 F2100
;WIPE_START
G1 F9600
G1 X111.76 Y110.096 E-.16
;WIPE_END
G1 Z.4 F720
G1 X107.508 Y106.178 F12000
G1 Z.2 F720
G1 E.8 F1500
M204 P600
;TYPE:Perimeter
;WIDTH:0.310298
G1 F1200
G1 X107.389 Y105.04 E.02544
;WIDTH:0.345893
G1 X107.399 Y104.911 E.00326
;WIDTH:0.381514
G1 X107.41 Y104.782 E.00365
;WIDTH:0.417135
G1 X107.42 Y104.654 E.00399
;WIDTH:0.418951
G1 X107.61 Y104.454 E.00863
G1 X107.517 Y104.335 E.00472
G1 X107.508 Y104.244 E.00286
;WIDTH:0.384555
G1 X107.499 Y104.153 E.0026
;WIDTH:0.350158
G1 X107.489 Y104.062 E.00234
;WIDTH:0.315761
G1 X107.494 Y103.96 E.00232
;WIDTH:0.310271
G1 X107.789 Y101.278 E.05998
G1 X108.888 Y97.894 E.0791
G1 X110.728 Y94.681 E.08231
;WIDTH:0.345887
G1 X110.813 Y94.583 E.00327
;WIDTH:0.381518
G1 X110.897 Y94.485 E.00363
;WIDTH:0.417149
G1 X110.981 Y94.386 E.00404
;WIDTH:0.418961
G1 X111.252 Y94.337 E.00861
G1 X111.247 Y94.186 E.00472
G1 X111.314 Y94.08 E.00392
;WIDTH:0.382731
G1 X111.381 Y93.974 E.00354
;WIDTH:0.346501
G1 X111.449 Y93.868 E.00318
;WIDTH:0.31027
G1 X113.263 Y91.873 E.05994
G1 X116.142 Y89.781 E.07911
G1 X119.519 Y88.263 E.08231
;WIDTH:0.346464
G1 X119.641 Y88.232 E.00318
;WIDTH:0.382695
G1 X119.762 Y88.201 E.00353
;WIDTH:0.418926
G1 X119.883 Y88.17 E.00391
G1 X120.145 Y88.292 E.00904
G1 X120.23 Y88.167 E.00473
G1 X120.347 Y88.121 E.00393
;WIDTH:0.382717
G1 X120.463 Y88.075 E.00353
;WIDTH:0.346499
G1 X120.58 Y88.029 E.00317
;WIDTH:0.31028
G1 X123.221 Y87.481 E.05996
G1 X126.779 Y87.481 E.0791
G1 X130.404 Y88.238 E.08233
;WIDTH:0.346467
G1 X130.52 Y88.284 E.00315
;WIDTH:0.382703
G1 X130.637 Y88.33 E.00355
;WIDTH:0.418938
G1 X130.753 Y88.376 E.0039
G1 X130.893 Y88.63 E.00907
G1 X131.035 Y88.579 E.00472
G1 X131.157 Y88.61 E.00394
;WIDTH:0.382724
G1 X131.278 Y88.641 E.00353
;WIDTH:0.3465
G1 X131.399 Y88.672 E.00315
;WIDTH:0.3103
G1 X133.858 Y89.781 E.05997
G1 X136.737 Y91.873 E.07912
G1 X139.224 Y94.616 E.08232
;WIDTH:0.346487
G1 X139.291 Y94.721 E.00314
;WIDTH:0.382721
G1 X139.358 Y94.827 E.00354
;WIDTH:0.418955
G1 X139.426 Y94.933 E.00394
G1 X139.39 Y95.22 E.00904
G1 X139.535 Y95.262 E.00472
G1 X139.615 Y95.359 E.00393
;WIDTH:0.382739
G1 X139.695 Y95.455 E.00353
;WIDTH:0.346518
G1 X139.774 Y95.552 E.00316
;WIDTH:0.310297
G1 X141.112 Y97.894 E.05997
G1 X142.211 Y101.278 E.0791
G1 X142.611 Y104.96 E.08234
;WIDTH:0.346499
G1 X142.604 Y105.085 E.00316
;WIDTH:0.382725
G1 X142.596 Y105.21 E.00354
;WIDTH:0.418951
G1 X142.588 Y105.335 E.00392
G1 X142.39 Y105.546 E.00905
G1 X142.483 Y105.665 E.00472
G1 X142.491 Y105.79 E.00392
;WIDTH:0.382724
G1 X142.498 Y105.915 E.00354
;WIDTH:0.346497
G1 X142.506 Y106.04 E.00316
;WIDTH:0.31027
G1 X142.211 Y108.722 E.05998
G1 X141.112 Y112.106 E.07909
G1 X139.272 Y115.319 E.08231
;WIDTH:0.346488
G1 X139.192 Y115.416 E.00317
;WIDTH:0.382724
G1 X139.112 Y115.512 E.00353
;WIDTH:0.418959
G1 X139.032 Y115.609 E.00393
G1 X138.748 Y115.663 E.00904
G1 X138.753 Y115.814 E.00472
G1 X138.686 Y115.92 E.00392
;WIDTH:0.382731
G1 X138.619 Y116.026 E.00354
;WIDTH:0.346501
G1 X138.551 Y116.132 E.00318
;WIDTH:0.31027
G1 X136.737 Y118.127 E.05994
G1 X133.858 Y120.219 E.07911
G1 X130.481 Y121.737 E.08231
;WIDTH:0.34586
G1 X130.355 Y121.767 E.00326
;WIDTH:0.381487
G1 X130.229 Y121.797 E.00365
;WIDTH:0.417114
G1 X130.103 Y121.827 E.00403
;WIDTH:0.418934
G1 X129.855 Y121.708 E.0086
G1 X129.77 Y121.833 E.00473
G1 X129.653 Y121.879 E.00393
;WIDTH:0.382716
G1 X129.537 Y121.925 E.00353
;WIDTH:0.346498
G1 X129.42 Y121.971 E.00317
;WIDTH:0.31028
G1 X126.779 Y122.519 E.05996
G1 X123.221 Y122.519 E.0791
G1 X119.596 Y121.762 E.08233
;WIDTH:0.345865
G1 X119.477 Y121.712 E.00325
;WIDTH:0.381498
G1 X119.357 Y121.662 E.00366
;WIDTH:0.417131
G1 X119.238 Y121.613 E.004
;WIDTH:0.418949
G1 X119.107 Y121.37 E.00863
G1 X118.965 Y121.421 E.00472
