; generated by PrusaSlicer 2.6.0+win64 on 2023-09-07 at 14:11:44 UTC


;
;

;
;

;
;
; 

; external perimeters extrusion width = 0.50mm
; perimeters extrusion width = 0.50mm
; infill extrusion width = 0.50mm
; solid infill extrusion width = 0.50mm
; top infill extrusion width = 0.45mm
; first layer extrusion width = 0.50mm

M73 P0 R37
M201 X2500 Y2500 Z200 E2500 ; sets maximum accelerations, mm/sec^2
M203 X200 Y200 Z40 E100 ; sets maximum feedrates, mm / sec
M204 P2000 R1200 T2000 ; sets acceleration (P, T) and retract acceleration (R), mm/sec^2
M205 X8.00 Y8.00 Z2.00 E10.00 ; sets the jerk limits, mm/sec
M205 S0 T0 ; sets the minimum extruding and travel feed rate, mm/sec
;TYPE:Custom
M17 ; enable steppers
M862.3 P "MK4" ; printer model check
M862.1 P0.4 ; nozzle diameter check
M330 SYSLOG
M331 loadcell_raw
M331 loadcell_threshold
M331 loadcell_hysteresis
M331 loadcell_scale
M331 probe_z
M331 probe_z_raw
M331 probe_z_diff
M331 home_diff
M331 fsensor_raw
M331 temp_hbr
M331 temp_bed
M331 temp_noz
M331 temp_brd
M331 ttemp_bed
M331 ttemp_noz
M331 pos_z
M331 fan_speed
M331 fan_hbr_speed
M331 tmc_sg_x
M331 tmc_sg_y
M331 tmc_sg_z
M331 tmc_sg_e

M555 X95 Y86 W60 H34

G90 ; use absolute coordinates
M92 E380 ; set steps/mm for extruder
M83 ; extruder relative mode

M140 S60 ; set bed temp

M104 S170 ; set extruder temp for bed leveling
M109 R170 ; wait for temp


M84 E ; turn off E motor

G28 ; home all without mesh bed level

; probe to clean the nozzle
G1 X127 Y86 Z5 F4800

M302 S160 ; lower cold extrusion limit to 160C


G1 E-2 F2400 ; retraction


M84 E ; turn off E motor

G29 P9 X95 Y86 W32 H4

M106 S100

G0 X95 Y86 Z40 F10000

M190 S60 ; wait for bed temp

M107

;
; MBL
;
M84 E ; turn off E motor
G29 ; mesh bed leveling
M104 S215 ; set extruder temp
G0 X95 Y85.5 Z30 F4800

M109 S215 ; wait for extruder temp
G1 Z0.2 F720
G92 E0

M569 S0 E ; set spreadcycle mode for extruder

;
; Extrude purge line
;

G1 E2 F2400 ; deretraction


; move right
G1 X127 E4.8 F1000
; move down
G1 Y84 E0.225 F1000
; move left
G1 X95 E9.6 F800

G92 E0
M221 S100 ; set flow to 100%
G21 ; set units to millimeters
G90 ; use absolute coordinates
M83 ; use relative distances for extrusion
M900 K0.06 ; Filament gcode

M142 S36 ; set heatbreak target temp
M107
;LAYER_CHANGE
;Z:0.2
;HEIGHT:0.2
;BEFORE_LAYER_CHANGE
G92 E0.0
;0.2


G1 E-.8 F2100
G1 Z.2 F720
;AFTER_LAYER_CHANGE
;0.2
; printing object WetterstationsAbdeckung.stl id:0 copy 0
G1 Z.4
G1 X95.907 Y119.093 F12000
G1 Z.2 F720
G1 E.8 F1500
M204 P600
;TYPE:Perimeter
;WIDTH:0.499999
G1 F1200
G1 X95.907 Y90.907 E1.07124
G1 X154.093 Y90.907 E2.21143
G1 X154.093 Y119.093 E1.07124
G1 X95.967 Y119.093 E2.20915
M204 P1000
G1 X95.45 Y119.55 F12000
M204 P600
;TYPE:External perimeter
G1 F1200
G1 X95.45 Y90.45 E1.10598
G1 X154.55 Y90.45 E2.24617
G1 X154.55 Y119.55 E1.10598
G1 X95.51 Y119.55 E2.24389
M204 P1000
G1 X95.595 Y119.177 F12000
M73 P1 R37
G1 E-.64 F2100
;WIPE_START
G1 F9600
G1 X95.508 Y118.78 E-.16
;WIPE_END
G1 Z.4 F720
G1 X152.96 Y91.113 F12000
G1 Z.2 F720
G1 E.8 F1500
M204 P600
;TYPE:Solid infill
;WIDTH:0.501684
G1 F1200
G1 X153.682 Y91.835 E.03895
G1 X153.682 Y92.483 E.02472
G1 X152.517 Y91.318 E.06285
G1 X151.868 Y91.318 E.02476
G1 X153.682 Y93.132 E.09786
G1 X153.682 Y93.781 E.02476
G1 X151.219 Y91.318 E.13287
G1 X150.57 Y91.318 E.02476
G1 X153.682 Y94.43 E.16788
G1 X153.682 Y95.079 E.02476
G1 X149.921 Y91.318 E.2029
G1 X149.273 Y91.318 E.02472
G1 X153.682 Y95.727 E.23785
G1 X153.682 Y96.376 E.02476
G1 X148.624 Y91.318 E.27286
G1 X147.975 Y91.318 E.02476
G1 X153.682 Y97.025 E.30788
G1 X153.682 Y97.674 E.02476
M73 P1 R36
G1 X147.326 Y91.318 E.34289
G1 X146.677 Y91.318 E.02476
G1 X153.682 Y98.323 E.3779
G1 X153.682 Y98.971 E.02472
G1 X146.029 Y91.318 E.41286
G1 X145.38 Y91.318 E.02476
G1 X153.682 Y99.62 E.44787
G1 X153.682 Y100.269 E.02476
G1 X144.731 Y91.318 E.48288
G1 X144.082 Y91.318 E.02476
G1 X153.682 Y100.918 E.51789
G1 X153.682 Y101.566 E.02472
G1 X143.434 Y91.318 E.55285
G1 X142.785 Y91.318 E.02476
G1 X153.682 Y102.215 E.58786
G1 X153.682 Y102.864 E.02476
G1 X142.136 Y91.318 E.62287
G1 X141.487 Y91.318 E.02476
G1 X153.682 Y103.513 E.65789
G1 X153.682 Y104.162 E.02476
G1 X140.838 Y91.318 E.6929
G1 X140.19 Y91.318 E.02472
G1 X153.682 Y104.81 E.72785
G1 X153.682 Y105.459 E.02476
G1 X139.541 Y91.318 E.76287
G1 X138.892 Y91.318 E.02476
G1 X153.682 Y106.108 E.79788
G1 X153.682 Y106.757 E.02476
G1 X138.243 Y91.318 E.83289
G1 X137.594 Y91.318 E.02476
G1 X153.682 Y107.406 E.8679
G1 X153.682 Y108.054 E.02472
G1 X136.946 Y91.318 E.90286
G1 X136.297 Y91.318 E.02476
M73 P2 R36
G1 X153.682 Y108.703 E.93787
G1 X153.682 Y109.352 E.02476
G1 X135.648 Y91.318 E.97288
G1 X134.999 Y91.318 E.02476
G1 X153.682 Y110.001 E1.00789
G1 X153.682 Y110.65 E.02476
G1 X134.35 Y91.318 E1.04291
G1 X133.702 Y91.318 E.02472
G1 X153.682 Y111.298 E1.07786
G1 X153.682 Y111.947 E.02476
G1 X133.053 Y91.318 E1.11288
G1 X132.404 Y91.318 E.02476
G1 X153.682 Y112.596 E1.14789
G1 X153.682 Y113.245 E.02476
G1 X131.755 Y91.318 E1.1829
G1 X131.107 Y91.318 E.02472
G1 X153.682 Y113.893 E1.21786
G1 X153.682 Y114.542 E.02476
G1 X130.458 Y91.318 E1.25287
G1 X129.809 Y91.318 E.02476
G1 X153.682 Y115.191 E1.28788
G1 X153.682 Y115.84 E.02476
G1 X129.16 Y91.318 E1.32289
G1 X128.511 Y91.318 E.02476
G1 X153.682 Y116.489 E1.3579
G1 X153.682 Y117.137 E.02472
G1 X127.863 Y91.318 E1.39286
G1 X127.214 Y91.318 E.02476
G1 X153.682 Y117.786 E1.42787
G1 X153.682 Y118.435 E.02476
M73 P3 R36
G1 X126.565 Y91.318 E1.46288
G1 X125.916 Y91.318 E.02476
G1 X153.279 Y118.682 E1.47618
G1 X152.63 Y118.682 E.02476
G1 X125.267 Y91.318 E1.47618
G1 X124.619 Y91.318 E.02472
G1 X151.982 Y118.682 E1.47618
G1 X151.333 Y118.682 E.02476
G1 X123.97 Y91.318 E1.47618
G1 X123.321 Y91.318 E.02476
G1 X150.684 Y118.682 E1.47618
G1 X150.035 Y118.682 E.02476
G1 X122.672 Y91.318 E1.47618
G1 X122.023 Y91.318 E.02476
G1 X149.387 Y118.682 E1.47621
G1 X148.738 Y118.682 E.02476
G1 X121.375 Y91.318 E1.47618
G1 X120.726 Y91.318 E.02476
G1 X148.089 Y118.682 E1.47618
G1 X147.44 Y118.682 E.02476
G1 X120.077 Y91.318 E1.47618
G1 X119.428 Y91.318 E.02476
M73 P4 R36
G1 X146.791 Y118.682 E1.47618
G1 X146.143 Y118.682 E.02472
M73 P4 R35
G1 X118.779 Y91.318 E1.47621
G1 X118.131 Y91.318 E.02472
G1 X145.494 Y118.682 E1.47618
G1 X144.845 Y118.682 E.02476
G1 X117.482 Y91.318 E1.47618
G1 X116.833 Y91.318 E.02476
G1 X144.196 Y118.682 E1.47618
G1 X143.547 Y118.682 E.02476
G1 X116.184 Y91.318 E1.47618
G1 X115.536 Y91.318 E.02472
G1 X142.899 Y118.682 E1.47618
G1 X142.25 Y118.682 E.02476
G1 X114.887 Y91.318 E1.47618
G1 X114.238 Y91.318 E.02476
G1 X141.601 Y118.682 E1.47618
G1 X140.952 Y118.682 E.02476
G1 X113.589 Y91.318 E1.47618
G1 X112.94 Y91.318 E.02476
G1 X140.303 Y118.682 E1.47618
G1 X139.655 Y118.682 E.02472
G1 X112.292 Y91.318 E1.47618
G1 X111.643 Y91.318 E.02476
M73 P5 R35
G1 X139.006 Y118.682 E1.47618
G1 X138.357 Y118.682 E.02476
G1 X110.994 Y91.318 E1.47618
G1 X110.345 Y91.318 E.02476
G1 X137.708 Y118.682 E1.47618
G1 X137.06 Y118.682 E.02472
G1 X109.696 Y91.318 E1.47621
G1 X109.048 Y91.318 E.02472
G1 X136.411 Y118.682 E1.47618
G1 X135.762 Y118.682 E.02476
G1 X108.399 Y91.318 E1.47618
G1 X107.75 Y91.318 E.02476
G1 X135.113 Y118.682 E1.47618
G1 X134.464 Y118.682 E.02476
G1 X107.101 Y91.318 E1.47618
G1 X106.452 Y91.318 E.02476
G1 X133.816 Y118.682 E1.47621
G1 X133.167 Y118.682 E.02476
G1 X105.804 Y91.318 E1.47618
G1 X105.155 Y91.318 E.02476
G1 X132.518 Y118.682 E1.47618
G1 X131.869 Y118.682 E.02476
M73 P6 R35
G1 X104.506 Y91.318 E1.47618
G1 X103.857 Y91.318 E.02476
G1 X131.22 Y118.682 E1.47618
G1 X130.572 Y118.682 E.02472
G1 X103.209 Y91.318 E1.47618
G1 X102.56 Y91.318 E.02476
G1 X129.923 Y118.682 E1.47618
G1 X129.274 Y118.682 E.02476
G1 X101.911 Y91.318 E1.47618
G1 X101.262 Y91.318 E.02476
G1 X128.625 Y118.682 E1.47618
G1 X127.976 Y118.682 E.02476
G1 X100.613 Y91.318 E1.47618
G1 X99.965 Y91.318 E.02472
G1 X127.328 Y118.682 E1.47618
G1 X126.679 Y118.682 E.02476
M73 P6 R34
G1 X99.316 Y91.318 E1.47618
G1 X98.667 Y91.318 E.02476
G1 X126.03 Y118.682 E1.47618
G1 X125.381 Y118.682 E.02476
G1 X98.018 Y91.318 E1.47618
G1 X97.369 Y91.318 E.02476
M73 P7 R34
G1 X124.733 Y118.682 E1.47621
G1 X124.084 Y118.682 E.02476
G1 X96.721 Y91.318 E1.47618
G1 X96.318 Y91.318 E.01537
G1 X96.318 Y91.565 E.00942
G1 X123.435 Y118.682 E1.46288
G1 X122.786 Y118.682 E.02476
G1 X96.318 Y92.214 E1.42787
G1 X96.318 Y92.863 E.02476
G1 X122.137 Y118.682 E1.39286
G1 X121.489 Y118.682 E.02472
G1 X96.318 Y93.511 E1.3579
G1 X96.318 Y94.16 E.02476
G1 X120.84 Y118.682 E1.32289
G1 X120.191 Y118.682 E.02476
G1 X96.318 Y94.809 E1.28788
G1 X96.318 Y95.458 E.02476
G1 X119.542 Y118.682 E1.25287
G1 X118.893 Y118.682 E.02476
G1 X96.318 Y96.107 E1.21786
G1 X96.318 Y96.755 E.02472
G1 X118.245 Y118.682 E1.1829
G1 X117.596 Y118.682 E.02476
G1 X96.318 Y97.404 E1.14789
G1 X96.318 Y98.053 E.02476
G1 X116.947 Y118.682 E1.11288
G1 X116.298 Y118.682 E.02476
M73 P8 R34
G1 X96.318 Y98.702 E1.07786
G1 X96.318 Y99.351 E.02476
G1 X115.649 Y118.682 E1.04285
G1 X115.001 Y118.682 E.02472
G1 X96.318 Y99.999 E1.00789
G1 X96.318 Y100.648 E.02476
G1 X114.352 Y118.682 E.97288
G1 X113.703 Y118.682 E.02476
G1 X96.318 Y101.297 E.93787
G1 X96.318 Y101.946 E.02476
G1 X113.054 Y118.682 E.90286
G1 X112.406 Y118.682 E.02472
G1 X96.318 Y102.595 E.86787
G1 X96.318 Y103.243 E.02472
G1 X111.757 Y118.682 E.83289
G1 X111.108 Y118.682 E.02476
G1 X96.318 Y103.892 E.79788
G1 X96.318 Y104.541 E.02476
G1 X110.459 Y118.682 E.76287
G1 X109.81 Y118.682 E.02476
G1 X96.318 Y105.19 E.72785
G1 X96.318 Y105.838 E.02472
G1 X109.162 Y118.682 E.6929
G1 X108.513 Y118.682 E.02476
G1 X96.318 Y106.487 E.65789
G1 X96.318 Y107.136 E.02476
G1 X107.864 Y118.682 E.62287
G1 X107.215 Y118.682 E.02476
G1 X96.318 Y107.785 E.58786
G1 X96.318 Y108.434 E.02476
G1 X106.566 Y118.682 E.55285
G1 X105.918 Y118.682 E.02472
G1 X96.318 Y109.082 E.51789
G1 X96.318 Y109.731 E.02476
G1 X105.269 Y118.682 E.48288
G1 X104.62 Y118.682 E.02476
G1 X96.318 Y110.38 E.44787
G1 X96.318 Y111.029 E.02476
G1 X103.971 Y118.682 E.41286
G1 X103.322 Y118.682 E.02476
M73 P9 R34
G1 X96.318 Y111.678 E.37785
G1 X96.318 Y112.326 E.02472
G1 X102.674 Y118.682 E.34289
G1 X102.025 Y118.682 E.02476
G1 X96.318 Y112.975 E.30788
G1 X96.318 Y113.624 E.02476
G1 X101.376 Y118.682 E.27286
G1 X100.727 Y118.682 E.02476
G1 X96.318 Y114.273 E.23785
G1 X96.318 Y114.922 E.02476
G1 X100.078 Y118.682 E.20284
G1 X99.43 Y118.682 E.02472
G1 X96.318 Y115.57 E.16788
G1 X96.318 Y116.219 E.02476
G1 X98.781 Y118.682 E.13287
G1 X98.132 Y118.682 E.02476
G1 X96.318 Y116.868 E.09786
G1 X96.318 Y117.517 E.02476
G1 X97.483 Y118.682 E.06285
G1 X96.835 Y118.682 E.02472
G1 X96.113 Y117.96 E.03895
M204 P1000
; stop printing object WetterstationsAbdeckung.stl id:0 copy 0
M106 S84.15
;LAYER_CHANGE
;Z:0.5
;HEIGHT:0.3
;BEFORE_LAYER_CHANGE
G92 E0.0
;0.5


G1 E-.64 F2100
;WIPE_START
G1 F9600
G1 X96.657 Y118.504 E-.16
;WIPE_END
G1 Z.4 F720
G1 Z.5
;AFTER_LAYER_CHANGE
;0.5
; printing object WetterstationsAbdeckung.stl id:0 copy 0
G1 X95.686 Y119.314 F12000
G1 E.8 F1500
M204 P1100
;TYPE:Perimeter
;WIDTH:0.5
G1 F4200
G1 X95.686 Y90.686 E1.55544
G1 X154.314 Y90.686 E3.18542
G1 X154.314 Y119.314 E1.55544
G1 X95.746 Y119.314 E3.18216
M204 P1000
G1 X95.25 Y119.75 F12000
;TYPE:External perimeter
G1 F2400
G1 X95.25 Y90.25 E1.60282
G1 X154.75 Y90.25 E3.2328
G1 X154.75 Y119.75 E1.60282
G1 X95.31 Y119.75 E3.22954
G1 X95.395 Y119.377 F12000
M73 P9 R33
G1 E-.64 F2100
;WIPE_START
G1 F9600
G1 X95.308 Y118.98 E-.16
;WIPE_END
G1 Z.7 F720
G1 X96.196 Y91.113 F12000
G1 Z.5 F720
G1 E.8 F1500
M204 P1700
;TYPE:Solid infill
;WIDTH:0.605691
G1 F5100
G1 X96.148 Y91.065 E.00458
G1 X96.083 Y91.083 E.00455
G1 X96.065 Y91.148 E.00455
G1 X96.113 Y91.196 E.00458
G1 X96.178 Y91.178 E.00455
;WIDTH:0.5
G1 X96.078 Y91.874 E.0382
G1 X96.874 Y91.078 E.06116
G1 X97.49 Y91.078 E.03347
G1 X96.078 Y92.49 E.1085
G1 X96.078 Y93.106 E.03347
G1 X98.106 Y91.078 E.15583
G1 X98.722 Y91.078 E.03347
G1 X96.078 Y93.722 E.20316
G1 X96.078 Y94.338 E.03347
G1 X99.338 Y91.078 E.25049
G1 X99.954 Y91.078 E.03347
G1 X96.078 Y94.954 E.29782
G1 X96.078 Y95.571 E.03352
G1 X100.571 Y91.078 E.34523
G1 X101.187 Y91.078 E.03347
G1 X96.078 Y96.187 E.39257
G1 X96.078 Y96.803 E.03347
G1 X101.803 Y91.078 E.4399
G1 X102.419 Y91.078 E.03347
G1 X96.078 Y97.419 E.48723
G1 X96.078 Y98.035 E.03347
G1 X103.035 Y91.078 E.53456
G1 X103.651 Y91.078 E.03347
G1 X96.078 Y98.651 E.5819
G1 X96.078 Y99.267 E.03347
G1 X104.267 Y91.078 E.62923
G1 X104.883 Y91.078 E.03347
G1 X96.078 Y99.883 E.67656
G1 X96.078 Y100.499 E.03347
G1 X105.499 Y91.078 E.72389
G1 X106.115 Y91.078 E.03347
G1 X96.078 Y101.115 E.77122
G1 X96.078 Y101.731 E.03347
G1 X106.731 Y91.078 E.81856
G1 X107.347 Y91.078 E.03347
G1 X96.078 Y102.347 E.86589
G1 X96.078 Y102.963 E.03347
G1 X107.963 Y91.078 E.91322
G1 X108.579 Y91.078 E.03347
G1 X96.078 Y103.579 E.96055
G1 X96.078 Y104.195 E.03347
G1 X109.195 Y91.078 E1.00789
G1 X109.811 Y91.078 E.03347
G1 X96.078 Y104.811 E1.05522
G1 X96.078 Y105.427 E.03347
G1 X110.427 Y91.078 E1.10255
G1 X111.044 Y91.078 E.03352
G1 X96.078 Y106.044 E1.14996
G1 X96.078 Y106.66 E.03347
G1 X111.66 Y91.078 E1.19729
G1 X112.276 Y91.078 E.03347
G1 X96.078 Y107.276 E1.24462
G1 X96.078 Y107.892 E.03347
G1 X112.892 Y91.078 E1.29196
G1 X113.508 Y91.078 E.03347
G1 X96.078 Y108.508 E1.33929
G1 X96.078 Y109.124 E.03347
G1 X114.124 Y91.078 E1.38662
G1 X114.74 Y91.078 E.03347
G1 X96.078 Y109.74 E1.43395
G1 X96.078 Y110.356 E.03347
G1 X115.356 Y91.078 E1.48129
G1 X115.972 Y91.078 E.03347
G1 X96.078 Y110.972 E1.52862
G1 X96.078 Y111.588 E.03347
G1 X116.588 Y91.078 E1.57595
G1 X117.204 Y91.078 E.03347
G1 X96.078 Y112.204 E1.62328
G1 X96.078 Y112.82 E.03347
G1 X117.82 Y91.078 E1.67062
G1 X118.436 Y91.078 E.03347
G1 X96.078 Y113.436 E1.71795
G1 X96.078 Y114.052 E.03347
G1 X119.052 Y91.078 E1.76528
G1 X119.668 Y91.078 E.03347
G1 X96.078 Y114.668 E1.81261
G1 X96.078 Y115.284 E.03347
G1 X120.284 Y91.078 E1.85995
G1 X120.9 Y91.078 E.03347
M73 P10 R33
G1 X96.078 Y115.9 E1.90728
G1 X96.078 Y116.517 E.03352
G1 X121.517 Y91.078 E1.95469
G1 X122.133 Y91.078 E.03347
G1 X96.078 Y117.133 E2.00202
G1 X96.078 Y117.749 E.03347
G1 X122.749 Y91.078 E2.04935
G1 X123.365 Y91.078 E.03347
G1 X96.078 Y118.365 E2.09668
G1 X95.921 Y119.079 E.03972
;WIDTH:0.404381
G1 X95.91 Y118.874 E.00871
;WIDTH:0.45219
G1 X96.023 Y118.898 E.00559
;WIDTH:0.5
G1 X96.136 Y118.922 E.00628
G1 X123.981 Y91.078 E2.13952
G1 X124.597 Y91.078 E.03347
G1 X96.752 Y118.922 E2.13952
G1 X97.368 Y118.922 E.03347
G1 X125.213 Y91.078 E2.13952
G1 X125.829 Y91.078 E.03347
G1 X97.984 Y118.922 E2.13952
G1 X98.6 Y118.922 E.03347
G1 X126.445 Y91.078 E2.13952
G1 X127.061 Y91.078 E.03347
G1 X99.216 Y118.922 E2.13952
G1 X99.832 Y118.922 E.03347
G1 X127.677 Y91.078 E2.13952
G1 X128.293 Y91.078 E.03347
G1 X100.448 Y118.922 E2.13952
G1 X101.065 Y118.922 E.03352
G1 X128.909 Y91.078 E2.13948
G1 X129.525 Y91.078 E.03347
G1 X101.681 Y118.922 E2.13948
G1 X102.297 Y118.922 E.03347
G1 X130.141 Y91.078 E2.13948
G1 X130.757 Y91.078 E.03347
G1 X102.913 Y118.922 E2.13948
G1 X103.529 Y118.922 E.03347
G1 X131.373 Y91.078 E2.13948
G1 X131.99 Y91.078 E.03352
G1 X104.145 Y118.922 E2.13952
G1 X104.761 Y118.922 E.03347
G1 X132.606 Y91.078 E2.13952
G1 X133.222 Y91.078 E.03347
G1 X105.377 Y118.922 E2.13952
G1 X105.993 Y118.922 E.03347
G1 X133.838 Y91.078 E2.13952
G1 X134.454 Y91.078 E.03347
G1 X106.609 Y118.922 E2.13952
G1 X107.225 Y118.922 E.03347
G1 X135.07 Y91.078 E2.13952
G1 X135.686 Y91.078 E.03347
G1 X107.841 Y118.922 E2.13952
G1 X108.457 Y118.922 E.03347
G1 X136.302 Y91.078 E2.13952
G1 X136.918 Y91.078 E.03347
G1 X109.073 Y118.922 E2.13952
G1 X109.689 Y118.922 E.03347
G1 X137.534 Y91.078 E2.13952
G1 X138.15 Y91.078 E.03347
G1 X110.305 Y118.922 E2.13952
G1 X110.921 Y118.922 E.03347
G1 X138.766 Y91.078 E2.13952
G1 X139.382 Y91.078 E.03347
G1 X111.538 Y118.922 E2.13948
G1 X112.154 Y118.922 E.03347
G1 X139.998 Y91.078 E2.13948
G1 X140.614 Y91.078 E.03347
G1 X112.77 Y118.922 E2.13948
G1 X113.386 Y118.922 E.03347
G1 X141.23 Y91.078 E2.13948
G1 X141.846 Y91.078 E.03347
