; generated by PrusaSlicer 2.4.1+win64 on 2023-09-06 at 15:05:22 UTC


;
;
; 

; external perimeters extrusion width = 0.60mm
; perimeters extrusion width = 0.50mm
; infill extrusion width = 0.50mm
; solid infill extrusion width = 0.50mm
; top infill extrusion width = 0.45mm
; first layer extrusion width = 0.42mm

M73 P0 R43
M73 Q0 S43
M201 X1000 Y1000 Z200 E5000 ; sets maximum accelerations, mm/sec^2
M203 X200 Y200 Z12 E120 ; sets maximum feedrates, mm / sec
M204 P1250 R1250 T1250 ; sets acceleration (P, T) and retract acceleration (R), mm/sec^2
M205 X8.00 Y8.00 Z0.40 E4.50 ; sets the jerk limits, mm/sec
M205 S0 T0 ; sets the minimum extruding and travel feed rate, mm/sec
M107
;TYPE:Custom
M862.3 P "MK3S" ; printer model check
M862.1 P0.4 ; nozzle diameter check
M115 U3.11.0 ; tell printer latest fw version
G90 ; use absolute coordinates
M83 ; extruder relative mode
M104 S215 ; set extruder temp
M140 S60 ; set bed temp
M190 S60 ; wait for bed temp
M109 S215 ; wait for extruder temp
G28 W ; home all without mesh bed level
G80 ; mesh bed leveling

G1 Z0.2 F720
G1 Y-3 F1000 ; go outside print area
G92 E0
G1 X60 E9 F1000 ; intro line
G1 X100 E12.5 F1000 ; intro line

G92 E0
M221 S95

; Don't change E values below. Excessive value can damage the printer.

M907 E538 ; set extruder motor current
G21 ; set units to millimeters
G90 ; use absolute coordinates
M83 ; use relative distances for extrusion
M900 K0.05 ; Filament gcode LA 1.5
M900 K30 ; Filament gcode LA 1.0
M107
;LAYER_CHANGE
;Z:0.2
;HEIGHT:0.2
;BEFORE_LAYER_CHANGE
G92 E0.0
;0.2


G1 E-.8 F2100
G1 Z.4 F720
;AFTER_LAYER_CHANGE
;0.2
G1 X93.015 Y91.693 F10800
G1 Z.2 F720
G1 E.8 F2100
M204 S800
;TYPE:Skirt/Brim
;WIDTH:0.42
G1 F1200
G1 X94.06 Y90.817 E.04278
G1 X95 Y90.623 E.03008
G1 X155 Y90.623 E1.88126
G1 X156.307 Y91.015 E.04278
G1 X157.183 Y92.06 E.04278
G1 X157.377 Y93 E.03008
G1 X157.377 Y117 E.7525
G1 X156.985 Y118.307 E.04278
G1 X155.94 Y119.183 E.04278
G1 X155 Y119.377 E.03008
G1 X95 Y119.377 E1.88126
G1 X93.693 Y118.985 E.04278
G1 X92.817 Y117.94 E.04278
G1 X92.623 Y117 E.03008
G1 X92.623 Y93 E.7525
G1 X92.997 Y91.75 E.0409
M204 S1000
; printing object WetterstationsAbdeckung.stl id:0 copy 0
;WIPE_START
G1 F8640
G1 X94.06 Y90.817 E-.32671
G1 X95 Y90.623 E-.22155
G1 X95.917 Y90.623 E-.21174
;WIPE_END
G1 E-.04 F2100
G1 Z.6 F720
G1 X95.787 Y93.787 F10800
G1 Z.2 F720
G1 E.8 F2100
M204 S800
;TYPE:Perimeter
G1 F1200
G1 X154.213 Y93.787 E1.8319
G1 X154.213 Y116.213 E.70315
G1 X95.787 Y116.213 E1.8319
G1 X95.787 Y93.847 E.70127
M204 S1000
G1 X95.41 Y93.41 F10800
M204 S800
;TYPE:External perimeter
G1 F1200
G1 X154.59 Y93.41 E1.85555
G1 X154.59 Y116.59 E.72679
M73 P1 R43
M73 Q1 S43
G1 X95.41 Y116.59 E1.85555
G1 X95.41 Y93.47 E.72491
M204 S1000
G1 X95.807 Y93.46 F10800
;WIPE_START
G1 F8640
G1 X98.701 Y93.467 E-.76
;WIPE_END
G1 E-.04 F2100
G1 Z.6 F720
G1 X153.333 Y93.9 F10800
G1 Z.2 F720
G1 E.8 F2100
M204 S800
;TYPE:Solid infill
;WIDTH:0.422281
G1 F1200
G1 X153.93 Y94.498 E.02665
G1 X153.93 Y95.034 E.01692
G1 X152.966 Y94.07 E.04301
G1 X152.429 Y94.07 E.01692
G1 X153.93 Y95.571 E.06695
G1 X153.93 Y96.107 E.01692
G1 X151.893 Y94.07 E.09088
G1 X151.356 Y94.07 E.01692
G1 X153.93 Y96.644 E.11481
G1 X153.93 Y97.18 E.01692
G1 X150.82 Y94.07 E.13875
G1 X150.283 Y94.07 E.01692
G1 X153.93 Y97.717 E.16268
G1 X153.93 Y98.253 E.01692
G1 X149.747 Y94.07 E.18661
G1 X149.21 Y94.07 E.01692
G1 X153.93 Y98.79 E.21055
G1 X153.93 Y99.326 E.01692
G1 X148.674 Y94.07 E.23448
G1 X148.137 Y94.07 E.01692
G1 X153.93 Y99.863 E.25841
G1 X153.93 Y100.399 E.01692
G1 X147.601 Y94.07 E.28235
G1 X147.064 Y94.07 E.01692
G1 X153.93 Y100.936 E.30628
G1 X153.93 Y101.472 E.01692
G1 X146.528 Y94.07 E.33021
G1 X145.991 Y94.07 E.01692
G1 X153.93 Y102.009 E.35415
G1 X153.93 Y102.545 E.01692
G1 X145.455 Y94.07 E.37808
G1 X144.918 Y94.07 E.01692
G1 X153.93 Y103.082 E.40201
G1 X153.93 Y103.618 E.01692
G1 X144.382 Y94.07 E.42594
G1 X143.845 Y94.07 E.01692
G1 X153.93 Y104.155 E.44988
G1 X153.93 Y104.691 E.01692
G1 X143.309 Y94.07 E.47381
G1 X142.772 Y94.07 E.01692
G1 X153.93 Y105.228 E.49774
G1 X153.93 Y105.764 E.01692
G1 X142.236 Y94.07 E.52168
G1 X141.699 Y94.07 E.01692
G1 X153.93 Y106.301 E.54561
G1 X153.93 Y106.837 E.01692
G1 X141.163 Y94.07 E.56954
G1 X140.626 Y94.07 E.01692
G1 X153.93 Y107.374 E.59348
G1 X153.93 Y107.91 E.01692
G1 X140.09 Y94.07 E.61741
G1 X139.553 Y94.07 E.01692
G1 X153.93 Y108.447 E.64134
G1 X153.93 Y108.983 E.01692
M73 P1 R42
G1 X139.017 Y94.07 E.66528
G1 X138.48 Y94.07 E.01692
G1 X153.93 Y109.52 E.68921
G1 X153.93 Y110.056 E.01692
G1 X137.944 Y94.07 E.71314
G1 X137.407 Y94.07 E.01692
M73 Q2 S43
G1 X153.93 Y110.593 E.73708
G1 X153.93 Y111.129 E.01692
M73 P2 R42
G1 X136.871 Y94.07 E.76101
G1 X136.334 Y94.07 E.01692
G1 X153.93 Y111.666 E.78494
G1 X153.93 Y112.202 E.01692
G1 X135.798 Y94.07 E.80887
G1 X135.261 Y94.07 E.01692
M73 Q2 S42
G1 X153.93 Y112.739 E.83281
G1 X153.93 Y113.275 E.01692
G1 X134.725 Y94.07 E.85674
G1 X134.188 Y94.07 E.01692
G1 X153.93 Y113.812 E.88067
G1 X153.93 Y114.348 E.01692
G1 X133.652 Y94.07 E.90461
G1 X133.115 Y94.07 E.01692
G1 X153.93 Y114.885 E.92854
G1 X153.93 Y115.421 E.01692
G1 X132.579 Y94.07 E.95247
G1 X132.042 Y94.07 E.01692
G1 X153.903 Y115.93 E.97518
G1 X153.366 Y115.93 E.01692
G1 X131.506 Y94.07 E.97518
G1 X130.969 Y94.07 E.01692
G1 X152.83 Y115.93 E.97518
G1 X152.293 Y115.93 E.01692
G1 X130.433 Y94.07 E.97518
G1 X129.896 Y94.07 E.01692
G1 X151.757 Y115.93 E.97518
G1 X151.22 Y115.93 E.01692
G1 X129.36 Y94.07 E.97518
G1 X128.824 Y94.07 E.01692
G1 X150.684 Y115.93 E.97518
G1 X150.147 Y115.93 E.01692
G1 X128.287 Y94.07 E.97518
G1 X127.751 Y94.07 E.01692
M73 P3 R42
M73 Q3 S42
G1 X149.611 Y115.93 E.97518
G1 X149.074 Y115.93 E.01692
G1 X127.214 Y94.07 E.97518
G1 X126.678 Y94.07 E.01692
G1 X148.538 Y115.93 E.97518
G1 X148.001 Y115.93 E.01692
G1 X126.141 Y94.07 E.97518
G1 X125.605 Y94.07 E.01692
G1 X147.465 Y115.93 E.97518
G1 X146.928 Y115.93 E.01692
G1 X125.068 Y94.07 E.97518
G1 X124.532 Y94.07 E.01692
G1 X146.392 Y115.93 E.97518
G1 X145.855 Y115.93 E.01692
G1 X123.995 Y94.07 E.97518
G1 X123.459 Y94.07 E.01692
G1 X145.319 Y115.93 E.97518
G1 X144.782 Y115.93 E.01692
G1 X122.922 Y94.07 E.97518
G1 X122.386 Y94.07 E.01692
G1 X144.246 Y115.93 E.97518
G1 X143.709 Y115.93 E.01692
G1 X121.849 Y94.07 E.97518
G1 X121.313 Y94.07 E.01692
G1 X143.173 Y115.93 E.97518
G1 X142.636 Y115.93 E.01692
G1 X120.776 Y94.07 E.97518
G1 X120.24 Y94.07 E.01692
G1 X142.1 Y115.93 E.97518
G1 X141.563 Y115.93 E.01692
G1 X119.703 Y94.07 E.97518
G1 X119.167 Y94.07 E.01692
G1 X141.027 Y115.93 E.97518
G1 X140.49 Y115.93 E.01692
M73 P4 R42
M73 Q4 S42
G1 X118.63 Y94.07 E.97518
G1 X118.094 Y94.07 E.01692
G1 X139.954 Y115.93 E.97518
G1 X139.417 Y115.93 E.01692
M73 P4 R41
G1 X117.557 Y94.07 E.97518
G1 X117.021 Y94.07 E.01692
G1 X138.881 Y115.93 E.97518
G1 X138.344 Y115.93 E.01692
G1 X116.484 Y94.07 E.97518
G1 X115.948 Y94.07 E.01692
G1 X137.808 Y115.93 E.97518
G1 X137.271 Y115.93 E.01692
G1 X115.411 Y94.07 E.97518
G1 X114.875 Y94.07 E.01692
M73 Q4 S41
G1 X136.735 Y115.93 E.97518
G1 X136.198 Y115.93 E.01692
G1 X114.338 Y94.07 E.97518
G1 X113.802 Y94.07 E.01692
G1 X135.662 Y115.93 E.97518
G1 X135.125 Y115.93 E.01692
G1 X113.265 Y94.07 E.97518
G1 X112.729 Y94.07 E.01692
G1 X134.589 Y115.93 E.97518
G1 X134.052 Y115.93 E.01692
G1 X112.192 Y94.07 E.97518
G1 X111.656 Y94.07 E.01692
G1 X133.516 Y115.93 E.97518
G1 X132.979 Y115.93 E.01692
G1 X111.119 Y94.07 E.97518
G1 X110.583 Y94.07 E.01692
G1 X132.443 Y115.93 E.97518
G1 X131.906 Y115.93 E.01692
M73 Q5 S41
G1 X110.046 Y94.07 E.97518
G1 X109.51 Y94.07 E.01692
M73 P5 R41
G1 X131.37 Y115.93 E.97518
G1 X130.833 Y115.93 E.01692
G1 X108.973 Y94.07 E.97518
G1 X108.437 Y94.07 E.01692
G1 X130.297 Y115.93 E.97518
G1 X129.76 Y115.93 E.01692
G1 X107.9 Y94.07 E.97518
G1 X107.364 Y94.07 E.01692
G1 X129.224 Y115.93 E.97518
G1 X128.687 Y115.93 E.01692
G1 X106.827 Y94.07 E.97518
G1 X106.291 Y94.07 E.01692
G1 X128.151 Y115.93 E.97518
G1 X127.614 Y115.93 E.01692
G1 X105.754 Y94.07 E.97518
G1 X105.218 Y94.07 E.01692
G1 X127.078 Y115.93 E.97518
G1 X126.541 Y115.93 E.01692
G1 X104.681 Y94.07 E.97518
G1 X104.145 Y94.07 E.01692
G1 X126.005 Y115.93 E.97518
G1 X125.468 Y115.93 E.01692
G1 X103.608 Y94.07 E.97518
G1 X103.072 Y94.07 E.01692
G1 X124.932 Y115.93 E.97518
G1 X124.395 Y115.93 E.01692
G1 X102.535 Y94.07 E.97518
G1 X101.999 Y94.07 E.01692
G1 X123.859 Y115.93 E.97518
G1 X123.322 Y115.93 E.01692
G1 X101.462 Y94.07 E.97518
G1 X100.926 Y94.07 E.01692
M73 P6 R41
M73 Q6 S41
G1 X122.786 Y115.93 E.97518
G1 X122.249 Y115.93 E.01692
G1 X100.389 Y94.07 E.97518
G1 X99.853 Y94.07 E.01692
G1 X121.713 Y115.93 E.97518
G1 X121.176 Y115.93 E.01692
G1 X99.316 Y94.07 E.97518
G1 X98.78 Y94.07 E.01692
G1 X120.64 Y115.93 E.97518
G1 X120.103 Y115.93 E.01692
G1 X98.243 Y94.07 E.97518
G1 X97.707 Y94.07 E.01692
G1 X119.567 Y115.93 E.97518
G1 X119.03 Y115.93 E.01692
M73 P6 R40
G1 X97.17 Y94.07 E.97518
G1 X96.634 Y94.07 E.01692
G1 X118.494 Y115.93 E.97518
G1 X117.957 Y115.93 E.01692
G1 X96.097 Y94.07 E.97518
G1 X96.07 Y94.07 E.00086
G1 X96.07 Y94.579 E.01606
G1 X117.421 Y115.93 E.95247
G1 X116.884 Y115.93 E.01692
G1 X96.07 Y95.116 E.92854
G1 X96.07 Y95.652 E.01692
M73 Q6 S40
G1 X116.348 Y115.93 E.9046
G1 X115.811 Y115.93 E.01692
G1 X96.07 Y96.189 E.88067
G1 X96.07 Y96.725 E.01692
G1 X115.275 Y115.93 E.85674
G1 X114.738 Y115.93 E.01692
G1 X96.07 Y97.262 E.8328
G1 X96.07 Y97.798 E.01692
G1 X114.202 Y115.93 E.80887
G1 X113.665 Y115.93 E.01692
M73 P7 R40
M73 Q7 S40
G1 X96.07 Y98.335 E.78494
G1 X96.07 Y98.871 E.01692
G1 X113.129 Y115.93 E.761
G1 X112.592 Y115.93 E.01692
G1 X96.07 Y99.408 E.73707
G1 X96.07 Y99.944 E.01692
G1 X112.056 Y115.93 E.71314
G1 X111.519 Y115.93 E.01692
G1 X96.07 Y100.481 E.6892
G1 X96.07 Y101.017 E.01692
G1 X110.983 Y115.93 E.66527
G1 X110.446 Y115.93 E.01692
G1 X96.07 Y101.554 E.64134
G1 X96.07 Y102.09 E.01692
G1 X109.91 Y115.93 E.6174
G1 X109.373 Y115.93 E.01692
G1 X96.07 Y102.627 E.59347
G1 X96.07 Y103.163 E.01692
G1 X108.837 Y115.93 E.56954
G1 X108.3 Y115.93 E.01692
G1 X96.07 Y103.7 E.54561
G1 X96.07 Y104.236 E.01692
G1 X107.764 Y115.93 E.52167
G1 X107.227 Y115.93 E.01692
G1 X96.07 Y104.773 E.49774
G1 X96.07 Y105.309 E.01692
G1 X106.691 Y115.93 E.47381
G1 X106.154 Y115.93 E.01692
G1 X96.07 Y105.846 E.44987
G1 X96.07 Y106.382 E.01692
G1 X105.618 Y115.93 E.42594
G1 X105.081 Y115.93 E.01692
G1 X96.07 Y106.919 E.40201
G1 X96.07 Y107.455 E.01692
G1 X104.545 Y115.93 E.37807
G1 X104.008 Y115.93 E.01692
G1 X96.07 Y107.992 E.35414
G1 X96.07 Y108.528 E.01692
G1 X103.472 Y115.93 E.33021
G1 X102.935 Y115.93 E.01692
G1 X96.07 Y109.065 E.30627
G1 X96.07 Y109.601 E.01692
G1 X102.399 Y115.93 E.28234
G1 X101.862 Y115.93 E.01692
G1 X96.07 Y110.138 E.25841
G1 X96.07 Y110.674 E.01692
G1 X101.326 Y115.93 E.23447
G1 X100.789 Y115.93 E.01692
G1 X96.07 Y111.211 E.21054
G1 X96.07 Y111.747 E.01692
G1 X100.253 Y115.93 E.18661
G1 X99.716 Y115.93 E.01692
G1 X96.07 Y112.284 E.16268
G1 X96.07 Y112.82 E.01692
G1 X99.18 Y115.93 E.13874
G1 X98.643 Y115.93 E.01692
G1 X96.07 Y113.357 E.11481
G1 X96.07 Y113.893 E.01692
G1 X98.107 Y115.93 E.09088
G1 X97.571 Y115.93 E.01692
G1 X96.07 Y114.429 E.06694
G1 X96.07 Y114.966 E.01692
G1 X97.034 Y115.93 E.04301
G1 X96.498 Y115.93 E.01692
G1 X95.9 Y115.333 E.02665
M204 S1000
; stop printing object WetterstationsAbdeckung.stl id:0 copy 0
M106 S84.15
;LAYER_CHANGE
;Z:0.5
;HEIGHT:0.3
;BEFORE_LAYER_CHANGE
G92 E0.0
;0.5


;WIPE_START
G1 F8640
G1 X96.498 Y115.93 E-.19505
G1 X97.034 Y115.93 E-.12388
G1 X96.07 Y114.966 E-.31483
G1 X96.07 Y114.429 E-.12388
G1 X96.077 Y114.437 E-.00236
;WIPE_END
G1 E-.04 F2100
G1 Z.6 F720
;AFTER_LAYER_CHANGE
;0.5
M104 S210 ; set temperature
G1 X92.623 Y114.437 F10800
G1 Z.5 F720
G1 E.8 F2100
;TYPE:Skirt/Brim
;WIDTH:0.42
G1 F2700
G1 X92.623 Y93 E.95082
G1 X93.015 Y91.693 E.06052
G1 X94.06 Y90.817 E.06052
G1 X95 Y90.623 E.04256
G1 X155 Y90.623 E2.66129
G1 X156.307 Y91.015 E.06052
G1 X157.183 Y92.06 E.06052
G1 X157.377 Y93 E.04256
G1 X157.377 Y117 E1.06452
G1 X156.985 Y118.307 E.06052
G1 X155.94 Y119.183 E.06052
G1 X155 Y119.377 E.04256
G1 X95 Y119.377 E2.66129
G1 X93.693 Y118.985 E.06052
M73 P8 R40
M73 Q8 S40
G1 X92.817 Y117.94 E.06052
G1 X92.623 Y117 E.04256
G1 X92.623 Y114.497 E.11103
; printing object WetterstationsAbdeckung.stl id:0 copy 0
;WIPE_START
G1 F8640
G1 X92.623 Y111.205 E-.76
;WIPE_END
G1 E-.04 F2100
G1 Z.9 F720
G1 X95.786 Y116.214 F10800
G1 Z.5 F720
G1 E.8 F2100
M204 S800
;TYPE:Perimeter
;WIDTH:0.5
G1 F3000
G1 X95.786 Y93.786 E1.21862
G1 X154.214 Y93.786 E3.1746
G1 X154.214 Y116.214 E1.21862
G1 X95.846 Y116.214 E3.17134
M204 S1000
G1 X95.3 Y116.7 F10800
M204 S800
;TYPE:External perimeter
;WIDTH:0.6
G1 F2100
G1 X95.3 Y93.3 E1.56325
G1 X154.7 Y93.3 E3.96824
G1 X154.7 Y116.7 E1.56325
G1 X95.36 Y116.7 E3.96423
M204 S1000
G1 X95.455 Y116.331 F10800
;WIPE_START
G1 F8640
G1 X95.352 Y113.409 E-.76
;WIPE_END
G1 E-.04 F2100
G1 Z.9 F720
G1 X154.084 Y115.199 F10800
G1 Z.5 F720
G1 E.8 F2100
;TYPE:Solid infill
;WIDTH:0.501818
G1 F4800
G1 X153.395 Y115.888 E.05312
G1 X152.777 Y115.888 E.03375
G1 X153.888 Y114.777 E.08573
G1 X153.888 Y114.158 E.03375
G1 X152.158 Y115.888 E.13346
G1 X151.539 Y115.888 E.03375
G1 X153.888 Y113.539 E.18119
G1 X153.888 Y112.921 E.03375
G1 X150.921 Y115.888 E.22892
G1 X150.302 Y115.888 E.03375
G1 X153.888 Y112.302 E.27666
G1 X153.888 Y111.683 E.03375
G1 X149.683 Y115.888 E.32439
G1 X149.065 Y115.888 E.03375
G1 X153.888 Y111.065 E.37212
G1 X153.888 Y110.446 E.03375
G1 X148.446 Y115.888 E.41985
G1 X147.828 Y115.888 E.03375
G1 X153.888 Y109.828 E.46759
G1 X153.888 Y109.209 E.03375
G1 X147.209 Y115.888 E.51532
G1 X146.59 Y115.888 E.03375
G1 X153.888 Y108.59 E.56305
G1 X153.888 Y107.972 E.03375
G1 X145.972 Y115.888 E.61079
G1 X145.353 Y115.888 E.03375
G1 X153.888 Y107.353 E.65852
G1 X153.888 Y106.734 E.03375
G1 X144.734 Y115.888 E.70625
G1 X144.116 Y115.888 E.03375
G1 X153.888 Y106.116 E.75398
G1 X153.888 Y105.497 E.03375
G1 X143.497 Y115.888 E.80172
G1 X142.879 Y115.888 E.03375
G1 X153.888 Y104.879 E.84945
G1 X153.888 Y104.26 E.03375
G1 X142.26 Y115.888 E.89718
G1 X141.641 Y115.888 E.03375
G1 X153.888 Y103.641 E.94491
G1 X153.888 Y103.023 E.03375
G1 X141.023 Y115.888 E.99265
G1 X140.404 Y115.888 E.03375
G1 X153.888 Y102.404 E1.04038
G1 X153.888 Y101.785 E.03375
G1 X139.785 Y115.888 E1.08811
G1 X139.167 Y115.888 E.03375
G1 X153.888 Y101.167 E1.13585
G1 X153.888 Y100.548 E.03375
G1 X138.548 Y115.888 E1.18358
G1 X137.93 Y115.888 E.03375
G1 X153.888 Y99.93 E1.23131
G1 X153.888 Y99.311 E.03375
G1 X137.311 Y115.888 E1.27904
G1 X136.692 Y115.888 E.03375
G1 X153.888 Y98.692 E1.32678
G1 X153.888 Y98.074 E.03375
G1 X136.074 Y115.888 E1.37451
G1 X135.455 Y115.888 E.03375
G1 X153.888 Y97.455 E1.42224
G1 X153.888 Y96.836 E.03375
G1 X134.836 Y115.888 E1.46997
G1 X134.218 Y115.888 E.03375
M73 P8 R39
G1 X153.888 Y96.218 E1.51771
G1 X153.888 Y95.599 E.03375
G1 X133.599 Y115.888 E1.56544
G1 X132.981 Y115.888 E.03375
G1 X153.888 Y94.981 E1.61317
G1 X153.888 Y94.362 E.03375
G1 X132.362 Y115.888 E1.66091
G1 X131.743 Y115.888 E.03375
G1 X153.519 Y94.112 E1.68016
G1 X152.9 Y94.112 E.03375
G1 X131.125 Y115.888 E1.68016
G1 X130.506 Y115.888 E.03375
G1 X152.281 Y94.112 E1.68016
G1 X151.663 Y94.112 E.03375
G1 X129.887 Y115.888 E1.68016
G1 X129.269 Y115.888 E.03375
G1 X151.044 Y94.112 E1.68016
G1 X150.425 Y94.112 E.03375
G1 X128.65 Y115.888 E1.68016
G1 X128.031 Y115.888 E.03375
G1 X149.807 Y94.112 E1.68016
G1 X149.188 Y94.112 E.03375
G1 X127.413 Y115.888 E1.68016
G1 X126.794 Y115.888 E.03375
G1 X148.57 Y94.112 E1.68016
G1 X147.951 Y94.112 E.03375
G1 X126.176 Y115.888 E1.68016
G1 X125.557 Y115.888 E.03375
G1 X147.332 Y94.112 E1.68016
G1 X146.714 Y94.112 E.03375
G1 X124.938 Y115.888 E1.68016
G1 X124.32 Y115.888 E.03375
M73 P9 R39
M73 Q9 S39
G1 X146.095 Y94.112 E1.68016
G1 X145.476 Y94.112 E.03375
G1 X123.701 Y115.888 E1.68016
G1 X123.082 Y115.888 E.03375
G1 X144.858 Y94.112 E1.68016
G1 X144.239 Y94.112 E.03375
G1 X122.464 Y115.888 E1.68016
G1 X121.845 Y115.888 E.03375
G1 X143.621 Y94.112 E1.68016
G1 X143.002 Y94.112 E.03375
