; generated by PrusaSlicer 2.4.1+win64 on 2022-11-02 at 13:58:03 UTC


;
;
; 

; external perimeters extrusion width = 0.60mm
; perimeters extrusion width = 0.50mm
; infill extrusion width = 0.50mm
; solid infill extrusion width = 0.50mm
; top infill extrusion width = 0.45mm
; first layer extrusion width = 0.42mm

M73 P0 R12
M73 C9
M73 Q0 S12
M73 D9
M201 X1000 Y1000 Z200 E5000 ; sets maximum accelerations, mm/sec^2
M203 X200 Y200 Z12 E120 ; sets maximum feedrates, mm / sec
M204 P1250 R1250 T1250 ; sets acceleration (P, T) and retract acceleration (R), mm/sec^2
M205 X8.00 Y8.00 Z0.40 E4.50 ; sets the jerk limits, mm/sec
M205 S0 T0 ; sets the minimum extruding and travel feed rate, mm/sec
M107
;TYPE:Custom
M862.3 P "MK3S" ; printer model check
M862.1 P0.4 ; nozzle diameter check
M115 U3.11.0 ; tell printer latest fw version
G90 ; use absolute coordinates
M83 ; extruder relative mode
M104 S215 ; set extruder temp
M140 S60 ; set bed temp
M190 S60 ; wait for bed temp
M109 S215 ; wait for extruder temp
G28 W ; home all without mesh bed level
G80 ; mesh bed leveling

G1 Z0.2 F720
G1 Y-3 F1000 ; go outside print area
G92 E0
G1 X60 E9 F1000 ; intro line
G1 X100 E12.5 F1000 ; intro line

G92 E0
M221 S95

; Don't change E values below. Excessive value can damage the printer.

M907 E538 ; set extruder motor current
G21 ; set units to millimeters
G90 ; use absolute coordinates
M83 ; use relative distances for extrusion
M900 K0.05 ; Filament gcode LA 1.5
M900 K30 ; Filament gcode LA 1.0
M107
;LAYER_CHANGE
;Z:0.2
;HEIGHT:0.2
;BEFORE_LAYER_CHANGE
G92 E0.0
;0.2


G1 E-.8 F2100
G1 Z.4 F720
;AFTER_LAYER_CHANGE
;0.2
G1 X103.178 Y100.865 F10800
G1 Z.2 F720
G1 E.8 F2100
M204 S800
;TYPE:Skirt/Brim
;WIDTH:0.42
G1 F1200
M73 Q1 S12
G1 X104.208 Y99.865 E.04504
G1 X123.923 Y83.032 E.81278
G1 X125.171 Y82.481 E.04278
M73 P1 R12
G1 X127.071 Y83.087 E.06253
G1 X146.054 Y100.466 E.80696
G1 X147.101 Y101.551 E.04729
G1 X147.686 Y102.297 E.02973
G1 X148.439 Y103.486 E.04411
G1 X149.154 Y105.064 E.05432
G1 X149.544 Y106.399 E.04361
G1 X149.709 Y107.331 E.02967
G1 X149.784 Y108.109 E.02453
G1 X149.775 Y109.49 E.0433
G1 X149.666 Y110.432 E.02972
G1 X149.358 Y111.786 E.04356
G1 X148.855 Y113.157 E.04577
G1 X148.353 Y114.184 E.03586
G1 X147.553 Y115.451 E.04698
G1 X146.523 Y116.71 E.051
G1 X145.808 Y117.424 E.03168
G1 X144.516 Y118.484 E.05239
G1 X142.636 Y119.632 E.06908
G1 X129.004 Y126.675 E.4811
G1 X127.732 Y127.129 E.04233
G1 X126.827 Y127.345 E.02918
G1 X125.481 Y127.516 E.04254
G1 X123.955 Y127.504 E.04784
G1 X123.029 Y127.391 E.02926
G1 X121.714 Y127.085 E.04234
G1 X120.137 Y126.464 E.05312
G1 X106.494 Y118.82 E.49034
G1 X105.637 Y118.261 E.03208
G1 X104.463 Y117.336 E.04688
G1 X103.63 Y116.534 E.03624
G1 X102.665 Y115.411 E.04642
G1 X101.765 Y114.056 E.05102
G1 X101.097 Y112.71 E.04711
G1 X100.745 Y111.768 E.03153
G1 X100.36 Y110.251 E.04906
G1 X100.205 Y108.877 E.04337
G1 X100.245 Y107.324 E.04871
G1 X100.552 Y105.622 E.05422
G1 X100.991 Y104.306 E.04349
G1 X101.387 Y103.441 E.02984
G1 X102.566 Y101.589 E.06881
G1 X103.139 Y100.911 E.02785
M204 S1000
; printing object HerzSarah.stl id:0 copy 0
;WIPE_START
G1 F8640
G1 X104.208 Y99.865 E-.34549
G1 X105.574 Y98.699 E-.41451
;WIPE_END
G1 E-.04 F2100
G1 Z.6 F720
G1 X120.498 Y116.22 F10800
G1 Z.2 F720
M73 Q2 S12
G1 E.8 F2100
M204 S800
;TYPE:Perimeter
G1 F1200
G1 X121.229 Y115.748 E.02729
G1 X121.752 Y115.366 E.0203
G1 X122.245 Y114.957 E.02009
G1 X122.708 Y114.523 E.0199
G1 X123.141 Y114.066 E.01976
G1 X123.539 Y113.587 E.01953
G1 X123.904 Y113.087 E.0194
M73 P2 R12
G1 X124.937 Y111.46 E.06042
G1 X125.911 Y113.122 E.06038
G1 X126.255 Y113.632 E.0193
G1 X126.634 Y114.123 E.01944
G1 X127.047 Y114.593 E.01962
G1 X127.493 Y115.04 E.01981
G1 X127.97 Y115.464 E.02001
G1 X128.476 Y115.861 E.02016
G1 X129.189 Y116.356 E.02723
G1 X129.483 Y116.937 E.02042
G1 X129.653 Y117.4 E.01546
G1 X129.767 Y117.878 E.01541
G1 X129.824 Y118.365 E.01537
G1 X129.823 Y118.856 E.01538
G1 X129.762 Y119.343 E.01539
G1 X129.645 Y119.82 E.0154
G1 X129.472 Y120.282 E.01547
G1 X129.246 Y120.723 E.01555
G1 X128.969 Y121.138 E.01564
G1 X128.649 Y121.521 E.01567
G1 X128.285 Y121.872 E.01583
G1 X127.884 Y122.184 E.01594
G1 X127.452 Y122.455 E.01598
G1 X126.991 Y122.683 E.01614
G1 X126.508 Y122.866 E.01621
G1 X126.008 Y123.003 E.01624
G1 X125.495 Y123.093 E.01634
G1 X124.974 Y123.134 E.01639
G1 X124.452 Y123.125 E.01637
G1 X123.933 Y123.068 E.01636
G1 X123.425 Y122.963 E.01628
G1 X122.928 Y122.811 E.01627
G1 X122.453 Y122.613 E.01615
G1 X122.001 Y122.371 E.01609
G1 X121.578 Y122.085 E.016
G1 X121.19 Y121.761 E.01585
G1 X120.839 Y121.399 E.0158
G1 X120.532 Y121.003 E.01571
G1 X120.273 Y120.58 E.01555
G1 X120.063 Y120.132 E.01551
G1 X119.908 Y119.664 E.01548
G1 X119.81 Y119.183 E.01537
G1 X119.769 Y118.694 E.0154
G1 X119.786 Y118.203 E.01539
G1 X119.863 Y117.719 E.01539
G1 X119.996 Y117.245 E.01542
G1 X120.183 Y116.789 E.01548
G1 X120.469 Y116.273 E.01849
M204 S1000
G1 X120.782 Y116.486 F10800
M204 S800
;TYPE:External perimeter
G1 F1200
G1 X121.442 Y116.059 E.02466
G1 X121.983 Y115.664 E.02099
G1 X122.494 Y115.241 E.02081
G1 X122.974 Y114.791 E.02062
G1 X123.423 Y114.316 E.02049
G1 X123.837 Y113.819 E.02028
G1 X124.216 Y113.299 E.02015
G1 X124.924 Y112.184 E.04143
G1 X125.591 Y113.323 E.04138
G1 X125.949 Y113.853 E.02005
G1 X126.342 Y114.363 E.0202
G1 X126.772 Y114.851 E.02038
G1 X127.234 Y115.314 E.02053
G1 X127.728 Y115.754 E.02073
G1 X128.252 Y116.165 E.02088
G1 X128.896 Y116.611 E.02458
G1 X129.137 Y117.087 E.01673
G1 X129.291 Y117.509 E.01409
G1 X129.395 Y117.944 E.01402
G1 X129.447 Y118.387 E.01397
G1 X129.446 Y118.832 E.01396
G1 X129.391 Y119.274 E.01398
G1 X129.284 Y119.708 E.01401
G1 X129.127 Y120.129 E.01409
G1 X128.92 Y120.532 E.01419
G1 X128.667 Y120.912 E.01432
G1 X128.372 Y121.264 E.01439
G1 X128.038 Y121.586 E.01457
G1 X127.667 Y121.874 E.01471
G1 X127.268 Y122.125 E.0148
G1 X126.84 Y122.337 E.01496
G1 X126.391 Y122.507 E.01506
G1 X125.926 Y122.635 E.01513
G1 X125.447 Y122.718 E.01522
G1 X124.962 Y122.756 E.01527
G1 X124.475 Y122.749 E.01526
G1 X123.992 Y122.695 E.01525
G1 X123.518 Y122.598 E.01517
G1 X123.057 Y122.456 E.01514
G1 X122.615 Y122.272 E.01501
G1 X122.196 Y122.047 E.01491
G1 X121.805 Y121.783 E.01479
G1 X121.447 Y121.484 E.01463
G1 X121.124 Y121.151 E.01453
G1 X120.842 Y120.788 E.0144
G1 X120.605 Y120.401 E.01423
G1 X120.414 Y119.993 E.01415
G1 X120.273 Y119.566 E.01409
G1 X120.183 Y119.13 E.01397
G1 X120.146 Y118.685 E.01399
G1 X120.162 Y118.24 E.01397
G1 X120.232 Y117.799 E.01398
G1 X120.353 Y117.368 E.01404
G1 X120.524 Y116.952 E.0141
G1 X120.753 Y116.538 E.01484
M204 S1000
G1 X120.69 Y116.096 F10800
;WIPE_START
G1 F8640
M73 C8
G1 X121.442 Y116.059 E-.19391
G1 X121.983 Y115.664 E-.15459
G1 X122.494 Y115.241 E-.15325
G1 X122.974 Y114.791 E-.15186
G1 X123.291 Y114.456 E-.1064
;WIPE_END
G1 E-.04 F2100
G1 Z.6 F720
G1 X118.181 Y117.302 F10800
G1 Z.2 F720
G1 E.8 F2100
M204 S800
;TYPE:Perimeter
M73 D8
G1 F1200
G1 X116.547 Y117.632 E.05227
G1 X115.871 Y117.73 E.02142
G1 X115.188 Y117.792 E.02148
G1 X114.503 Y117.816 E.02151
G1 X113.817 Y117.803 E.02152
G1 X113.133 Y117.753 E.02149
G1 X112.455 Y117.666 E.02144
G1 X111.784 Y117.542 E.02139
G1 X111.123 Y117.383 E.02131
G1 X110.475 Y117.188 E.02122
G1 X109.843 Y116.957 E.02108
G1 X109.228 Y116.693 E.02099
G1 X108.633 Y116.398 E.02083
G1 X108.061 Y116.07 E.02065
G1 X107.514 Y115.713 E.02052
G1 X106.992 Y115.328 E.02033
G1 X106.501 Y114.915 E.02013
G1 X106.038 Y114.476 E.01998
G1 X105.608 Y114.015 E.01977
G1 X105.212 Y113.533 E.01957
G1 X104.851 Y113.03 E.01939
G1 X104.526 Y112.51 E.01925
G1 X104.237 Y111.973 E.0191
G1 X103.988 Y111.423 E.01893
G1 X103.776 Y110.862 E.01881
G1 X103.606 Y110.291 E.01868
G1 X103.485 Y109.753 E.01728
G1 X103.404 Y109.21 E.0172
G1 X103.362 Y108.665 E.01714
G1 X103.361 Y108.119 E.01714
G1 X103.399 Y107.572 E.01718
G1 X103.477 Y107.029 E.01722
G1 X103.594 Y106.492 E.01724
G1 X103.751 Y105.961 E.01736
G1 X103.945 Y105.44 E.01742
G1 X104.179 Y104.929 E.01761
G1 X104.45 Y104.433 E.01773
G1 X104.756 Y103.951 E.01789
G1 X105.097 Y103.488 E.01804
G1 X105.472 Y103.044 E.01823
G1 X105.881 Y102.621 E.01843
G1 X106.328 Y102.214 E.01898
G1 X125.448 Y85.89 E.78823
G1 X143.908 Y102.791 E.78475
G1 X144.34 Y103.212 E.01891
M73 Q3 S12
G1 X144.73 Y103.646 E.0183
G1 X145.086 Y104.101 E.01811
G1 X145.41 Y104.575 E.018
G1 X145.697 Y105.064 E.01778
G1 X145.947 Y105.569 E.01764
M73 P3 R12
G1 X146.16 Y106.086 E.01754
G1 X146.334 Y106.612 E.01736
G1 X146.469 Y107.146 E.0173
G1 X146.565 Y107.688 E.01724
G1 X146.622 Y108.233 E.01718
G1 X146.638 Y108.779 E.01713
G1 X146.615 Y109.326 E.01718
G1 X146.552 Y109.871 E.01719
G1 X146.45 Y110.41 E.01721
G1 X146.308 Y110.944 E.01732
G1 X146.114 Y111.509 E.01875
G1 X145.881 Y112.065 E.01889
G1 X145.609 Y112.607 E.01902
G1 X145.3 Y113.135 E.01917
G1 X144.955 Y113.645 E.01931
G1 X144.573 Y114.137 E.01952
G1 X144.171 Y114.592 E.01905
G1 X143.708 Y115.056 E.02055
G1 X143.229 Y115.48 E.02005
G1 X142.721 Y115.877 E.02023
G1 X142.184 Y116.247 E.02043
G1 X141.623 Y116.587 E.02058
G1 X141.037 Y116.897 E.02077
G1 X140.431 Y117.175 E.02092
G1 X139.806 Y117.42 E.02105
G1 X139.164 Y117.63 E.02116
G1 X138.509 Y117.804 E.02128
G1 X137.841 Y117.944 E.02138
G1 X137.167 Y118.047 E.02139
G1 X136.484 Y118.113 E.0215
G1 X135.799 Y118.142 E.0215
G1 X135.113 Y118.134 E.02152
G1 X134.429 Y118.088 E.02148
G1 X133.749 Y118.006 E.02146
G1 X133.078 Y117.887 E.02137
G1 X131.465 Y117.509 E.05197
G1 X131.423 Y118.963 E.04563
G1 X131.37 Y119.416 E.0143
G1 X131.275 Y119.865 E.01438
G1 X131.14 Y120.305 E.01444
G1 X130.964 Y120.736 E.01458
G1 X130.749 Y121.155 E.01476
G1 X130.496 Y121.558 E.01493
G1 X130.207 Y121.945 E.01514
G1 X129.882 Y122.31 E.01533
G1 X129.524 Y122.652 E.01554
G1 X129.134 Y122.97 E.01577
G1 X128.715 Y123.26 E.01596
G1 X128.271 Y123.519 E.01614
G1 X127.801 Y123.748 E.01637
G1 X127.313 Y123.943 E.01649
G1 X126.807 Y124.103 E.01663
G1 X126.287 Y124.227 E.01677
G1 X125.757 Y124.314 E.01682
G1 X125.222 Y124.363 E.01686
G1 X124.683 Y124.373 E.01692
G1 X124.143 Y124.345 E.01695
G1 X123.61 Y124.28 E.01684
G1 X123.083 Y124.177 E.01683
G1 X122.569 Y124.038 E.01669
G1 X122.071 Y123.862 E.01657
G1 X121.59 Y123.652 E.01645
G1 X121.131 Y123.41 E.01626
G1 X120.698 Y123.137 E.01605
G1 X120.291 Y122.835 E.0159
G1 X119.914 Y122.506 E.01568
G1 X119.571 Y122.153 E.01543
G1 X119.261 Y121.779 E.01525
G1 X118.988 Y121.385 E.01501
G1 X118.751 Y120.975 E.01486
G1 X118.553 Y120.55 E.0147
G1 X118.395 Y120.114 E.01453
G1 X118.277 Y119.669 E.01443
G1 X118.2 Y119.22 E.0143
G1 X118.164 Y118.766 E.01428
G1 X118.18 Y117.362 E.04401
M204 S1000
G1 X117.799 Y117.764 F10800
M204 S800
;TYPE:External perimeter
G1 F1200
G1 X116.611 Y118.003 E.03798
G1 X115.915 Y118.105 E.02207
G1 X115.212 Y118.168 E.02213
G1 X114.506 Y118.193 E.02215
G1 X113.799 Y118.18 E.02215
G1 X113.095 Y118.129 E.02214
G1 X112.396 Y118.039 E.02209
G1 X111.705 Y117.911 E.02204
G1 X111.024 Y117.747 E.02196
G1 X110.356 Y117.546 E.02188
G1 X109.704 Y117.308 E.02175
G1 X109.07 Y117.036 E.02165
G1 X108.455 Y116.73 E.02151
G1 X107.865 Y116.392 E.02134
G1 X107.298 Y116.022 E.0212
G1 X106.759 Y115.624 E.02104
G1 X106.249 Y115.196 E.02085
G1 X105.77 Y114.742 E.0207
G1 X105.324 Y114.264 E.02051
G1 X104.912 Y113.763 E.02033
G1 X104.538 Y113.24 E.02015
G1 X104.2 Y112.699 E.02001
G1 X103.899 Y112.141 E.01989
G1 X103.639 Y111.568 E.01972
G1 X103.419 Y110.982 E.01961
G1 X103.241 Y110.386 E.0195
G1 X103.114 Y109.823 E.01812
G1 X103.029 Y109.253 E.01806
G1 X102.985 Y108.68 E.01801
G1 X102.984 Y108.106 E.018
G1 X103.024 Y107.532 E.01803
G1 X103.106 Y106.962 E.01807
G1 X103.228 Y106.398 E.01809
G1 X103.393 Y105.841 E.01821
G1 X103.597 Y105.295 E.01826
G1 X103.842 Y104.761 E.01844
G1 X104.124 Y104.241 E.01854
G1 X104.444 Y103.738 E.0187
G1 X104.801 Y103.254 E.01884
G1 X105.192 Y102.791 E.01902
G1 X105.618 Y102.35 E.0192
G1 X106.079 Y101.931 E.01956
G1 X125.457 Y85.387 E.79887
G1 X144.167 Y102.517 E.79539
G1 X144.612 Y102.951 E.01948
G1 X145.019 Y103.404 E.01909
G1 X145.391 Y103.878 E.0189
G1 X145.728 Y104.374 E.01879
G1 X146.029 Y104.885 E.0186
G1 X146.29 Y105.413 E.01848
G1 X146.513 Y105.955 E.01837
G1 X146.696 Y106.506 E.0182
G1 X146.838 Y107.067 E.01815
G1 X146.939 Y107.635 E.01809
G1 X146.999 Y108.207 E.01804
G1 X147.016 Y108.781 E.018
G1 X146.991 Y109.356 E.01803
G1 X146.925 Y109.927 E.01804
G1 X146.818 Y110.494 E.01808
G1 X146.669 Y111.054 E.01817
G1 X146.466 Y111.644 E.01955
G1 X146.224 Y112.222 E.01968
G1 X145.941 Y112.787 E.01981
G1 X145.619 Y113.336 E.01994
G1 X145.26 Y113.866 E.02008
G1 X144.864 Y114.377 E.02027
G1 X144.446 Y114.85 E.01978
G1 X143.967 Y115.331 E.02129
G1 X143.47 Y115.77 E.02078
G1 X142.944 Y116.181 E.02094
G1 X142.389 Y116.564 E.02114
G1 X141.809 Y116.915 E.02127
G1 X141.204 Y117.235 E.02145
G1 X140.578 Y117.522 E.0216
G1 X139.933 Y117.775 E.02172
G1 X139.272 Y117.991 E.02183
M73 Q4 S12
G1 X138.596 Y118.171 E.02193
G1 X137.908 Y118.316 E.02202
G1 X137.213 Y118.422 E.02204
G1 X136.51 Y118.489 E.02215
G1 X135.805 Y118.519 E.02214
G1 X135.098 Y118.511 E.02217
G1 X134.394 Y118.464 E.02213
G1 X133.694 Y118.379 E.02211
M73 P4 R12
G1 X133.002 Y118.256 E.02202
G1 X131.828 Y117.981 E.03781
G1 X131.8 Y118.991 E.03168
G1 X131.742 Y119.478 E.01536
G1 X131.641 Y119.959 E.01544
G1 X131.495 Y120.432 E.0155
G1 X131.307 Y120.894 E.01563
G1 X131.077 Y121.341 E.01578
M73 P4 R11
G1 X130.808 Y121.772 E.01593
G1 X130.499 Y122.183 E.01613
G1 X130.154 Y122.572 E.01631
G1 X129.773 Y122.935 E.01649
G1 X129.361 Y123.272 E.0167
G1 X128.918 Y123.578 E.01688
G1 X128.449 Y123.852 E.01704
G1 X127.954 Y124.093 E.01725
G1 X127.44 Y124.299 E.01736
G1 X126.908 Y124.467 E.0175
G1 X126.361 Y124.597 E.01761
G1 X125.805 Y124.688 E.01767
G1 X125.243 Y124.739 E.01771
G1 X124.677 Y124.75 E.01775
G1 X124.11 Y124.721 E.01778
G1 X123.55 Y124.653 E.01769
G1 X122.997 Y124.544 E.01768
G1 X122.457 Y124.398 E.01755
G1 X121.932 Y124.213 E.01744
G1 X121.426 Y123.992 E.01732
G1 X120.942 Y123.737 E.01715
G1 X120.485 Y123.449 E.01695
G1 X120.054 Y123.129 E.01682
G1 X119.655 Y122.78 E.01662
G1 X119.29 Y122.406 E.01639
G1 X118.96 Y122.007 E.01624
G1 X118.669 Y121.587 E.01601
G1 X118.416 Y121.149 E.01587
G1 X118.204 Y120.694 E.01573
G1 X118.035 Y120.227 E.01557
G1 X117.908 Y119.75 E.01549
G1 X117.825 Y119.266 E.01538
G1 X117.787 Y118.778 E.01535
G1 X117.798 Y117.824 E.02993
M204 S1000
G1 X117.744 Y117.368 F10800
;WIPE_START
G1 F8640
G1 X116.611 Y118.003 E-.27716
G1 X115.915 Y118.105 E-.16251
G1 X115.212 Y118.168 E-.16295
G1 X114.531 Y118.192 E-.15737
;WIPE_END
G1 E-.04 F2100
G1 Z.6 F720
G1 X141.096 Y100.37 F10800
G1 Z.2 F720
G1 E.8 F2100
M204 S800
;TYPE:Solid infill
;WIDTH:0.421831
G1 F1200
G1 X144.147 Y103.421 E.13595
G1 X144.513 Y103.828 E.01727
M73 Q4 S11
G1 X144.858 Y104.268 E.0176
G1 X145.171 Y104.727 E.0175
G1 X145.506 Y105.315 E.02133
G1 X137.477 Y97.286 E.35775
G1 X131.135 Y91.48 E.2709
G1 X145.922 Y106.267 E.65887
G1 X146.062 Y106.691 E.01405
G1 X146.148 Y107.029 E.01099
G1 X125.412 Y86.293 E.92393
G1 X125.123 Y86.54 E.01198
G1 X146.279 Y107.697 E.94269
G1 X146.341 Y108.294 E.01892
M73 Q5 S11
G1 X124.834 Y86.787 E.95831
G1 X124.545 Y87.033 E.01198
M73 P5 R11
G1 X146.353 Y108.842 E.97171
G1 X146.327 Y109.352 E.0161
G1 X124.255 Y87.28 E.98345
G1 X123.966 Y87.527 E.01198
G1 X146.272 Y109.832 E.99386
G1 X146.186 Y110.283 E.01445
G1 X123.677 Y87.774 E1.00294
G1 X123.388 Y88.021 E.01198
M73 P6 R11
M73 Q6 S11
G1 X146.077 Y110.71 E1.01096
G1 X145.949 Y111.117 E.01346
G1 X123.099 Y88.267 E1.01813
G1 X122.81 Y88.514 E.01198
G1 X145.807 Y111.511 E1.02466
G1 X145.648 Y111.888 E.0129
G1 X122.521 Y88.761 E1.03049
G1 X122.232 Y89.008 E.01198
G1 X145.473 Y112.249 E1.03554
G1 X145.287 Y112.598 E.01248
M73 P7 R11
M73 Q7 S11
G1 X121.943 Y89.255 E1.04013
G1 X121.654 Y89.501 E.01198
G1 X145.089 Y112.936 E1.04419
G1 X144.875 Y113.258 E.01218
G1 X121.365 Y89.748 E1.04754
G1 X121.076 Y89.995 E.01198
G1 X144.653 Y113.572 E1.05053
G1 X144.419 Y113.874 E.01203
M73 P8 R11
M73 Q8 S11
G1 X120.787 Y90.242 E1.05298
G1 X120.498 Y90.489 E.01198
