; generated by PrusaSlicer 2.4.1+win64 on 2022-10-06 at 11:22:27 UTC


;
;
; 

; external perimeters extrusion width = 0.60mm
; perimeters extrusion width = 0.50mm
; infill extrusion width = 0.50mm
; solid infill extrusion width = 0.50mm
; top infill extrusion width = 0.45mm
; first layer extrusion width = 0.42mm

M73 P0 R151
M73 C119
M73 Q0 S152
M73 D119
M201 X1000 Y1000 Z200 E5000 ; sets maximum accelerations, mm/sec^2
M203 X200 Y200 Z12 E120 ; sets maximum feedrates, mm / sec
M204 P1250 R1250 T1250 ; sets acceleration (P, T) and retract acceleration (R), mm/sec^2
M205 X8.00 Y8.00 Z0.40 E4.50 ; sets the jerk limits, mm/sec
M205 S0 T0 ; sets the minimum extruding and travel feed rate, mm/sec
M107
;TYPE:Custom
M862.3 P "MK3S" ; printer model check
M862.1 P0.4 ; nozzle diameter check
M115 U3.11.0 ; tell printer latest fw version
G90 ; use absolute coordinates
M83 ; extruder relative mode
M104 S215 ; set extruder temp
M140 S60 ; set bed temp
M190 S60 ; wait for bed temp
M109 S215 ; wait for extruder temp
G28 W ; home all without mesh bed level
G80 ; mesh bed leveling

G1 Z0.2 F720
G1 Y-3 F1000 ; go outside print area
G92 E0
G1 X60 E9 F1000 ; intro line
G1 X100 E12.5 F1000 ; intro line

G92 E0
M221 S95

; Don't change E values below. Excessive value can damage the printer.

M907 E538 ; set extruder motor current
G21 ; set units to millimeters
G90 ; use absolute coordinates
M83 ; use relative distances for extrusion
M900 K0.05 ; Filament gcode LA 1.5
M900 K30 ; Filament gcode LA 1.0
M107
;LAYER_CHANGE
;Z:0.2
;HEIGHT:0.2
;BEFORE_LAYER_CHANGE
G92 E0.0
;0.2


G1 E-.8 F2100
G1 Z.4 F720
;AFTER_LAYER_CHANGE
;0.2
G1 X37.803 Y45.108 F10800
G1 Z.2 F720
G1 E.8 F2100
M204 S800
;TYPE:Skirt/Brim
;WIDTH:0.42
G1 F1200
G1 X38.06 Y44.893 E.01051
G1 X39 Y44.699 E.03008
G1 X211 Y44.699 E5.39294
G1 X212.307 Y45.091 E.04278
M73 C118
M73 D118
G1 X213.183 Y46.136 E.04278
G1 X213.377 Y47.076 E.03008
G1 X213.377 Y162.924 E3.63233
G1 X212.985 Y164.231 E.04278
M73 Q0 S151
G1 X211.94 Y165.107 E.04278
G1 X211 Y165.301 E.03008
G1 X39 Y165.301 E5.39294
G1 X37.693 Y164.909 E.04278
G1 X36.817 Y163.864 E.04278
G1 X36.623 Y162.924 E.03008
G1 X36.623 Y47.076 E3.63233
G1 X37.015 Y45.769 E.04278
G1 X37.757 Y45.146 E.03039
M204 S1000
; printing object KommeGleichDuenner3.stl id:0 copy 0
;WIPE_START
G1 F8640
G1 X38.06 Y44.893 E-.09124
G1 X39 Y44.699 E-.22155
G1 X40.937 Y44.699 E-.44721
;WIPE_END
G1 E-.04 F2100
G1 Z.6 F720
G1 X39.787 Y47.863 F10800
G1 Z.2 F720
G1 E.8 F2100
M204 S800
;TYPE:Perimeter
G1 F1200
G1 X210.213 Y47.863 E5.34358
G1 X210.213 Y162.137 E3.58298
G1 X39.787 Y162.137 E5.34358
G1 X39.787 Y47.923 E3.58109
M204 S1000
M73 P0 R150
G1 X39.41 Y47.486 F10800
M204 S800
;TYPE:External perimeter
G1 F1200
G1 X210.59 Y47.486 E5.36723
G1 X210.59 Y162.514 E3.60662
M73 C117
G1 X39.41 Y162.514 E5.36723
M73 Q0 S150
M73 D117
G1 X39.41 Y47.546 E3.60474
M204 S1000
G1 X39.802 Y47.564 F10800
;WIPE_START
M73 P1 R150
M73 Q1 S150
G1 F8640
G1 X42.701 Y47.545 E-.76
;WIPE_END
G1 E-.04 F2100
G1 Z.6 F720
G1 X209.337 Y47.976 F10800
G1 Z.2 F720
G1 E.8 F2100
M204 S800
;TYPE:Solid infill
;WIDTH:0.420117
G1 F1200
G1 X209.93 Y48.569 E.0263
G1 X209.93 Y49.102 E.01673
G1 X208.974 Y48.146 E.04243
G1 X208.44 Y48.146 E.01673
G1 X209.93 Y49.636 E.06609
G1 X209.93 Y50.169 E.01673
G1 X207.907 Y48.146 E.08975
G1 X207.373 Y48.146 E.01673
G1 X209.93 Y50.703 E.11341
G1 X209.93 Y51.236 E.01673
G1 X206.84 Y48.146 E.13707
G1 X206.306 Y48.146 E.01673
G1 X209.93 Y51.77 E.16073
G1 X209.93 Y52.303 E.01673
G1 X205.773 Y48.146 E.18439
G1 X205.239 Y48.146 E.01673
G1 X209.93 Y52.837 E.20806
G1 X209.93 Y53.37 E.01673
G1 X204.706 Y48.146 E.23172
G1 X204.173 Y48.146 E.01673
G1 X209.93 Y53.903 E.25538
G1 X209.93 Y54.437 E.01673
G1 X203.639 Y48.146 E.27904
G1 X203.106 Y48.146 E.01673
G1 X209.93 Y54.97 E.3027
G1 X209.93 Y55.504 E.01673
G1 X202.572 Y48.146 E.32636
G1 X202.039 Y48.146 E.01673
G1 X209.93 Y56.037 E.35002
G1 X209.93 Y56.571 E.01673
G1 X201.505 Y48.146 E.37368
G1 X200.972 Y48.146 E.01673
G1 X209.93 Y57.104 E.39734
G1 X209.93 Y57.637 E.01673
G1 X200.439 Y48.146 E.421
G1 X199.905 Y48.146 E.01673
G1 X209.93 Y58.171 E.44466
G1 X209.93 Y58.704 E.01673
G1 X199.372 Y48.146 E.46833
G1 X198.838 Y48.146 E.01673
G1 X209.93 Y59.238 E.49199
G1 X209.93 Y59.771 E.01673
G1 X198.305 Y48.146 E.51565
G1 X197.771 Y48.146 E.01673
G1 X209.93 Y60.305 E.53931
G1 X209.93 Y60.838 E.01673
G1 X197.238 Y48.146 E.56297
G1 X196.704 Y48.146 E.01673
G1 X209.93 Y61.372 E.58663
G1 X209.93 Y61.905 E.01673
G1 X196.171 Y48.146 E.61029
G1 X195.638 Y48.146 E.01673
G1 X209.93 Y62.438 E.63395
G1 X209.93 Y62.972 E.01673
G1 X195.104 Y48.146 E.65761
G1 X194.571 Y48.146 E.01673
G1 X209.93 Y63.505 E.68127
G1 X209.93 Y64.039 E.01673
G1 X194.037 Y48.146 E.70493
G1 X193.504 Y48.146 E.01673
G1 X209.93 Y64.572 E.72859
G1 X209.93 Y65.106 E.01673
G1 X192.97 Y48.146 E.75226
G1 X192.437 Y48.146 E.01673
M73 P1 R149
G1 X209.93 Y65.639 E.77592
G1 X209.93 Y66.172 E.01673
G1 X191.904 Y48.146 E.79958
G1 X191.37 Y48.146 E.01673
G1 X209.93 Y66.706 E.82324
G1 X209.93 Y67.239 E.01673
G1 X190.837 Y48.146 E.8469
G1 X190.303 Y48.146 E.01673
G1 X209.93 Y67.773 E.87056
G1 X209.93 Y68.306 E.01673
G1 X189.77 Y48.146 E.89422
G1 X189.236 Y48.146 E.01673
G1 X209.93 Y68.84 E.91788
G1 X209.93 Y69.373 E.01673
G1 X188.703 Y48.146 E.94154
G1 X188.169 Y48.146 E.01673
G1 X209.93 Y69.907 E.9652
G1 X209.93 Y70.44 E.01673
M73 C116
G1 X187.636 Y48.146 E.98886
G1 X187.103 Y48.146 E.01673
G1 X209.93 Y70.973 E1.01252
G1 X209.93 Y71.507 E.01673
G1 X186.569 Y48.146 E1.03619
G1 X186.036 Y48.146 E.01673
M73 D116
G1 X209.93 Y72.04 E1.05985
G1 X209.93 Y72.574 E.01673
M73 Q1 S149
G1 X185.502 Y48.146 E1.08351
G1 X184.969 Y48.146 E.01673
G1 X209.93 Y73.107 E1.10717
G1 X209.93 Y73.641 E.01673
G1 X184.435 Y48.146 E1.13083
G1 X183.902 Y48.146 E.01673
G1 X209.93 Y74.174 E1.15449
G1 X209.93 Y74.707 E.01673
G1 X183.369 Y48.146 E1.17815
G1 X182.835 Y48.146 E.01673
G1 X209.93 Y75.241 E1.20181
G1 X209.93 Y75.774 E.01673
G1 X182.302 Y48.146 E1.22547
G1 X181.768 Y48.146 E.01673
G1 X209.93 Y76.308 E1.24913
G1 X209.93 Y76.841 E.01673
G1 X181.235 Y48.146 E1.27279
G1 X180.701 Y48.146 E.01673
G1 X209.93 Y77.375 E1.29646
G1 X209.93 Y77.908 E.01673
G1 X180.168 Y48.146 E1.32012
G1 X179.634 Y48.146 E.01673
G1 X209.93 Y78.442 E1.34378
G1 X209.93 Y78.975 E.01673
G1 X179.101 Y48.146 E1.36744
G1 X178.568 Y48.146 E.01673
G1 X209.93 Y79.508 E1.3911
G1 X209.93 Y80.042 E.01673
G1 X178.034 Y48.146 E1.41476
G1 X177.501 Y48.146 E.01673
G1 X209.93 Y80.575 E1.43842
G1 X209.93 Y81.109 E.01673
G1 X176.967 Y48.146 E1.46208
G1 X176.434 Y48.146 E.01673
G1 X209.93 Y81.642 E1.48574
G1 X209.93 Y82.176 E.01673
G1 X175.9 Y48.146 E1.5094
G1 X175.367 Y48.146 E.01673
M73 P1 R148
G1 X209.93 Y82.709 E1.53306
G1 X209.93 Y83.242 E.01673
G1 X174.834 Y48.146 E1.55672
G1 X174.3 Y48.146 E.01673
G1 X209.93 Y83.776 E1.58039
G1 X209.93 Y84.309 E.01673
M73 P2 R148
M73 Q2 S149
G1 X173.767 Y48.146 E1.60405
G1 X173.233 Y48.146 E.01673
G1 X209.93 Y84.843 E1.62771
G1 X209.93 Y85.376 E.01673
M73 C115
G1 X172.7 Y48.146 E1.65137
G1 X172.166 Y48.146 E.01673
G1 X209.93 Y85.91 E1.67503
G1 X209.93 Y86.443 E.01673
M73 D115
G1 X171.633 Y48.146 E1.69869
G1 X171.1 Y48.146 E.01673
M73 Q2 S148
G1 X209.93 Y86.976 E1.72235
G1 X209.93 Y87.51 E.01673
G1 X170.566 Y48.146 E1.74601
G1 X170.033 Y48.146 E.01673
G1 X209.93 Y88.043 E1.76967
G1 X209.93 Y88.577 E.01673
G1 X169.499 Y48.146 E1.79333
G1 X168.966 Y48.146 E.01673
G1 X209.93 Y89.11 E1.81699
G1 X209.93 Y89.644 E.01673
G1 X168.432 Y48.146 E1.84066
G1 X167.899 Y48.146 E.01673
G1 X209.93 Y90.177 E1.86432
G1 X209.93 Y90.711 E.01673
G1 X167.365 Y48.146 E1.88798
G1 X166.832 Y48.146 E.01673
G1 X209.93 Y91.244 E1.91164
G1 X209.93 Y91.777 E.01673
G1 X166.299 Y48.146 E1.9353
G1 X165.765 Y48.146 E.01673
G1 X209.93 Y92.311 E1.95896
G1 X209.93 Y92.844 E.01673
G1 X165.232 Y48.146 E1.98262
G1 X164.698 Y48.146 E.01673
G1 X209.93 Y93.378 E2.00628
G1 X209.93 Y93.911 E.01673
M73 P2 R147
G1 X164.165 Y48.146 E2.02994
G1 X163.631 Y48.146 E.01673
G1 X209.93 Y94.445 E2.0536
G1 X209.93 Y94.978 E.01673
G1 X163.098 Y48.146 E2.07726
G1 X162.565 Y48.146 E.01673
G1 X209.93 Y95.511 E2.10092
G1 X209.93 Y96.045 E.01673
M73 C114
G1 X162.031 Y48.146 E2.12459
G1 X161.498 Y48.146 E.01673
G1 X209.93 Y96.578 E2.14825
G1 X209.93 Y97.112 E.01673
M73 Q2 S147
M73 D114
G1 X160.964 Y48.146 E2.17191
G1 X160.431 Y48.146 E.01673
G1 X209.93 Y97.645 E2.19557
G1 X209.93 Y98.179 E.01673
G1 X159.897 Y48.146 E2.21923
G1 X159.364 Y48.146 E.01673
G1 X209.93 Y98.712 E2.24289
G1 X209.93 Y99.246 E.01673
G1 X158.83 Y48.146 E2.26655
G1 X158.297 Y48.146 E.01673
M73 P3 R147
M73 Q3 S147
G1 X209.93 Y99.779 E2.29021
G1 X209.93 Y100.312 E.01673
G1 X157.764 Y48.146 E2.31387
G1 X157.23 Y48.146 E.01673
G1 X209.93 Y100.846 E2.33753
G1 X209.93 Y101.379 E.01673
G1 X156.697 Y48.146 E2.36119
G1 X156.163 Y48.146 E.01673
G1 X209.93 Y101.913 E2.38485
G1 X209.93 Y102.446 E.01673
G1 X155.63 Y48.146 E2.40852
G1 X155.096 Y48.146 E.01673
M73 P3 R146
G1 X209.93 Y102.98 E2.43218
G1 X209.93 Y103.513 E.01673
G1 X154.563 Y48.146 E2.45584
G1 X154.03 Y48.146 E.01673
G1 X209.93 Y104.046 E2.4795
G1 X209.93 Y104.58 E.01673
M73 C113
G1 X153.496 Y48.146 E2.50316
G1 X152.963 Y48.146 E.01673
G1 X209.93 Y105.113 E2.52682
G1 X209.93 Y105.647 E.01673
M73 Q3 S146
M73 D113
G1 X152.429 Y48.146 E2.55048
G1 X151.896 Y48.146 E.01673
G1 X209.93 Y106.18 E2.57414
G1 X209.93 Y106.714 E.01673
G1 X151.362 Y48.146 E2.5978
G1 X150.829 Y48.146 E.01673
G1 X209.93 Y107.247 E2.62146
G1 X209.93 Y107.781 E.01673
G1 X150.295 Y48.146 E2.64512
G1 X149.762 Y48.146 E.01673
G1 X209.93 Y108.314 E2.66878
G1 X209.93 Y108.847 E.01673
G1 X149.229 Y48.146 E2.69245
G1 X148.695 Y48.146 E.01673
G1 X209.93 Y109.381 E2.71611
G1 X209.93 Y109.914 E.01673
G1 X148.162 Y48.146 E2.73977
G1 X147.628 Y48.146 E.01673
G1 X209.93 Y110.448 E2.76343
G1 X209.93 Y110.981 E.01673
M73 P3 R145
G1 X147.095 Y48.146 E2.78709
G1 X146.561 Y48.146 E.01673
G1 X209.93 Y111.515 E2.81075
G1 X209.93 Y112.048 E.01673
M73 P4 R145
M73 C112
M73 Q4 S146
G1 X146.028 Y48.146 E2.83441
G1 X145.495 Y48.146 E.01673
G1 X209.93 Y112.581 E2.85807
G1 X209.93 Y113.115 E.01673
M73 Q4 S145
M73 D112
G1 X144.961 Y48.146 E2.88173
G1 X144.428 Y48.146 E.01673
G1 X209.93 Y113.648 E2.90539
G1 X209.93 Y114.182 E.01673
G1 X143.894 Y48.146 E2.92905
G1 X143.361 Y48.146 E.01673
G1 X209.93 Y114.715 E2.95272
G1 X209.93 Y115.249 E.01673
G1 X142.827 Y48.146 E2.97638
G1 X142.294 Y48.146 E.01673
G1 X209.93 Y115.782 E3.00004
G1 X209.93 Y116.316 E.01673
G1 X141.76 Y48.146 E3.0237
G1 X141.227 Y48.146 E.01673
G1 X209.93 Y116.849 E3.04736
G1 X209.93 Y117.382 E.01673
M73 P4 R144
G1 X140.694 Y48.146 E3.07102
G1 X140.16 Y48.146 E.01673
G1 X209.93 Y117.916 E3.09468
G1 X209.93 Y118.449 E.01673
G1 X139.627 Y48.146 E3.11834
G1 X139.093 Y48.146 E.01673
M73 C111
G1 X209.93 Y118.983 E3.142
G1 X209.93 Y119.516 E.01673
M73 Q4 S144
M73 D111
G1 X138.56 Y48.146 E3.16566
G1 X138.026 Y48.146 E.01673
G1 X209.93 Y120.05 E3.18932
G1 X209.93 Y120.583 E.01673
G1 X137.493 Y48.146 E3.21298
G1 X136.96 Y48.146 E.01673
G1 X209.93 Y121.116 E3.23665
G1 X209.93 Y121.65 E.01673
M73 P5 R144
M73 Q5 S144
G1 X136.426 Y48.146 E3.26031
G1 X135.893 Y48.146 E.01673
G1 X209.93 Y122.183 E3.28397
G1 X209.93 Y122.717 E.01673
G1 X135.359 Y48.146 E3.30763
G1 X134.826 Y48.146 E.01673
G1 X209.93 Y123.25 E3.33129
G1 X209.93 Y123.784 E.01673
M73 P5 R143
G1 X134.292 Y48.146 E3.35495
G1 X133.759 Y48.146 E.01673
G1 X209.93 Y124.317 E3.37861
G1 X209.93 Y124.851 E.01673
M73 C110
G1 X133.225 Y48.146 E3.40227
G1 X132.692 Y48.146 E.01673
M73 D110
G1 X209.93 Y125.384 E3.42593
G1 X209.93 Y125.917 E.01673
M73 Q5 S143
G1 X132.159 Y48.146 E3.44959
G1 X131.625 Y48.146 E.01673
G1 X209.93 Y126.451 E3.47325
G1 X209.93 Y126.984 E.01673
G1 X131.092 Y48.146 E3.49691
G1 X130.558 Y48.146 E.01673
G1 X209.93 Y127.518 E3.52058
G1 X209.93 Y128.051 E.01673
G1 X130.025 Y48.146 E3.54424
G1 X129.491 Y48.146 E.01673
G1 X209.93 Y128.585 E3.5679
G1 X209.93 Y129.118 E.01673
G1 X128.958 Y48.146 E3.59156
G1 X128.425 Y48.146 E.01673
M73 P5 R142
G1 X209.93 Y129.651 E3.61522
G1 X209.93 Y130.185 E.01673
G1 X127.891 Y48.146 E3.63888
G1 X127.358 Y48.146 E.01673
M73 P6 R142
M73 C109
M73 Q6 S143
G1 X209.93 Y130.718 E3.66254
G1 X209.93 Y131.252 E.01673
M73 Q6 S142
M73 D109
G1 X126.824 Y48.146 E3.6862
G1 X126.291 Y48.146 E.01673
G1 X209.93 Y131.785 E3.70986
G1 X209.93 Y132.319 E.01673
G1 X125.757 Y48.146 E3.73352
G1 X125.224 Y48.146 E.01673
G1 X209.93 Y132.852 E3.75718
G1 X209.93 Y133.386 E.01673
G1 X124.69 Y48.146 E3.78085
G1 X124.157 Y48.146 E.01673
G1 X209.93 Y133.919 E3.80451
G1 X209.93 Y134.452 E.01673
G1 X123.624 Y48.146 E3.82817
G1 X123.09 Y48.146 E.01673
M73 P6 R141
G1 X209.93 Y134.986 E3.85183
G1 X209.93 Y135.519 E.01673
G1 X122.557 Y48.146 E3.87549
G1 X122.023 Y48.146 E.01673
M73 C108
G1 X209.93 Y136.053 E3.89915
G1 X209.93 Y136.586 E.01673
M73 Q6 S141
M73 D108
G1 X121.49 Y48.146 E3.92281
G1 X120.956 Y48.146 E.01673
G1 X209.93 Y137.12 E3.94647
G1 X209.93 Y137.653 E.01673
G1 X120.423 Y48.146 E3.97013
G1 X119.89 Y48.146 E.01673
G1 X209.93 Y138.186 E3.99379
G1 X209.93 Y138.72 E.01673
M73 P7 R141
M73 Q7 S141
G1 X119.356 Y48.146 E4.01745
G1 X118.823 Y48.146 E.01673
G1 X209.93 Y139.253 E4.04111
G1 X209.93 Y139.787 E.01673
M73 P7 R140
G1 X118.289 Y48.146 E4.06478
G1 X117.756 Y48.146 E.01673
G1 X209.93 Y140.32 E4.08844
G1 X209.93 Y140.854 E.01673
M73 C107
G1 X117.222 Y48.146 E4.1121
G1 X116.689 Y48.146 E.01673
M73 Q7 S140
M73 D107
G1 X209.93 Y141.387 E4.13576
G1 X209.93 Y141.921 E.01673
G1 X116.155 Y48.146 E4.15942
G1 X115.622 Y48.146 E.01673
G1 X209.93 Y142.454 E4.18308
G1 X209.93 Y142.987 E.01673
G1 X115.089 Y48.146 E4.20674
G1 X114.555 Y48.146 E.01673
G1 X209.93 Y143.521 E4.2304
G1 X209.93 Y144.054 E.01673
G1 X114.022 Y48.146 E4.25406
G1 X113.488 Y48.146 E.01673
M73 P7 R139
G1 X209.93 Y144.588 E4.27772
G1 X209.93 Y145.121 E.01673
G1 X112.955 Y48.146 E4.30138
G1 X112.421 Y48.146 E.01673
M73 P8 R139
M73 C106
G1 X209.93 Y145.655 E4.32505
G1 X209.93 Y146.188 E.01673
M73 Q8 S139
M73 D106
G1 X111.888 Y48.146 E4.34871
G1 X111.355 Y48.146 E.01673
G1 X209.93 Y146.721 E4.37237
G1 X209.93 Y147.255 E.01673
G1 X110.821 Y48.146 E4.39603
G1 X110.288 Y48.146 E.01673
G1 X209.93 Y147.788 E4.41969
G1 X209.93 Y148.322 E.01673
G1 X109.754 Y48.146 E4.44335
G1 X109.221 Y48.146 E.01673
G1 X209.93 Y148.855 E4.46701
G1 X209.93 Y149.389 E.01673
M73 P8 R138
G1 X108.687 Y48.146 E4.49067
G1 X108.154 Y48.146 E.01673
G1 X209.93 Y149.922 E4.51433
G1 X209.93 Y150.456 E.01673
M73 C105
G1 X107.62 Y48.146 E4.53799
G1 X107.087 Y48.146 E.01673
M73 Q8 S138
M73 D105
G1 X209.93 Y150.989 E4.56165
G1 X209.93 Y151.522 E.01673
G1 X106.554 Y48.146 E4.58531
G1 X106.02 Y48.146 E.01673
G1 X209.93 Y152.056 E4.60898
G1 X209.93 Y152.589 E.01673
M73 P9 R138
M73 Q9 S138
G1 X105.487 Y48.146 E4.63264
G1 X104.953 Y48.146 E.01673
G1 X209.93 Y153.123 E4.6563
G1 X209.93 Y153.656 E.01673
M73 P9 R137
G1 X104.42 Y48.146 E4.67996
G1 X103.886 Y48.146 E.01673
G1 X209.93 Y154.19 E4.70362
G1 X209.93 Y154.723 E.01673
M73 C104
G1 X103.353 Y48.146 E4.72728
G1 X102.82 Y48.146 E.01673
M73 Q9 S137
M73 D104
G1 X209.93 Y155.256 E4.75094
G1 X209.93 Y155.79 E.01673
G1 X102.286 Y48.146 E4.7746
G1 X101.753 Y48.146 E.01673
G1 X209.93 Y156.323 E4.79826
G1 X209.93 Y156.857 E.01673
G1 X101.219 Y48.146 E4.82192
G1 X100.686 Y48.146 E.01673
G1 X209.93 Y157.39 E4.84558
G1 X209.93 Y157.924 E.01673
M73 P9 R136
G1 X100.152 Y48.146 E4.86924
G1 X99.619 Y48.146 E.01673
G1 X209.93 Y158.457 E4.89291
G1 X209.93 Y158.991 E.01673
M73 P10 R136
M73 C103
M73 Q10 S137
M73 D103
G1 X99.085 Y48.146 E4.91657
G1 X98.552 Y48.146 E.01673
M73 Q10 S136
G1 X209.93 Y159.524 E4.94023
G1 X209.93 Y160.057 E.01673
G1 X98.019 Y48.146 E4.96389
G1 X97.485 Y48.146 E.01673
G1 X209.93 Y160.591 E4.98755
G1 X209.93 Y161.124 E.01673
G1 X96.952 Y48.146 E5.01121
G1 X96.418 Y48.146 E.01673
G1 X209.93 Y161.658 E5.03487
G1 X209.93 Y161.854 E.00616
M73 P10 R135
G1 X209.593 Y161.854 E.01057
G1 X95.885 Y48.146 E5.04358
G1 X95.351 Y48.146 E.01673
M73 C102
G1 X209.06 Y161.854 E5.04358
G1 X208.526 Y161.854 E.01673
