; generated by PrusaSlicer 2.4.1+win64 on 2022-12-05 at 08:51:18 UTC


;
;
; 

; external perimeters extrusion width = 0.45mm
; perimeters extrusion width = 0.45mm
; infill extrusion width = 0.45mm
; solid infill extrusion width = 0.45mm
; top infill extrusion width = 0.40mm
; first layer extrusion width = 0.42mm

M73 P0 R53
M73 Q0 S54
M201 X1000 Y1000 Z200 E5000 ; sets maximum accelerations, mm/sec^2
M203 X200 Y200 Z12 E120 ; sets maximum feedrates, mm / sec
M204 P1250 R1250 T1250 ; sets acceleration (P, T) and retract acceleration (R), mm/sec^2
M205 X8.00 Y8.00 Z0.40 E4.50 ; sets the jerk limits, mm/sec
M205 S0 T0 ; sets the minimum extruding and travel feed rate, mm/sec
M107
;TYPE:Custom
M862.3 P "MK3S" ; printer model check
M862.1 P0.4 ; nozzle diameter check
M115 U3.11.0 ; tell printer latest fw version
G90 ; use absolute coordinates
M83 ; extruder relative mode
M104 S215 ; set extruder temp
M140 S60 ; set bed temp
M190 S60 ; wait for bed temp
M109 S215 ; wait for extruder temp
G28 W ; home all without mesh bed level
G80 ; mesh bed leveling

G1 Z0.2 F720
G1 Y-3 F1000 ; go outside print area
G92 E0
G1 X60 E9 F1000 ; intro line
G1 X100 E12.5 F1000 ; intro line

G92 E0
M221 S95

; Don't change E values below. Excessive value can damage the printer.
M907 E430 ; set extruder motor current
G21 ; set units to millimeters
G90 ; use absolute coordinates
M83 ; use relative distances for extrusion
M900 K0.05 ; Filament gcode LA 1.5
M900 K30 ; Filament gcode LA 1.0
M107
;LAYER_CHANGE
;Z:0.2
;HEIGHT:0.2
;BEFORE_LAYER_CHANGE
G92 E0.0
;0.2


M73 P0 R52
G1 E-.8 F2100
G1 Z.4 F720
;AFTER_LAYER_CHANGE
;0.2
G1 X79.674 Y103.178 F10800
G1 Z.2 F720
G1 E.8 F2100
M204 S800
;TYPE:Skirt/Brim
;WIDTH:0.42
G1 F1200
G1 X80.276 Y102.741 E.02332
G1 X81.894 Y101.953 E.05643
G1 X104.785 Y94.733 E.75259
G1 X105.5 Y94.623 E.02268
G1 X134.763 Y94.637 E.91751
G1 X152.836 Y96.647 E.57018
G1 X166.872 Y98.652 E.44456
G1 X168.108 Y98.848 E.03924
G1 X168.815 Y99.078 E.0233
G1 X169.93 Y99.646 E.03923
G1 X170.532 Y100.083 E.02332
G1 X171.417 Y100.968 E.03924
G1 X171.854 Y101.57 E.02333
G1 X172.422 Y102.685 E.03923
G1 X172.652 Y103.392 E.0233
G1 X172.848 Y104.628 E.03924
G1 X172.848 Y105.372 E.02335
G1 X172.652 Y106.608 E.03924
G1 X172.422 Y107.315 E.0233
G1 X171.854 Y108.43 E.03923
G1 X171.417 Y109.032 E.02333
G1 X170.532 Y109.917 E.03924
G1 X169.93 Y110.354 E.02332
G1 X168.815 Y110.922 E.03923
G1 X168.108 Y111.152 E.0233
G1 X166.615 Y111.374 E.04733
G1 X84.115 Y115.374 E2.58977
G1 X82.238 Y115.128 E.05937
G1 X81.53 Y114.898 E.02334
G1 X80.276 Y114.259 E.04413
G1 X79.674 Y113.822 E.02332
G1 X78.678 Y112.826 E.04416
G1 X78.241 Y112.224 E.02332
G1 X77.602 Y110.97 E.04413
G1 X77.372 Y110.262 E.02334
G1 X77.152 Y108.871 E.04416
G1 X77.152 Y108.129 E.02329
G1 X77.372 Y106.738 E.04416
G1 X77.602 Y106.03 E.02334
G1 X78.241 Y104.776 E.04413
G1 X78.678 Y104.174 E.02332
G1 X79.632 Y103.221 E.04228
M204 S1000
; printing object KugelbahnHalterung2.stl id:0 copy 0
;WIPE_START
G1 F8640
G1 X80.276 Y102.741 E-.1854
G1 X81.894 Y101.953 E-.4156
G1 X82.551 Y101.746 E-.15899
;WIPE_END
G1 E-.04 F2100
G1 Z.6 F720
G1 X81.823 Y105.504 F10800
G1 Z.2 F720
G1 E.8 F2100
M204 S800
;TYPE:Perimeter
G1 F1200
G1 X82.855 Y104.978 E.03631
G1 X84 Y104.797 E.03634
G1 X85.145 Y104.978 E.03634
G1 X86.177 Y105.504 E.03631
G1 X86.996 Y106.323 E.03635
G1 X87.522 Y107.355 E.03631
G1 X87.703 Y108.5 E.03634
G1 X87.522 Y109.645 E.03634
G1 X86.996 Y110.677 E.03631
G1 X86.177 Y111.496 E.03635
G1 X85.145 Y112.022 E.03631
G1 X84 Y112.203 E.03634
G1 X82.855 Y112.022 E.03634
G1 X81.823 Y111.496 E.03631
G1 X81.004 Y110.677 E.03635
G1 X80.478 Y109.645 E.03631
G1 X80.297 Y108.5 E.03634
G1 X80.478 Y107.355 E.03634
G1 X81.004 Y106.323 E.03631
G1 X81.781 Y105.546 E.03447
M204 S1000
G1 X81.599 Y105.195 F10800
M204 S800
;TYPE:External perimeter
G1 F1200
G1 X82.737 Y104.615 E.04006
G1 X84 Y104.415 E.04008
G1 X85.263 Y104.615 E.04008
G1 X86.401 Y105.195 E.04006
G1 X87.305 Y106.099 E.04009
G1 X87.885 Y107.237 E.04006
G1 X88.085 Y108.5 E.04008
G1 X87.885 Y109.763 E.04008
G1 X87.305 Y110.901 E.04006
G1 X86.401 Y111.805 E.04009
G1 X85.263 Y112.385 E.04006
G1 X84 Y112.585 E.04008
G1 X82.737 Y112.385 E.04008
G1 X81.599 Y111.805 E.04006
G1 X80.695 Y110.901 E.04009
G1 X80.115 Y109.763 E.04006
G1 X79.915 Y108.5 E.04008
G1 X80.115 Y107.237 E.04008
G1 X80.695 Y106.099 E.04006
G1 X81.557 Y105.237 E.03821
M204 S1000
G1 X81.964 Y105.358 F10800
;WIPE_START
G1 F8640
G1 X82.737 Y104.615 E-.30819
G1 X84 Y104.415 E-.2952
G1 X84.67 Y104.521 E-.15662
;WIPE_END
G1 E-.04 F2100
G1 Z.6 F720
G1 X85.593 Y105.333 F10800
G1 Z.2 F720
G1 E.8 F2100
M204 S800
;TYPE:Solid infill
;WIDTH:0.438869
G1 F1200
G1 X86.779 Y106.519 E.05522
G1 X87.25 Y107.444 E.03416
G1 X87.27 Y107.57 E.00422
G1 X84.93 Y105.23 E.10895
G1 X84.265 Y105.125 E.02217
G1 X87.375 Y108.235 E.14482
G1 X87.417 Y108.5 E.00882
G1 X87.371 Y108.791 E.0097
G1 X83.709 Y105.129 E.1705
G1 X83.225 Y105.206 E.01612
G1 X87.294 Y109.275 E.18945
G1 X87.25 Y109.556 E.00939
G1 X87.171 Y109.711 E.00572
G1 X82.789 Y105.329 E.20403
G1 X82.418 Y105.518 E.01371
G1 X86.982 Y110.082 E.2125
G1 X86.793 Y110.453 E.01371
G1 X82.047 Y105.707 E.22097
G1 X81.992 Y105.735 E.00204
G1 X81.753 Y105.974 E.01109
G1 X86.526 Y110.747 E.22223
G1 X86.246 Y111.027 E.01304
G1 X81.473 Y106.254 E.22223
G1 X81.235 Y106.492 E.01109
G1 X81.207 Y106.547 E.00205
G1 X85.953 Y111.293 E.22097
G1 X85.582 Y111.482 E.01371
G1 X81.018 Y106.918 E.2125
G1 X80.829 Y107.289 E.01371
G1 X85.211 Y111.671 E.20403
G1 X85.056 Y111.75 E.00572
G1 X84.774 Y111.794 E.0094
M73 Q0 S53
G1 X80.706 Y107.726 E.18945
G1 X80.629 Y108.209 E.01612
G1 X84.291 Y111.871 E.1705
G1 X84 Y111.917 E.0097
G1 X83.735 Y111.875 E.00883
G1 X80.625 Y108.765 E.14481
G1 X80.73 Y109.43 E.02217
G1 X83.07 Y111.77 E.10894
G1 X82.944 Y111.75 E.00421
G1 X82.019 Y111.278 E.03417
G1 X80.833 Y110.093 E.0552
M204 S1000
;WIPE_START
G1 F8640
G1 X82.019 Y111.278 E-.38715
G1 X82.944 Y111.75 E-.23968
G1 X83.07 Y111.77 E-.02954
G1 X82.753 Y111.452 E-.10363
;WIPE_END
G1 E-.04 F2100
G1 Z.6 F720
G1 X94.478 Y107.645 F10800
G1 Z.2 F720
G1 E.8 F2100
M204 S800
;TYPE:Perimeter
;WIDTH:0.42
G1 F1200
G1 X94.297 Y106.5 E.03634
G1 X94.478 Y105.355 E.03634
G1 X95.004 Y104.323 E.03631
G1 X95.823 Y103.504 E.03635
G1 X96.855 Y102.978 E.03631
G1 X98 Y102.797 E.03634
G1 X99.145 Y102.978 E.03634
G1 X100.177 Y103.504 E.03631
G1 X100.996 Y104.323 E.03635
G1 X101.522 Y105.355 E.03631
G1 X101.703 Y106.5 E.03634
G1 X101.522 Y107.645 E.03634
G1 X100.996 Y108.677 E.03631
G1 X100.177 Y109.496 E.03635
G1 X99.145 Y110.022 E.03631
G1 X98 Y110.203 E.03634
G1 X96.855 Y110.022 E.03634
G1 X95.823 Y109.496 E.03631
G1 X95.004 Y108.677 E.03635
G1 X94.505 Y107.698 E.03443
M204 S1000
G1 X94.115 Y107.763 F10800
M204 S800
;TYPE:External perimeter
G1 F1200
G1 X93.915 Y106.5 E.04009
G1 X94.115 Y105.237 E.04008
G1 X94.695 Y104.099 E.04006
G1 X95.599 Y103.195 E.04009
G1 X96.737 Y102.615 E.04006
G1 X98 Y102.415 E.04008
G1 X99.263 Y102.615 E.04008
G1 X100.401 Y103.195 E.04006
G1 X101.305 Y104.099 E.04009
G1 X101.885 Y105.237 E.04006
G1 X102.085 Y106.5 E.04008
G1 X101.885 Y107.763 E.04008
G1 X101.305 Y108.901 E.04006
G1 X100.401 Y109.805 E.04009
G1 X99.263 Y110.385 E.04006
G1 X98 Y110.585 E.04008
G1 X96.737 Y110.385 E.04008
G1 X95.599 Y109.805 E.04006
G1 X94.695 Y108.901 E.04009
G1 X94.142 Y107.816 E.03817
M204 S1000
G1 X94.383 Y107.466 F10800
;WIPE_START
G1 F8640
G1 X93.915 Y106.5 E-.3084
G1 X94.115 Y105.237 E-.2952
G1 X94.422 Y104.634 E-.1564
;WIPE_END
G1 E-.04 F2100
G1 Z.6 F720
G1 X99.593 Y103.333 F10800
G1 Z.2 F720
G1 E.8 F2100
M204 S800
;TYPE:Solid infill
;WIDTH:0.438869
G1 F1200
G1 X100.779 Y104.519 E.05522
G1 X101.25 Y105.444 E.03417
G1 X101.27 Y105.57 E.00422
G1 X98.93 Y103.23 E.10895
G1 X98.265 Y103.125 E.02217
G1 X101.375 Y106.235 E.14482
G1 X101.417 Y106.5 E.00882
G1 X101.371 Y106.791 E.0097
G1 X97.709 Y103.129 E.1705
G1 X97.225 Y103.206 E.01612
G1 X101.294 Y107.275 E.18945
G1 X101.25 Y107.556 E.00939
G1 X101.171 Y107.711 E.00572
G1 X96.789 Y103.329 E.20403
G1 X96.418 Y103.518 E.01371
G1 X100.982 Y108.082 E.2125
G1 X100.793 Y108.453 E.01371
G1 X96.047 Y103.707 E.22097
G1 X95.992 Y103.735 E.00204
M73 P1 R52
G1 X95.753 Y103.974 E.01109
G1 X100.526 Y108.747 E.22223
G1 X100.246 Y109.027 E.01304
M73 Q1 S53
G1 X95.473 Y104.254 E.22223
G1 X95.235 Y104.492 E.01109
G1 X95.207 Y104.547 E.00205
G1 X99.953 Y109.293 E.22097
G1 X99.582 Y109.482 E.01371
G1 X95.018 Y104.918 E.2125
G1 X94.829 Y105.289 E.01371
G1 X99.211 Y109.671 E.20403
G1 X99.056 Y109.75 E.00572
G1 X98.774 Y109.794 E.0094
G1 X94.706 Y105.726 E.18945
G1 X94.629 Y106.209 E.01612
G1 X98.291 Y109.871 E.1705
G1 X98 Y109.917 E.0097
G1 X97.735 Y109.875 E.00883
G1 X94.625 Y106.765 E.14481
G1 X94.73 Y107.43 E.02217
G1 X97.07 Y109.77 E.10894
G1 X96.944 Y109.75 E.00421
G1 X96.019 Y109.278 E.03417
G1 X94.833 Y108.093 E.0552
M204 S1000
;WIPE_START
G1 F8640
G1 X96.019 Y109.278 E-.38715
G1 X96.944 Y109.75 E-.23968
G1 X97.07 Y109.77 E-.02954
G1 X96.753 Y109.452 E-.10363
;WIPE_END
G1 E-.04 F2100
G1 Z.6 F720
G1 X106.287 Y107.215 F10800
G1 Z.2 F720
G1 E.8 F2100
M204 S800
;TYPE:Perimeter
;WIDTH:0.42
G1 F1200
G1 X106.287 Y97.787 E.29562
G1 X107.713 Y97.787 E.04471
G1 X107.713 Y107.344 E.29965
G1 X108.106 Y107.737 E.01745
G1 X108.327 Y108.17 E.01524
G1 X108.403 Y108.65 E.01523
G1 X108.327 Y109.13 E.01523
G1 X108.106 Y109.563 E.01524
G1 X107.763 Y109.906 E.01525
G1 X107.33 Y110.127 E.01524
G1 X106.85 Y110.203 E.01523
G1 X106.37 Y110.127 E.01523
G1 X105.937 Y109.906 E.01524
G1 X105.594 Y109.563 E.01525
G1 X105.373 Y109.13 E.01524
G1 X105.297 Y108.65 E.01523
G1 X105.373 Y108.17 E.01523
G1 X105.594 Y107.737 E.01524
G1 X105.937 Y107.394 E.01525
G1 X106.234 Y107.243 E.01042
M204 S1000
G1 X105.91 Y106.984 F10800
M204 S800
;TYPE:External perimeter
G1 F1200
G1 X105.91 Y97.41 E.3002
G1 X108.09 Y97.41 E.06835
G1 X108.09 Y107.188 E.30658
G1 X108.415 Y107.513 E.01442
G1 X108.69 Y108.052 E.01898
G1 X108.785 Y108.65 E.01897
G1 X108.69 Y109.248 E.01897
G1 X108.415 Y109.787 E.01898
G1 X107.987 Y110.215 E.01899
G1 X107.448 Y110.49 E.01898
G1 X106.85 Y110.585 E.01897
G1 X106.252 Y110.49 E.01897
G1 X105.713 Y110.215 E.01898
G1 X105.285 Y109.787 E.01899
G1 X105.01 Y109.248 E.01898
G1 X104.915 Y108.65 E.01897
G1 X105.01 Y108.052 E.01897
G1 X105.285 Y107.513 E.01898
G1 X105.713 Y107.085 E.01899
G1 X105.857 Y107.012 E.00505
M204 S1000
G1 X106.299 Y106.892 F10800
;WIPE_START
G1 F8640
G1 X105.875 Y103.72 E-.76
;WIPE_END
G1 E-.04 F2100
G1 Z.6 F720
G1 X107.6 Y98.677 F10800
G1 Z.2 F720
G1 E.8 F2100
M204 S800
;TYPE:Solid infill
;WIDTH:0.426821
G1 F1200
G1 X106.993 Y98.07 E.0274
G1 X106.57 Y98.07 E.0135
G1 X106.57 Y98.19 E.00383
G1 X107.43 Y99.05 E.03884
G1 X107.43 Y99.593 E.01733
G1 X106.57 Y98.733 E.03884
G1 X106.57 Y99.276 E.01733
G1 X107.43 Y100.136 E.03884
G1 X107.43 Y100.679 E.01733
G1 X106.57 Y99.819 E.03884
G1 X106.57 Y100.362 E.01733
G1 X107.43 Y101.222 E.03884
G1 X107.43 Y101.765 E.01733
G1 X106.57 Y100.904 E.03884
G1 X106.57 Y101.447 E.01733
G1 X107.43 Y102.308 E.03884
G1 X107.43 Y102.851 E.01733
G1 X106.57 Y101.99 E.03884
G1 X106.57 Y102.533 E.01733
G1 X107.43 Y103.393 E.03884
G1 X107.43 Y103.936 E.01733
G1 X106.57 Y103.076 E.03884
G1 X106.57 Y103.619 E.01733
G1 X107.43 Y104.479 E.03884
G1 X107.43 Y105.022 E.01733
G1 X106.57 Y104.162 E.03884
G1 X106.57 Y104.705 E.01733
G1 X107.43 Y105.565 E.03884
G1 X107.43 Y106.108 E.01733
G1 X106.57 Y105.248 E.03884
G1 X106.57 Y105.791 E.01733
G1 X107.43 Y106.651 E.03884
G1 X107.43 Y107.194 E.01733
G1 X106.57 Y106.334 E.03884
G1 X106.57 Y106.877 E.01733
G1 X108.074 Y108.381 E.06791
G1 X108.117 Y108.65 E.0087
G1 X108.074 Y108.923 E.00883
G1 X106.549 Y107.399 E.0688
G1 X106.19 Y107.582 E.01288
G1 X107.918 Y109.31 E.078
G1 X107.875 Y109.394 E.00301
G1 X107.667 Y109.602 E.00939
G1 X105.898 Y107.833 E.07986
G1 X105.825 Y107.906 E.00328
G1 X105.691 Y108.169 E.00944
G1 X107.331 Y109.809 E.07403
G1 X107.241 Y109.855 E.00321
G1 X106.889 Y109.911 E.01137
G1 X105.589 Y108.611 E.05868
G1 X105.645 Y109.041 E.01385
G1 X105.82 Y109.384 E.0123
G1 X106.463 Y110.027 E.02902
M204 S1000
;WIPE_START
G1 F8640
G1 X105.82 Y109.384 E-.20991
G1 X105.645 Y109.041 E-.089
G1 X105.589 Y108.611 E-.1002
G1 X106.695 Y109.716 E-.36088
;WIPE_END
G1 E-.04 F2100
G1 Z.6 F720
G1 X116.287 Y106.857 F10800
G1 Z.2 F720
G1 E.8 F2100
M204 S800
;TYPE:Perimeter
;WIDTH:0.42
G1 F1200
G1 X116.287 Y97.787 E.28438
G1 X117.713 Y97.787 E.04471
G1 X117.713 Y106.813 E.283
G1 X118.316 Y107.416 E.02675
G1 X118.529 Y107.835 E.01474
G1 X118.603 Y108.3 E.01476
G1 X118.529 Y108.765 E.01476
G1 X118.316 Y109.184 E.01474
G1 X117.984 Y109.516 E.01473
G1 X117.565 Y109.729 E.01474
G1 X117.1 Y109.803 E.01476
G1 X116.635 Y109.729 E.01476
G1 X116.216 Y109.516 E.01474
G1 X115.884 Y109.184 E.01473
G1 X115.671 Y108.765 E.01474
G1 X115.597 Y108.3 E.01476
G1 X115.671 Y107.835 E.01476
G1 X115.884 Y107.416 E.01474
G1 X116.287 Y107.013 E.01788
G1 X116.287 Y106.917 E.00302
M204 S1000
G1 X115.91 Y106.857 F10800
M204 S800
;TYPE:External perimeter
G1 F1200
G1 X115.91 Y97.41 E.2962
G1 X118.09 Y97.41 E.06835
G1 X118.09 Y106.657 E.28993
G1 X118.625 Y107.192 E.02373
G1 X118.892 Y107.717 E.01848
G1 X118.985 Y108.3 E.0185
G1 X118.892 Y108.883 E.0185
G1 X118.625 Y109.408 E.01848
G1 X118.208 Y109.825 E.01849
G1 X117.683 Y110.092 E.01848
G1 X117.1 Y110.185 E.0185
G1 X116.517 Y110.092 E.0185
G1 X115.992 Y109.825 E.01848
G1 X115.575 Y109.408 E.01849
G1 X115.308 Y108.883 E.01848
G1 X115.215 Y108.3 E.0185
G1 X115.308 Y107.717 E.0185
G1 X115.575 Y107.192 E.01848
G1 X115.868 Y106.899 E.01298
M204 S1000
G1 X116.29 Y106.731 F10800
;WIPE_START
G1 F8640
G1 X115.882 Y103.608 E-.76
;WIPE_END
G1 E-.04 F2100
G1 Z.6 F720
G1 X116.831 Y97.9 F10800
G1 Z.2 F720
G1 E.8 F2100
M204 S800
;TYPE:Solid infill
;WIDTH:0.423106
G1 F1200
G1 X117.43 Y98.499 E.02679
G1 X117.43 Y99.037 E.017
G1 X116.57 Y98.177 E.03846
G1 X116.57 Y98.714 E.017
G1 X117.43 Y99.575 E.03846
G1 X117.43 Y100.112 E.017
G1 X116.57 Y99.252 E.03846
G1 X116.57 Y99.79 E.017
G1 X117.43 Y100.65 E.03846
G1 X117.43 Y101.188 E.017
G1 X116.57 Y100.327 E.03846
G1 X116.57 Y100.865 E.017
G1 X117.43 Y101.725 E.03846
G1 X117.43 Y102.263 E.017
G1 X116.57 Y101.403 E.03846
G1 X116.57 Y101.94 E.017
G1 X117.43 Y102.801 E.03846
G1 X117.43 Y103.338 E.017
G1 X116.57 Y102.478 E.03846
G1 X116.57 Y103.016 E.017
G1 X117.43 Y103.876 E.03846
G1 X117.43 Y104.414 E.017
G1 X116.57 Y103.553 E.03846
G1 X116.57 Y104.091 E.017
G1 X117.43 Y104.951 E.03846
G1 X117.43 Y105.489 E.017
G1 X116.57 Y104.629 E.03846
G1 X116.57 Y105.166 E.017
G1 X117.43 Y106.027 E.03846
G1 X117.43 Y106.564 E.017
G1 X116.57 Y105.704 E.03846
G1 X116.57 Y106.242 E.017
G1 X118.258 Y107.93 E.07546
G1 X118.317 Y108.3 E.01185
G1 X118.286 Y108.495 E.00625
G1 X116.57 Y106.779 E.07671
G1 X116.57 Y107.13 E.01109
G1 X116.476 Y107.224 E.00418
G1 X118.146 Y108.894 E.07466
G1 X118.084 Y109.016 E.00433
G1 X117.908 Y109.192 E.0079
G1 X116.208 Y107.492 E.076
G1 X116.116 Y107.584 E.00411
G1 X115.996 Y107.819 E.00832
G1 X117.581 Y109.404 E.07085
G1 X117.476 Y109.457 E.00371
G1 X117.149 Y109.509 E.01049
G1 X115.891 Y108.251 E.05623
G1 X115.883 Y108.3 E.00156
G1 X115.943 Y108.676 E.01205
G1 X116.113 Y109.011 E.01187
G1 X116.732 Y109.63 E.02767
M204 S1000
;WIPE_START
G1 F8640
G1 X116.113 Y109.011 E-.20208
G1 X115.943 Y108.676 E-.08674
G1 X115.883 Y108.3 E-.08801
G1 X115.891 Y108.251 E-.0114
G1 X117.03 Y109.39 E-.37178
;WIPE_END
G1 E-.04 F2100
G1 Z.6 F720
G1 X125.713 Y106.267 F10800
G1 Z.2 F720
G1 E.8 F2100
M204 S800
;TYPE:Perimeter
;WIDTH:0.42
G1 F1200
G1 X125 Y106.403 E.02277
G1 X124.286 Y106.267 E.0228
G1 X124.287 Y97.787 E.26587
G1 X125.713 Y97.787 E.04471
G1 X125.713 Y106.207 E.264
M204 S1000
;WIPE_START
G1 F8640
G1 X125 Y106.403 E-.17081
G1 X124.286 Y106.267 E-.16794
G1 X124.286 Y104.442 E-.42125
;WIPE_END
G1 E-.04 F2100
G1 Z.6 F720
G1 X125 Y107.556 F10800
G1 Z.2 F720
G1 E.8 F2100
M204 S800
G1 F1200
G1 X125.369 Y107.829 E.01438
G1 X125.556 Y108.048 E.00907
G1 X125.668 Y108.276 E.00794
G1 X125.703 Y108.5 E.0071
G1 X125.669 Y108.718 E.00693
G1 X125.569 Y108.914 E.00688
