; generated by PrusaSlicer 2.8.0+win64 on 2024-10-07 at 07:57:55 UTC


;
;
; 

; external perimeters extrusion width = 0.60mm
; perimeters extrusion width = 0.50mm
; infill extrusion width = 0.50mm
; solid infill extrusion width = 0.50mm
; top infill extrusion width = 0.45mm
; first layer extrusion width = 0.42mm

M73 P0 R16
M73 Q0 S16
M201 X1000 Y1000 Z200 E5000 ; sets maximum accelerations, mm/sec^2
M203 X200 Y200 Z12 E120 ; sets maximum feedrates, mm / sec
M204 S1250 T1250 ; sets acceleration (S) and retract acceleration (R), mm/sec^2
M205 X8.00 Y8.00 Z0.40 E4.50 ; sets the jerk limits, mm/sec
M205 S0 T0 ; sets the minimum extruding and travel feed rate, mm/sec

; printing object Banana_Box_Lid.stl id:0 copy 0
; stop printing object Banana_Box_Lid.stl id:0 copy 0

;TYPE:Custom
M862.3 P "MK3S" ; printer model check
M862.1 P0.4 ; nozzle diameter check
M115 U3.13.3 ; tell printer latest fw version
G90 ; use absolute coordinates
M83 ; extruder relative mode
M104 S215 ; set extruder temp
M140 S60 ; set bed temp
M190 S60 ; wait for bed temp
M109 S215 ; wait for extruder temp
G28 W ; home all without mesh bed level
G80 X100.123 Y80.1229 W49.7542 H49.7542 ; mesh bed levelling

G1 Z0.2 F720
G1 Y-3 F1000 ; go outside print area
G92 E0
G1 X60 E9 F1000 ; intro line
G1 X100 E12.5 F1000 ; intro line

G92 E0
M221 S95

; Don't change E values below. Excessive value can damage the printer.

M907 E538 ; set extruder motor current
G21 ; set units to millimeters
G90 ; use absolute coordinates
M83 ; use relative distances for extrusion

M900 K0.05 ; Filament gcode LA 1.5
M900 K30 ; Filament gcode LA 1.0




M107
;LAYER_CHANGE
;Z:0.2
;HEIGHT:0.2
G1 E-.8 F2100
M73 P0 R15
G1 Z.6 F720
G1 X103.219 Y84.596 F10800
G1 Z.2 F720
G1 E.8 F2100
M204 S800
;TYPE:Skirt/Brim
;WIDTH:0.42
G1 F1200
G1 X104.044 Y83.72 E.03773
G1 X105.008 Y82.885 E.03999
G1 X106.052 Y82.155 E.03994
G1 X107.162 Y81.54 E.03979
G1 X108.314 Y81.051 E.03924
G1 X109.498 Y80.686 E.03885
G1 X110.719 Y80.441 E.03905
G1 X112.461 Y80.311 E.05477
G1 X137.696 Y80.317 E.79123
G1 X139.86 Y80.541 E.06821
G1 X141.627 Y81.03 E.05749
G1 X143.488 Y81.882 E.06417
G1 X145.146 Y83.006 E.06281
M73 Q0 S15
G1 X146.649 Y84.444 E.06522
G1 X147.85 Y86.06 E.06313
M73 Q1 S15
G1 X148.818 Y87.971 E.06717
G1 X149.394 Y89.831 E.06105
G1 X149.615 Y91.141 E.04165
M73 P1 R15
G1 X149.689 Y92.302 E.03648
G1 X149.676 Y118.105 E.80904
G1 X149.489 Y119.706 E.05054
G1 X149.082 Y121.303 E.05167
G1 X148.447 Y122.863 E.05281
G1 X147.588 Y124.343 E.05365
G1 X146.777 Y125.409 E.042
G1 X145.949 Y126.286 E.03782
G1 X144.986 Y127.12 E.03994
G1 X143.902 Y127.874 E.0414
G1 X142.789 Y128.483 E.03978
G1 X141.627 Y128.97 E.0395
G1 X140.413 Y129.337 E.03977
G1 X139.064 Y129.585 E.04301
G1 X137.526 Y129.689 E.04833
G1 X112.32 Y129.683 E.79032
G1 X110.719 Y129.559 E.05035
G1 X108.731 Y129.093 E.06402
G1 X107.162 Y128.459 E.05306
G1 X105.685 Y127.608 E.05345
G1 X104.564 Y126.753 E.0442
G1 X103.573 Y125.801 E.04309
G1 X102.673 Y124.713 E.04427
G1 X101.94 Y123.59 E.04205
G1 X101.327 Y122.373 E.04273
G1 X100.837 Y121.047 E.04432
G1 X100.511 Y119.706 E.04327
G1 X100.341 Y118.383 E.04182
G1 X100.337 Y91.671 E.83754
G1 X100.558 Y90.051 E.05126
G1 X100.986 Y88.497 E.05054
G1 X101.611 Y87.021 E.05026
G1 X102.407 Y85.664 E.04933
G1 X103.183 Y84.644 E.04018
M204 S1000
;WIPE_START
G1 F8640
G1 X103.219 Y84.596 E-.01385
G1 X104.044 Y83.72 E-.27785
G1 X105.008 Y82.885 E-.29448
G1 X105.767 Y82.354 E-.21382
;WIPE_END
G1 Z.6 F720
; printing object Banana_Box_Lid.stl id:0 copy 0
G1 X112.475 Y126.711 F10800
G1 Z.2 F720
G1 E.8 F2100
M204 S800
;TYPE:Perimeter
;WIDTH:0.419999
G1 F1200
G1 X111.186 Y126.62 E.04052
G1 X110.676 Y126.532 E.01623
G1 X109.62 Y126.252 E.03425
G1 X108.889 Y125.977 E.02449
G1 X108.301 Y125.702 E.02035
G1 X107.645 Y125.332 E.02361
G1 X107.102 Y124.968 E.0205
G1 X106.297 Y124.313 E.03254
G1 X105.73 Y123.746 E.02514
G1 X105.272 Y123.214 E.02201
G1 X104.933 Y122.756 E.01787
G1 X104.413 Y121.916 E.03098
G1 X104.18 Y121.462 E.016
G1 X103.938 Y120.907 E.01898
G1 X103.74 Y120.358 E.0183
G1 X103.512 Y119.528 E.02699
G1 X103.34 Y118.504 E.03256
G1 X103.297 Y117.965 E.01695
G1 X103.297 Y92.037 E.81295
G1 X103.352 Y91.399 E.02008
G1 X103.472 Y90.657 E.02357
G1 X103.627 Y90.013 E.02077
G1 X103.832 Y89.374 E.02104
G1 X104.096 Y88.722 E.02206
G1 X104.367 Y88.171 E.01925
G1 X104.686 Y87.618 E.02002
G1 X105.057 Y87.068 E.0208
G1 X105.66 Y86.327 E.02995
G1 X106.307 Y85.678 E.02873
M73 Q2 S15
G1 X106.725 Y85.32 E.01726
G1 X107.806 Y84.572 E.04122
G1 X108.482 Y84.208 E.02407
G1 X109.357 Y83.839 E.02977
G1 X110.261 Y83.562 E.02965
G1 X111.193 Y83.38 E.02977
G1 X112.489 Y83.287 E.04074
M73 P2 R15
G1 X137.512 Y83.287 E.78458
G1 X138.814 Y83.38 E.04093
G1 X139.329 Y83.469 E.01639
G1 X140.078 Y83.654 E.02419
G1 X140.885 Y83.93 E.02674
G1 X141.702 Y84.3 E.02812
G1 X142.352 Y84.667 E.0234
G1 X143.029 Y85.129 E.0257
G1 X143.595 Y85.59 E.02289
G1 X144.078 Y86.048 E.02087
G1 X144.656 Y86.696 E.02723
G1 X145.135 Y87.342 E.02522
G1 X145.532 Y87.985 E.02369
G1 X145.906 Y88.725 E.026
G1 X146.165 Y89.366 E.02168
G1 X146.423 Y90.201 E.0274
G1 X146.565 Y90.844 E.02065
G1 X146.659 Y91.486 E.02034
G1 X146.713 Y92.625 E.03575
G1 X146.703 Y117.622 E.78376
G1 X146.674 Y118.3 E.02128
G1 X146.582 Y119.01 E.02245
G1 X146.449 Y119.669 E.02108
G1 X146.27 Y120.307 E.02078
G1 X146.024 Y120.982 E.02253
G1 X145.763 Y121.565 E.02003
G1 X145.478 Y122.098 E.01895
G1 X145.111 Y122.683 E.02165
G1 X144.734 Y123.199 E.02004
G1 X144.256 Y123.765 E.02323
G1 X143.894 Y124.134 E.01621
G1 X143.489 Y124.502 E.01716
G1 X143.027 Y124.873 E.01858
G1 X142.424 Y125.284 E.02288
G1 X141.962 Y125.557 E.01683
G1 X141.304 Y125.887 E.02308
G1 X140.649 Y126.159 E.02224
G1 X139.739 Y126.438 E.02984
G1 X138.808 Y126.62 E.02974
G1 X137.498 Y126.713 E.04118
G1 X112.535 Y126.713 E.7827
M204 S1000
G1 X112.535 Y126.713 F10800
G1 X112.475 Y127.089
M204 S800
;TYPE:External perimeter
G1 F1200
G1 X111.141 Y126.994 E.04193
G1 X110.596 Y126.9 E.01734
G1 X109.505 Y126.612 E.03538
G1 X108.742 Y126.324 E.02557
G1 X108.129 Y126.037 E.02122
G1 X107.448 Y125.653 E.02451
G1 X106.877 Y125.271 E.02154
G1 X106.3 Y124.802 E.02331
G1 X105.812 Y124.37 E.02043
G1 X105.454 Y124.002 E.0161
G1 X104.975 Y123.447 E.02299
G1 X104.62 Y122.968 E.01869
G1 X104.085 Y122.101 E.03194
G1 X103.84 Y121.624 E.01681
G1 X103.588 Y121.047 E.01974
G1 X103.38 Y120.473 E.01914
G1 X103.143 Y119.61 E.02806
G1 X102.965 Y118.551 E.03367
G1 X102.92 Y117.98 E.01796
G1 X102.92 Y92.021 E.81392
G1 X102.977 Y91.353 E.02102
G1 X103.102 Y90.582 E.02449
G1 X103.264 Y89.912 E.02161
G1 X103.477 Y89.245 E.02195
G1 X103.751 Y88.568 E.0229
G1 X104.034 Y87.993 E.02009
G1 X104.366 Y87.417 E.02085
G1 X104.754 Y86.843 E.02172
G1 X105.379 Y86.074 E.03107
G1 X106.05 Y85.401 E.0298
G1 X106.495 Y85.021 E.01835
G1 X107.608 Y84.25 E.04245
G1 X108.319 Y83.867 E.02532
G1 X109.229 Y83.484 E.03096
G1 X110.17 Y83.196 E.03086
G1 X111.143 Y83.005 E.03109
G1 X112.476 Y82.91 E.0419
G1 X137.525 Y82.91 E.78539
G1 X138.859 Y83.005 E.04193
G1 X139.406 Y83.1 E.01741
M73 Q3 S15
G1 X140.184 Y83.292 E.02513
G1 X141.024 Y83.579 E.02783
G1 X141.873 Y83.963 E.02922
G1 X142.552 Y84.347 E.02446
G1 X143.255 Y84.826 E.02667
G1 X143.844 Y85.307 E.02384
G1 X144.349 Y85.785 E.0218
M73 P3 R15
G1 X144.949 Y86.458 E.02827
G1 X145.447 Y87.13 E.02623
G1 X145.861 Y87.8 E.02469
G1 X146.249 Y88.569 E.02701
G1 X146.521 Y89.239 E.02267
G1 X146.788 Y90.105 E.02841
G1 X146.936 Y90.776 E.02154
G1 X147.034 Y91.446 E.02123
G1 X147.09 Y92.625 E.03701
G1 X147.08 Y117.622 E.78376
G1 X147.05 Y118.332 E.02228
G1 X146.954 Y119.07 E.02333
G1 X146.816 Y119.758 E.022
G1 X146.629 Y120.422 E.02163
G1 X146.374 Y121.123 E.02339
G1 X146.101 Y121.732 E.02093
G1 X145.805 Y122.287 E.01972
G1 X145.423 Y122.894 E.02249
G1 X145.032 Y123.431 E.02083
G1 X144.695 Y123.837 E.01654
G1 X144.342 Y124.216 E.01624
G1 X143.952 Y124.591 E.01696
G1 X143.451 Y125.015 E.02058
G1 X142.849 Y125.462 E.02351
G1 X142.394 Y125.749 E.01687
G1 X141.872 Y126.037 E.01869
G1 X141.257 Y126.325 E.02129
G1 X140.774 Y126.516 E.01629
G1 X139.83 Y126.804 E.03095
G1 X138.857 Y126.995 E.03109
G1 X137.512 Y127.09 E.04228
G1 X112.535 Y127.09 E.78313
M204 S1000
;WIPE_START
G1 F8640
G1 X112.475 Y127.089 E-.01386
G1 X111.141 Y126.994 E-.3088
G1 X110.596 Y126.9 E-.1277
G1 X109.505 Y126.612 E-.26054
G1 X109.144 Y126.476 E-.0891
;WIPE_END
G1 Z.6 F720
G1 X142.568 Y85.02 F10800
G1 Z.2 F720
G1 E.8 F2100
M204 S800
;TYPE:Solid infill
;WIDTH:0.42222
G1 F1200
G1 X143.846 Y86.298 E.057
G1 X144.392 Y86.91 E.02587
G1 X144.854 Y87.532 E.02444
G1 X145.309 Y88.297 E.02807
G1 X141.702 Y84.69 E.16088
G1 X141.548 Y84.603 E.00558
G1 X140.702 Y84.227 E.0292
G1 X145.77 Y89.294 E.22602
G1 X145.845 Y89.48 E.00633
G1 X146.036 Y90.096 E.02034
G1 X139.899 Y83.959 E.27373
G1 X139.193 Y83.79 E.0229
G1 X146.209 Y90.806 E.31293
G1 X146.31 Y91.443 E.02034
G1 X138.569 Y83.703 E.34525
G1 X137.992 Y83.662 E.01824
G1 X146.354 Y92.023 E.37295
G1 X146.373 Y92.58 E.01758
G1 X137.42 Y83.626 E.39935
G1 X136.884 Y83.626 E.0169
G1 X146.373 Y93.116 E.42326
G1 X146.373 Y93.652 E.0169
G1 X136.347 Y83.626 E.44719
G1 X135.811 Y83.626 E.0169
M73 P4 R15
M73 Q4 S15
G1 X146.373 Y94.188 E.47109
G1 X146.373 Y94.725 E.01694
G1 X135.274 Y83.626 E.49505
G1 X134.738 Y83.626 E.0169
G1 X146.372 Y95.261 E.51893
G1 X146.372 Y95.797 E.0169
G1 X134.202 Y83.626 E.54284
G1 X133.665 Y83.626 E.01694
G1 X146.372 Y96.333 E.56677
G1 X146.372 Y96.869 E.0169
G1 X133.129 Y83.626 E.59067
G1 X132.592 Y83.626 E.01694
G1 X146.372 Y97.406 E.61463
G1 X146.371 Y97.942 E.0169
G1 X132.056 Y83.626 E.63851
G1 X131.52 Y83.626 E.0169
G1 X146.371 Y98.478 E.66242
G1 X146.371 Y99.014 E.0169
G1 X130.983 Y83.626 E.68635
G1 X130.447 Y83.626 E.0169
M73 P5 R15
M73 Q5 S15
G1 X146.371 Y99.551 E.71028
G1 X146.371 Y100.087 E.0169
G1 X129.91 Y83.626 E.73421
G1 X129.374 Y83.626 E.0169
G1 X146.37 Y100.623 E.75809
G1 X146.37 Y101.159 E.0169
G1 X128.837 Y83.626 E.78202
G1 X128.301 Y83.626 E.0169
G1 X146.37 Y101.695 E.80593
G1 X146.37 Y102.232 E.01694
G1 X127.765 Y83.626 E.82986
G1 X127.228 Y83.626 E.01694
G1 X146.37 Y102.768 E.85379
G1 X146.369 Y103.304 E.0169
G1 X126.692 Y83.626 E.87767
G1 X126.155 Y83.626 E.01694
M73 P6 R15
M73 Q6 S15
G1 X146.369 Y103.84 E.9016
G1 X146.369 Y104.376 E.0169
G1 X125.619 Y83.626 E.92551
G1 X125.083 Y83.626 E.0169
G1 X146.369 Y104.913 E.94944
G1 X146.369 Y105.449 E.0169
G1 X124.546 Y83.626 E.97337
G1 X124.01 Y83.626 E.0169
M73 P6 R14
G1 X146.368 Y105.985 E.99725
G1 X146.368 Y106.521 E.0169
G1 X123.473 Y83.626 E1.02118
G1 X122.937 Y83.626 E.0169
M73 P7 R14
M73 Q7 S15
G1 X146.368 Y107.057 E1.04509
G1 X146.368 Y107.594 E.01694
M73 Q7 S14
G1 X122.401 Y83.626 E1.06902
G1 X121.864 Y83.626 E.01694
G1 X146.368 Y108.13 E1.09295
G1 X146.367 Y108.666 E.0169
G1 X121.328 Y83.626 E1.11683
G1 X120.791 Y83.626 E.01694
G1 X146.367 Y109.202 E1.14076
G1 X146.367 Y109.739 E.01694
G1 X120.255 Y83.626 E1.16469
G1 X119.719 Y83.626 E.0169
M73 P8 R14
M73 Q8 S14
G1 X146.367 Y110.275 E1.1886
G1 X146.367 Y110.811 E.0169
G1 X119.182 Y83.626 E1.21253
G1 X118.646 Y83.626 E.0169
G1 X146.366 Y111.347 E1.23641
G1 X146.366 Y111.883 E.0169
G1 X118.109 Y83.626 E1.26034
G1 X117.573 Y83.626 E.0169
G1 X146.366 Y112.42 E1.28427
M73 Q9 S14
G1 X146.366 Y112.956 E.0169
M73 P9 R14
G1 X117.036 Y83.626 E1.3082
G1 X116.5 Y83.626 E.0169
G1 X146.366 Y113.492 E1.33211
G1 X146.365 Y114.028 E.0169
G1 X115.964 Y83.626 E1.35599
G1 X115.427 Y83.626 E.01694
G1 X146.365 Y114.564 E1.37992
G1 X146.365 Y115.101 E.01694
M73 P10 R14
M73 Q10 S14
G1 X114.891 Y83.626 E1.40385
G1 X114.354 Y83.626 E.01694
G1 X146.365 Y115.637 E1.42778
G1 X146.365 Y116.173 E.0169
G1 X113.818 Y83.626 E1.45169
G1 X113.282 Y83.626 E.0169
G1 X146.364 Y116.709 E1.47557
G1 X146.364 Y117.245 E.0169
M73 P11 R14
M73 Q11 S14
G1 X112.745 Y83.626 E1.4995
G1 X112.228 Y83.646 E.01632
G1 X146.364 Y117.782 E1.52256
G1 X146.335 Y118.289 E.01602
G1 X111.728 Y83.682 E1.54357
G1 X111.228 Y83.719 E.01581
G1 X146.278 Y118.768 E1.5633
G1 X146.203 Y119.23 E.01476
M73 P12 R14
M73 Q12 S14
G1 X110.78 Y83.807 E1.57996
G1 X110.332 Y83.896 E.01441
G1 X146.101 Y119.665 E1.5954
G1 X145.985 Y120.085 E.01374
G1 X109.921 Y84.021 E1.60855
G1 X109.511 Y84.147 E.01353
G1 X145.855 Y120.491 E1.62104
G1 X145.702 Y120.874 E.01301
M73 P13 R13
M73 Q13 S14
G1 X109.13 Y84.303 E1.63119
G1 X108.753 Y84.462 E.0129
M73 Q13 S13
G1 X145.54 Y121.249 E1.6408
G1 X145.364 Y121.609 E.01264
G1 X108.395 Y84.64 E1.64892
G1 X108.046 Y84.828 E.0125
G1 X145.171 Y121.952 E1.65586
G1 X144.969 Y122.287 E.01234
M73 P14 R13
M73 Q14 S13
G1 X107.723 Y85.042 E1.66125
G1 X107.407 Y85.261 E.01213
G1 X144.753 Y122.607 E1.66574
G1 X144.525 Y122.916 E.01211
G1 X107.09 Y85.481 E1.6697
G1 X106.787 Y85.714 E.01206
M73 P15 R13
M73 Q15 S13
G1 X144.288 Y123.215 E1.67265
G1 X144.037 Y123.501 E.012
G1 X106.501 Y85.964 E1.67423
G1 X106.233 Y86.233 E.01198
G1 X143.773 Y123.773 E1.67439
G1 X143.498 Y124.035 E.01198
G1 X105.965 Y86.502 E1.67408
G1 X105.912 Y86.554 E.00234
M73 P16 R13
M73 Q16 S13
G1 X105.719 Y86.792 E.00966
G1 X143.214 Y124.287 E1.67238
G1 X142.916 Y124.526 E.01205
G1 X105.479 Y87.088 E1.66982
G1 X105.247 Y87.393 E.01209
G1 X142.608 Y124.754 E1.6664
G1 X142.287 Y124.969 E.01219
M73 P17 R13
M73 Q17 S13
G1 X105.031 Y87.713 E1.66172
G1 X104.829 Y88.048 E.01234
G1 X141.955 Y125.173 E1.6559
G1 X141.609 Y125.364 E.01246
G1 X104.636 Y88.391 E1.6491
G1 X104.46 Y88.751 E.01264
G1 X141.247 Y125.538 E1.6408
G1 X140.877 Y125.705 E.0128
M73 P18 R13
M73 Q18 S13
G1 X104.298 Y89.126 E1.63152
G1 X104.145 Y89.509 E.01301
G1 X140.489 Y125.853 E1.62104
G1 X140.078 Y125.979 E.01356
G1 X104.015 Y89.916 E1.60851
G1 X103.899 Y90.336 E.01374
G1 X139.667 Y126.105 E1.59537
G1 X139.22 Y126.194 E.01437
M73 P19 R12
M73 Q19 S13
G1 X103.797 Y90.771 E1.57996
G1 X103.722 Y91.232 E.01473
G1 X138.771 Y126.281 E1.56328
G1 X138.271 Y126.318 E.01581
M73 Q19 S12
G1 X103.665 Y91.712 E1.54352
G1 X103.636 Y92.219 E.01602
G1 X137.771 Y126.353 E1.52249
G1 X137.254 Y126.374 E.01632
M73 P20 R12
M73 Q20 S12
G1 X103.636 Y92.755 E1.49948
G1 X103.636 Y93.292 E.01694
G1 X136.718 Y126.374 E1.47555
G1 X136.181 Y126.374 E.01694
G1 X103.636 Y93.828 E1.45162
G1 X103.636 Y94.365 E.01694
G1 X135.645 Y126.374 E1.42769
G1 X135.109 Y126.374 E.0169
M73 P21 R12
M73 Q21 S12
G1 X103.636 Y94.901 E1.40378
G1 X103.636 Y95.438 E.01694
G1 X134.572 Y126.374 E1.37983
G1 X134.036 Y126.374 E.0169
G1 X103.636 Y95.974 E1.35592
G1 X103.636 Y96.51 E.0169
G1 X133.499 Y126.374 E1.33199
G1 X132.963 Y126.374 E.0169
M73 P22 R12
M73 Q22 S12
G1 X103.636 Y97.047 E1.30807
G1 X103.636 Y97.583 E.0169
G1 X132.427 Y126.374 E1.28416
G1 X131.89 Y126.374 E.01694
G1 X103.636 Y98.12 E1.26021
G1 X103.636 Y98.656 E.0169
G1 X131.354 Y126.374 E1.2363
G1 X130.817 Y126.374 E.01694
G1 X103.636 Y99.192 E1.21237
M73 P23 R12
G1 X103.636 Y99.729 E.01694
M73 Q23 S12
G1 X130.281 Y126.374 E1.18844
G1 X129.745 Y126.374 E.0169
G1 X103.636 Y100.265 E1.16453
G1 X103.636 Y100.802 E.01694
G1 X129.208 Y126.374 E1.14058
G1 X128.672 Y126.374 E.0169
G1 X103.636 Y101.338 E1.11668
G1 X103.636 Y101.874 E.0169
G1 X128.135 Y126.374 E1.09275
G1 X127.599 Y126.374 E.0169
M73 P24 R12
M73 Q24 S12
G1 X103.636 Y102.411 E1.06882
G1 X103.636 Y102.947 E.0169
G1 X127.062 Y126.374 E1.04489
G1 X126.526 Y126.374 E.0169
G1 X103.636 Y103.484 E1.02096
G1 X103.636 Y104.02 E.0169
G1 X125.99 Y126.374 E.99705
G1 X125.453 Y126.374 E.01694
G1 X103.636 Y104.557 E.9731
G1 X103.636 Y105.093 E.0169
M73 P25 R12
G1 X124.917 Y126.374 E.94919
G1 X124.38 Y126.374 E.01694
M73 Q25 S12
G1 X103.636 Y105.629 E.92526
G1 X103.636 Y106.166 E.01694
G1 X123.844 Y126.374 E.90133
G1 X123.308 Y126.374 E.0169
M73 P25 R11
G1 X103.636 Y106.702 E.87743
G1 X103.636 Y107.239 E.01694
G1 X122.771 Y126.374 E.85347
G1 X122.235 Y126.374 E.0169
G1 X103.636 Y107.775 E.82957
G1 X103.636 Y108.311 E.0169
M73 Q25 S11
G1 X121.698 Y126.374 E.80564
G1 X121.162 Y126.374 E.0169
M73 P26 R11
G1 X103.636 Y108.848 E.78171
G1 X103.636 Y109.384 E.0169
M73 Q26 S11
G1 X120.626 Y126.374 E.7578
G1 X120.089 Y126.374 E.01694
G1 X103.636 Y109.921 E.73385
