; generated by PrusaSlicer 2.8.0+win64 on 2024-10-07 at 06:44:48 UTC


;
;
; 

; external perimeters extrusion width = 0.60mm
; perimeters extrusion width = 0.50mm
; infill extrusion width = 0.50mm
; solid infill extrusion width = 0.50mm
; top infill extrusion width = 0.45mm
; first layer extrusion width = 0.42mm

M73 P0 R33
M73 Q0 S33
M201 X1000 Y1000 Z200 E5000 ; sets maximum accelerations, mm/sec^2
M203 X200 Y200 Z12 E120 ; sets maximum feedrates, mm / sec
M204 S1250 T1250 ; sets acceleration (S) and retract acceleration (R), mm/sec^2
M205 X8.00 Y8.00 Z0.40 E4.50 ; sets the jerk limits, mm/sec
M205 S0 T0 ; sets the minimum extruding and travel feed rate, mm/sec

; printing object Banana_Box.stl id:0 copy 0
; stop printing object Banana_Box.stl id:0 copy 0

;TYPE:Custom
M862.3 P "MK3S" ; printer model check
M862.1 P0.4 ; nozzle diameter check
M115 U3.13.3 ; tell printer latest fw version
G90 ; use absolute coordinates
M83 ; extruder relative mode
M104 S215 ; set extruder temp
M140 S60 ; set bed temp
M190 S60 ; wait for bed temp
M109 S215 ; wait for extruder temp
G28 W ; home all without mesh bed level
G80 X100.123 Y80.1229 W49.7542 H49.7542 ; mesh bed levelling

G1 Z0.2 F720
G1 Y-3 F1000 ; go outside print area
G92 E0
G1 X60 E9 F1000 ; intro line
G1 X100 E12.5 F1000 ; intro line

G92 E0
M221 S95

; Don't change E values below. Excessive value can damage the printer.

M907 E538 ; set extruder motor current
G21 ; set units to millimeters
G90 ; use absolute coordinates
M83 ; use relative distances for extrusion

M900 K0.05 ; Filament gcode LA 1.5
M900 K30 ; Filament gcode LA 1.0




M107
;LAYER_CHANGE
;Z:0.2
;HEIGHT:0.2
G1 E-.8 F2100
G1 Z.6 F720
G1 X103.223 Y84.592 F10800
G1 Z.2 F720
G1 E.8 F2100
M204 S800
;TYPE:Skirt/Brim
;WIDTH:0.42
G1 F1200
G1 X104.035 Y83.729 E.03715
G1 X105.014 Y82.88 E.04063
G1 X106.057 Y82.152 E.03988
G1 X107.161 Y81.541 E.03956
G1 X108.314 Y81.051 E.03928
G1 X109.498 Y80.686 E.03885
G1 X110.719 Y80.441 E.03905
G1 X112.461 Y80.311 E.05477
G1 X137.694 Y80.317 E.79116
G1 X139.861 Y80.541 E.06831
G1 X141.619 Y81.027 E.05719
G1 X143.488 Y81.882 E.06444
G1 X145.146 Y83.006 E.06281
G1 X146.646 Y84.441 E.06509
G1 X147.85 Y86.06 E.06326
G1 X148.818 Y87.971 E.06717
G1 X149.394 Y89.831 E.06105
G1 X149.615 Y91.141 E.04165
G1 X149.689 Y92.302 E.03648
G1 X149.676 Y118.107 E.8091
G1 X149.489 Y119.706 E.05048
M73 P0 R32
G1 X149.082 Y121.303 E.05167
G1 X148.447 Y122.863 E.05281
G1 X147.588 Y124.343 E.05365
G1 X146.777 Y125.409 E.042
G1 X145.949 Y126.286 E.03782
G1 X144.968 Y127.134 E.04066
G1 X143.902 Y127.874 E.04069
G1 X142.789 Y128.483 E.03978
G1 X141.627 Y128.97 E.0395
G1 X140.413 Y129.337 E.03977
G1 X139.065 Y129.585 E.04297
G1 X137.54 Y129.689 E.04793
G1 X112.305 Y129.683 E.79123
G1 X110.719 Y129.559 E.04988
G1 X108.731 Y129.093 E.06402
G1 X107.162 Y128.459 E.05306
G1 X105.686 Y127.608 E.05342
G1 X104.564 Y126.753 E.04423
G1 X103.572 Y125.8 E.04313
G1 X102.667 Y124.705 E.04454
G1 X101.938 Y123.586 E.04187
G1 X101.33 Y122.382 E.04229
G1 X100.837 Y121.048 E.04459
G1 X100.511 Y119.709 E.04321
G1 X100.341 Y118.374 E.0422
G1 X100.337 Y91.671 E.83725
G1 X100.558 Y90.052 E.05123
G1 X100.986 Y88.497 E.05057
G1 X101.61 Y87.022 E.05022
G1 X102.411 Y85.658 E.0496
G1 X103.187 Y84.639 E.04016
M204 S1000
;WIPE_START
G1 F8640
G1 X103.223 Y84.592 E-.01367
G1 X104.035 Y83.729 E-.27361
G1 X105.014 Y82.88 E-.29922
G1 X105.772 Y82.35 E-.2135
;WIPE_END
G1 Z.6 F720
; printing object Banana_Box.stl id:0 copy 0
G1 X137.54 Y83.289 F10800
G1 Z.2 F720
G1 E.8 F2100
M204 S800
;TYPE:Perimeter
;WIDTH:0.419999
G1 F1200
G1 X138.475 Y83.356 E.02939
G1 X139.17 Y83.442 E.02196
G1 X139.731 Y83.56 E.01797
G1 X140.646 Y83.84 E.03
G1 X141.319 Y84.114 E.02278
G1 X142.043 Y84.484 E.02549
G1 X142.64 Y84.852 E.02199
G1 X143.148 Y85.22 E.01967
G1 X143.696 Y85.681 E.02245
G1 X144.256 Y86.235 E.0247
G1 X144.73 Y86.788 E.02284
G1 X145.133 Y87.339 E.0214
G1 X145.396 Y87.772 E.01588
G1 X145.745 Y88.403 E.02261
G1 X146.056 Y89.102 E.02399
G1 X146.311 Y89.833 E.02427
G1 X146.503 Y90.572 E.02394
G1 X146.632 Y91.326 E.02398
G1 X146.699 Y92.067 E.02333
G1 X146.713 Y92.573 E.01587
G1 X146.703 Y117.962 E.79605
G1 X146.648 Y118.601 E.02011
G1 X146.528 Y119.343 E.02357
G1 X146.373 Y119.987 E.02077
G1 X146.166 Y120.631 E.02121
G1 X145.904 Y121.278 E.02189
G1 X145.633 Y121.829 E.01925
G1 X145.315 Y122.381 E.01997
G1 X144.873 Y123.026 E.02452
G1 X144.251 Y123.77 E.03041
G1 X143.894 Y124.134 E.01599
G1 X143.488 Y124.503 E.0172
G1 X143.027 Y124.874 E.01855
G1 X142.425 Y125.283 E.02282
G1 X141.962 Y125.557 E.01687
G1 X141.304 Y125.887 E.02308
G1 X140.649 Y126.159 E.02224
G1 X139.739 Y126.438 E.02984
G1 X138.807 Y126.62 E.02977
G1 X137.512 Y126.713 E.04071
G1 X112.489 Y126.713 E.78458
G1 X111.186 Y126.62 E.04096
M73 P1 R32
M73 Q1 S33
G1 X110.676 Y126.532 E.01623
G1 X109.62 Y126.252 E.03425
G1 X108.889 Y125.977 E.02449
G1 X108.301 Y125.702 E.02035
G1 X107.648 Y125.333 E.02352
G1 X106.975 Y124.874 E.02554
G1 X106.198 Y124.221 E.03182
G1 X105.651 Y123.659 E.02459
G1 X105.2 Y123.122 E.02199
G1 X104.869 Y122.664 E.01772
G1 X104.368 Y121.83 E.0305
G1 X103.936 Y120.901 E.03212
G1 X103.74 Y120.358 E.0181
G1 X103.512 Y119.529 E.02696
G1 X103.34 Y118.504 E.03259
G1 X103.297 Y117.964 E.01698
G1 X103.287 Y92.327 E.80383
G1 X103.377 Y91.205 E.03529
G1 X103.491 Y90.568 E.02029
G1 X103.682 Y89.826 E.02402
G1 X103.867 Y89.277 E.01816
G1 X104.094 Y88.725 E.01871
G1 X104.417 Y88.077 E.0227
G1 X104.744 Y87.526 E.02009
G1 X105.128 Y86.974 E.02108
G1 X105.658 Y86.328 E.0262
G1 X106.307 Y85.678 E.0288
G1 X106.725 Y85.32 E.01726
G1 X107.806 Y84.572 E.04122
G1 X108.482 Y84.208 E.02407
G1 X109.357 Y83.839 E.02977
G1 X110.261 Y83.562 E.02965
G1 X111.193 Y83.38 E.02977
G1 X112.49 Y83.287 E.04077
G1 X137.48 Y83.287 E.78354
M204 S1000
G1 X137.48 Y83.287 F10800
G1 X137.54 Y82.911
M204 S800
;TYPE:External perimeter
G1 F1200
G1 X138.502 Y82.98 E.03024
G1 X139.234 Y83.07 E.02312
G1 X139.828 Y83.195 E.01903
G1 X140.772 Y83.484 E.03095
G1 X141.476 Y83.771 E.02384
G1 X142.229 Y84.155 E.0265
G1 X142.85 Y84.539 E.02289
G1 X143.38 Y84.922 E.0205
G1 X143.951 Y85.402 E.02339
G1 X144.533 Y85.978 E.02567
G1 X145.025 Y86.554 E.02375
G1 X145.446 Y87.129 E.02234
G1 X145.719 Y87.576 E.01642
G1 X146.082 Y88.234 E.02356
G1 X146.406 Y88.962 E.02498
G1 X146.672 Y89.723 E.02528
G1 X146.872 Y90.493 E.02494
G1 X147.006 Y91.277 E.02494
G1 X147.076 Y92.046 E.02421
G1 X147.09 Y92.573 E.01653
G1 X147.08 Y117.978 E.79655
G1 X147.023 Y118.647 E.02105
G1 X146.898 Y119.417 E.02446
G1 X146.736 Y120.088 E.02164
G1 X146.521 Y120.76 E.02212
G1 X146.249 Y121.432 E.02273
G1 X145.966 Y122.007 E.02009
G1 X145.635 Y122.582 E.0208
G1 X145.174 Y123.254 E.02555
G1 X144.733 Y123.782 E.02157
G1 X144.311 Y124.248 E.01971
G1 X143.935 Y124.606 E.01628
G1 X143.458 Y125.01 E.0196
G1 X142.85 Y125.461 E.02374
G1 X142.394 Y125.749 E.01691
G1 X141.872 Y126.037 E.01869
G1 X141.257 Y126.325 E.02129
G1 X140.774 Y126.516 E.01629
G1 X139.83 Y126.804 E.03095
G1 X138.857 Y126.995 E.03109
G1 X137.525 Y127.09 E.04187
G1 X112.476 Y127.09 E.78539
G1 X111.141 Y126.995 E.04196
G1 X110.596 Y126.9 E.01735
G1 X109.505 Y126.612 E.03538
G1 X108.742 Y126.324 E.02557
G1 X108.129 Y126.037 E.02122
G1 X107.448 Y125.654 E.0245
G1 X106.747 Y125.174 E.02664
G1 X105.944 Y124.5 E.03287
G1 X105.372 Y123.912 E.02572
G1 X104.9 Y123.351 E.02299
G1 X104.554 Y122.872 E.01853
G1 X104.034 Y122.007 E.03164
G1 X103.587 Y121.045 E.03326
G1 X103.38 Y120.472 E.0191
G1 X103.143 Y119.61 E.02803
G1 X102.965 Y118.551 E.03367
G1 X102.92 Y117.98 E.01796
G1 X102.91 Y92.312 E.8048
G1 X103.003 Y91.157 E.03633
M73 Q1 S32
G1 X103.122 Y90.488 E.02131
G1 X103.32 Y89.718 E.02493
G1 X103.514 Y89.145 E.01897
G1 X103.751 Y88.569 E.01953
G1 X104.086 Y87.897 E.02354
G1 X104.427 Y87.322 E.02096
G1 X104.827 Y86.746 E.02199
G1 X105.379 Y86.075 E.02724
G1 X106.05 Y85.401 E.02982
G1 X106.495 Y85.021 E.01835
G1 X107.608 Y84.25 E.04245
G1 X108.319 Y83.867 E.02532
G1 X109.229 Y83.484 E.03096
G1 X110.17 Y83.196 E.03086
G1 X111.143 Y83.005 E.03109
G1 X112.476 Y82.91 E.0419
G1 X137.48 Y82.91 E.78398
M204 S1000
;WIPE_START
G1 F8640
G1 X137.54 Y82.911 E-.01386
G1 X138.502 Y82.98 E-.2227
G1 X139.234 Y83.07 E-.17029
G1 X139.828 Y83.195 E-.14016
G1 X140.772 Y83.484 E-.22796
G1 X140.872 Y83.525 E-.02503
;WIPE_END
G1 Z.6 F720
G1 X142.512 Y84.973 F10800
G1 Z.2 F720
G1 E.8 F2100
M204 S800
;TYPE:Solid infill
;WIDTH:0.422155
G1 F1200
G1 X144.017 Y86.478 E.06712
G1 X144.463 Y86.999 E.02163
G1 X144.85 Y87.527 E.02064
G1 X145.326 Y88.323 E.02925
G1 X141.686 Y84.683 E.16233
G1 X141.177 Y84.423 E.01802
G1 X140.692 Y84.225 E.01652
G1 X145.771 Y89.304 E.2265
G1 X145.878 Y89.573 E.00913
G1 X146.041 Y90.111 E.01773
G1 X139.896 Y83.965 E.27406
G1 X139.646 Y83.889 E.00824
G1 X139.194 Y83.8 E.01453
G1 X146.208 Y90.813 E.31277
G1 X146.306 Y91.448 E.02026
G1 X138.56 Y83.702 E.34543
G1 X137.982 Y83.661 E.01827
G1 X146.358 Y92.036 E.37351
G1 X146.373 Y92.588 E.01741
G1 X137.412 Y83.626 E.39964
G1 X136.875 Y83.626 E.01693
G1 X146.373 Y93.124 E.42356
G1 X146.373 Y93.661 E.01693
G1 X136.339 Y83.626 E.44749
G1 X135.803 Y83.626 E.0169
G1 X146.373 Y94.197 E.47139
G1 X146.373 Y94.733 E.0169
G1 X135.266 Y83.626 E.49532
G1 X134.73 Y83.626 E.0169
M73 Q2 S32
G1 X146.372 Y95.269 E.5192
M73 P2 R32
G1 X146.372 Y95.805 E.0169
G1 X134.194 Y83.626 E.5431
G1 X133.657 Y83.626 E.01693
G1 X146.372 Y96.341 E.56703
G1 X146.372 Y96.877 E.0169
G1 X133.121 Y83.626 E.59093
G1 X132.585 Y83.626 E.0169
G1 X146.372 Y97.413 E.61483
G1 X146.371 Y97.95 E.01693
G1 X132.048 Y83.626 E.63876
G1 X131.512 Y83.626 E.0169
G1 X146.371 Y98.486 E.66266
G1 X146.371 Y99.022 E.0169
G1 X130.976 Y83.626 E.68656
G1 X130.439 Y83.626 E.01693
G1 X146.371 Y99.558 E.71049
G1 X146.371 Y100.094 E.0169
G1 X129.903 Y83.626 E.73439
G1 X129.367 Y83.626 E.0169
G1 X146.37 Y100.63 E.75827
G1 X146.37 Y101.166 E.0169
G1 X128.83 Y83.626 E.7822
G1 X128.294 Y83.626 E.0169
G1 X146.37 Y101.702 E.8061
G1 X146.37 Y102.238 E.0169
G1 X127.758 Y83.626 E.83
G1 X127.221 Y83.626 E.01693
G1 X146.37 Y102.775 E.85395
G1 X146.369 Y103.311 E.0169
G1 X126.685 Y83.626 E.87783
G1 X126.149 Y83.626 E.0169
G1 X146.369 Y103.847 E.90174
G1 X146.369 Y104.383 E.0169
G1 X125.613 Y83.626 E.92564
G1 X125.076 Y83.626 E.01693
M73 P3 R32
M73 Q3 S32
G1 X146.369 Y104.919 E.94956
G1 X146.369 Y105.455 E.0169
G1 X124.54 Y83.626 E.97347
G1 X124.004 Y83.626 E.0169
G1 X146.368 Y105.991 E.99735
G1 X146.368 Y106.527 E.0169
G1 X123.467 Y83.626 E1.02127
G1 X122.931 Y83.626 E.0169
G1 X146.368 Y107.063 E1.04518
G1 X146.368 Y107.6 E.01693
G1 X122.395 Y83.626 E1.0691
G1 X121.858 Y83.626 E.01693
M73 P3 R31
G1 X146.368 Y108.136 E1.09303
G1 X146.367 Y108.672 E.0169
G1 X121.322 Y83.626 E1.11691
G1 X120.786 Y83.626 E.0169
G1 X146.367 Y109.208 E1.14081
G1 X146.367 Y109.744 E.0169
G1 X120.249 Y83.626 E1.16474
G1 X119.713 Y83.626 E.0169
G1 X146.367 Y110.28 E1.18864
G1 X146.367 Y110.816 E.0169
M73 P4 R31
M73 Q4 S32
G1 X119.177 Y83.626 E1.21254
G1 X118.64 Y83.626 E.01693
G1 X146.366 Y111.352 E1.23644
G1 X146.366 Y111.889 E.01693
G1 X118.104 Y83.626 E1.26037
G1 X117.568 Y83.626 E.0169
G1 X146.366 Y112.425 E1.28427
G1 X146.366 Y112.961 E.0169
G1 X117.031 Y83.626 E1.3082
G1 X116.495 Y83.626 E.0169
M73 Q4 S31
G1 X146.366 Y113.497 E1.3321
G1 X146.365 Y114.033 E.0169
G1 X115.959 Y83.626 E1.35598
G1 X115.422 Y83.626 E.01693
G1 X146.365 Y114.569 E1.37991
G1 X146.365 Y115.105 E.0169
G1 X114.886 Y83.626 E1.40381
G1 X114.35 Y83.626 E.0169
G1 X146.365 Y115.641 E1.42771
G1 X146.365 Y116.177 E.0169
M73 P5 R31
M73 Q5 S31
G1 X113.814 Y83.626 E1.45162
G1 X113.277 Y83.626 E.01693
G1 X146.364 Y116.714 E1.47554
G1 X146.364 Y117.25 E.0169
G1 X112.741 Y83.626 E1.49944
G1 X112.224 Y83.646 E.01632
G1 X146.364 Y117.786 E1.52248
G1 X146.334 Y118.293 E.01602
G1 X111.724 Y83.682 E1.54346
G1 X111.225 Y83.719 E.01578
G1 X146.277 Y118.772 E1.56317
G1 X146.202 Y119.233 E.01473
G1 X110.776 Y83.807 E1.57983
G1 X110.329 Y83.896 E.01437
G1 X146.101 Y119.668 E1.59526
G1 X145.984 Y120.088 E.01375
M73 P6 R31
M73 Q6 S31
G1 X109.919 Y84.022 E1.60835
G1 X109.508 Y84.148 E.01356
G1 X145.854 Y120.494 E1.62085
G1 X145.701 Y120.877 E.01301
G1 X109.128 Y84.304 E1.63098
G1 X108.751 Y84.463 E.0129
G1 X145.539 Y121.252 E1.64059
G1 X145.362 Y121.611 E.01262
M73 P6 R30
G1 X108.393 Y84.641 E1.64866
G1 X108.044 Y84.829 E.0125
G1 X145.169 Y121.954 E1.65559
G1 X144.967 Y122.289 E.01234
G1 X107.722 Y85.043 E1.66097
G1 X107.405 Y85.262 E.01215
M73 P7 R30
G1 X144.749 Y122.607 E1.66538
G1 X144.523 Y122.917 E.0121
M73 Q7 S31
G1 X107.088 Y85.482 E1.66942
G1 X106.785 Y85.716 E.01207
G1 X144.278 Y123.209 E1.67201
G1 X144.034 Y123.501 E.012
G1 X106.499 Y85.966 E1.67388
G1 X106.231 Y86.234 E.01195
M73 Q7 S30
G1 X143.771 Y123.774 E1.6741
G1 X143.497 Y124.036 E.01195
G1 X105.964 Y86.503 E1.67379
G1 X105.716 Y86.792 E.01201
G1 X143.213 Y124.289 E1.67218
G1 X142.916 Y124.527 E.012
G1 X105.474 Y87.086 E1.66971
G1 X105.248 Y87.396 E.0121
M73 P8 R30
M73 Q8 S30
G1 X142.607 Y124.755 E1.66603
G1 X142.286 Y124.97 E.01218
G1 X105.028 Y87.713 E1.6615
G1 X104.828 Y88.049 E.01233
G1 X141.953 Y125.174 E1.65559
G1 X141.607 Y125.365 E.01246
G1 X104.638 Y88.395 E1.64866
G1 X104.459 Y88.753 E.01262
G1 X141.246 Y125.539 E1.6405
G1 X140.875 Y125.705 E.01282
G1 X104.296 Y89.126 E1.63125
G1 X104.146 Y89.512 E.01306
G1 X140.488 Y125.854 E1.62068
G1 X140.077 Y125.979 E.01355
M73 P9 R30
G1 X104.01 Y89.913 E1.60839
G1 X103.9 Y90.339 E.01387
M73 Q9 S30
G1 X139.666 Y126.105 E1.59499
G1 X139.219 Y126.194 E.01437
G1 X103.799 Y90.774 E1.57956
G1 X103.717 Y91.229 E.01458
G1 X138.77 Y126.282 E1.56319
G1 X138.271 Y126.318 E.01578
G1 X103.676 Y91.724 E1.54275
G1 X103.636 Y92.22 E.01569
M73 P9 R29
G1 X137.77 Y126.354 E1.52221
G1 X137.253 Y126.374 E.01632
G1 X103.627 Y92.747 E1.49958
G1 X103.627 Y93.284 E.01693
G1 X136.717 Y126.374 E1.47565
G1 X136.18 Y126.374 E.01693
M73 P10 R29
G1 X103.627 Y93.82 E1.45173
G1 X103.627 Y94.357 E.01693
M73 Q10 S30
G1 X135.644 Y126.374 E1.4278
G1 X135.108 Y126.374 E.0169
G1 X103.627 Y94.893 E1.4039
G1 X103.628 Y95.43 E.01693
G1 X134.572 Y126.374 E1.37995
G1 X134.035 Y126.374 E.01693
G1 X103.628 Y95.966 E1.35603
G1 X103.628 Y96.503 E.01693
M73 Q10 S29
G1 X133.499 Y126.374 E1.3321
G1 X132.963 Y126.374 E.0169
G1 X103.628 Y97.039 E1.3082
G1 X103.628 Y97.576 E.01693
G1 X132.426 Y126.374 E1.28425
G1 X131.89 Y126.374 E.0169
G1 X103.629 Y98.112 E1.26033
G1 X103.629 Y98.649 E.01693
M73 P11 R29
G1 X131.354 Y126.374 E1.2364
G1 X130.817 Y126.374 E.01693
M73 Q11 S29
G1 X103.629 Y99.185 E1.21247
G1 X103.629 Y99.722 E.01693
G1 X130.281 Y126.374 E1.18855
G1 X129.745 Y126.374 E.0169
G1 X103.629 Y100.258 E1.16465
G1 X103.63 Y100.795 E.01693
G1 X129.208 Y126.374 E1.14068
G1 X128.672 Y126.374 E.0169
G1 X103.63 Y101.331 E1.11677
G1 X103.63 Y101.868 E.01693
G1 X128.136 Y126.374 E1.09285
G1 X127.599 Y126.374 E.01693
G1 X103.63 Y102.404 E1.06892
G1 X103.63 Y102.941 E.01693
G1 X127.063 Y126.374 E1.045
G1 X126.527 Y126.374 E.0169
G1 X103.631 Y103.478 E1.02105
G1 X103.631 Y104.014 E.0169
G1 X125.99 Y126.374 E.99712
G1 X125.454 Y126.374 E.0169
M73 P12 R29
G1 X103.631 Y104.551 E.9732
G1 X103.631 Y105.087 E.0169
M73 Q12 S29
G1 X124.918 Y126.374 E.9493
G1 X124.381 Y126.374 E.01693
G1 X103.632 Y105.624 E.92533
G1 X103.632 Y106.16 E.0169
G1 X123.845 Y126.374 E.90142
G1 X123.309 Y126.374 E.0169
G1 X103.632 Y106.697 E.8775
G1 X103.632 Y107.233 E.0169
G1 X122.772 Y126.374 E.85357
G1 X122.236 Y126.374 E.0169
G1 X103.632 Y107.77 E.82965
G1 X103.633 Y108.306 E.0169
G1 X121.7 Y126.374 E.80572
G1 X121.164 Y126.374 E.0169
G1 X103.633 Y108.843 E.7818
G1 X103.633 Y109.379 E.0169
M73 P12 R28
G1 X120.627 Y126.374 E.75787
G1 X120.091 Y126.374 E.0169
G1 X103.633 Y109.916 E.73395
G1 X103.633 Y110.452 E.0169
G1 X119.555 Y126.374 E.71004
G1 X119.018 Y126.374 E.01693
G1 X103.634 Y110.989 E.68607
G1 X103.634 Y111.525 E.0169
G1 X118.482 Y126.374 E.66217
G1 X117.946 Y126.374 E.0169
G1 X103.634 Y112.062 E.63825
G1 X103.634 Y112.598 E.0169
M73 P13 R28
G1 X117.409 Y126.374 E.61432
G1 X116.873 Y126.374 E.0169
G1 X103.634 Y113.135 E.59039
G1 X103.635 Y113.671 E.0169
