; generated by PrusaSlicer 2.8.0+win64 on 2024-10-07 at 07:58:13 UTC


;
;
; 

; external perimeters extrusion width = 0.60mm
; perimeters extrusion width = 0.50mm
; infill extrusion width = 0.50mm
; solid infill extrusion width = 0.50mm
; top infill extrusion width = 0.45mm
; first layer extrusion width = 0.42mm

M73 P0 R35
M73 Q0 S36
M201 X1000 Y1000 Z200 E5000 ; sets maximum accelerations, mm/sec^2
M203 X200 Y200 Z12 E120 ; sets maximum feedrates, mm / sec
M204 S1250 T1250 ; sets acceleration (S) and retract acceleration (R), mm/sec^2
M205 X8.00 Y8.00 Z0.40 E4.50 ; sets the jerk limits, mm/sec
M205 S0 T0 ; sets the minimum extruding and travel feed rate, mm/sec

; printing object CSL_Shaker_Bracket.stl id:0 copy 0
; stop printing object CSL_Shaker_Bracket.stl id:0 copy 0

;TYPE:Custom
M862.3 P "MK3S" ; printer model check
M862.1 P0.4 ; nozzle diameter check
M115 U3.13.3 ; tell printer latest fw version
G90 ; use absolute coordinates
M83 ; extruder relative mode
M104 S215 ; set extruder temp
M140 S60 ; set bed temp
M190 S60 ; wait for bed temp
M109 S215 ; wait for extruder temp
G28 W ; home all without mesh bed level
G80 X104.123 Y69.1258 W41.7542 H71.7484 ; mesh bed levelling

G1 Z0.2 F720
G1 Y-3 F1000 ; go outside print area
G92 E0
G1 X60 E9 F1000 ; intro line
G1 X100 E12.5 F1000 ; intro line

G92 E0
M221 S95

; Don't change E values below. Excessive value can damage the printer.

M907 E538 ; set extruder motor current
G21 ; set units to millimeters
G90 ; use absolute coordinates
M83 ; use relative distances for extrusion

M900 K0.05 ; Filament gcode LA 1.5
M900 K30 ; Filament gcode LA 1.0




M107
;LAYER_CHANGE
;Z:0.2
;HEIGHT:0.2
G1 E-.8 F2100
G1 Z.6 F720
G1 X107.86 Y78.419 F10800
G1 Z.2 F720
G1 E.8 F2100
M204 S800
;TYPE:Skirt/Brim
;WIDTH:0.42
G1 F1200
G1 X109.078 Y76.794 E.06367
G1 X110.449 Y75.298 E.06362
G1 X111.961 Y73.941 E.0637
G1 X113.596 Y72.741 E.06359
G1 X115.343 Y71.706 E.06367
G1 X117.184 Y70.847 E.0637
G1 X119.097 Y70.174 E.06358
G1 X121.07 Y69.69 E.0637
G1 X123.08 Y69.403 E.06366
G1 X125.166 Y69.317 E.06546
G1 X127.134 Y69.424 E.0618
G1 X128.93 Y69.69 E.05693
G1 X131.106 Y70.236 E.07034
G1 X132.816 Y70.847 E.05694
G1 X134.657 Y71.706 E.0637
G1 X136.581 Y72.86 E.07034
G1 X138.206 Y74.078 E.06367
G1 X139.551 Y75.298 E.05694
G1 X141.059 Y76.961 E.07039
G1 X142.259 Y78.596 E.06359
G1 X143.193 Y80.153 E.05693
G1 X144.153 Y82.184 E.07044
G1 X144.826 Y84.097 E.06358
G1 X145.31 Y86.07 E.0637
G1 X145.576 Y87.866 E.05693
G1 X145.686 Y89.893 E.06365
G1 X145.689 Y120 E.94398
G1 X145.576 Y122.134 E.067
G1 X145.268 Y124.142 E.0637
G1 X144.764 Y126.106 E.06358
G1 X144.07 Y128.016 E.06372
G1 X143.193 Y129.847 E.06366
G1 X142.14 Y131.581 E.06361
G1 X140.922 Y133.206 E.06367
G1 X139.551 Y134.702 E.06362
G1 X138.039 Y136.059 E.0637
G1 X136.404 Y137.259 E.06359
G1 X134.657 Y138.294 E.06367
G1 X132.816 Y139.153 E.0637
G1 X130.903 Y139.826 E.06358
G1 X128.93 Y140.31 E.0637
G1 X126.92 Y140.597 E.06366
G1 X124.893 Y140.686 E.06362
G1 X122.866 Y140.576 E.06365
G1 X121.07 Y140.31 E.05693
G1 X118.894 Y139.764 E.07034
G1 X117.184 Y139.153 E.05694
G1 X115.343 Y138.294 E.0637
G1 X113.419 Y137.14 E.07034
G1 X111.794 Y135.922 E.06367
G1 X110.449 Y134.702 E.05694
G1 X108.941 Y133.039 E.07039
G1 X107.741 Y131.404 E.06359
G1 X106.807 Y129.847 E.05693
G1 X105.847 Y127.816 E.07044
G1 X105.174 Y125.903 E.06358
G1 X104.69 Y123.93 E.0637
G1 X104.424 Y122.134 E.05693
G1 X104.314 Y120.107 E.06365
G1 X104.311 Y90 E.94398
G1 X104.424 Y87.866 E.067
M73 Q0 S35
G1 X104.732 Y85.858 E.0637
G1 X105.236 Y83.894 E.06358
G1 X105.93 Y81.984 E.06372
G1 X106.807 Y80.153 E.06366
G1 X107.829 Y78.47 E.06174
M204 S1000
;WIPE_START
G1 F8640
G1 X107.86 Y78.419 E-.01378
G1 X109.078 Y76.794 E-.46892
G1 X110.006 Y75.781 E-.3173
;WIPE_END
G1 Z.6 F720
; printing object CSL_Shaker_Bracket.stl id:0 copy 0
G1 X127.144 Y103.241 F10800
G1 Z.2 F720
G1 E.8 F2100
M204 S800
;TYPE:Perimeter
;WIDTH:0.419999
G1 F1200
G1 X127.348 Y103.499 E.01031
G1 X127.596 Y103.986 E.01714
G1 X127.744 Y104.512 E.01713
G1 X127.787 Y105.055 E.01708
G1 X127.723 Y105.598 E.01714
G1 X127.554 Y106.117 E.01711
G1 X127.286 Y106.593 E.01713
G1 X126.961 Y106.983 E.01592
G1 X126.565 Y107.308 E.01606
G1 X126.117 Y107.552 E.01599
G1 X125.599 Y107.721 E.01708
G1 X125.055 Y107.785 E.01717
G1 X124.511 Y107.742 E.01711
G1 X123.985 Y107.594 E.01713
G1 X123.498 Y107.346 E.01714
G1 X123.068 Y107.008 E.01715
G1 X122.714 Y106.593 E.0171
G1 X122.446 Y106.117 E.01713
G1 X122.277 Y105.598 E.01711
G1 X122.212 Y105.056 E.01712
G1 X122.256 Y104.51 E.01717
G1 X122.404 Y103.986 E.01707
G1 X122.652 Y103.499 E.01714
G1 X122.99 Y103.07 E.01712
G1 X123.405 Y102.716 E.0171
G1 X123.883 Y102.448 E.01718
G1 X124.401 Y102.279 E.01708
G1 X124.929 Y102.216 E.01667
G1 X125.486 Y102.257 E.01751
G1 X126.015 Y102.406 E.01723
G1 X126.502 Y102.654 E.01714
G1 X127.01 Y103.07 E.02059
G1 X127.107 Y103.194 E.00494
M204 S1000
G1 X127.107 Y103.194 F10800
G1 X126.855 Y103.479
M204 S800
;TYPE:External perimeter
G1 F1200
G1 X127.016 Y103.677 E.008
G1 X127.235 Y104.095 E.0148
G1 X127.369 Y104.548 E.01481
G1 X127.411 Y105.018 E.0148
G1 X127.362 Y105.488 E.01482
G1 X127.221 Y105.939 E.01482
G1 X126.995 Y106.354 E.01482
G1 X126.692 Y106.717 E.01483
G1 X126.325 Y107.014 E.0148
G1 X125.906 Y107.233 E.01482
G1 X125.453 Y107.367 E.01481
G1 X124.887 Y107.4 E.01778
G1 X124.511 Y107.36 E.01186
G1 X124.061 Y107.219 E.01479
G1 X123.644 Y106.993 E.01487
G1 X123.242 Y106.643 E.01671
G1 X122.984 Y106.323 E.01289
G1 X122.765 Y105.905 E.0148
G1 X122.631 Y105.452 E.01481
G1 X122.588 Y104.981 E.01483
G1 X122.638 Y104.512 E.01479
G1 X122.779 Y104.061 E.01482
G1 X123.005 Y103.646 E.01482
G1 X123.308 Y103.283 E.01483
G1 X123.675 Y102.986 E.0148
G1 X124.094 Y102.767 E.01482
G1 X124.547 Y102.633 E.01481
G1 X125.002 Y102.591 E.01433
G1 X125.489 Y102.64 E.01535
G1 X125.939 Y102.781 E.01479
G1 X126.356 Y103.007 E.01487
G1 X126.718 Y103.309 E.01478
G1 X126.817 Y103.432 E.00495
M204 S1000
;WIPE_START
G1 F8640
G1 X126.855 Y103.479 E-.01396
G1 X127.016 Y103.677 E-.05893
G1 X127.235 Y104.095 E-.10896
G1 X127.369 Y104.548 E-.10908
G1 X127.411 Y105.018 E-.10896
G1 X127.362 Y105.488 E-.10911
G1 X127.221 Y105.939 E-.10911
G1 X126.995 Y106.354 E-.10911
G1 X126.793 Y106.596 E-.07278
;WIPE_END
G1 Z.6 F720
G1 X127.77 Y89.728 F10800
G1 Z.2 F720
G1 E.8 F2100
M204 S800
;TYPE:Perimeter
G1 F1200
G1 X127.779 Y90.202 E.01486
G1 X127.683 Y90.755 E.0176
G1 X127.484 Y91.263 E.01711
G1 X127.19 Y91.723 E.01712
G1 X126.81 Y92.117 E.01716
G1 X126.363 Y92.429 E.01709
G1 X125.861 Y92.648 E.01717
G1 X125.327 Y92.765 E.01714
G1 X124.783 Y92.775 E.01706
G1 X124.245 Y92.68 E.01713
G1 X123.653 Y92.439 E.02004
G1 X123.218 Y92.143 E.0165
G1 X122.853 Y91.779 E.01616
G1 X122.568 Y91.361 E.01586
G1 X122.349 Y90.86 E.01714
G1 X122.232 Y90.328 E.01708
G1 X122.221 Y89.781 E.01715
G1 X122.317 Y89.243 E.01714
G1 X122.516 Y88.735 E.01711
G1 X122.81 Y88.275 E.01712
G1 X123.19 Y87.881 E.01716
G1 X123.637 Y87.569 E.01709
G1 X124.139 Y87.35 E.01717
G1 X124.691 Y87.231 E.01771
G1 X125.219 Y87.222 E.01656
G1 X125.756 Y87.318 E.0171
G1 X126.264 Y87.517 E.01711
G1 X126.725 Y87.811 E.01714
G1 X127.119 Y88.189 E.01712
G1 X127.432 Y88.637 E.01714
G1 X127.651 Y89.137 E.01711
G1 X127.768 Y89.668 E.01705
M204 S1000
G1 X127.768 Y89.668 F10800
G1 X127.399 Y89.763
M204 S800
;TYPE:External perimeter
G1 F1200
G1 X127.402 Y89.781 E.00057
G1 X127.399 Y90.254 E.01483
G1 X127.302 Y90.716 E.0148
G1 X127.118 Y91.151 E.01481
G1 X126.852 Y91.542 E.01483
G1 X126.516 Y91.873 E.01479
G1 X126.12 Y92.133 E.01485
G1 X125.682 Y92.31 E.01481
G1 X125.217 Y92.398 E.01484
G1 X124.746 Y92.395 E.01477
G1 X124.283 Y92.299 E.01483
G1 X123.852 Y92.119 E.01464
G1 X123.456 Y91.85 E.01501
G1 X123.124 Y91.514 E.01481
G1 X122.864 Y91.119 E.01483
G1 X122.687 Y90.681 E.01481
G1 X122.598 Y90.202 E.01528
G1 X122.601 Y89.744 E.01436
G1 X122.698 Y89.281 E.01483
G1 X122.882 Y88.846 E.01481
G1 X123.148 Y88.456 E.0148
G1 X123.484 Y88.125 E.01479
G1 X123.88 Y87.865 E.01485
G1 X124.319 Y87.688 E.01484
G1 X124.799 Y87.598 E.01531
G1 X125.254 Y87.602 E.01427
G1 X125.718 Y87.699 E.01486
G1 X126.153 Y87.883 E.01481
G1 X126.544 Y88.148 E.01481
G1 X126.876 Y88.484 E.01481
G1 X127.136 Y88.879 E.01483
G1 X127.313 Y89.317 E.01481
G1 X127.388 Y89.704 E.01236
M204 S1000
;WIPE_START
G1 F8640
G1 X127.399 Y89.763 E-.01386
G1 X127.402 Y89.781 E-.00421
G1 X127.399 Y90.254 E-.10922
G1 X127.302 Y90.716 E-.109
G1 X127.118 Y91.151 E-.10906
G1 X126.852 Y91.542 E-.10919
G1 X126.516 Y91.873 E-.10891
G1 X126.12 Y92.133 E-.10938
G1 X125.682 Y92.31 E-.10908
G1 X125.605 Y92.325 E-.01809
;WIPE_END
G1 Z.6 F720
G1 X127.389 Y75.233 F10800
G1 Z.2 F720
M73 Q1 S35
G1 E.8 F2100
M204 S800
G1 F1200
G1 X127.362 Y75.486 E.00798
G1 X127.205 Y75.967 E.01586
M73 P1 R35
G1 X126.995 Y76.352 E.01375
G1 X126.692 Y76.715 E.01483
G1 X126.325 Y77.012 E.0148
G1 X125.905 Y77.232 E.01487
G1 X125.453 Y77.364 E.01476
G1 X124.993 Y77.408 E.01449
G1 X124.512 Y77.357 E.01517
G1 X124.061 Y77.217 E.01481
G1 X123.644 Y76.991 E.01487
G1 X123.282 Y76.689 E.01478
G1 X122.984 Y76.321 E.01485
G1 X122.765 Y75.903 E.0148
G1 X122.631 Y75.45 E.01481
G1 X122.588 Y74.979 E.01483
G1 X122.638 Y74.509 E.01482
G1 X122.79 Y74.037 E.01555
G1 X123.005 Y73.643 E.01407
G1 X123.308 Y73.28 E.01483
G1 X123.675 Y72.984 E.01478
G1 X124.094 Y72.765 E.01482
G1 X124.546 Y72.631 E.01478
G1 X125.016 Y72.59 E.01479
G1 X125.489 Y72.638 E.01491
G1 X125.939 Y72.779 E.01479
G1 X126.356 Y73.005 E.01487
G1 X126.718 Y73.306 E.01476
G1 X127.016 Y73.674 E.01485
G1 X127.235 Y74.092 E.0148
G1 X127.369 Y74.545 E.01481
G1 X127.411 Y75.016 E.01483
G1 X127.395 Y75.173 E.00495
M204 S1000
;WIPE_START
G1 F8640
G1 X127.389 Y75.233 E-.01392
G1 X127.362 Y75.486 E-.05875
G1 X127.205 Y75.967 E-.11683
G1 X126.995 Y76.352 E-.10126
G1 X126.692 Y76.715 E-.10918
G1 X126.325 Y77.012 E-.10901
G1 X125.905 Y77.232 E-.10948
G1 X125.453 Y77.364 E-.10873
G1 X125.139 Y77.394 E-.07284
;WIPE_END
G1 Z.6 F720
G1 X126.542 Y122.306 F10800
G1 Z.2 F720
G1 E.8 F2100
M204 S800
;TYPE:Perimeter
G1 F1200
G1 X126.363 Y122.431 E.00685
G1 X125.862 Y122.65 E.01714
G1 X125.328 Y122.767 E.01714
G1 X124.808 Y122.778 E.01631
G1 X124.285 Y122.69 E.01663
G1 X123.736 Y122.484 E.01839
G1 X123.275 Y122.189 E.01716
G1 X122.881 Y121.811 E.01712
G1 X122.568 Y121.363 E.01714
G1 X122.433 Y121.065 E.01026
G1 X122.317 Y120.757 E.01032
G1 X122.221 Y120.247 E.01627
G1 X122.223 Y119.727 E.0163
G1 X122.331 Y119.192 E.01711
G1 X122.54 Y118.686 E.01717
G1 X122.85 Y118.224 E.01744
G1 X123.203 Y117.87 E.01567
G1 X123.637 Y117.571 E.01652
G1 X124.139 Y117.352 E.01717
G1 X124.691 Y117.234 E.0177
G1 X125.219 Y117.225 E.01656
G1 X125.755 Y117.32 E.01707
G1 X126.264 Y117.519 E.01714
G1 X126.725 Y117.813 E.01714
G1 X127.119 Y118.191 E.01712
G1 X127.432 Y118.639 E.01714
G1 X127.651 Y119.14 E.01714
G1 X127.768 Y119.672 E.01708
G1 X127.779 Y120.219 E.01715
G1 X127.683 Y120.757 E.01714
G1 X127.484 Y121.265 E.01711
G1 X127.19 Y121.725 E.01712
G1 X126.81 Y122.119 E.01716
G1 X126.591 Y122.271 E.00836
M204 S1000
G1 X126.591 Y122.271 F10800
G1 X126.334 Y121.994
M204 S800
;TYPE:External perimeter
G1 F1200
G1 X126.12 Y122.135 E.00804
G1 X125.669 Y122.315 E.01523
G1 X125.217 Y122.401 E.01443
G1 X124.746 Y122.398 E.01477
G1 X124.282 Y122.301 E.01486
G1 X123.847 Y122.117 E.01481
G1 X123.456 Y121.852 E.01481
G1 X123.124 Y121.516 E.01481
G1 X122.864 Y121.121 E.01483
G1 X122.781 Y120.92 E.00682
G1 X122.642 Y120.46 E.01507
G1 X122.598 Y120.219 E.00768
G1 X122.601 Y119.746 E.01483
G1 X122.698 Y119.284 E.0148
G1 X122.882 Y118.849 E.01481
G1 X123.148 Y118.458 E.01483
G1 X123.484 Y118.127 E.01479
G1 X123.88 Y117.867 E.01485
G1 X124.319 Y117.69 E.01484
G1 X124.799 Y117.601 E.01531
G1 X125.254 Y117.605 E.01427
G1 X125.717 Y117.701 E.01483
G1 X126.153 Y117.885 E.01484
G1 X126.544 Y118.15 E.01481
G1 X126.876 Y118.486 E.01481
G1 X127.136 Y118.881 E.01483
G1 X127.313 Y119.319 E.01481
G1 X127.402 Y119.798 E.01528
G1 X127.399 Y120.256 E.01436
G1 X127.302 Y120.719 E.01483
G1 X127.118 Y121.154 E.01481
G1 X126.852 Y121.544 E.0148
G1 X126.516 Y121.875 E.01479
G1 X126.384 Y121.961 E.00494
M204 S1000
;WIPE_START
G1 F8640
G1 X126.334 Y121.994 E-.01383
G1 X126.12 Y122.135 E-.05917
G1 X125.669 Y122.315 E-.11212
G1 X125.217 Y122.401 E-.10624
G1 X124.746 Y122.398 E-.10876
G1 X124.282 Y122.301 E-.10945
G1 X123.847 Y122.117 E-.10906
G1 X123.456 Y121.852 E-.10906
G1 X123.236 Y121.629 E-.07231
;WIPE_END
G1 Z.6 F720
G1 X127.217 Y135.92 F10800
G1 Z.2 F720
G1 E.8 F2100
M204 S800
G1 F1200
G1 X127.118 Y136.154 E.00797
G1 X126.852 Y136.545 E.01483
G1 X126.398 Y136.955 E.01918
G1 X126.12 Y137.136 E.0104
G1 X125.682 Y137.313 E.01481
G1 X125.217 Y137.402 E.01484
G1 X124.773 Y137.402 E.01392
G1 X124.282 Y137.302 E.01571
G1 X123.847 Y137.118 E.01481
G1 X123.456 Y136.853 E.01481
G1 X123.124 Y136.517 E.01481
G1 X122.843 Y136.07 E.01655
G1 X122.687 Y135.684 E.01305
G1 X122.598 Y135.196 E.01555
G1 X122.601 Y134.747 E.01408
G1 X122.698 Y134.285 E.0148
G1 X122.882 Y133.85 E.01481
G1 X123.148 Y133.459 E.01483
G1 X123.485 Y133.128 E.01481
G1 X123.88 Y132.868 E.01483
G1 X124.319 Y132.69 E.01485
G1 X124.798 Y132.602 E.01527
G1 X125.267 Y132.609 E.01471
G1 X125.718 Y132.702 E.01444
G1 X126.153 Y132.886 E.01481
G1 X126.544 Y133.151 E.01481
G1 X126.876 Y133.487 E.01481
G1 X127.136 Y133.882 E.01483
G1 X127.313 Y134.32 E.01481
G1 X127.402 Y134.784 E.01481
G1 X127.399 Y135.256 E.0148
G1 X127.302 Y135.72 E.01486
G1 X127.241 Y135.865 E.00493
M204 S1000
;WIPE_START
G1 F8640
G1 X127.217 Y135.92 E-.01386
G1 X127.118 Y136.154 E-.05867
G1 X126.852 Y136.545 E-.10919
G1 X126.398 Y136.955 E-.14125
G1 X126.12 Y137.136 E-.0766
G1 X125.682 Y137.313 E-.10908
G1 X125.217 Y137.402 E-.10932
G1 X124.773 Y137.402 E-.10252
G1 X124.436 Y137.334 E-.07951
;WIPE_END
G1 Z.6 F720
G1 X125.77 Y137.677 F10800
G1 Z.2 F720
G1 E.8 F2100
M204 S800
;TYPE:Perimeter
;WIDTH:0.41426
G1 F1200
G1 X125.507 Y137.708 E.00818
;WIDTH:0.377785
G1 X125.243 Y137.739 E.0074
;WIDTH:0.347118
G1 X124.679 Y137.733 E.01427
;WIDTH:0.37954
G1 X124.462 Y137.706 E.00612
;WIDTH:0.411962
G1 X124.244 Y137.679 E.00674
M204 S1000
;WIPE_START
G1 F8640
G1 X124.462 Y137.706 E-.05072
G1 X124.679 Y137.733 E-.05049
G1 X125.243 Y137.739 E-.13024
G1 X125.507 Y137.708 E-.06138
G1 X125.77 Y137.677 E-.06115
;WIPE_END
G1 E-.44602 F2100
G1 Z.6 F720
G1 X124.448 Y72.292 F10800
G1 Z.2 F720
G1 E.8 F2100
M204 S800
;WIDTH:0.367632
G1 F1200
G1 X124.959 Y72.253 E.01384
;WIDTH:0.36344
G1 X125.485 Y72.284 E.01404
;WIDTH:0.379326
G1 X125.593 Y72.297 E.00304
M204 S1000
;WIPE_START
G1 F8640
G1 X125.485 Y72.284 E-.02512
G1 X124.959 Y72.253 E-.12167
G1 X124.448 Y72.292 E-.11833
;WIPE_END
G1 E-.53488 F2100
G1 Z.6 F720
G1 X121.507 Y137.363 F10800
G1 Z.2 F720
G1 E.8 F2100
M204 S800
;WIDTH:0.419999
G1 F1200
G1 X119.859 Y136.949 E.05328
G1 X118.221 Y136.364 E.05454
G1 X116.653 Y135.622 E.05439
G1 X115.16 Y134.727 E.05458
G1 X113.764 Y133.692 E.05449
G1 X112.476 Y132.524 E.05452
G1 X111.308 Y131.236 E.05452
G1 X110.273 Y129.84 E.05449
G1 X109.379 Y128.349 E.05451
G1 X108.636 Y126.779 E.05446
G1 X108.051 Y125.141 E.05454
G1 X107.628 Y123.455 E.0545
G1 X107.373 Y121.736 E.05449
G1 X107.287 Y119.981 E.05509
G1 X107.287 Y90.019 E.93944
G1 X107.373 Y88.264 E.05509
G1 X107.628 Y86.545 E.05449
G1 X108.051 Y84.859 E.0545
G1 X108.636 Y83.221 E.05454
G1 X109.379 Y81.651 E.05446
G1 X110.273 Y80.16 E.05451
G1 X111.308 Y78.764 E.05449
G1 X112.476 Y77.476 E.05452
G1 X113.764 Y76.308 E.05452
G1 X115.16 Y75.273 E.05449
G1 X116.651 Y74.379 E.05451
G1 X118.221 Y73.636 E.05446
G1 X119.859 Y73.051 E.05454
G1 X121.545 Y72.628 E.0545
G1 X123.263 Y72.373 E.05446
G1 X124.407 Y72.298 E.03595
G1 X123.883 Y72.446 E.01707
G1 X123.404 Y72.714 E.01721
G1 X122.99 Y73.067 E.01706
G1 X122.652 Y73.496 E.01712
G1 X122.404 Y73.983 E.01714
G1 X122.256 Y74.507 E.01707
G1 X122.212 Y75.054 E.01721
G1 X122.277 Y75.596 E.01712
G1 X122.463 Y76.145 E.01817
G1 X122.714 Y76.591 E.01605
G1 X123.068 Y77.006 E.0171
G1 X123.498 Y77.345 E.01717
G1 X123.986 Y77.593 E.01716
G1 X124.51 Y77.739 E.01706
G1 X125.056 Y77.783 E.01717
