; generated by PrusaSlicer 2.8.0+win64 on 2024-10-07 at 07:59:04 UTC


;
;
; 

; external perimeters extrusion width = 0.60mm
; perimeters extrusion width = 0.50mm
; infill extrusion width = 0.50mm
; solid infill extrusion width = 0.50mm
; top infill extrusion width = 0.45mm
; first layer extrusion width = 0.42mm

M73 P0 R18
M73 Q0 S18
M201 X1000 Y1000 Z200 E5000 ; sets maximum accelerations, mm/sec^2
M203 X200 Y200 Z12 E120 ; sets maximum feedrates, mm / sec
M204 S1250 T1250 ; sets acceleration (S) and retract acceleration (R), mm/sec^2
M205 X8.00 Y8.00 Z0.40 E4.50 ; sets the jerk limits, mm/sec
M205 S0 T0 ; sets the minimum extruding and travel feed rate, mm/sec

; printing object CSL_Shaker_Bracket_Mini.stl id:0 copy 0
; stop printing object CSL_Shaker_Bracket_Mini.stl id:0 copy 0

;TYPE:Custom
M862.3 P "MK3S" ; printer model check
M862.1 P0.4 ; nozzle diameter check
M115 U3.13.3 ; tell printer latest fw version
G90 ; use absolute coordinates
M83 ; extruder relative mode
M104 S215 ; set extruder temp
M140 S60 ; set bed temp
M190 S60 ; wait for bed temp
M109 S215 ; wait for extruder temp
G28 W ; home all without mesh bed level
G80 X104.126 Y84.1258 W41.7484 H41.7484 ; mesh bed levelling

G1 Z0.2 F720
G1 Y-3 F1000 ; go outside print area
G92 E0
G1 X60 E9 F1000 ; intro line
G1 X100 E12.5 F1000 ; intro line

G92 E0
M221 S95

; Don't change E values below. Excessive value can damage the printer.

M907 E538 ; set extruder motor current
G21 ; set units to millimeters
G90 ; use absolute coordinates
M83 ; use relative distances for extrusion

M900 K0.05 ; Filament gcode LA 1.5
M900 K30 ; Filament gcode LA 1.0




M107
;LAYER_CHANGE
;Z:0.2
;HEIGHT:0.2
G1 E-.8 F2100
G1 Z.6 F720
G1 X109.078 Y91.794 F10800
G1 Z.2 F720
G1 E.8 F2100
M204 S800
;TYPE:Skirt/Brim
;WIDTH:0.42
G1 F1200
G1 X110.449 Y90.298 E.06362
G1 X111.961 Y88.941 E.0637
G1 X113.596 Y87.741 E.06359
G1 X115.343 Y86.706 E.06367
G1 X117.184 Y85.847 E.0637
G1 X119.097 Y85.174 E.06358
G1 X121.07 Y84.69 E.0637
G1 X123.08 Y84.403 E.06366
G1 X125.168 Y84.317 E.06552
G1 X127.134 Y84.424 E.06173
G1 X129.142 Y84.732 E.0637
G1 X131.106 Y85.236 E.06358
G1 X133.016 Y85.93 E.06372
G1 X134.847 Y86.807 E.06366
G1 X136.581 Y87.86 E.06361
G1 X138.206 Y89.078 E.06367
G1 X139.702 Y90.449 E.06362
G1 X141.059 Y91.961 E.0637
G1 X142.259 Y93.596 E.06359
G1 X143.294 Y95.343 E.06367
G1 X144.153 Y97.184 E.0637
G1 X144.826 Y99.097 E.06358
G1 X145.31 Y101.07 E.0637
G1 X145.597 Y103.08 E.06366
G1 X145.686 Y105.107 E.06362
G1 X145.576 Y107.134 E.06365
G1 X145.268 Y109.142 E.0637
G1 X144.764 Y111.106 E.06358
G1 X144.07 Y113.016 E.06372
G1 X143.193 Y114.847 E.06366
G1 X142.14 Y116.581 E.06361
G1 X140.922 Y118.206 E.06367
G1 X139.551 Y119.702 E.06362
G1 X138.039 Y121.059 E.0637
G1 X136.404 Y122.259 E.06359
G1 X134.657 Y123.294 E.06367
G1 X132.816 Y124.153 E.0637
G1 X130.903 Y124.826 E.06358
G1 X128.93 Y125.31 E.0637
G1 X126.92 Y125.597 E.06366
M73 Q1 S18
G1 X124.893 Y125.686 E.06362
G1 X122.866 Y125.576 E.06365
M73 P1 R18
G1 X120.858 Y125.268 E.0637
G1 X118.894 Y124.764 E.06358
G1 X116.984 Y124.07 E.06372
G1 X115.153 Y123.193 E.06366
G1 X113.419 Y122.14 E.06361
G1 X111.794 Y120.922 E.06367
G1 X110.298 Y119.551 E.06362
G1 X108.941 Y118.039 E.0637
G1 X107.741 Y116.404 E.06359
G1 X106.706 Y114.657 E.06367
G1 X105.847 Y112.816 E.0637
G1 X105.174 Y110.903 E.06358
G1 X104.69 Y108.93 E.0637
G1 X104.403 Y106.92 E.06366
G1 X104.314 Y104.893 E.06362
G1 X104.424 Y102.867 E.06362
G1 X104.732 Y100.858 E.06373
G1 X105.236 Y98.894 E.06358
G1 X105.929 Y96.985 E.06368
G1 X106.807 Y95.153 E.0637
G1 X107.86 Y93.419 E.06361
G1 X109.042 Y91.842 E.06179
M204 S1000
;WIPE_START
G1 F8640
G1 X109.078 Y91.794 E-.01385
G1 X110.449 Y90.298 E-.46855
G1 X111.472 Y89.379 E-.3176
;WIPE_END
G1 Z.6 F720
; printing object CSL_Shaker_Bracket_Mini.stl id:0 copy 0
G1 X126.522 Y88.146 F10800
G1 Z.2 F720
G1 E.8 F2100
M204 S800
;TYPE:External perimeter
;WIDTH:0.419999
G1 F1200
G1 X126.716 Y88.308 E.00792
G1 X127.014 Y88.676 E.01485
G1 X127.233 Y89.094 E.0148
G1 X127.367 Y89.547 E.01481
G1 X127.41 Y90.018 E.01483
G1 X127.36 Y90.487 E.01479
G1 X127.203 Y90.968 E.01586
G1 X126.993 Y91.353 E.01375
G1 X126.691 Y91.715 E.01478
G1 X126.283 Y92.034 E.01624
G1 X125.869 Y92.243 E.01454
G1 X125.451 Y92.366 E.01366
G1 X124.982 Y92.408 E.01476
G1 X124.511 Y92.359 E.01485
G1 X124.06 Y92.218 E.01482
G1 X123.645 Y91.992 E.01482
G1 X123.283 Y91.69 E.01478
G1 X122.985 Y91.322 E.01485
G1 X122.796 Y90.967 E.01261
G1 X122.639 Y90.487 E.01583
G1 X122.588 Y89.984 E.01585
G1 X122.639 Y89.511 E.01492
G1 X122.791 Y89.039 E.01555
G1 X123.006 Y88.645 E.01407
G1 X123.308 Y88.283 E.01478
G1 X123.676 Y87.985 E.01485
G1 X124.094 Y87.766 E.0148
G1 X124.547 Y87.632 E.01481
G1 X125.019 Y87.592 E.01485
G1 X125.488 Y87.639 E.01478
G1 X125.939 Y87.78 E.01482
G1 X126.355 Y88.007 E.01486
G1 X126.475 Y88.107 E.0049
M204 S1000
;WIPE_START
G1 F8640
G1 X126.522 Y88.146 E-.0141
G1 X126.716 Y88.308 E-.05836
G1 X127.014 Y88.676 E-.10934
G1 X127.233 Y89.094 E-.10896
G1 X127.367 Y89.547 E-.10908
G1 X127.41 Y90.018 E-.10921
G1 X127.36 Y90.487 E-.10891
G1 X127.203 Y90.968 E-.11683
G1 X127.068 Y91.216 E-.06521
;WIPE_END
G1 Z.6 F720
G1 X124.531 Y122.353 F10800
G1 Z.2 F720
G1 E.8 F2100
M204 S800
G1 F1200
G1 X124.282 Y122.301 E.00798
G1 X123.847 Y122.117 E.01481
G1 X123.456 Y121.852 E.01481
G1 X123.125 Y121.516 E.01479
G1 X122.844 Y121.069 E.01655
G1 X122.688 Y120.684 E.01302
G1 X122.599 Y120.195 E.01558
G1 X122.602 Y119.746 E.01408
G1 X122.699 Y119.283 E.01483
G1 X122.883 Y118.849 E.01478
G1 X123.148 Y118.458 E.01481
G1 X123.484 Y118.127 E.01479
G1 X123.879 Y117.867 E.01483
G1 X124.319 Y117.69 E.01487
G1 X124.951 Y117.601 E.02001
G1 X125.254 Y117.605 E.0095
G1 X125.716 Y117.701 E.0148
G1 X126.152 Y117.885 E.01484
G1 X126.543 Y118.15 E.01481
G1 X126.874 Y118.486 E.01479
G1 X127.134 Y118.881 E.01483
G1 X127.311 Y119.318 E.01478
G1 X127.4 Y119.783 E.01484
G1 X127.397 Y120.256 E.01483
G1 X127.3 Y120.719 E.01483
G1 X127.156 Y121.068 E.01184
G1 X126.874 Y121.516 E.0166
G1 X126.515 Y121.875 E.01592
G1 X126.12 Y122.135 E.01483
G1 X125.682 Y122.312 E.01481
G1 X125.218 Y122.401 E.01481
G1 X124.744 Y122.398 E.01486
G1 X124.589 Y122.365 E.00497
M204 S1000
;WIPE_START
G1 F8640
G1 X124.531 Y122.353 E-.01368
G1 X124.282 Y122.301 E-.05874
G1 X123.847 Y122.117 E-.10906
G1 X123.456 Y121.852 E-.10906
G1 X123.125 Y121.516 E-.10891
G1 X122.844 Y121.069 E-.12191
G1 X122.688 Y120.684 E-.09592
G1 X122.599 Y120.195 E-.11477
G1 X122.601 Y119.901 E-.06795
;WIPE_END
G1 Z.6 F720
G1 X125.769 Y122.677 F10800
G1 Z.2 F720
G1 E.8 F2100
M204 S800
;TYPE:Perimeter
;WIDTH:0.415322
G1 F1200
G1 X125.506 Y122.708 E.0082
;WIDTH:0.378816
G1 X125.243 Y122.739 E.0074
;WIDTH:0.348106
G1 X124.677 Y122.732 E.01436
;WIDTH:0.380556
G1 X124.461 Y122.705 E.00611
;WIDTH:0.413006
G1 X124.244 Y122.678 E.00673
M204 S1000
;WIPE_START
G1 F8640
G1 X124.461 Y122.705 E-.05049
G1 X124.677 Y122.732 E-.05026
G1 X125.243 Y122.739 E-.1307
G1 X125.506 Y122.708 E-.06115
G1 X125.769 Y122.677 E-.06115
;WIPE_END
G1 E-.44625 F2100
G1 Z.6 F720
G1 X128.417 Y122.378 F10800
G1 Z.2 F720
G1 E.8 F2100
M204 S800
;WIDTH:0.419999
G1 F1200
G1 X126.885 Y122.605 E.04856
G1 X125.769 Y122.677 E.03506
;WIDTH:0.416456
G1 X125.86 Y122.648 E.00297
;WIDTH:0.419999
G1 X126.362 Y122.431 E.01715
G1 X126.81 Y122.118 E.01714
G1 X127.188 Y121.725 E.0171
G1 X127.482 Y121.265 E.01712
G1 X127.681 Y120.757 E.01711
G1 X127.777 Y120.194 E.01791
G1 X127.766 Y119.672 E.01637
G1 X127.649 Y119.139 E.01711
G1 X127.43 Y118.639 E.01711
G1 X127.117 Y118.191 E.01714
G1 X126.724 Y117.813 E.0171
G1 X126.264 Y117.519 E.01712
G1 X125.754 Y117.32 E.01716
G1 X125.219 Y117.225 E.01704
G1 X124.69 Y117.234 E.01659
G1 X124.139 Y117.352 E.01767
G1 X123.637 Y117.571 E.01717
G1 X123.189 Y117.884 E.01714
G1 X122.811 Y118.277 E.0171
G1 X122.517 Y118.737 E.01712
G1 X122.318 Y119.245 E.01711
G1 X122.222 Y119.783 E.01714
G1 X122.233 Y120.33 E.01715
G1 X122.35 Y120.863 E.01711
G1 X122.569 Y121.363 E.01711
G1 X122.882 Y121.811 E.01714
G1 X123.275 Y122.189 E.0171
G1 X123.735 Y122.483 E.01712
G1 X124.244 Y122.678 E.01709
;WIDTH:0.414948
G1 X124.134 Y122.672 E.00341
;WIDTH:0.419999
G1 X123.264 Y122.627 E.02731
G1 X121.545 Y122.372 E.05449
G1 X119.859 Y121.949 E.0545
G1 X118.221 Y121.364 E.05454
G1 X116.651 Y120.621 E.05446
G1 X115.16 Y119.727 E.05451
G1 X113.764 Y118.692 E.05449
G1 X112.476 Y117.524 E.05452
G1 X111.308 Y116.236 E.05452
G1 X110.273 Y114.84 E.05449
G1 X109.379 Y113.349 E.05451
G1 X108.636 Y111.779 E.05446
G1 X108.051 Y110.141 E.05454
G1 X107.628 Y108.455 E.0545
G1 X107.373 Y106.736 E.05449
G1 X107.288 Y105 E.0545
G1 X107.373 Y103.264 E.0545
G1 X107.628 Y101.545 E.05449
G1 X108.051 Y99.859 E.0545
G1 X108.636 Y98.221 E.05454
G1 X109.379 Y96.651 E.05446
G1 X110.273 Y95.16 E.05451
G1 X111.308 Y93.764 E.05449
G1 X112.476 Y92.476 E.05452
G1 X113.764 Y91.308 E.05452
G1 X115.16 Y90.273 E.05449
G1 X116.651 Y89.379 E.05451
G1 X118.221 Y88.636 E.05446
G1 X119.859 Y88.051 E.05454
G1 X121.545 Y87.628 E.0545
G1 X123.263 Y87.373 E.05446
G1 X124.407 Y87.299 E.03594
G1 X123.883 Y87.447 E.01707
G1 X123.405 Y87.715 E.01718
G1 X122.991 Y88.069 E.01708
G1 X122.653 Y88.498 E.01712
G1 X122.405 Y88.985 E.01714
G1 X122.257 Y89.509 E.01707
G1 X122.213 Y90.055 E.01717
G1 X122.278 Y90.597 E.01712
G1 X122.463 Y91.145 E.01813
G1 X122.715 Y91.592 E.01609
G1 X123.069 Y92.007 E.0171
G1 X123.538 Y92.367 E.01854
G1 X124.021 Y92.604 E.01687
G1 X124.511 Y92.742 E.01596
G1 X125.055 Y92.784 E.01711
G1 X125.598 Y92.72 E.01714
G1 X126.077 Y92.57 E.01574
G1 X126.533 Y92.326 E.01622
G1 X126.933 Y92.004 E.0161
G1 X127.3 Y91.572 E.01777
G1 X127.552 Y91.116 E.01634
G1 X127.723 Y90.59 E.01734
G1 X127.786 Y90.055 E.01689
G1 X127.742 Y89.509 E.01717
G1 X127.594 Y88.985 E.01707
G1 X127.346 Y88.498 E.01714
G1 X127.008 Y88.069 E.01712
G1 X126.593 Y87.715 E.0171
G1 X126.116 Y87.447 E.01715
G1 X125.592 Y87.297 E.01709
G1 X126.736 Y87.373 E.03595
G1 X128.455 Y87.628 E.05449
G1 X130.141 Y88.051 E.0545
G1 X131.779 Y88.636 E.05454
G1 X133.349 Y89.379 E.05446
G1 X134.84 Y90.273 E.05451
G1 X136.236 Y91.308 E.05449
G1 X137.524 Y92.476 E.05452
G1 X138.692 Y93.764 E.05452
M73 Q2 S18
G1 X139.727 Y95.16 E.05449
G1 X140.621 Y96.651 E.05451
G1 X141.364 Y98.221 E.05446
G1 X141.949 Y99.859 E.05454
M73 P2 R18
G1 X142.372 Y101.545 E.0545
G1 X142.627 Y103.264 E.05449
G1 X142.712 Y105 E.0545
G1 X142.681 Y105.635 E.01993
G1 X142.627 Y106.736 E.03456
G1 X142.372 Y108.455 E.05449
G1 X141.949 Y110.141 E.0545
G1 X141.364 Y111.779 E.05454
G1 X140.621 Y113.349 E.05446
G1 X139.727 Y114.84 E.05451
G1 X138.692 Y116.236 E.05449
G1 X137.524 Y117.524 E.05452
G1 X136.236 Y118.692 E.05452
G1 X134.84 Y119.727 E.05449
G1 X133.349 Y120.621 E.05451
G1 X131.779 Y121.364 E.05446
G1 X130.141 Y121.949 E.05454
G1 X128.476 Y122.367 E.05382
M204 S1000
;WIPE_START
G1 F8640
G1 X128.417 Y122.378 E-.01386
G1 X126.885 Y122.605 E-.35761
G1 X125.769 Y122.677 E-.25822
G1 X125.86 Y122.648 E-.02205
G1 X126.362 Y122.431 E-.12628
G1 X126.44 Y122.377 E-.02198
;WIPE_END
G1 Z.6 F720
G1 X124.448 Y87.293 F10800
G1 Z.2 F720
G1 E.8 F2100
M204 S800
;WIDTH:0.36852
G1 F1200
G1 X124.96 Y87.254 E.0139
;WIDTH:0.364456
G1 X125.483 Y87.284 E.01401
;WIDTH:0.380396
G1 X125.592 Y87.297 E.00308
M204 S1000
;WIPE_START
G1 F8640
G1 X125.483 Y87.284 E-.02535
G1 X124.96 Y87.254 E-.12096
G1 X124.448 Y87.293 E-.11856
;WIPE_END
G1 E-.53513 F2100
G1 Z.6 F720
G1 X128.509 Y122.745 F10800
G1 Z.2 F720
G1 E.8 F2100
M204 S800
;TYPE:External perimeter
;WIDTH:0.419999
G1 F1200
G1 X126.773 Y123.002 E.05502
G1 X125 Y123.09 E.05566
G1 X123.227 Y123.002 E.05566
G1 X121.471 Y122.742 E.05566
G1 X119.749 Y122.31 E.05567
G1 X118.077 Y121.713 E.05567
G1 X116.473 Y120.954 E.05564
G1 X114.95 Y120.041 E.05568
G1 X113.524 Y118.984 E.05565
G1 X112.209 Y117.791 E.05567
G1 X111.016 Y116.476 E.05567
G1 X109.959 Y115.05 E.05565
G1 X109.046 Y113.527 E.05568
G1 X108.287 Y111.923 E.05564
G1 X107.69 Y110.251 E.05567
G1 X107.258 Y108.529 E.05567
G1 X106.998 Y106.773 E.05566
G1 X106.91 Y105 E.05566
G1 X106.998 Y103.227 E.05566
G1 X107.258 Y101.471 E.05566
G1 X107.69 Y99.749 E.05567
G1 X108.287 Y98.077 E.05567
G1 X109.046 Y96.473 E.05564
G1 X109.959 Y94.95 E.05568
G1 X111.016 Y93.524 E.05565
G1 X112.209 Y92.209 E.05567
G1 X113.524 Y91.016 E.05567
G1 X114.95 Y89.959 E.05565
G1 X116.473 Y89.046 E.05568
G1 X118.077 Y88.287 E.05564
G1 X119.749 Y87.69 E.05567
G1 X121.471 Y87.258 E.05567
G1 X123.227 Y86.998 E.05566
G1 X125.05 Y86.913 E.05722
G1 X126.773 Y86.998 E.05409
G1 X128.529 Y87.258 E.05566
G1 X130.251 Y87.69 E.05567
G1 X131.923 Y88.287 E.05567
G1 X133.527 Y89.046 E.05564
G1 X135.05 Y89.959 E.05568
G1 X136.476 Y91.016 E.05565
G1 X137.791 Y92.209 E.05567
G1 X138.984 Y93.524 E.05567
G1 X140.041 Y94.95 E.05565
G1 X140.954 Y96.473 E.05568
G1 X141.713 Y98.077 E.05564
G1 X142.31 Y99.749 E.05567
G1 X142.742 Y101.471 E.05567
G1 X143.002 Y103.227 E.05566
G1 X143.09 Y105 E.05566
G1 X143.057 Y105.653 E.0205
G1 X143.002 Y106.773 E.03516
G1 X142.742 Y108.529 E.05566
G1 X142.31 Y110.251 E.05567
G1 X141.713 Y111.923 E.05567
G1 X140.954 Y113.527 E.05564
G1 X140.041 Y115.05 E.05568
G1 X138.984 Y116.476 E.05565
G1 X137.791 Y117.791 E.05567
G1 X136.476 Y118.984 E.05567
G1 X135.05 Y120.041 E.05565
G1 X133.527 Y120.954 E.05568
G1 X131.923 Y121.713 E.05564
G1 X130.251 Y122.31 E.05567
G1 X128.567 Y122.733 E.05444
M204 S1000
;WIPE_START
G1 F8640
G1 X128.509 Y122.745 E-.01368
G1 X126.773 Y123.002 E-.40522
G1 X125.125 Y123.083 E-.3811
;WIPE_END
G1 Z.6 F720
G1 X135.657 Y91.09 F10800
G1 Z.2 F720
G1 E.8 F2100
M204 S800
;TYPE:Solid infill
;WIDTH:0.42056
G1 F1200
G1 X137.285 Y92.718 E.0723
G1 X138.429 Y93.98 E.05349
G1 X139.444 Y95.349 E.05351
G1 X139.539 Y95.506 E.00576
G1 X134.494 Y90.461 E.22404
G1 X133.167 Y89.668 E.04854
G1 X140.332 Y96.833 E.31818
G1 X140.811 Y97.846 E.03519
G1 X132.154 Y89.189 E.38444
G1 X131.649 Y88.95 E.01754
M73 Q3 S18
G1 X131.232 Y88.801 E.0139
G1 X141.199 Y98.768 E.44261
G1 X141.496 Y99.599 E.02771
M73 P3 R18
G1 X130.401 Y88.504 E.4927
G1 X130.043 Y88.376 E.01194
G1 X129.637 Y88.274 E.01314
G1 X141.726 Y100.363 E.53684
G1 X141.905 Y101.076 E.02308
G1 X128.924 Y88.095 E.57645
G1 X128.232 Y87.938 E.02228
G1 X142.062 Y101.768 E.61416
G1 X142.155 Y102.395 E.0199
G1 X127.605 Y87.845 E.64613
G1 X127.194 Y87.784 E.01305
G1 X127.551 Y88.196 E.01712
G1 X127.728 Y88.501 E.01107
G1 X142.248 Y103.021 E.6448
G1 X142.289 Y103.297 E.00876
G1 X142.304 Y103.612 E.0099
G1 X128.05 Y89.357 E.63301
G1 X128.079 Y89.463 E.00345
G1 X128.123 Y89.965 E.01582
G1 X142.332 Y104.173 E.63096
G1 X142.359 Y104.735 E.01767
G1 X128.075 Y90.451 E.63432
G1 X128.053 Y90.672 E.00697
G1 X127.985 Y90.895 E.00732
G1 X142.359 Y105.269 E.63831
G1 X142.334 Y105.778 E.016
G1 X127.836 Y91.281 E.6438
G1 X127.658 Y91.636 E.01247
M73 P4 R18
M73 Q4 S18
G1 X142.309 Y106.287 E.65062
G1 X142.276 Y106.788 E.01577
G1 X127.428 Y91.94 E.65936
G1 X127.183 Y92.23 E.01192
G1 X142.207 Y107.253 E.66716
G1 X142.138 Y107.718 E.01476
G1 X126.894 Y92.474 E.67695
G1 X126.575 Y92.69 E.0121
G1 X142.069 Y108.184 E.68805
G1 X141.979 Y108.627 E.01419
G1 X126.226 Y92.874 E.69955
G1 X125.822 Y93.005 E.01334
G1 X141.872 Y109.054 E.71272
G1 X141.765 Y109.481 E.01382
M73 P4 R17
G1 X125.374 Y93.09 E.72788
G1 X124.866 Y93.117 E.01597
G1 X141.658 Y109.908 E.74567
G1 X141.527 Y110.312 E.01334
G1 X123.973 Y92.758 E.77953
M204 S1000
;WIPE_START
G1 F8640
M73 P5 R17
M73 Q5 S18
G1 X126.423 Y95.208 E-.8
;WIPE_END
G1 Z.6 F720
G1 X122.89 Y87.936 F10800
G1 Z.2 F720
G1 E.8 F2100
M204 S800
G1 F1200
G1 X122.75 Y87.796 E.00622
G1 X122.283 Y87.864 E.01482
G1 X122.529 Y88.109 E.0109
G1 X122.36 Y88.327 E.00866
G1 X122.308 Y88.423 E.00343
G1 X121.817 Y87.931 E.02183
G1 X121.373 Y88.021 E.01423
G1 X122.128 Y88.776 E.03353
G1 X121.995 Y89.177 E.01327
G1 X120.946 Y88.128 E.04658
G1 X120.519 Y88.235 E.01382
G1 X121.911 Y89.627 E.06182
G1 X121.875 Y89.915 E.00911
G1 X121.881 Y90.131 E.00679
G1 X120.092 Y88.342 E.07945
G1 X119.688 Y88.473 E.01334
G1 X122.242 Y91.027 E.11342
M204 S1000
;WIPE_START
G1 F8640
G1 X119.792 Y88.577 E-.8
;WIPE_END
G1 Z.6 F720
