; generated by PrusaSlicer 2.4.1+win64 on 2023-06-14 at 16:18:58 UTC


;
;
; 

; external perimeters extrusion width = 0.45mm
; perimeters extrusion width = 0.45mm
; infill extrusion width = 0.45mm
; solid infill extrusion width = 0.45mm
; top infill extrusion width = 0.40mm
; first layer extrusion width = 0.42mm

M73 P0 R35
M73 Q0 S35
M201 X1000 Y1000 Z200 E5000 ; sets maximum accelerations, mm/sec^2
M203 X200 Y200 Z12 E120 ; sets maximum feedrates, mm / sec
M204 P1250 R1250 T1250 ; sets acceleration (P, T) and retract acceleration (R), mm/sec^2
M205 X8.00 Y8.00 Z0.40 E4.50 ; sets the jerk limits, mm/sec
M205 S0 T0 ; sets the minimum extruding and travel feed rate, mm/sec
M107
;TYPE:Custom
M862.3 P "MK3S" ; printer model check
M862.1 P0.4 ; nozzle diameter check
M115 U3.11.0 ; tell printer latest fw version
G90 ; use absolute coordinates
M83 ; extruder relative mode
M104 S215 ; set extruder temp
M140 S60 ; set bed temp
M190 S60 ; wait for bed temp
M109 S215 ; wait for extruder temp
G28 W ; home all without mesh bed level
G80 ; mesh bed leveling

G1 Z0.2 F720
G1 Y-3 F1000 ; go outside print area
G92 E0
G1 X60 E9 F1000 ; intro line
G1 X100 E12.5 F1000 ; intro line

G92 E0
M221 S95

; Don't change E values below. Excessive value can damage the printer.
M907 E430 ; set extruder motor current
G21 ; set units to millimeters
G90 ; use absolute coordinates
M83 ; use relative distances for extrusion
M900 K0.05 ; Filament gcode LA 1.5
M900 K30 ; Filament gcode LA 1.0
M107
;LAYER_CHANGE
;Z:0.2
;HEIGHT:0.2
;BEFORE_LAYER_CHANGE
G92 E0.0
;0.2


G1 E-.8 F2100
G1 Z.4 F720
;AFTER_LAYER_CHANGE
;0.2
G1 X60.56 Y93.042 F10800
G1 Z.2 F720
G1 E.8 F2100
M204 S800
;TYPE:Skirt/Brim
;WIDTH:0.42
G1 F1200
G1 X61.5 Y92.848 E.03008
G1 X188.5 Y92.848 E3.982
G1 X189.807 Y93.24 E.04278
M73 P0 R34
G1 X190.683 Y94.285 E.04278
G1 X190.877 Y95.225 E.03008
G1 X190.877 Y114.775 E.61298
G1 X190.485 Y116.082 E.04278
G1 X189.44 Y116.958 E.04278
G1 X188.5 Y117.152 E.03008
G1 X61.5 Y117.152 E3.982
G1 X60.193 Y116.76 E.04278
M73 P1 R34
M73 Q1 S35
G1 X59.317 Y115.715 E.04278
G1 X59.123 Y114.775 E.03008
G1 X59.123 Y95.225 E.61298
G1 X59.515 Y93.918 E.04278
M73 Q1 S34
G1 X60.514 Y93.08 E.0409
M204 S1000
; printing object Deckel mit Logo lang AAA 3.stl id:0 copy 0
;WIPE_START
G1 F8640
G1 X61.5 Y92.848 E-.23384
G1 X63.779 Y92.848 E-.52616
;WIPE_END
G1 E-.04 F2100
G1 Z.6 F720
G1 X62.287 Y96.012 F10800
G1 Z.2 F720
G1 E.8 F2100
M204 S800
;TYPE:Perimeter
G1 F1200
G1 X187.713 Y96.012 E3.93264
G1 X187.713 Y113.988 E.56362
G1 X62.287 Y113.988 E3.93264
G1 X62.287 Y96.072 E.56174
M204 S1000
G1 X61.91 Y95.635 F10800
M204 S800
;TYPE:External perimeter
G1 F1200
G1 X188.09 Y95.635 E3.95629
G1 X188.09 Y114.365 E.58727
M73 P2 R34
M73 Q2 S34
G1 X61.91 Y114.365 E3.95629
G1 X61.91 Y95.695 E.58538
M204 S1000
G1 X62.31 Y95.655 F10800
;WIPE_START
G1 F8640
G1 X65.201 Y95.693 E-.76
;WIPE_END
G1 E-.04 F2100
G1 Z.6 F720
G1 X186.837 Y96.125 F10800
G1 Z.2 F720
G1 E.8 F2100
M204 S800
;TYPE:Solid infill
;WIDTH:0.420284
G1 F1200
G1 X187.43 Y96.718 E.02632
G1 X187.43 Y97.252 E.01675
G1 X186.473 Y96.295 E.04247
G1 X185.939 Y96.295 E.01675
G1 X187.43 Y97.786 E.06616
G1 X187.43 Y98.319 E.01675
G1 X185.406 Y96.295 E.08984
G1 X184.872 Y96.295 E.01675
G1 X187.43 Y98.853 E.11352
G1 X187.43 Y99.387 E.01675
G1 X184.338 Y96.295 E.1372
G1 X183.805 Y96.295 E.01675
G1 X187.43 Y99.92 E.16088
G1 X187.43 Y100.454 E.01675
G1 X183.271 Y96.295 E.18457
G1 X182.737 Y96.295 E.01675
G1 X187.43 Y100.988 E.20825
G1 X187.43 Y101.521 E.01675
G1 X182.204 Y96.295 E.23193
G1 X181.67 Y96.295 E.01675
G1 X187.43 Y102.055 E.25561
G1 X187.43 Y102.589 E.01675
G1 X181.136 Y96.295 E.27929
G1 X180.603 Y96.295 E.01675
G1 X187.43 Y103.122 E.30297
G1 X187.43 Y103.656 E.01675
G1 X180.069 Y96.295 E.32666
G1 X179.535 Y96.295 E.01675
G1 X187.43 Y104.19 E.35034
G1 X187.43 Y104.723 E.01675
G1 X179.002 Y96.295 E.37402
G1 X178.468 Y96.295 E.01675
G1 X187.43 Y105.257 E.3977
G1 X187.43 Y105.791 E.01675
G1 X177.934 Y96.295 E.42138
G1 X177.401 Y96.295 E.01675
G1 X187.43 Y106.324 E.44507
G1 X187.43 Y106.858 E.01675
G1 X176.867 Y96.295 E.46875
G1 X176.333 Y96.295 E.01675
G1 X187.43 Y107.392 E.49243
G1 X187.43 Y107.926 E.01675
G1 X175.799 Y96.295 E.51611
G1 X175.266 Y96.295 E.01675
M73 Q3 S34
G1 X187.43 Y108.459 E.53979
G1 X187.43 Y108.993 E.01675
M73 P3 R34
G1 X174.732 Y96.295 E.56347
G1 X174.198 Y96.295 E.01675
G1 X187.43 Y109.527 E.58716
G1 X187.43 Y110.06 E.01675
G1 X173.665 Y96.295 E.61084
G1 X173.131 Y96.295 E.01675
G1 X187.43 Y110.594 E.63452
G1 X187.43 Y111.128 E.01675
G1 X172.597 Y96.295 E.6582
G1 X172.064 Y96.295 E.01675
G1 X187.43 Y111.661 E.68188
G1 X187.43 Y112.195 E.01675
G1 X171.53 Y96.295 E.70557
G1 X170.996 Y96.295 E.01675
G1 X187.43 Y112.729 E.72925
G1 X187.43 Y113.262 E.01675
M73 P3 R33
G1 X170.463 Y96.295 E.75293
G1 X169.929 Y96.295 E.01675
G1 X187.339 Y113.705 E.77258
G1 X186.806 Y113.705 E.01675
G1 X169.395 Y96.295 E.77258
G1 X168.862 Y96.295 E.01675
G1 X186.272 Y113.705 E.77258
G1 X185.738 Y113.705 E.01675
G1 X168.328 Y96.295 E.77258
G1 X167.794 Y96.295 E.01675
G1 X185.205 Y113.705 E.77258
G1 X184.671 Y113.705 E.01675
G1 X167.261 Y96.295 E.77258
G1 X166.727 Y96.295 E.01675
M73 Q3 S33
G1 X184.137 Y113.705 E.77258
G1 X183.604 Y113.705 E.01675
G1 X166.193 Y96.295 E.77258
G1 X165.66 Y96.295 E.01675
M73 Q4 S33
G1 X183.07 Y113.705 E.77258
G1 X182.536 Y113.705 E.01675
M73 P4 R33
G1 X165.126 Y96.295 E.77258
G1 X164.592 Y96.295 E.01675
G1 X182.003 Y113.705 E.77258
G1 X181.469 Y113.705 E.01675
G1 X164.059 Y96.295 E.77258
G1 X163.525 Y96.295 E.01675
G1 X180.935 Y113.705 E.77258
G1 X180.402 Y113.705 E.01675
G1 X162.991 Y96.295 E.77258
G1 X162.458 Y96.295 E.01675
G1 X179.868 Y113.705 E.77258
G1 X179.334 Y113.705 E.01675
G1 X161.924 Y96.295 E.77258
G1 X161.39 Y96.295 E.01675
G1 X178.801 Y113.705 E.77258
G1 X178.267 Y113.705 E.01675
G1 X160.857 Y96.295 E.77258
G1 X160.323 Y96.295 E.01675
G1 X177.733 Y113.705 E.77258
G1 X177.2 Y113.705 E.01675
G1 X159.789 Y96.295 E.77258
G1 X159.256 Y96.295 E.01675
G1 X176.666 Y113.705 E.77258
G1 X176.132 Y113.705 E.01675
G1 X158.722 Y96.295 E.77258
G1 X158.188 Y96.295 E.01675
G1 X175.599 Y113.705 E.77258
G1 X175.065 Y113.705 E.01675
G1 X157.655 Y96.295 E.77258
G1 X157.121 Y96.295 E.01675
G1 X174.531 Y113.705 E.77258
G1 X173.997 Y113.705 E.01675
M73 P5 R33
M73 Q5 S33
G1 X156.587 Y96.295 E.77258
G1 X156.054 Y96.295 E.01675
G1 X173.464 Y113.705 E.77258
G1 X172.93 Y113.705 E.01675
G1 X155.52 Y96.295 E.77258
G1 X154.986 Y96.295 E.01675
G1 X172.396 Y113.705 E.77258
G1 X171.863 Y113.705 E.01675
G1 X154.453 Y96.295 E.77258
G1 X153.919 Y96.295 E.01675
G1 X171.329 Y113.705 E.77258
G1 X170.795 Y113.705 E.01675
G1 X153.385 Y96.295 E.77258
G1 X152.852 Y96.295 E.01675
G1 X170.262 Y113.705 E.77258
G1 X169.728 Y113.705 E.01675
G1 X152.318 Y96.295 E.77258
G1 X151.784 Y96.295 E.01675
G1 X169.194 Y113.705 E.77258
G1 X168.661 Y113.705 E.01675
G1 X151.251 Y96.295 E.77258
G1 X150.717 Y96.295 E.01675
G1 X168.127 Y113.705 E.77258
G1 X167.593 Y113.705 E.01675
G1 X150.183 Y96.295 E.77258
G1 X149.649 Y96.295 E.01675
G1 X167.06 Y113.705 E.77258
G1 X166.526 Y113.705 E.01675
G1 X149.116 Y96.295 E.77258
G1 X148.582 Y96.295 E.01675
G1 X165.992 Y113.705 E.77258
G1 X165.459 Y113.705 E.01675
G1 X148.048 Y96.295 E.77258
G1 X147.515 Y96.295 E.01675
M73 P6 R33
M73 Q6 S33
G1 X164.925 Y113.705 E.77258
G1 X164.391 Y113.705 E.01675
G1 X146.981 Y96.295 E.77258
G1 X146.447 Y96.295 E.01675
G1 X163.858 Y113.705 E.77258
G1 X163.324 Y113.705 E.01675
G1 X145.914 Y96.295 E.77258
G1 X145.38 Y96.295 E.01675
M73 P6 R32
G1 X162.79 Y113.705 E.77258
G1 X162.257 Y113.705 E.01675
G1 X144.846 Y96.295 E.77258
G1 X144.313 Y96.295 E.01675
G1 X161.723 Y113.705 E.77258
G1 X161.189 Y113.705 E.01675
G1 X143.779 Y96.295 E.77258
G1 X143.245 Y96.295 E.01675
G1 X160.656 Y113.705 E.77258
G1 X160.122 Y113.705 E.01675
G1 X142.712 Y96.295 E.77258
G1 X142.178 Y96.295 E.01675
G1 X159.588 Y113.705 E.77258
G1 X159.055 Y113.705 E.01675
M73 Q6 S32
G1 X141.644 Y96.295 E.77258
G1 X141.111 Y96.295 E.01675
G1 X158.521 Y113.705 E.77258
G1 X157.987 Y113.705 E.01675
G1 X140.577 Y96.295 E.77258
G1 X140.043 Y96.295 E.01675
G1 X157.454 Y113.705 E.77258
G1 X156.92 Y113.705 E.01675
G1 X139.51 Y96.295 E.77258
G1 X138.976 Y96.295 E.01675
M73 Q7 S32
G1 X156.386 Y113.705 E.77258
G1 X155.853 Y113.705 E.01675
M73 P7 R32
G1 X138.442 Y96.295 E.77258
G1 X137.909 Y96.295 E.01675
G1 X155.319 Y113.705 E.77258
G1 X154.785 Y113.705 E.01675
G1 X137.375 Y96.295 E.77258
G1 X136.841 Y96.295 E.01675
G1 X154.252 Y113.705 E.77258
G1 X153.718 Y113.705 E.01675
G1 X136.308 Y96.295 E.77258
G1 X135.774 Y96.295 E.01675
G1 X153.184 Y113.705 E.77258
G1 X152.651 Y113.705 E.01675
G1 X135.24 Y96.295 E.77258
G1 X134.707 Y96.295 E.01675
G1 X152.117 Y113.705 E.77258
G1 X151.583 Y113.705 E.01675
G1 X134.173 Y96.295 E.77258
G1 X133.639 Y96.295 E.01675
G1 X151.05 Y113.705 E.77258
G1 X150.516 Y113.705 E.01675
G1 X133.106 Y96.295 E.77258
G1 X132.572 Y96.295 E.01675
G1 X149.982 Y113.705 E.77258
G1 X149.449 Y113.705 E.01675
G1 X132.038 Y96.295 E.77258
G1 X131.505 Y96.295 E.01675
G1 X148.915 Y113.705 E.77258
G1 X148.381 Y113.705 E.01675
G1 X130.971 Y96.295 E.77258
G1 X130.437 Y96.295 E.01675
G1 X147.848 Y113.705 E.77258
G1 X147.314 Y113.705 E.01675
M73 P8 R32
M73 Q8 S32
G1 X129.904 Y96.295 E.77258
G1 X129.37 Y96.295 E.01675
G1 X146.78 Y113.705 E.77258
G1 X146.246 Y113.705 E.01675
G1 X128.836 Y96.295 E.77258
G1 X128.303 Y96.295 E.01675
G1 X145.713 Y113.705 E.77258
G1 X145.179 Y113.705 E.01675
G1 X127.769 Y96.295 E.77258
G1 X127.235 Y96.295 E.01675
G1 X144.645 Y113.705 E.77258
G1 X144.112 Y113.705 E.01675
G1 X126.702 Y96.295 E.77258
G1 X126.168 Y96.295 E.01675
G1 X143.578 Y113.705 E.77258
G1 X143.044 Y113.705 E.01675
G1 X125.634 Y96.295 E.77258
G1 X125.101 Y96.295 E.01675
G1 X142.511 Y113.705 E.77258
G1 X141.977 Y113.705 E.01675
G1 X124.567 Y96.295 E.77258
G1 X124.033 Y96.295 E.01675
G1 X141.443 Y113.705 E.77258
G1 X140.91 Y113.705 E.01675
G1 X123.5 Y96.295 E.77258
G1 X122.966 Y96.295 E.01675
G1 X140.376 Y113.705 E.77258
G1 X139.842 Y113.705 E.01675
G1 X122.432 Y96.295 E.77258
G1 X121.898 Y96.295 E.01675
G1 X139.309 Y113.705 E.77258
G1 X138.775 Y113.705 E.01675
G1 X121.365 Y96.295 E.77258
G1 X120.831 Y96.295 E.01675
M73 P9 R32
M73 Q9 S32
G1 X138.241 Y113.705 E.77258
G1 X137.708 Y113.705 E.01675
G1 X120.297 Y96.295 E.77258
G1 X119.764 Y96.295 E.01675
M73 P9 R31
G1 X137.174 Y113.705 E.77258
G1 X136.64 Y113.705 E.01675
G1 X119.23 Y96.295 E.77258
G1 X118.696 Y96.295 E.01675
G1 X136.107 Y113.705 E.77258
G1 X135.573 Y113.705 E.01675
G1 X118.163 Y96.295 E.77258
G1 X117.629 Y96.295 E.01675
G1 X135.039 Y113.705 E.77258
G1 X134.506 Y113.705 E.01675
G1 X117.095 Y96.295 E.77258
G1 X116.562 Y96.295 E.01675
M73 Q9 S31
G1 X133.972 Y113.705 E.77258
G1 X133.438 Y113.705 E.01675
G1 X116.028 Y96.295 E.77258
G1 X115.494 Y96.295 E.01675
G1 X132.905 Y113.705 E.77258
G1 X132.371 Y113.705 E.01675
G1 X114.961 Y96.295 E.77258
G1 X114.427 Y96.295 E.01675
G1 X131.837 Y113.705 E.77258
G1 X131.304 Y113.705 E.01675
G1 X113.893 Y96.295 E.77258
G1 X113.36 Y96.295 E.01675
G1 X130.77 Y113.705 E.77258
G1 X130.236 Y113.705 E.01675
G1 X112.826 Y96.295 E.77258
G1 X112.292 Y96.295 E.01675
M73 P10 R31
G1 X129.703 Y113.705 E.77258
M73 Q10 S31
G1 X129.169 Y113.705 E.01675
G1 X111.759 Y96.295 E.77258
G1 X111.225 Y96.295 E.01675
G1 X128.635 Y113.705 E.77258
G1 X128.102 Y113.705 E.01675
G1 X110.691 Y96.295 E.77258
G1 X110.158 Y96.295 E.01675
G1 X127.568 Y113.705 E.77258
G1 X127.034 Y113.705 E.01675
G1 X109.624 Y96.295 E.77258
G1 X109.09 Y96.295 E.01675
G1 X126.501 Y113.705 E.77258
G1 X125.967 Y113.705 E.01675
G1 X108.557 Y96.295 E.77258
G1 X108.023 Y96.295 E.01675
G1 X125.433 Y113.705 E.77258
G1 X124.9 Y113.705 E.01675
G1 X107.489 Y96.295 E.77258
G1 X106.956 Y96.295 E.01675
G1 X124.366 Y113.705 E.77258
G1 X123.832 Y113.705 E.01675
G1 X106.422 Y96.295 E.77258
G1 X105.888 Y96.295 E.01675
G1 X123.299 Y113.705 E.77258
G1 X122.765 Y113.705 E.01675
G1 X105.355 Y96.295 E.77258
G1 X104.821 Y96.295 E.01675
G1 X122.231 Y113.705 E.77258
G1 X121.698 Y113.705 E.01675
G1 X104.287 Y96.295 E.77258
G1 X103.754 Y96.295 E.01675
G1 X121.164 Y113.705 E.77258
G1 X120.63 Y113.705 E.01675
M73 P11 R31
M73 Q11 S31
G1 X103.22 Y96.295 E.77258
G1 X102.686 Y96.295 E.01675
G1 X120.096 Y113.705 E.77258
G1 X119.563 Y113.705 E.01675
G1 X102.153 Y96.295 E.77258
G1 X101.619 Y96.295 E.01675
G1 X119.029 Y113.705 E.77258
G1 X118.495 Y113.705 E.01675
G1 X101.085 Y96.295 E.77258
G1 X100.552 Y96.295 E.01675
G1 X117.962 Y113.705 E.77258
G1 X117.428 Y113.705 E.01675
G1 X100.018 Y96.295 E.77258
G1 X99.484 Y96.295 E.01675
G1 X116.894 Y113.705 E.77258
G1 X116.361 Y113.705 E.01675
G1 X98.951 Y96.295 E.77258
G1 X98.417 Y96.295 E.01675
G1 X115.827 Y113.705 E.77258
G1 X115.293 Y113.705 E.01675
G1 X97.883 Y96.295 E.77258
G1 X97.35 Y96.295 E.01675
G1 X114.76 Y113.705 E.77258
G1 X114.226 Y113.705 E.01675
G1 X96.816 Y96.295 E.77258
G1 X96.282 Y96.295 E.01675
G1 X113.692 Y113.705 E.77258
G1 X113.159 Y113.705 E.01675
G1 X95.748 Y96.295 E.77258
G1 X95.215 Y96.295 E.01675
G1 X112.625 Y113.705 E.77258
G1 X112.091 Y113.705 E.01675
M73 P11 R30
G1 X94.681 Y96.295 E.77258
G1 X94.147 Y96.295 E.01675
M73 P12 R30
M73 Q12 S31
G1 X111.558 Y113.705 E.77258
G1 X111.024 Y113.705 E.01675
G1 X93.614 Y96.295 E.77258
G1 X93.08 Y96.295 E.01675
G1 X110.49 Y113.705 E.77258
G1 X109.957 Y113.705 E.01675
G1 X92.546 Y96.295 E.77258
G1 X92.013 Y96.295 E.01675
G1 X109.423 Y113.705 E.77258
G1 X108.889 Y113.705 E.01675
G1 X91.479 Y96.295 E.77258
G1 X90.945 Y96.295 E.01675
M73 Q12 S30
G1 X108.356 Y113.705 E.77258
G1 X107.822 Y113.705 E.01675
G1 X90.412 Y96.295 E.77258
G1 X89.878 Y96.295 E.01675
G1 X107.288 Y113.705 E.77258
G1 X106.755 Y113.705 E.01675
G1 X89.344 Y96.295 E.77258
G1 X88.811 Y96.295 E.01675
G1 X106.221 Y113.705 E.77258
G1 X105.687 Y113.705 E.01675
G1 X88.277 Y96.295 E.77258
G1 X87.743 Y96.295 E.01675
G1 X105.154 Y113.705 E.77258
G1 X104.62 Y113.705 E.01675
G1 X87.21 Y96.295 E.77258
G1 X86.676 Y96.295 E.01675
G1 X104.086 Y113.705 E.77258
G1 X103.553 Y113.705 E.01675
G1 X86.142 Y96.295 E.77258
G1 X85.609 Y96.295 E.01675
M73 P13 R30
G1 X103.019 Y113.705 E.77258
G1 X102.485 Y113.705 E.01675
M73 Q13 S30
G1 X85.075 Y96.295 E.77258
G1 X84.541 Y96.295 E.01675
G1 X101.952 Y113.705 E.77258
G1 X101.418 Y113.705 E.01675
G1 X84.008 Y96.295 E.77258
G1 X83.474 Y96.295 E.01675
G1 X100.884 Y113.705 E.77258
G1 X100.351 Y113.705 E.01675
G1 X82.94 Y96.295 E.77258
G1 X82.407 Y96.295 E.01675
G1 X99.817 Y113.705 E.77258
G1 X99.283 Y113.705 E.01675
G1 X81.873 Y96.295 E.77258
G1 X81.339 Y96.295 E.01675
G1 X98.75 Y113.705 E.77258
G1 X98.216 Y113.705 E.01675
G1 X80.806 Y96.295 E.77258
G1 X80.272 Y96.295 E.01675
G1 X97.682 Y113.705 E.77258
G1 X97.149 Y113.705 E.01675
G1 X79.738 Y96.295 E.77258
G1 X79.205 Y96.295 E.01675
G1 X96.615 Y113.705 E.77258
G1 X96.081 Y113.705 E.01675
G1 X78.671 Y96.295 E.77258
G1 X78.137 Y96.295 E.01675
G1 X95.548 Y113.705 E.77258
G1 X95.014 Y113.705 E.01675
G1 X77.604 Y96.295 E.77258
G1 X77.07 Y96.295 E.01675
G1 X94.48 Y113.705 E.77258
G1 X93.947 Y113.705 E.01675
M73 P14 R30
M73 Q14 S30
G1 X76.536 Y96.295 E.77258
G1 X76.003 Y96.295 E.01675
G1 X93.413 Y113.705 E.77258
G1 X92.879 Y113.705 E.01675
G1 X75.469 Y96.295 E.77258
G1 X74.935 Y96.295 E.01675
G1 X92.345 Y113.705 E.77258
G1 X91.812 Y113.705 E.01675
G1 X74.402 Y96.295 E.77258
G1 X73.868 Y96.295 E.01675
G1 X91.278 Y113.705 E.77258
G1 X90.744 Y113.705 E.01675
G1 X73.334 Y96.295 E.77258
G1 X72.801 Y96.295 E.01675
G1 X90.211 Y113.705 E.77258
G1 X89.677 Y113.705 E.01675
G1 X72.267 Y96.295 E.77258
G1 X71.733 Y96.295 E.01675
G1 X89.143 Y113.705 E.77258
G1 X88.61 Y113.705 E.01675
G1 X71.2 Y96.295 E.77258
G1 X70.666 Y96.295 E.01675
G1 X88.076 Y113.705 E.77258
G1 X87.542 Y113.705 E.01675
G1 X70.132 Y96.295 E.77258
G1 X69.598 Y96.295 E.01675
M73 P14 R29
G1 X87.009 Y113.705 E.77258
G1 X86.475 Y113.705 E.01675
G1 X69.065 Y96.295 E.77258
G1 X68.531 Y96.295 E.01675
G1 X85.941 Y113.705 E.77258
G1 X85.408 Y113.705 E.01675
M73 P15 R29
G1 X67.997 Y96.295 E.77258
G1 X67.464 Y96.295 E.01675
M73 Q15 S30
