; generated by PrusaSlicer 2.5.2+win64 on 2023-06-07 at 08:39:55 UTC


;
;
; 

; external perimeters extrusion width = 0.45mm
; perimeters extrusion width = 0.45mm
; infill extrusion width = 0.45mm
; solid infill extrusion width = 0.45mm
; top infill extrusion width = 0.40mm
; first layer extrusion width = 0.42mm

M73 P0 R41
M73 Q0 S41
M201 X1000 Y1000 Z200 E5000 ; sets maximum accelerations, mm/sec^2
M203 X200 Y200 Z12 E120 ; sets maximum feedrates, mm / sec
M204 P1250 R1250 T1250 ; sets acceleration (P, T) and retract acceleration (R), mm/sec^2
M205 X8.00 Y8.00 Z0.40 E4.50 ; sets the jerk limits, mm/sec
M205 S0 T0 ; sets the minimum extruding and travel feed rate, mm/sec
M107
;TYPE:Custom
M862.3 P "MK3S" ; printer model check
M862.1 P0.4 ; nozzle diameter check
M115 U3.12.2 ; tell printer latest fw version
G90 ; use absolute coordinates
M83 ; extruder relative mode
M104 S215 ; set extruder temp
M140 S60 ; set bed temp
M190 S60 ; wait for bed temp
M109 S215 ; wait for extruder temp
G28 W ; home all without mesh bed level
G80 ; mesh bed leveling

G1 Z0.2 F720
G1 Y-3 F1000 ; go outside print area
G92 E0
G1 X60 E9 F1000 ; intro line
G1 X100 E12.5 F1000 ; intro line

G92 E0
M221 S95

; Don't change E values below. Excessive value can damage the printer.
M907 E430 ; set extruder motor current
G21 ; set units to millimeters
G90 ; use absolute coordinates
M83 ; use relative distances for extrusion
M900 K0.05 ; Filament gcode LA 1.5
M900 K30 ; Filament gcode LA 1.0
M107
;LAYER_CHANGE
;Z:0.2
;HEIGHT:0.2
;BEFORE_LAYER_CHANGE
G92 E0.0
;0.2


G1 E-.8 F2100
G1 Z.4 F720
;AFTER_LAYER_CHANGE
;0.2
G1 X71.14 Y84.843 F10800
G1 Z.2 F720
G1 E.8 F2100
M204 S800
;TYPE:Skirt/Brim
;WIDTH:0.42
G1 F1200
G1 X72.185 Y83.967 E.04278
G1 X73.125 Y83.773 E.03008
G1 X176.875 Y83.773 E3.25301
G1 X178.182 Y84.165 E.04278
G1 X179.058 Y85.21 E.04278
G1 X179.252 Y86.15 E.03008
G1 X179.252 Y123.85 E1.18206
G1 X178.86 Y125.157 E.04278
G1 X177.815 Y126.033 E.04278
G1 X176.875 Y126.227 E.03008
G1 X73.125 Y126.227 E3.25301
G1 X71.818 Y125.835 E.04278
G1 X70.942 Y124.79 E.04278
G1 X70.748 Y123.85 E.03008
G1 X70.748 Y86.15 E1.18206
G1 X71.122 Y84.9 E.0409
M204 S1000
; printing object Deckel mit Logo AA Schalter seitlich.stl id:0 copy 0
;WIPE_START
G1 F8640
G1 X72.185 Y83.967 E-.32671
G1 X73.125 Y83.773 E-.22155
G1 X74.042 Y83.773 E-.21174
;WIPE_END
G1 E-.04 F2100
G1 Z.6 F720
G1 X73.912 Y123.063 F10800
G1 Z.2 F720
G1 E.8 F2100
M204 S800
;TYPE:Perimeter
;WIDTH:0.419999
G1 F1200
G1 X73.912 Y86.937 E1.1327
G1 X176.088 Y86.937 E3.20365
M73 P0 R40
G1 X176.088 Y123.063 E1.1327
M73 P1 R40
M73 Q1 S41
G1 X73.972 Y123.063 E3.20177
M204 S1000
G1 X73.535 Y123.44 F10800
M204 S800
;TYPE:External perimeter
M73 Q1 S40
G1 F1200
G1 X73.535 Y86.56 E1.15634
G1 X176.465 Y86.56 E3.22729
G1 X176.465 Y123.44 E1.15634
G1 X73.595 Y123.44 E3.22541
M204 S1000
G1 X73.694 Y123.073 F10800
;WIPE_START
M73 P2 R40
M73 Q2 S40
G1 F8640
G1 X73.59 Y120.149 E-.76
;WIPE_END
G1 E-.04 F2100
G1 Z.6 F720
G1 X175.155 Y87.107 F10800
G1 Z.2 F720
G1 E.8 F2100
M204 S800
;TYPE:Solid infill
;WIDTH:0.420313
G1 F1200
G1 X175.749 Y87.7 E.02633
G1 X175.749 Y88.234 E.01675
G1 X174.791 Y87.276 E.04248
G1 X174.258 Y87.276 E.01675
G1 X175.749 Y88.767 E.06617
G1 X175.749 Y89.301 E.01675
G1 X173.724 Y87.276 E.08985
G1 X173.19 Y87.276 E.01675
G1 X175.749 Y89.835 E.11354
G1 X175.749 Y90.369 E.01675
G1 X172.656 Y87.276 E.13722
G1 X172.123 Y87.276 E.01675
G1 X175.749 Y90.902 E.16091
G1 X175.749 Y91.436 E.01675
G1 X171.589 Y87.276 E.1846
G1 X171.055 Y87.276 E.01675
G1 X175.749 Y91.97 E.20828
G1 X175.749 Y92.503 E.01675
G1 X170.522 Y87.276 E.23197
G1 X169.988 Y87.276 E.01675
G1 X175.749 Y93.037 E.25565
G1 X175.749 Y93.571 E.01675
G1 X169.454 Y87.276 E.27934
G1 X168.92 Y87.276 E.01675
G1 X175.749 Y94.105 E.30302
G1 X175.749 Y94.638 E.01675
G1 X168.387 Y87.276 E.32671
G1 X167.853 Y87.276 E.01675
G1 X175.749 Y95.172 E.35039
G1 X175.749 Y95.706 E.01675
G1 X167.319 Y87.276 E.37408
G1 X166.786 Y87.276 E.01675
G1 X175.749 Y96.239 E.39776
G1 X175.749 Y96.773 E.01675
G1 X166.252 Y87.276 E.42145
G1 X165.718 Y87.276 E.01675
G1 X175.749 Y97.307 E.44514
G1 X175.749 Y97.841 E.01675
G1 X165.184 Y87.276 E.46882
G1 X164.651 Y87.276 E.01675
G1 X175.749 Y98.374 E.49251
G1 X175.749 Y98.908 E.01675
G1 X164.117 Y87.276 E.51619
G1 X163.583 Y87.276 E.01675
G1 X175.749 Y99.442 E.53988
G1 X175.749 Y99.975 E.01675
G1 X163.05 Y87.276 E.56356
G1 X162.516 Y87.276 E.01675
G1 X175.749 Y100.509 E.58725
G1 X175.749 Y101.043 E.01675
G1 X161.982 Y87.276 E.61093
G1 X161.448 Y87.276 E.01675
G1 X175.749 Y101.577 E.63462
G1 X175.749 Y102.11 E.01675
G1 X160.915 Y87.276 E.6583
G1 X160.381 Y87.276 E.01675
G1 X175.749 Y102.644 E.68199
G1 X175.749 Y103.178 E.01675
G1 X159.847 Y87.276 E.70568
G1 X159.314 Y87.276 E.01675
G1 X175.749 Y103.711 E.72936
G1 X175.749 Y104.245 E.01675
G1 X158.78 Y87.276 E.75305
G1 X158.246 Y87.276 E.01675
G1 X175.749 Y104.779 E.77673
G1 X175.749 Y105.313 E.01675
G1 X157.712 Y87.276 E.80042
G1 X157.179 Y87.276 E.01675
M73 P3 R40
M73 Q3 S40
G1 X175.749 Y105.846 E.8241
G1 X175.749 Y106.38 E.01675
G1 X156.645 Y87.276 E.84779
G1 X156.111 Y87.276 E.01675
G1 X175.749 Y106.914 E.87147
G1 X175.749 Y107.447 E.01675
G1 X155.578 Y87.276 E.89516
G1 X155.044 Y87.276 E.01675
G1 X175.749 Y107.981 E.91884
G1 X175.749 Y108.515 E.01675
G1 X154.51 Y87.276 E.94253
G1 X153.976 Y87.276 E.01675
G1 X175.749 Y109.049 E.96622
G1 X175.749 Y109.582 E.01675
M73 P3 R39
G1 X153.443 Y87.276 E.9899
G1 X152.909 Y87.276 E.01675
G1 X175.749 Y110.116 E1.01359
G1 X175.749 Y110.65 E.01675
G1 X152.375 Y87.276 E1.03727
G1 X151.842 Y87.276 E.01675
G1 X175.749 Y111.183 E1.06096
G1 X175.749 Y111.717 E.01675
G1 X151.308 Y87.276 E1.08464
M73 Q3 S39
G1 X150.774 Y87.276 E.01675
G1 X175.749 Y112.251 E1.10833
G1 X175.749 Y112.785 E.01675
G1 X150.24 Y87.276 E1.13201
G1 X149.707 Y87.276 E.01675
G1 X175.749 Y113.318 E1.1557
G1 X175.749 Y113.852 E.01675
M73 P4 R39
M73 Q4 S39
G1 X149.173 Y87.276 E1.17938
G1 X148.639 Y87.276 E.01675
G1 X175.749 Y114.386 E1.20307
G1 X175.749 Y114.919 E.01675
G1 X148.106 Y87.276 E1.22676
G1 X147.572 Y87.276 E.01675
G1 X175.749 Y115.453 E1.25044
G1 X175.749 Y115.987 E.01675
G1 X147.038 Y87.276 E1.27413
G1 X146.504 Y87.276 E.01675
G1 X175.749 Y116.521 E1.29781
G1 X175.749 Y117.054 E.01675
G1 X145.971 Y87.276 E1.3215
G1 X145.437 Y87.276 E.01675
G1 X175.749 Y117.588 E1.34518
G1 X175.749 Y118.122 E.01675
G1 X144.903 Y87.276 E1.36887
G1 X144.37 Y87.276 E.01675
G1 X175.749 Y118.655 E1.39255
G1 X175.749 Y119.189 E.01675
G1 X143.836 Y87.276 E1.41624
G1 X143.302 Y87.276 E.01675
G1 X175.749 Y119.723 E1.43992
G1 X175.749 Y120.257 E.01675
M73 P5 R39
M73 Q5 S39
G1 X142.768 Y87.276 E1.46361
G1 X142.235 Y87.276 E.01675
G1 X175.749 Y120.79 E1.4873
G1 X175.749 Y121.324 E.01675
G1 X141.701 Y87.276 E1.51098
G1 X141.167 Y87.276 E.01675
G1 X175.749 Y121.858 E1.53467
G1 X175.749 Y122.391 E.01675
G1 X140.634 Y87.276 E1.55835
G1 X140.1 Y87.276 E.01675
G1 X175.547 Y122.724 E1.57309
G1 X175.013 Y122.724 E.01675
G1 X139.566 Y87.276 E1.57309
G1 X139.032 Y87.276 E.01675
G1 X174.48 Y122.724 E1.57309
G1 X173.946 Y122.724 E.01675
M73 P5 R38
G1 X138.499 Y87.276 E1.57309
G1 X137.965 Y87.276 E.01675
G1 X173.412 Y122.724 E1.57309
G1 X172.878 Y122.724 E.01675
M73 P6 R38
M73 Q6 S39
G1 X137.431 Y87.276 E1.57309
G1 X136.898 Y87.276 E.01675
M73 Q6 S38
G1 X172.345 Y122.724 E1.57309
G1 X171.811 Y122.724 E.01675
G1 X136.364 Y87.276 E1.57309
G1 X135.83 Y87.276 E.01675
G1 X171.277 Y122.724 E1.57309
G1 X170.744 Y122.724 E.01675
G1 X135.296 Y87.276 E1.57309
G1 X134.763 Y87.276 E.01675
G1 X170.21 Y122.724 E1.57309
G1 X169.676 Y122.724 E.01675
G1 X134.229 Y87.276 E1.57309
G1 X133.695 Y87.276 E.01675
G1 X169.142 Y122.724 E1.57309
G1 X168.609 Y122.724 E.01675
G1 X133.162 Y87.276 E1.57309
G1 X132.628 Y87.276 E.01675
G1 X168.075 Y122.724 E1.57309
G1 X167.541 Y122.724 E.01675
M73 P7 R38
M73 Q7 S38
G1 X132.094 Y87.276 E1.57309
G1 X131.56 Y87.276 E.01675
G1 X167.008 Y122.724 E1.57309
G1 X166.474 Y122.724 E.01675
G1 X131.027 Y87.276 E1.57309
G1 X130.493 Y87.276 E.01675
G1 X165.94 Y122.724 E1.57309
G1 X165.406 Y122.724 E.01675
G1 X129.959 Y87.276 E1.57309
G1 X129.426 Y87.276 E.01675
G1 X164.873 Y122.724 E1.57309
G1 X164.339 Y122.724 E.01675
G1 X128.892 Y87.276 E1.57309
G1 X128.358 Y87.276 E.01675
G1 X163.805 Y122.724 E1.57309
G1 X163.272 Y122.724 E.01675
G1 X127.824 Y87.276 E1.57309
G1 X127.291 Y87.276 E.01675
G1 X162.738 Y122.724 E1.57309
G1 X162.204 Y122.724 E.01675
M73 P8 R38
M73 Q8 S38
G1 X126.757 Y87.276 E1.57309
G1 X126.223 Y87.276 E.01675
G1 X161.67 Y122.724 E1.57309
G1 X161.137 Y122.724 E.01675
M73 P8 R37
G1 X125.69 Y87.276 E1.57309
G1 X125.156 Y87.276 E.01675
G1 X160.603 Y122.724 E1.57309
G1 X160.069 Y122.724 E.01675
G1 X124.622 Y87.276 E1.57309
G1 X124.088 Y87.276 E.01675
M73 Q8 S37
G1 X159.536 Y122.724 E1.57309
G1 X159.002 Y122.724 E.01675
G1 X123.555 Y87.276 E1.57309
G1 X123.021 Y87.276 E.01675
G1 X158.468 Y122.724 E1.57309
G1 X157.934 Y122.724 E.01675
G1 X122.487 Y87.276 E1.57309
G1 X121.954 Y87.276 E.01675
M73 P9 R37
M73 Q9 S37
G1 X157.401 Y122.724 E1.57309
G1 X156.867 Y122.724 E.01675
G1 X121.42 Y87.276 E1.57309
G1 X120.886 Y87.276 E.01675
G1 X156.333 Y122.724 E1.57309
G1 X155.8 Y122.724 E.01675
G1 X120.352 Y87.276 E1.57309
G1 X119.819 Y87.276 E.01675
G1 X155.266 Y122.724 E1.57309
G1 X154.732 Y122.724 E.01675
G1 X119.285 Y87.276 E1.57309
G1 X118.751 Y87.276 E.01675
G1 X154.198 Y122.724 E1.57309
G1 X153.665 Y122.724 E.01675
G1 X118.218 Y87.276 E1.57309
G1 X117.684 Y87.276 E.01675
G1 X153.131 Y122.724 E1.57309
G1 X152.597 Y122.724 E.01675
G1 X117.15 Y87.276 E1.57309
G1 X116.616 Y87.276 E.01675
M73 P10 R37
M73 Q10 S37
G1 X152.064 Y122.724 E1.57309
G1 X151.53 Y122.724 E.01675
G1 X116.083 Y87.276 E1.57309
G1 X115.549 Y87.276 E.01675
G1 X150.996 Y122.724 E1.57309
G1 X150.462 Y122.724 E.01675
G1 X115.015 Y87.276 E1.57309
G1 X114.482 Y87.276 E.01675
G1 X149.929 Y122.724 E1.57309
G1 X149.395 Y122.724 E.01675
G1 X113.948 Y87.276 E1.57309
G1 X113.414 Y87.276 E.01675
M73 P10 R36
G1 X148.861 Y122.724 E1.57309
G1 X148.328 Y122.724 E.01675
G1 X112.88 Y87.276 E1.57309
G1 X112.347 Y87.276 E.01675
G1 X147.794 Y122.724 E1.57309
G1 X147.26 Y122.724 E.01675
M73 Q10 S36
G1 X111.813 Y87.276 E1.57309
G1 X111.279 Y87.276 E.01675
M73 P11 R36
M73 Q11 S36
G1 X146.726 Y122.724 E1.57309
G1 X146.193 Y122.724 E.01675
G1 X110.746 Y87.276 E1.57309
G1 X110.212 Y87.276 E.01675
G1 X145.659 Y122.724 E1.57309
G1 X145.125 Y122.724 E.01675
G1 X109.678 Y87.276 E1.57309
G1 X109.144 Y87.276 E.01675
G1 X144.592 Y122.724 E1.57309
G1 X144.058 Y122.724 E.01675
G1 X108.611 Y87.276 E1.57309
G1 X108.077 Y87.276 E.01675
G1 X143.524 Y122.724 E1.57309
G1 X142.99 Y122.724 E.01675
G1 X107.543 Y87.276 E1.57309
G1 X107.01 Y87.276 E.01675
G1 X142.457 Y122.724 E1.57309
G1 X141.923 Y122.724 E.01675
G1 X106.476 Y87.276 E1.57309
G1 X105.942 Y87.276 E.01675
M73 P12 R36
M73 Q12 S36
G1 X141.389 Y122.724 E1.57309
G1 X140.856 Y122.724 E.01675
G1 X105.408 Y87.276 E1.57309
G1 X104.875 Y87.276 E.01675
G1 X140.322 Y122.724 E1.57309
G1 X139.788 Y122.724 E.01675
G1 X104.341 Y87.276 E1.57309
G1 X103.807 Y87.276 E.01675
G1 X139.254 Y122.724 E1.57309
G1 X138.721 Y122.724 E.01675
G1 X103.274 Y87.276 E1.57309
G1 X102.74 Y87.276 E.01675
G1 X138.187 Y122.724 E1.57309
G1 X137.653 Y122.724 E.01675
G1 X102.206 Y87.276 E1.57309
G1 X101.672 Y87.276 E.01675
G1 X137.12 Y122.724 E1.57309
G1 X136.586 Y122.724 E.01675
M73 P13 R36
G1 X101.139 Y87.276 E1.57309
G1 X100.605 Y87.276 E.01675
M73 P13 R35
M73 Q13 S36
G1 X136.052 Y122.724 E1.57309
G1 X135.518 Y122.724 E.01675
G1 X100.071 Y87.276 E1.57309
G1 X99.538 Y87.276 E.01675
G1 X134.985 Y122.724 E1.57309
G1 X134.451 Y122.724 E.01675
M73 Q13 S35
G1 X99.004 Y87.276 E1.57309
G1 X98.47 Y87.276 E.01675
G1 X133.917 Y122.724 E1.57309
G1 X133.384 Y122.724 E.01675
G1 X97.936 Y87.276 E1.57309
G1 X97.403 Y87.276 E.01675
G1 X132.85 Y122.724 E1.57309
G1 X132.316 Y122.724 E.01675
G1 X96.869 Y87.276 E1.57309
G1 X96.335 Y87.276 E.01675
G1 X131.782 Y122.724 E1.57309
G1 X131.249 Y122.724 E.01675
M73 P14 R35
M73 Q14 S35
G1 X95.802 Y87.276 E1.57309
G1 X95.268 Y87.276 E.01675
G1 X130.715 Y122.724 E1.57309
G1 X130.181 Y122.724 E.01675
G1 X94.734 Y87.276 E1.57309
G1 X94.2 Y87.276 E.01675
G1 X129.648 Y122.724 E1.57309
G1 X129.114 Y122.724 E.01675
G1 X93.667 Y87.276 E1.57309
G1 X93.133 Y87.276 E.01675
G1 X128.58 Y122.724 E1.57309
G1 X128.046 Y122.724 E.01675
G1 X92.599 Y87.276 E1.57309
G1 X92.066 Y87.276 E.01675
G1 X127.513 Y122.724 E1.57309
G1 X126.979 Y122.724 E.01675
G1 X91.532 Y87.276 E1.57309
G1 X90.998 Y87.276 E.01675
G1 X126.445 Y122.724 E1.57309
G1 X125.912 Y122.724 E.01675
M73 P15 R35
M73 Q15 S35
G1 X90.464 Y87.276 E1.57309
G1 X89.931 Y87.276 E.01675
G1 X125.378 Y122.724 E1.57309
G1 X124.844 Y122.724 E.01675
G1 X89.397 Y87.276 E1.57309
G1 X88.863 Y87.276 E.01675
G1 X124.31 Y122.724 E1.57309
G1 X123.777 Y122.724 E.01675
M73 P15 R34
G1 X88.33 Y87.276 E1.57309
G1 X87.796 Y87.276 E.01675
G1 X123.243 Y122.724 E1.57309
G1 X122.709 Y122.724 E.01675
G1 X87.262 Y87.276 E1.57309
G1 X86.728 Y87.276 E.01675
G1 X122.176 Y122.724 E1.57309
G1 X121.642 Y122.724 E.01675
M73 Q15 S34
G1 X86.195 Y87.276 E1.57309
G1 X85.661 Y87.276 E.01675
G1 X121.108 Y122.724 E1.57309
G1 X120.574 Y122.724 E.01675
M73 P16 R34
M73 Q16 S34
G1 X85.127 Y87.276 E1.57309
G1 X84.594 Y87.276 E.01675
G1 X120.041 Y122.724 E1.57309
G1 X119.507 Y122.724 E.01675
G1 X84.06 Y87.276 E1.57309
G1 X83.526 Y87.276 E.01675
G1 X118.973 Y122.724 E1.57309
G1 X118.44 Y122.724 E.01675
G1 X82.992 Y87.276 E1.57309
G1 X82.459 Y87.276 E.01675
G1 X117.906 Y122.724 E1.57309
G1 X117.372 Y122.724 E.01675
G1 X81.925 Y87.276 E1.57309
G1 X81.391 Y87.276 E.01675
G1 X116.838 Y122.724 E1.57309
G1 X116.305 Y122.724 E.01675
G1 X80.858 Y87.276 E1.57309
G1 X80.324 Y87.276 E.01675
M73 P17 R34
G1 X115.771 Y122.724 E1.57309
G1 X115.237 Y122.724 E.01675
M73 Q17 S34
G1 X79.79 Y87.276 E1.57309
G1 X79.256 Y87.276 E.01675
G1 X114.704 Y122.724 E1.57309
G1 X114.17 Y122.724 E.01675
G1 X78.723 Y87.276 E1.57309
G1 X78.189 Y87.276 E.01675
G1 X113.636 Y122.724 E1.57309
G1 X113.102 Y122.724 E.01675
G1 X77.655 Y87.276 E1.57309
G1 X77.122 Y87.276 E.01675
G1 X112.569 Y122.724 E1.57309
G1 X112.035 Y122.724 E.01675
G1 X76.588 Y87.276 E1.57309
G1 X76.054 Y87.276 E.01675
G1 X111.501 Y122.724 E1.57309
G1 X110.968 Y122.724 E.01675
M73 P17 R33
G1 X75.52 Y87.276 E1.57309
G1 X74.987 Y87.276 E.01675
M73 P18 R33
M73 Q18 S34
G1 X110.434 Y122.724 E1.57309
G1 X109.9 Y122.724 E.01675
G1 X74.453 Y87.276 E1.57309
G1 X74.251 Y87.276 E.00632
M73 Q18 S33
G1 X74.251 Y87.609 E.01042
G1 X109.366 Y122.724 E1.55835
G1 X108.833 Y122.724 E.01675
G1 X74.251 Y88.142 E1.53467
G1 X74.251 Y88.676 E.01675
G1 X108.299 Y122.724 E1.51098
G1 X107.765 Y122.724 E.01675
G1 X74.251 Y89.21 E1.48729
G1 X74.251 Y89.743 E.01675
G1 X107.232 Y122.724 E1.46361
G1 X106.698 Y122.724 E.01675
G1 X74.251 Y90.277 E1.43992
G1 X74.251 Y90.811 E.01675
G1 X106.164 Y122.724 E1.41624
G1 X105.63 Y122.724 E.01675
G1 X74.251 Y91.345 E1.39255
G1 X74.251 Y91.878 E.01675
M73 P19 R33
G1 X105.097 Y122.724 E1.36887
G1 X104.563 Y122.724 E.01675
M73 Q19 S33
G1 X74.251 Y92.412 E1.34518
G1 X74.251 Y92.946 E.01675
G1 X104.029 Y122.724 E1.3215
G1 X103.496 Y122.724 E.01675
G1 X74.251 Y93.479 E1.29781
G1 X74.251 Y94.013 E.01675
G1 X102.962 Y122.724 E1.27413
G1 X102.428 Y122.724 E.01675
G1 X74.251 Y94.547 E1.25044
G1 X74.251 Y95.081 E.01675
G1 X101.894 Y122.724 E1.22675
G1 X101.361 Y122.724 E.01675
G1 X74.251 Y95.614 E1.20307
G1 X74.251 Y96.148 E.01675
G1 X100.827 Y122.724 E1.17938
G1 X100.293 Y122.724 E.01675
G1 X74.251 Y96.682 E1.1557
G1 X74.251 Y97.215 E.01675
G1 X99.76 Y122.724 E1.13201
G1 X99.226 Y122.724 E.01675
G1 X74.251 Y97.749 E1.10833
G1 X74.251 Y98.283 E.01675
G1 X98.692 Y122.724 E1.08464
G1 X98.158 Y122.724 E.01675
M73 P20 R33
M73 Q20 S33
G1 X74.251 Y98.817 E1.06096
G1 X74.251 Y99.35 E.01675
G1 X97.625 Y122.724 E1.03727
G1 X97.091 Y122.724 E.01675
G1 X74.251 Y99.884 E1.01359
G1 X74.251 Y100.418 E.01675
G1 X96.557 Y122.724 E.9899
G1 X96.024 Y122.724 E.01675
M73 P20 R32
G1 X74.251 Y100.951 E.96621
