; generated by PrusaSlicer 2.5.2+win64 on 2023-06-14 at 06:37:44 UTC


;
;
; 

; external perimeters extrusion width = 0.45mm
; perimeters extrusion width = 0.45mm
; infill extrusion width = 0.45mm
; solid infill extrusion width = 0.45mm
; top infill extrusion width = 0.40mm
; first layer extrusion width = 0.42mm

M73 P0 R30
M73 Q0 S30
M201 X1000 Y1000 Z200 E5000 ; sets maximum accelerations, mm/sec^2
M203 X200 Y200 Z12 E120 ; sets maximum feedrates, mm / sec
M204 P1250 R1250 T1250 ; sets acceleration (P, T) and retract acceleration (R), mm/sec^2
M205 X8.00 Y8.00 Z0.40 E4.50 ; sets the jerk limits, mm/sec
M205 S0 T0 ; sets the minimum extruding and travel feed rate, mm/sec
M107
;TYPE:Custom
M862.3 P "MK3S" ; printer model check
M862.1 P0.4 ; nozzle diameter check
M115 U3.12.2 ; tell printer latest fw version
G90 ; use absolute coordinates
M83 ; extruder relative mode
M104 S215 ; set extruder temp
M140 S60 ; set bed temp
M190 S60 ; wait for bed temp
M109 S215 ; wait for extruder temp
G28 W ; home all without mesh bed level
G80 ; mesh bed leveling

G1 Z0.2 F720
G1 Y-3 F1000 ; go outside print area
G92 E0
G1 X60 E9 F1000 ; intro line
G1 X100 E12.5 F1000 ; intro line

G92 E0
M221 S95

; Don't change E values below. Excessive value can damage the printer.
M907 E430 ; set extruder motor current
G21 ; set units to millimeters
G90 ; use absolute coordinates
M83 ; use relative distances for extrusion
M900 K0.05 ; Filament gcode LA 1.5
M900 K30 ; Filament gcode LA 1.0
M107
;LAYER_CHANGE
;Z:0.2
;HEIGHT:0.2
;BEFORE_LAYER_CHANGE
G92 E0.0
;0.2


G1 E-.8 F2100
G1 Z.4 F720
;AFTER_LAYER_CHANGE
;0.2
G1 X60.56 Y93.042 F10800
G1 Z.2 F720
G1 E.8 F2100
M204 S800
;TYPE:Skirt/Brim
;WIDTH:0.42
G1 F1200
G1 X61.5 Y92.848 E.03008
G1 X188.5 Y92.848 E3.982
G1 X189.807 Y93.24 E.04278
G1 X190.683 Y94.285 E.04278
G1 X190.877 Y95.225 E.03008
G1 X190.877 Y114.775 E.61298
G1 X190.485 Y116.082 E.04278
G1 X189.44 Y116.958 E.04278
G1 X188.5 Y117.152 E.03008
G1 X61.5 Y117.152 E3.982
G1 X60.193 Y116.76 E.04278
M73 P1 R29
M73 Q1 S30
G1 X59.317 Y115.715 E.04278
G1 X59.123 Y114.775 E.03008
G1 X59.123 Y95.225 E.61298
G1 X59.515 Y93.918 E.04278
G1 X60.514 Y93.08 E.0409
M204 S1000
; printing object Deckel mit Logo lang AAA 3.stl id:0 copy 0
;WIPE_START
G1 F8640
G1 X61.5 Y92.848 E-.23384
G1 X63.779 Y92.848 E-.52616
;WIPE_END
G1 E-.04 F2100
G1 Z.6 F720
G1 X187.713 Y113.988 F10800
G1 Z.2 F720
G1 E.8 F2100
M204 S800
;TYPE:Perimeter
;WIDTH:0.419999
G1 F1200
G1 X62.287 Y113.988 E3.93263
G1 X62.287 Y96.012 E.56362
M73 Q1 S29
G1 X187.713 Y96.012 E3.93263
G1 X187.713 Y113.928 E.56174
M204 S1000
M73 P2 R29
M73 Q2 S29
G1 X188.09 Y114.365 F10800
M204 S800
;TYPE:External perimeter
G1 F1200
G1 X61.91 Y114.365 E3.95628
G1 X61.91 Y95.635 E.58727
G1 X188.09 Y95.635 E3.95628
G1 X188.09 Y114.305 E.58538
M204 S1000
G1 X187.69 Y114.345 F10800
;WIPE_START
G1 F8640
G1 X184.799 Y114.307 E-.76
;WIPE_END
G1 E-.04 F2100
G1 Z.6 F720
G1 X186.779 Y96.182 F10800
G1 Z.2 F720
G1 E.8 F2100
M204 S800
;TYPE:Solid infill
;WIDTH:0.421098
G1 F1200
G1 X187.374 Y96.777 E.02646
G1 X187.374 Y97.311 E.01682
G1 X186.414 Y96.351 E.04269
G1 X185.879 Y96.351 E.01682
G1 X187.374 Y97.846 E.06648
G1 X187.374 Y98.381 E.01682
G1 X185.344 Y96.351 E.09026
G1 X184.809 Y96.351 E.01682
G1 X187.374 Y98.916 E.11405
G1 X187.374 Y99.451 E.01682
M73 Q3 S29
G1 X184.274 Y96.351 E.13783
G1 X183.739 Y96.351 E.01682
G1 X187.374 Y99.986 E.16161
G1 X187.374 Y100.52 E.01682
M73 P3 R29
G1 X183.205 Y96.351 E.1854
G1 X182.67 Y96.351 E.01682
G1 X187.374 Y101.055 E.20918
G1 X187.374 Y101.59 E.01682
G1 X182.135 Y96.351 E.23297
G1 X181.6 Y96.351 E.01682
G1 X187.374 Y102.125 E.25675
G1 X187.374 Y102.66 E.01682
G1 X181.065 Y96.351 E.28054
G1 X180.53 Y96.351 E.01682
G1 X187.374 Y103.195 E.30432
G1 X187.374 Y103.729 E.01682
G1 X179.996 Y96.351 E.3281
G1 X179.461 Y96.351 E.01682
G1 X187.374 Y104.264 E.35189
G1 X187.374 Y104.799 E.01682
G1 X178.926 Y96.351 E.37567
G1 X178.391 Y96.351 E.01682
G1 X187.374 Y105.334 E.39946
G1 X187.374 Y105.869 E.01682
G1 X177.856 Y96.351 E.42324
G1 X177.321 Y96.351 E.01682
G1 X187.374 Y106.404 E.44702
G1 X187.374 Y106.938 E.01682
G1 X176.787 Y96.351 E.47081
G1 X176.252 Y96.351 E.01682
G1 X187.374 Y107.473 E.49459
G1 X187.374 Y108.008 E.01682
G1 X175.717 Y96.351 E.51838
G1 X175.182 Y96.351 E.01682
G1 X187.374 Y108.543 E.54216
G1 X187.374 Y109.078 E.01682
G1 X174.647 Y96.351 E.56594
G1 X174.113 Y96.351 E.01682
G1 X187.374 Y109.612 E.58973
G1 X187.374 Y110.147 E.01682
G1 X173.578 Y96.351 E.61351
G1 X173.043 Y96.351 E.01682
G1 X187.374 Y110.682 E.6373
G1 X187.374 Y111.217 E.01682
G1 X172.508 Y96.351 E.66108
G1 X171.973 Y96.351 E.01682
G1 X187.374 Y111.752 E.68486
G1 X187.374 Y112.287 E.01682
G1 X171.438 Y96.351 E.70865
G1 X170.904 Y96.351 E.01682
G1 X187.374 Y112.821 E.73243
G1 X187.374 Y113.356 E.01682
M73 P4 R29
M73 Q4 S29
G1 X170.369 Y96.351 E.75622
G1 X169.834 Y96.351 E.01682
G1 X187.131 Y113.649 E.76922
G1 X186.596 Y113.649 E.01682
G1 X169.299 Y96.351 E.76922
G1 X168.764 Y96.351 E.01682
M73 P4 R28
G1 X186.061 Y113.649 E.76922
G1 X185.527 Y113.649 E.01682
G1 X168.229 Y96.351 E.76922
G1 X167.695 Y96.351 E.01682
G1 X184.992 Y113.649 E.76922
G1 X184.457 Y113.649 E.01682
G1 X167.16 Y96.351 E.76922
G1 X166.625 Y96.351 E.01682
G1 X183.922 Y113.649 E.76922
G1 X183.387 Y113.649 E.01682
G1 X166.09 Y96.351 E.76922
G1 X165.555 Y96.351 E.01682
M73 Q4 S28
G1 X182.852 Y113.649 E.76922
G1 X182.318 Y113.649 E.01682
G1 X165.021 Y96.351 E.76922
G1 X164.486 Y96.351 E.01682
G1 X181.783 Y113.649 E.76922
G1 X181.248 Y113.649 E.01682
G1 X163.951 Y96.351 E.76922
G1 X163.416 Y96.351 E.01682
G1 X180.713 Y113.649 E.76922
G1 X180.178 Y113.649 E.01682
M73 Q5 S28
G1 X162.881 Y96.351 E.76922
G1 X162.346 Y96.351 E.01682
M73 P5 R28
G1 X179.644 Y113.649 E.76922
G1 X179.109 Y113.649 E.01682
G1 X161.812 Y96.351 E.76922
G1 X161.277 Y96.351 E.01682
G1 X178.574 Y113.649 E.76922
G1 X178.039 Y113.649 E.01682
G1 X160.742 Y96.351 E.76922
G1 X160.207 Y96.351 E.01682
G1 X177.504 Y113.649 E.76922
G1 X176.969 Y113.649 E.01682
G1 X159.672 Y96.351 E.76922
G1 X159.137 Y96.351 E.01682
G1 X176.435 Y113.649 E.76922
G1 X175.9 Y113.649 E.01682
G1 X158.603 Y96.351 E.76922
G1 X158.068 Y96.351 E.01682
G1 X175.365 Y113.649 E.76922
G1 X174.83 Y113.649 E.01682
G1 X157.533 Y96.351 E.76922
G1 X156.998 Y96.351 E.01682
G1 X174.295 Y113.649 E.76922
G1 X173.76 Y113.649 E.01682
G1 X156.463 Y96.351 E.76922
G1 X155.929 Y96.351 E.01682
G1 X173.226 Y113.649 E.76922
G1 X172.691 Y113.649 E.01682
G1 X155.394 Y96.351 E.76922
G1 X154.859 Y96.351 E.01682
M73 P6 R28
M73 Q6 S28
G1 X172.156 Y113.649 E.76922
G1 X171.621 Y113.649 E.01682
G1 X154.324 Y96.351 E.76922
G1 X153.789 Y96.351 E.01682
G1 X171.086 Y113.649 E.76922
G1 X170.552 Y113.649 E.01682
G1 X153.254 Y96.351 E.76922
G1 X152.72 Y96.351 E.01682
G1 X170.017 Y113.649 E.76922
G1 X169.482 Y113.649 E.01682
G1 X152.185 Y96.351 E.76922
G1 X151.65 Y96.351 E.01682
G1 X168.947 Y113.649 E.76922
G1 X168.412 Y113.649 E.01682
G1 X151.115 Y96.351 E.76922
G1 X150.58 Y96.351 E.01682
G1 X167.877 Y113.649 E.76922
G1 X167.343 Y113.649 E.01682
G1 X150.045 Y96.351 E.76922
G1 X149.511 Y96.351 E.01682
G1 X166.808 Y113.649 E.76922
G1 X166.273 Y113.649 E.01682
G1 X148.976 Y96.351 E.76922
G1 X148.441 Y96.351 E.01682
G1 X165.738 Y113.649 E.76922
G1 X165.203 Y113.649 E.01682
G1 X147.906 Y96.351 E.76922
G1 X147.371 Y96.351 E.01682
M73 P7 R28
M73 Q7 S28
G1 X164.668 Y113.649 E.76922
G1 X164.134 Y113.649 E.01682
G1 X146.836 Y96.351 E.76922
G1 X146.302 Y96.351 E.01682
G1 X163.599 Y113.649 E.76922
G1 X163.064 Y113.649 E.01682
G1 X145.767 Y96.351 E.76922
G1 X145.232 Y96.351 E.01682
G1 X162.529 Y113.649 E.76922
G1 X161.994 Y113.649 E.01682
G1 X144.697 Y96.351 E.76922
G1 X144.162 Y96.351 E.01682
G1 X161.46 Y113.649 E.76922
G1 X160.925 Y113.649 E.01682
M73 P7 R27
G1 X143.628 Y96.351 E.76922
G1 X143.093 Y96.351 E.01682
G1 X160.39 Y113.649 E.76922
G1 X159.855 Y113.649 E.01682
G1 X142.558 Y96.351 E.76922
G1 X142.023 Y96.351 E.01682
G1 X159.32 Y113.649 E.76922
G1 X158.785 Y113.649 E.01682
G1 X141.488 Y96.351 E.76922
G1 X140.953 Y96.351 E.01682
G1 X158.251 Y113.649 E.76922
G1 X157.716 Y113.649 E.01682
G1 X140.419 Y96.351 E.76922
G1 X139.884 Y96.351 E.01682
M73 Q7 S27
G1 X157.181 Y113.649 E.76922
G1 X156.646 Y113.649 E.01682
M73 P8 R27
M73 Q8 S27
G1 X139.349 Y96.351 E.76922
G1 X138.814 Y96.351 E.01682
G1 X156.111 Y113.649 E.76922
G1 X155.576 Y113.649 E.01682
G1 X138.279 Y96.351 E.76922
G1 X137.744 Y96.351 E.01682
G1 X155.042 Y113.649 E.76922
G1 X154.507 Y113.649 E.01682
G1 X137.21 Y96.351 E.76922
G1 X136.675 Y96.351 E.01682
G1 X153.972 Y113.649 E.76922
G1 X153.437 Y113.649 E.01682
G1 X136.14 Y96.351 E.76922
G1 X135.605 Y96.351 E.01682
G1 X152.902 Y113.649 E.76922
G1 X152.367 Y113.649 E.01682
G1 X135.07 Y96.351 E.76922
G1 X134.536 Y96.351 E.01682
G1 X151.833 Y113.649 E.76922
G1 X151.298 Y113.649 E.01682
G1 X134.001 Y96.351 E.76922
G1 X133.466 Y96.351 E.01682
G1 X150.763 Y113.649 E.76922
G1 X150.228 Y113.649 E.01682
G1 X132.931 Y96.351 E.76922
G1 X132.396 Y96.351 E.01682
G1 X149.693 Y113.649 E.76922
G1 X149.159 Y113.649 E.01682
M73 P9 R27
M73 Q9 S27
G1 X131.861 Y96.351 E.76922
G1 X131.327 Y96.351 E.01682
G1 X148.624 Y113.649 E.76922
G1 X148.089 Y113.649 E.01682
G1 X130.792 Y96.351 E.76922
G1 X130.257 Y96.351 E.01682
G1 X147.554 Y113.649 E.76922
G1 X147.019 Y113.649 E.01682
G1 X129.722 Y96.351 E.76922
G1 X129.187 Y96.351 E.01682
G1 X146.484 Y113.649 E.76922
G1 X145.95 Y113.649 E.01682
G1 X128.652 Y96.351 E.76922
G1 X128.118 Y96.351 E.01682
G1 X145.415 Y113.649 E.76922
G1 X144.88 Y113.649 E.01682
G1 X127.583 Y96.351 E.76922
G1 X127.048 Y96.351 E.01682
G1 X144.345 Y113.649 E.76922
G1 X143.81 Y113.649 E.01682
G1 X126.513 Y96.351 E.76922
G1 X125.978 Y96.351 E.01682
G1 X143.275 Y113.649 E.76922
G1 X142.741 Y113.649 E.01682
G1 X125.444 Y96.351 E.76922
G1 X124.909 Y96.351 E.01682
G1 X142.206 Y113.649 E.76922
G1 X141.671 Y113.649 E.01682
M73 P10 R27
G1 X124.374 Y96.351 E.76922
M73 Q10 S27
G1 X123.839 Y96.351 E.01682
G1 X141.136 Y113.649 E.76922
G1 X140.601 Y113.649 E.01682
G1 X123.304 Y96.351 E.76922
G1 X122.769 Y96.351 E.01682
G1 X140.067 Y113.649 E.76922
G1 X139.532 Y113.649 E.01682
G1 X122.235 Y96.351 E.76922
G1 X121.7 Y96.351 E.01682
G1 X138.997 Y113.649 E.76922
G1 X138.462 Y113.649 E.01682
G1 X121.165 Y96.351 E.76922
G1 X120.63 Y96.351 E.01682
G1 X137.927 Y113.649 E.76922
G1 X137.392 Y113.649 E.01682
G1 X120.095 Y96.351 E.76922
G1 X119.56 Y96.351 E.01682
G1 X136.858 Y113.649 E.76922
G1 X136.323 Y113.649 E.01682
G1 X119.026 Y96.351 E.76922
G1 X118.491 Y96.351 E.01682
G1 X135.788 Y113.649 E.76922
G1 X135.253 Y113.649 E.01682
M73 P10 R26
G1 X117.956 Y96.351 E.76922
G1 X117.421 Y96.351 E.01682
G1 X134.718 Y113.649 E.76922
G1 X134.183 Y113.649 E.01682
G1 X116.886 Y96.351 E.76922
G1 X116.352 Y96.351 E.01682
M73 P11 R26
M73 Q11 S27
G1 X133.649 Y113.649 E.76922
G1 X133.114 Y113.649 E.01682
G1 X115.817 Y96.351 E.76922
G1 X115.282 Y96.351 E.01682
G1 X132.579 Y113.649 E.76922
G1 X132.044 Y113.649 E.01682
M73 Q11 S26
G1 X114.747 Y96.351 E.76922
G1 X114.212 Y96.351 E.01682
G1 X131.509 Y113.649 E.76922
G1 X130.975 Y113.649 E.01682
G1 X113.677 Y96.351 E.76922
G1 X113.143 Y96.351 E.01682
G1 X130.44 Y113.649 E.76922
G1 X129.905 Y113.649 E.01682
G1 X112.608 Y96.351 E.76922
G1 X112.073 Y96.351 E.01682
G1 X129.37 Y113.649 E.76922
G1 X128.835 Y113.649 E.01682
G1 X111.538 Y96.351 E.76922
G1 X111.003 Y96.351 E.01682
G1 X128.3 Y113.649 E.76922
G1 X127.766 Y113.649 E.01682
G1 X110.468 Y96.351 E.76922
G1 X109.934 Y96.351 E.01682
G1 X127.231 Y113.649 E.76922
G1 X126.696 Y113.649 E.01682
G1 X109.399 Y96.351 E.76922
G1 X108.864 Y96.351 E.01682
M73 P12 R26
M73 Q12 S26
G1 X126.161 Y113.649 E.76922
G1 X125.626 Y113.649 E.01682
G1 X108.329 Y96.351 E.76922
G1 X107.794 Y96.351 E.01682
G1 X125.091 Y113.649 E.76922
G1 X124.557 Y113.649 E.01682
G1 X107.259 Y96.351 E.76922
G1 X106.725 Y96.351 E.01682
G1 X124.022 Y113.649 E.76922
G1 X123.487 Y113.649 E.01682
G1 X106.19 Y96.351 E.76922
G1 X105.655 Y96.351 E.01682
G1 X122.952 Y113.649 E.76922
G1 X122.417 Y113.649 E.01682
G1 X105.12 Y96.351 E.76922
G1 X104.585 Y96.351 E.01682
G1 X121.882 Y113.649 E.76922
G1 X121.348 Y113.649 E.01682
G1 X104.051 Y96.351 E.76922
G1 X103.516 Y96.351 E.01682
G1 X120.813 Y113.649 E.76922
G1 X120.278 Y113.649 E.01682
G1 X102.981 Y96.351 E.76922
G1 X102.446 Y96.351 E.01682
G1 X119.743 Y113.649 E.76922
G1 X119.208 Y113.649 E.01682
G1 X101.911 Y96.351 E.76922
G1 X101.376 Y96.351 E.01682
G1 X118.674 Y113.649 E.76922
G1 X118.139 Y113.649 E.01682
M73 P13 R26
M73 Q13 S26
G1 X100.842 Y96.351 E.76922
G1 X100.307 Y96.351 E.01682
G1 X117.604 Y113.649 E.76922
G1 X117.069 Y113.649 E.01682
G1 X99.772 Y96.351 E.76922
G1 X99.237 Y96.351 E.01682
G1 X116.534 Y113.649 E.76922
G1 X115.999 Y113.649 E.01682
G1 X98.702 Y96.351 E.76922
G1 X98.167 Y96.351 E.01682
G1 X115.465 Y113.649 E.76922
G1 X114.93 Y113.649 E.01682
G1 X97.633 Y96.351 E.76922
G1 X97.098 Y96.351 E.01682
G1 X114.395 Y113.649 E.76922
G1 X113.86 Y113.649 E.01682
G1 X96.563 Y96.351 E.76922
G1 X96.028 Y96.351 E.01682
G1 X113.325 Y113.649 E.76922
G1 X112.79 Y113.649 E.01682
G1 X95.493 Y96.351 E.76922
G1 X94.959 Y96.351 E.01682
G1 X112.256 Y113.649 E.76922
G1 X111.721 Y113.649 E.01682
G1 X94.424 Y96.351 E.76922
G1 X93.889 Y96.351 E.01682
G1 X111.186 Y113.649 E.76922
G1 X110.651 Y113.649 E.01682
M73 P14 R26
M73 Q14 S26
G1 X93.354 Y96.351 E.76922
G1 X92.819 Y96.351 E.01682
M73 P14 R25
G1 X110.116 Y113.649 E.76922
G1 X109.582 Y113.649 E.01682
G1 X92.284 Y96.351 E.76922
G1 X91.75 Y96.351 E.01682
G1 X109.047 Y113.649 E.76922
G1 X108.512 Y113.649 E.01682
G1 X91.215 Y96.351 E.76922
G1 X90.68 Y96.351 E.01682
G1 X107.977 Y113.649 E.76922
G1 X107.442 Y113.649 E.01682
G1 X90.145 Y96.351 E.76922
G1 X89.61 Y96.351 E.01682
G1 X106.907 Y113.649 E.76922
G1 X106.373 Y113.649 E.01682
M73 Q14 S25
G1 X89.075 Y96.351 E.76922
G1 X88.541 Y96.351 E.01682
G1 X105.838 Y113.649 E.76922
G1 X105.303 Y113.649 E.01682
G1 X88.006 Y96.351 E.76922
G1 X87.471 Y96.351 E.01682
G1 X104.768 Y113.649 E.76922
G1 X104.233 Y113.649 E.01682
G1 X86.936 Y96.351 E.76922
G1 X86.401 Y96.351 E.01682
G1 X103.698 Y113.649 E.76922
G1 X103.164 Y113.649 E.01682
M73 P15 R25
G1 X85.867 Y96.351 E.76922
G1 X85.332 Y96.351 E.01682
M73 Q15 S25
G1 X102.629 Y113.649 E.76922
G1 X102.094 Y113.649 E.01682
G1 X84.797 Y96.351 E.76922
G1 X84.262 Y96.351 E.01682
G1 X101.559 Y113.649 E.76922
G1 X101.024 Y113.649 E.01682
G1 X83.727 Y96.351 E.76922
G1 X83.192 Y96.351 E.01682
G1 X100.49 Y113.649 E.76922
G1 X99.955 Y113.649 E.01682
G1 X82.658 Y96.351 E.76922
G1 X82.123 Y96.351 E.01682
G1 X99.42 Y113.649 E.76922
G1 X98.885 Y113.649 E.01682
G1 X81.588 Y96.351 E.76922
G1 X81.053 Y96.351 E.01682
G1 X98.35 Y113.649 E.76922
G1 X97.815 Y113.649 E.01682
G1 X80.518 Y96.351 E.76922
G1 X79.983 Y96.351 E.01682
G1 X97.281 Y113.649 E.76922
G1 X96.746 Y113.649 E.01682
G1 X79.449 Y96.351 E.76922
G1 X78.914 Y96.351 E.01682
G1 X96.211 Y113.649 E.76922
G1 X95.676 Y113.649 E.01682
G1 X78.379 Y96.351 E.76922
G1 X77.844 Y96.351 E.01682
M73 P16 R25
M73 Q16 S25
G1 X95.141 Y113.649 E.76922
G1 X94.606 Y113.649 E.01682
G1 X77.309 Y96.351 E.76922
G1 X76.774 Y96.351 E.01682
G1 X94.072 Y113.649 E.76922
G1 X93.537 Y113.649 E.01682
G1 X76.24 Y96.351 E.76922
G1 X75.705 Y96.351 E.01682
G1 X93.002 Y113.649 E.76922
G1 X92.467 Y113.649 E.01682
G1 X75.17 Y96.351 E.76922
G1 X74.635 Y96.351 E.01682
G1 X91.932 Y113.649 E.76922
G1 X91.397 Y113.649 E.01682
G1 X74.1 Y96.351 E.76922
G1 X73.566 Y96.351 E.01682
G1 X90.863 Y113.649 E.76922
G1 X90.328 Y113.649 E.01682
G1 X73.031 Y96.351 E.76922
G1 X72.496 Y96.351 E.01682
G1 X89.793 Y113.649 E.76922
G1 X89.258 Y113.649 E.01682
G1 X71.961 Y96.351 E.76922
G1 X71.426 Y96.351 E.01682
G1 X88.723 Y113.649 E.76922
G1 X88.189 Y113.649 E.01682
G1 X70.891 Y96.351 E.76922
G1 X70.357 Y96.351 E.01682
M73 P17 R25
G1 X87.654 Y113.649 E.76922
G1 X87.119 Y113.649 E.01682
M73 Q17 S25
G1 X69.822 Y96.351 E.76922
G1 X69.287 Y96.351 E.01682
G1 X86.584 Y113.649 E.76922
G1 X86.049 Y113.649 E.01682
G1 X68.752 Y96.351 E.76922
G1 X68.217 Y96.351 E.01682
G1 X85.514 Y113.649 E.76922
