; generated by PrusaSlicer 2.5.2+win64 on 2023-06-07 at 11:36:25 UTC


;
;
; 

; external perimeters extrusion width = 0.45mm
; perimeters extrusion width = 0.45mm
; infill extrusion width = 0.45mm
; solid infill extrusion width = 0.45mm
; top infill extrusion width = 0.40mm
; first layer extrusion width = 0.42mm

M73 P0 R31
M73 Q0 S31
M201 X1000 Y1000 Z200 E5000 ; sets maximum accelerations, mm/sec^2
M203 X200 Y200 Z12 E120 ; sets maximum feedrates, mm / sec
M204 P1250 R1250 T1250 ; sets acceleration (P, T) and retract acceleration (R), mm/sec^2
M205 X8.00 Y8.00 Z0.40 E4.50 ; sets the jerk limits, mm/sec
M205 S0 T0 ; sets the minimum extruding and travel feed rate, mm/sec
M107
;TYPE:Custom
M862.3 P "MK3S" ; printer model check
M862.1 P0.4 ; nozzle diameter check
M115 U3.12.2 ; tell printer latest fw version
G90 ; use absolute coordinates
M83 ; extruder relative mode
M104 S215 ; set extruder temp
M140 S60 ; set bed temp
M190 S60 ; wait for bed temp
M109 S215 ; wait for extruder temp
G28 W ; home all without mesh bed level
G80 ; mesh bed leveling

G1 Z0.2 F720
G1 Y-3 F1000 ; go outside print area
G92 E0
G1 X60 E9 F1000 ; intro line
G1 X100 E12.5 F1000 ; intro line

G92 E0
M221 S95

; Don't change E values below. Excessive value can damage the printer.
M907 E430 ; set extruder motor current
G21 ; set units to millimeters
G90 ; use absolute coordinates
M83 ; use relative distances for extrusion
M900 K0.05 ; Filament gcode LA 1.5
M900 K30 ; Filament gcode LA 1.0
M107
;LAYER_CHANGE
;Z:0.2
;HEIGHT:0.2
;BEFORE_LAYER_CHANGE
G92 E0.0
;0.2


G1 E-.8 F2100
G1 Z.4 F720
;AFTER_LAYER_CHANGE
;0.2
G1 X60.56 Y92.892 F10800
G1 Z.2 F720
G1 E.8 F2100
M204 S800
;TYPE:Skirt/Brim
;WIDTH:0.42
G1 F1200
G1 X61.5 Y92.698 E.03008
G1 X188.5 Y92.698 E3.982
G1 X189.807 Y93.09 E.04278
M73 P0 R30
G1 X190.683 Y94.135 E.04278
G1 X190.877 Y95.075 E.03008
G1 X190.877 Y114.925 E.62238
G1 X190.485 Y116.232 E.04278
G1 X189.44 Y117.108 E.04278
G1 X188.5 Y117.302 E.03008
G1 X61.5 Y117.302 E3.982
G1 X60.193 Y116.91 E.04278
M73 P1 R30
M73 Q1 S31
G1 X59.317 Y115.865 E.04278
G1 X59.123 Y114.925 E.03008
G1 X59.123 Y95.075 E.62238
G1 X59.515 Y93.768 E.04278
M73 Q1 S30
G1 X60.514 Y92.93 E.0409
M204 S1000
; printing object Deckel mit Logo lang AAA 3.stl id:0 copy 0
;WIPE_START
G1 F8640
G1 X61.5 Y92.698 E-.23384
G1 X63.779 Y92.698 E-.52616
;WIPE_END
G1 E-.04 F2100
G1 Z.6 F720
G1 X187.713 Y114.138 F10800
G1 Z.2 F720
G1 E.8 F2100
M204 S800
;TYPE:Perimeter
;WIDTH:0.419999
G1 F1200
G1 X62.287 Y114.138 E3.93263
G1 X62.287 Y95.862 E.57303
G1 X187.713 Y95.862 E3.93263
G1 X187.713 Y114.078 E.57114
M204 S1000
M73 Q2 S30
G1 X188.09 Y114.515 F10800
M204 S800
;TYPE:External perimeter
M73 P2 R30
G1 F1200
G1 X61.91 Y114.515 E3.95628
G1 X61.91 Y95.485 E.59667
G1 X188.09 Y95.485 E3.95628
G1 X188.09 Y114.455 E.59479
M204 S1000
G1 X187.69 Y114.495 F10800
;WIPE_START
G1 F8640
G1 X184.799 Y114.457 E-.76
;WIPE_END
G1 E-.04 F2100
G1 Z.6 F720
G1 X186.78 Y96.032 F10800
G1 Z.2 F720
G1 E.8 F2100
M204 S800
;TYPE:Solid infill
;WIDTH:0.420479
G1 F1200
G1 X187.374 Y96.625 E.02635
G1 X187.374 Y97.159 E.01676
G1 X186.416 Y96.201 E.04253
G1 X185.882 Y96.201 E.01676
G1 X187.374 Y97.693 E.06623
G1 X187.374 Y98.227 E.01676
G1 X185.348 Y96.201 E.08994
G1 X184.814 Y96.201 E.01676
G1 X187.374 Y98.761 E.11365
G1 X187.374 Y99.295 E.01676
G1 X184.28 Y96.201 E.13735
G1 X183.746 Y96.201 E.01676
G1 X187.374 Y99.829 E.16106
G1 X187.374 Y100.363 E.01676
G1 X183.212 Y96.201 E.18477
G1 X182.678 Y96.201 E.01676
G1 X187.374 Y100.897 E.20847
G1 X187.374 Y101.431 E.01676
G1 X182.144 Y96.201 E.23218
G1 X181.61 Y96.201 E.01676
M73 Q3 S30
G1 X187.374 Y101.965 E.25588
G1 X187.374 Y102.499 E.01676
G1 X181.076 Y96.201 E.27959
M73 P3 R30
G1 X180.542 Y96.201 E.01676
G1 X187.374 Y103.033 E.3033
G1 X187.374 Y103.567 E.01676
G1 X180.008 Y96.201 E.327
G1 X179.474 Y96.201 E.01676
G1 X187.374 Y104.101 E.35071
G1 X187.374 Y104.635 E.01676
G1 X178.94 Y96.201 E.37442
G1 X178.406 Y96.201 E.01676
G1 X187.374 Y105.169 E.39812
G1 X187.374 Y105.702 E.01676
G1 X177.873 Y96.201 E.42183
G1 X177.339 Y96.201 E.01676
G1 X187.374 Y106.236 E.44553
G1 X187.374 Y106.77 E.01676
G1 X176.805 Y96.201 E.46924
G1 X176.271 Y96.201 E.01676
G1 X187.374 Y107.304 E.49295
G1 X187.374 Y107.838 E.01676
G1 X175.737 Y96.201 E.51665
G1 X175.203 Y96.201 E.01676
G1 X187.374 Y108.372 E.54036
G1 X187.374 Y108.906 E.01676
G1 X174.669 Y96.201 E.56407
G1 X174.135 Y96.201 E.01676
G1 X187.374 Y109.44 E.58777
G1 X187.374 Y109.974 E.01676
G1 X173.601 Y96.201 E.61148
G1 X173.067 Y96.201 E.01676
G1 X187.374 Y110.508 E.63518
G1 X187.374 Y111.042 E.01676
G1 X172.533 Y96.201 E.65889
G1 X171.999 Y96.201 E.01676
G1 X187.374 Y111.576 E.6826
G1 X187.374 Y112.11 E.01676
G1 X171.465 Y96.201 E.7063
G1 X170.931 Y96.201 E.01676
G1 X187.374 Y112.644 E.73001
G1 X187.374 Y113.178 E.01676
M73 P3 R29
G1 X170.397 Y96.201 E.75372
G1 X169.863 Y96.201 E.01676
G1 X187.374 Y113.712 E.77742
G1 X187.374 Y113.799 E.00273
M73 P4 R29
M73 Q4 S30
G1 X186.926 Y113.799 E.01404
G1 X169.329 Y96.201 E.78128
G1 X168.795 Y96.201 E.01676
G1 X186.393 Y113.799 E.78128
G1 X185.859 Y113.799 E.01676
G1 X168.261 Y96.201 E.78128
G1 X167.727 Y96.201 E.01676
G1 X185.325 Y113.799 E.78128
G1 X184.791 Y113.799 E.01676
G1 X167.194 Y96.201 E.78128
G1 X166.66 Y96.201 E.01676
M73 Q4 S29
G1 X184.257 Y113.799 E.78128
G1 X183.723 Y113.799 E.01676
G1 X166.126 Y96.201 E.78128
G1 X165.592 Y96.201 E.01676
G1 X183.189 Y113.799 E.78128
G1 X182.655 Y113.799 E.01676
G1 X165.058 Y96.201 E.78128
G1 X164.524 Y96.201 E.01676
G1 X182.121 Y113.799 E.78128
G1 X181.587 Y113.799 E.01676
G1 X163.99 Y96.201 E.78128
G1 X163.456 Y96.201 E.01676
G1 X181.053 Y113.799 E.78128
G1 X180.519 Y113.799 E.01676
G1 X162.922 Y96.201 E.78128
G1 X162.388 Y96.201 E.01676
G1 X179.985 Y113.799 E.78128
G1 X179.451 Y113.799 E.01676
M73 Q5 S29
G1 X161.854 Y96.201 E.78128
G1 X161.32 Y96.201 E.01676
M73 P5 R29
G1 X178.917 Y113.799 E.78128
G1 X178.383 Y113.799 E.01676
G1 X160.786 Y96.201 E.78128
G1 X160.252 Y96.201 E.01676
G1 X177.849 Y113.799 E.78128
G1 X177.315 Y113.799 E.01676
G1 X159.718 Y96.201 E.78128
G1 X159.184 Y96.201 E.01676
G1 X176.781 Y113.799 E.78128
G1 X176.247 Y113.799 E.01676
G1 X158.65 Y96.201 E.78128
G1 X158.116 Y96.201 E.01676
G1 X175.714 Y113.799 E.78128
G1 X175.18 Y113.799 E.01676
G1 X157.582 Y96.201 E.78128
G1 X157.048 Y96.201 E.01676
G1 X174.646 Y113.799 E.78128
G1 X174.112 Y113.799 E.01676
G1 X156.515 Y96.201 E.78128
G1 X155.981 Y96.201 E.01676
G1 X173.578 Y113.799 E.78128
G1 X173.044 Y113.799 E.01676
G1 X155.447 Y96.201 E.78128
G1 X154.913 Y96.201 E.01676
G1 X172.51 Y113.799 E.78128
G1 X171.976 Y113.799 E.01676
G1 X154.379 Y96.201 E.78128
G1 X153.845 Y96.201 E.01676
M73 P6 R29
M73 Q6 S29
G1 X171.442 Y113.799 E.78128
G1 X170.908 Y113.799 E.01676
G1 X153.311 Y96.201 E.78128
G1 X152.777 Y96.201 E.01676
G1 X170.374 Y113.799 E.78128
G1 X169.84 Y113.799 E.01676
G1 X152.243 Y96.201 E.78128
G1 X151.709 Y96.201 E.01676
G1 X169.306 Y113.799 E.78128
G1 X168.772 Y113.799 E.01676
G1 X151.175 Y96.201 E.78128
G1 X150.641 Y96.201 E.01676
G1 X168.238 Y113.799 E.78128
G1 X167.704 Y113.799 E.01676
G1 X150.107 Y96.201 E.78128
G1 X149.573 Y96.201 E.01676
G1 X167.17 Y113.799 E.78128
G1 X166.636 Y113.799 E.01676
G1 X149.039 Y96.201 E.78128
G1 X148.505 Y96.201 E.01676
G1 X166.102 Y113.799 E.78128
G1 X165.568 Y113.799 E.01676
G1 X147.971 Y96.201 E.78128
G1 X147.437 Y96.201 E.01676
G1 X165.035 Y113.799 E.78128
G1 X164.501 Y113.799 E.01676
G1 X146.903 Y96.201 E.78128
G1 X146.37 Y96.201 E.01676
G1 X163.967 Y113.799 E.78128
G1 X163.433 Y113.799 E.01676
M73 P7 R29
M73 Q7 S29
G1 X145.836 Y96.201 E.78128
G1 X145.302 Y96.201 E.01676
M73 P7 R28
G1 X162.899 Y113.799 E.78128
G1 X162.365 Y113.799 E.01676
G1 X144.768 Y96.201 E.78128
G1 X144.234 Y96.201 E.01676
G1 X161.831 Y113.799 E.78128
G1 X161.297 Y113.799 E.01676
G1 X143.7 Y96.201 E.78128
G1 X143.166 Y96.201 E.01676
G1 X160.763 Y113.799 E.78128
G1 X160.229 Y113.799 E.01676
G1 X142.632 Y96.201 E.78128
G1 X142.098 Y96.201 E.01676
G1 X159.695 Y113.799 E.78128
G1 X159.161 Y113.799 E.01676
M73 Q7 S28
G1 X141.564 Y96.201 E.78128
G1 X141.03 Y96.201 E.01676
G1 X158.627 Y113.799 E.78128
G1 X158.093 Y113.799 E.01676
G1 X140.496 Y96.201 E.78128
G1 X139.962 Y96.201 E.01676
G1 X157.559 Y113.799 E.78128
G1 X157.025 Y113.799 E.01676
G1 X139.428 Y96.201 E.78128
G1 X138.894 Y96.201 E.01676
G1 X156.491 Y113.799 E.78128
G1 X155.957 Y113.799 E.01676
M73 P8 R28
M73 Q8 S28
G1 X138.36 Y96.201 E.78128
G1 X137.826 Y96.201 E.01676
G1 X155.423 Y113.799 E.78128
G1 X154.89 Y113.799 E.01676
G1 X137.292 Y96.201 E.78128
G1 X136.758 Y96.201 E.01676
G1 X154.356 Y113.799 E.78128
G1 X153.822 Y113.799 E.01676
G1 X136.224 Y96.201 E.78128
G1 X135.691 Y96.201 E.01676
G1 X153.288 Y113.799 E.78128
G1 X152.754 Y113.799 E.01676
G1 X135.157 Y96.201 E.78128
G1 X134.623 Y96.201 E.01676
G1 X152.22 Y113.799 E.78128
G1 X151.686 Y113.799 E.01676
G1 X134.089 Y96.201 E.78128
G1 X133.555 Y96.201 E.01676
G1 X151.152 Y113.799 E.78128
G1 X150.618 Y113.799 E.01676
G1 X133.021 Y96.201 E.78128
G1 X132.487 Y96.201 E.01676
G1 X150.084 Y113.799 E.78128
G1 X149.55 Y113.799 E.01676
G1 X131.953 Y96.201 E.78128
G1 X131.419 Y96.201 E.01676
G1 X149.016 Y113.799 E.78128
G1 X148.482 Y113.799 E.01676
G1 X130.885 Y96.201 E.78128
G1 X130.351 Y96.201 E.01676
M73 P9 R28
M73 Q9 S28
G1 X147.948 Y113.799 E.78128
G1 X147.414 Y113.799 E.01676
G1 X129.817 Y96.201 E.78128
G1 X129.283 Y96.201 E.01676
G1 X146.88 Y113.799 E.78128
G1 X146.346 Y113.799 E.01676
G1 X128.749 Y96.201 E.78128
G1 X128.215 Y96.201 E.01676
G1 X145.812 Y113.799 E.78128
G1 X145.278 Y113.799 E.01676
G1 X127.681 Y96.201 E.78128
G1 X127.147 Y96.201 E.01676
G1 X144.744 Y113.799 E.78128
G1 X144.211 Y113.799 E.01676
G1 X126.613 Y96.201 E.78128
G1 X126.079 Y96.201 E.01676
G1 X143.677 Y113.799 E.78128
G1 X143.143 Y113.799 E.01676
G1 X125.546 Y96.201 E.78128
G1 X125.012 Y96.201 E.01676
G1 X142.609 Y113.799 E.78128
G1 X142.075 Y113.799 E.01676
G1 X124.478 Y96.201 E.78128
G1 X123.944 Y96.201 E.01676
G1 X141.541 Y113.799 E.78128
G1 X141.007 Y113.799 E.01676
G1 X123.41 Y96.201 E.78128
G1 X122.876 Y96.201 E.01676
M73 P10 R28
G1 X140.473 Y113.799 E.78128
G1 X139.939 Y113.799 E.01676
M73 Q10 S28
G1 X122.342 Y96.201 E.78128
G1 X121.808 Y96.201 E.01676
G1 X139.405 Y113.799 E.78128
G1 X138.871 Y113.799 E.01676
G1 X121.274 Y96.201 E.78128
G1 X120.74 Y96.201 E.01676
M73 P10 R27
G1 X138.337 Y113.799 E.78128
G1 X137.803 Y113.799 E.01676
G1 X120.206 Y96.201 E.78128
G1 X119.672 Y96.201 E.01676
G1 X137.269 Y113.799 E.78128
G1 X136.735 Y113.799 E.01676
G1 X119.138 Y96.201 E.78128
G1 X118.604 Y96.201 E.01676
G1 X136.201 Y113.799 E.78128
G1 X135.667 Y113.799 E.01676
G1 X118.07 Y96.201 E.78128
G1 X117.536 Y96.201 E.01676
G1 X135.133 Y113.799 E.78128
G1 X134.599 Y113.799 E.01676
M73 Q10 S27
G1 X117.002 Y96.201 E.78128
G1 X116.468 Y96.201 E.01676
G1 X134.065 Y113.799 E.78128
G1 X133.532 Y113.799 E.01676
G1 X115.934 Y96.201 E.78128
G1 X115.4 Y96.201 E.01676
G1 X132.998 Y113.799 E.78128
G1 X132.464 Y113.799 E.01676
M73 P11 R27
M73 Q11 S27
G1 X114.867 Y96.201 E.78128
G1 X114.333 Y96.201 E.01676
G1 X131.93 Y113.799 E.78128
G1 X131.396 Y113.799 E.01676
G1 X113.799 Y96.201 E.78128
G1 X113.265 Y96.201 E.01676
G1 X130.862 Y113.799 E.78128
G1 X130.328 Y113.799 E.01676
G1 X112.731 Y96.201 E.78128
G1 X112.197 Y96.201 E.01676
G1 X129.794 Y113.799 E.78128
G1 X129.26 Y113.799 E.01676
G1 X111.663 Y96.201 E.78128
G1 X111.129 Y96.201 E.01676
G1 X128.726 Y113.799 E.78128
G1 X128.192 Y113.799 E.01676
G1 X110.595 Y96.201 E.78128
G1 X110.061 Y96.201 E.01676
G1 X127.658 Y113.799 E.78128
G1 X127.124 Y113.799 E.01676
G1 X109.527 Y96.201 E.78128
G1 X108.993 Y96.201 E.01676
G1 X126.59 Y113.799 E.78128
G1 X126.056 Y113.799 E.01676
G1 X108.459 Y96.201 E.78128
G1 X107.925 Y96.201 E.01676
G1 X125.522 Y113.799 E.78128
G1 X124.988 Y113.799 E.01676
G1 X107.391 Y96.201 E.78128
M73 P12 R27
G1 X106.857 Y96.201 E.01676
M73 Q12 S27
G1 X124.454 Y113.799 E.78128
G1 X123.92 Y113.799 E.01676
G1 X106.323 Y96.201 E.78128
G1 X105.789 Y96.201 E.01676
G1 X123.387 Y113.799 E.78128
G1 X122.853 Y113.799 E.01676
G1 X105.255 Y96.201 E.78128
G1 X104.721 Y96.201 E.01676
G1 X122.319 Y113.799 E.78128
G1 X121.785 Y113.799 E.01676
G1 X104.188 Y96.201 E.78128
G1 X103.654 Y96.201 E.01676
G1 X121.251 Y113.799 E.78128
G1 X120.717 Y113.799 E.01676
G1 X103.12 Y96.201 E.78128
G1 X102.586 Y96.201 E.01676
G1 X120.183 Y113.799 E.78128
G1 X119.649 Y113.799 E.01676
G1 X102.052 Y96.201 E.78128
G1 X101.518 Y96.201 E.01676
G1 X119.115 Y113.799 E.78128
G1 X118.581 Y113.799 E.01676
G1 X100.984 Y96.201 E.78128
G1 X100.45 Y96.201 E.01676
G1 X118.047 Y113.799 E.78128
G1 X117.513 Y113.799 E.01676
G1 X99.916 Y96.201 E.78128
G1 X99.382 Y96.201 E.01676
M73 P13 R27
M73 Q13 S27
G1 X116.979 Y113.799 E.78128
G1 X116.445 Y113.799 E.01676
G1 X98.848 Y96.201 E.78128
G1 X98.314 Y96.201 E.01676
G1 X115.911 Y113.799 E.78128
G1 X115.377 Y113.799 E.01676
G1 X97.78 Y96.201 E.78128
G1 X97.246 Y96.201 E.01676
G1 X114.843 Y113.799 E.78128
G1 X114.309 Y113.799 E.01676
G1 X96.712 Y96.201 E.78128
G1 X96.178 Y96.201 E.01676
G1 X113.775 Y113.799 E.78128
G1 X113.241 Y113.799 E.01676
M73 P13 R26
G1 X95.644 Y96.201 E.78128
G1 X95.11 Y96.201 E.01676
G1 X112.708 Y113.799 E.78128
G1 X112.174 Y113.799 E.01676
G1 X94.576 Y96.201 E.78128
G1 X94.043 Y96.201 E.01676
G1 X111.64 Y113.799 E.78128
G1 X111.106 Y113.799 E.01676
G1 X93.509 Y96.201 E.78128
G1 X92.975 Y96.201 E.01676
G1 X110.572 Y113.799 E.78128
G1 X110.038 Y113.799 E.01676
G1 X92.441 Y96.201 E.78128
G1 X91.907 Y96.201 E.01676
M73 Q13 S26
G1 X109.504 Y113.799 E.78128
G1 X108.97 Y113.799 E.01676
M73 P14 R26
M73 Q14 S26
G1 X91.373 Y96.201 E.78128
G1 X90.839 Y96.201 E.01676
G1 X108.436 Y113.799 E.78128
G1 X107.902 Y113.799 E.01676
G1 X90.305 Y96.201 E.78128
G1 X89.771 Y96.201 E.01676
G1 X107.368 Y113.799 E.78128
G1 X106.834 Y113.799 E.01676
G1 X89.237 Y96.201 E.78128
G1 X88.703 Y96.201 E.01676
G1 X106.3 Y113.799 E.78128
G1 X105.766 Y113.799 E.01676
G1 X88.169 Y96.201 E.78128
G1 X87.635 Y96.201 E.01676
G1 X105.232 Y113.799 E.78128
G1 X104.698 Y113.799 E.01676
G1 X87.101 Y96.201 E.78128
G1 X86.567 Y96.201 E.01676
G1 X104.164 Y113.799 E.78128
G1 X103.63 Y113.799 E.01676
G1 X86.033 Y96.201 E.78128
G1 X85.499 Y96.201 E.01676
G1 X103.096 Y113.799 E.78128
G1 X102.563 Y113.799 E.01676
G1 X84.965 Y96.201 E.78128
G1 X84.431 Y96.201 E.01676
G1 X102.029 Y113.799 E.78128
G1 X101.495 Y113.799 E.01676
M73 P15 R26
G1 X83.897 Y96.201 E.78128
G1 X83.364 Y96.201 E.01676
M73 Q15 S26
G1 X100.961 Y113.799 E.78128
G1 X100.427 Y113.799 E.01676
G1 X82.83 Y96.201 E.78128
G1 X82.296 Y96.201 E.01676
G1 X99.893 Y113.799 E.78128
G1 X99.359 Y113.799 E.01676
G1 X81.762 Y96.201 E.78128
G1 X81.228 Y96.201 E.01676
G1 X98.825 Y113.799 E.78128
G1 X98.291 Y113.799 E.01676
G1 X80.694 Y96.201 E.78128
G1 X80.16 Y96.201 E.01676
G1 X97.757 Y113.799 E.78128
G1 X97.223 Y113.799 E.01676
G1 X79.626 Y96.201 E.78128
G1 X79.092 Y96.201 E.01676
G1 X96.689 Y113.799 E.78128
G1 X96.155 Y113.799 E.01676
G1 X78.558 Y96.201 E.78128
G1 X78.024 Y96.201 E.01676
G1 X95.621 Y113.799 E.78128
G1 X95.087 Y113.799 E.01676
G1 X77.49 Y96.201 E.78128
G1 X76.956 Y96.201 E.01676
G1 X94.553 Y113.799 E.78128
G1 X94.019 Y113.799 E.01676
G1 X76.422 Y96.201 E.78128
G1 X75.888 Y96.201 E.01676
M73 P16 R26
M73 Q16 S26
G1 X93.485 Y113.799 E.78128
G1 X92.951 Y113.799 E.01676
G1 X75.354 Y96.201 E.78128
G1 X74.82 Y96.201 E.01676
G1 X92.417 Y113.799 E.78128
G1 X91.884 Y113.799 E.01676
G1 X74.286 Y96.201 E.78128
G1 X73.752 Y96.201 E.01676
G1 X91.35 Y113.799 E.78128
G1 X90.816 Y113.799 E.01676
G1 X73.218 Y96.201 E.78128
G1 X72.685 Y96.201 E.01676
G1 X90.282 Y113.799 E.78128
G1 X89.748 Y113.799 E.01676
G1 X72.151 Y96.201 E.78128
G1 X71.617 Y96.201 E.01676
G1 X89.214 Y113.799 E.78128
G1 X88.68 Y113.799 E.01676
G1 X71.083 Y96.201 E.78128
G1 X70.549 Y96.201 E.01676
M73 P16 R25
G1 X88.146 Y113.799 E.78128
G1 X87.612 Y113.799 E.01676
G1 X70.015 Y96.201 E.78128
G1 X69.481 Y96.201 E.01676
G1 X87.078 Y113.799 E.78128
G1 X86.544 Y113.799 E.01676
G1 X68.947 Y96.201 E.78128
G1 X68.413 Y96.201 E.01676
