; generated by PrusaSlicer 2.5.0+win64 on 2023-04-26 at 11:40:40 UTC


;
;
; 

; external perimeters extrusion width = 0.60mm
; perimeters extrusion width = 0.50mm
; infill extrusion width = 0.50mm
; solid infill extrusion width = 0.50mm
; top infill extrusion width = 0.45mm
; first layer extrusion width = 0.42mm

M73 P0 R106
M73 Q0 S107
M201 X1000 Y1000 Z200 E5000 ; sets maximum accelerations, mm/sec^2
M203 X200 Y200 Z12 E120 ; sets maximum feedrates, mm / sec
M204 P1250 R1250 T1250 ; sets acceleration (P, T) and retract acceleration (R), mm/sec^2
M205 X8.00 Y8.00 Z0.40 E4.50 ; sets the jerk limits, mm/sec
M205 S0 T0 ; sets the minimum extruding and travel feed rate, mm/sec
M107
;TYPE:Custom
M862.3 P "MK3S" ; printer model check
M862.1 P0.4 ; nozzle diameter check
M115 U3.11.0 ; tell printer latest fw version
G90 ; use absolute coordinates
M83 ; extruder relative mode
M104 S215 ; set extruder temp
M140 S60 ; set bed temp
M190 S60 ; wait for bed temp
M109 S215 ; wait for extruder temp
G28 W ; home all without mesh bed level
G80 ; mesh bed leveling

G1 Z0.2 F720
G1 Y-3 F1000 ; go outside print area
G92 E0
G1 X60 E9 F1000 ; intro line
G1 X100 E12.5 F1000 ; intro line

G92 E0
M221 S95

; Don't change E values below. Excessive value can damage the printer.

M907 E538 ; set extruder motor current
G21 ; set units to millimeters
G90 ; use absolute coordinates
M83 ; use relative distances for extrusion
M900 K0.05 ; Filament gcode LA 1.5
M900 K30 ; Filament gcode LA 1.0
M107
;LAYER_CHANGE
;Z:0.2
;HEIGHT:0.2
;BEFORE_LAYER_CHANGE
G92 E0.0
;0.2


G1 E-.8 F2100
G1 Z.4 F720
;AFTER_LAYER_CHANGE
;0.2
G1 X72.015 Y58.693 F10800
G1 Z.2 F720
G1 E.8 F2100
M204 S800
;TYPE:Skirt/Brim
;WIDTH:0.42
G1 F1200
G1 X73.06 Y57.817 E.04278
G1 X74 Y57.623 E.03008
G1 X176 Y57.623 E3.19814
G1 X177.307 Y58.015 E.04278
G1 X178.183 Y59.06 E.04278
G1 X178.377 Y60 E.03008
G1 X178.377 Y150 E2.82189
G1 X177.985 Y151.307 E.04278
G1 X176.94 Y152.183 E.04278
G1 X176 Y152.377 E.03008
G1 X135 Y152.377 E1.28553
G1 X73.922 Y150.376 E1.91608
G1 X72.629 Y149.942 E.04278
G1 X71.787 Y148.868 E.04278
G1 X71.623 Y148 E.02769
G1 X71.623 Y60 E2.75918
G1 X71.997 Y58.75 E.0409
M204 S1000
; printing object Lukas_Taschenlampe.stl id:0 copy 0
;WIPE_START
G1 F8640
G1 X73.06 Y57.817 E-.32671
G1 X74 Y57.623 E-.22155
G1 X74.917 Y57.623 E-.21174
;WIPE_END
G1 E-.04 F2100
G1 Z.6 F720
G1 X135.787 Y149.213 F10800
G1 Z.2 F720
G1 E.8 F2100
M204 S800
;TYPE:Perimeter
;WIDTH:0.419999
G1 F1200
G1 X135.787 Y60.787 E2.77253
G1 X175.213 Y60.787 E1.23617
M73 Q0 S106
G1 X175.213 Y149.213 E2.77253
G1 X135.847 Y149.213 E1.23429
M204 S1000
M73 P0 R105
G1 X135.41 Y149.59 F10800
M204 S800
;TYPE:External perimeter
G1 F1200
G1 X135.41 Y60.41 E2.79617
G1 X175.59 Y60.41 E1.25981
G1 X175.59 Y149.59 E2.79617
G1 X135.47 Y149.59 E1.25793
M204 S1000
G1 X135.466 Y149.194 F10800
;WIPE_START
G1 F8640
G1 X135.468 Y146.299 E-.76
;WIPE_END
G1 E-.04 F2100
G1 Z.6 F720
G1 X174.337 Y60.9 F10800
G1 Z.2 F720
G1 E.8 F2100
M204 S800
;TYPE:Solid infill
;WIDTH:0.420067
G1 F1200
G1 X174.93 Y61.493 E.02629
G1 X174.93 Y62.026 E.01673
G1 X173.974 Y61.07 E.04242
G1 X173.44 Y61.07 E.01673
G1 X174.93 Y62.56 E.06607
G1 X174.93 Y63.093 E.01673
G1 X172.907 Y61.07 E.08973
G1 X172.374 Y61.07 E.01673
G1 X174.93 Y63.626 E.11338
G1 X174.93 Y64.16 E.01673
G1 X171.84 Y61.07 E.13703
G1 X171.307 Y61.07 E.01673
G1 X174.93 Y64.693 E.16069
G1 X174.93 Y65.226 E.01673
G1 X170.774 Y61.07 E.18434
G1 X170.24 Y61.07 E.01673
G1 X174.93 Y65.76 E.208
G1 X174.93 Y66.293 E.01673
G1 X169.707 Y61.07 E.23165
G1 X169.173 Y61.07 E.01673
G1 X174.93 Y66.827 E.25531
G1 X174.93 Y67.36 E.01673
G1 X168.64 Y61.07 E.27896
G1 X168.107 Y61.07 E.01673
G1 X174.93 Y67.893 E.30262
G1 X174.93 Y68.427 E.01673
G1 X167.573 Y61.07 E.32627
G1 X167.04 Y61.07 E.01673
G1 X174.93 Y68.96 E.34993
G1 X174.93 Y69.493 E.01673
G1 X166.507 Y61.07 E.37358
G1 X165.973 Y61.07 E.01673
G1 X174.93 Y70.027 E.39724
G1 X174.93 Y70.56 E.01673
G1 X165.44 Y61.07 E.42089
G1 X164.906 Y61.07 E.01673
G1 X174.93 Y71.094 E.44454
G1 X174.93 Y71.627 E.01673
G1 X164.373 Y61.07 E.4682
G1 X163.84 Y61.07 E.01673
G1 X174.93 Y72.16 E.49185
G1 X174.93 Y72.694 E.01673
M73 P1 R105
M73 Q1 S106
G1 X163.306 Y61.07 E.51551
G1 X162.773 Y61.07 E.01673
G1 X174.93 Y73.227 E.53916
G1 X174.93 Y73.76 E.01673
G1 X162.24 Y61.07 E.56282
G1 X161.706 Y61.07 E.01673
G1 X174.93 Y74.294 E.58647
G1 X174.93 Y74.827 E.01673
G1 X161.173 Y61.07 E.61013
G1 X160.64 Y61.07 E.01673
G1 X174.93 Y75.36 E.63378
G1 X174.93 Y75.894 E.01673
G1 X160.106 Y61.07 E.65744
G1 X159.573 Y61.07 E.01673
G1 X174.93 Y76.427 E.68109
G1 X174.93 Y76.961 E.01673
G1 X159.039 Y61.07 E.70474
G1 X158.506 Y61.07 E.01673
G1 X174.93 Y77.494 E.7284
G1 X174.93 Y78.027 E.01673
G1 X157.973 Y61.07 E.75205
G1 X157.439 Y61.07 E.01673
G1 X174.93 Y78.561 E.77571
G1 X174.93 Y79.094 E.01673
G1 X156.906 Y61.07 E.79936
G1 X156.373 Y61.07 E.01673
G1 X174.93 Y79.627 E.82302
G1 X174.93 Y80.161 E.01673
G1 X155.839 Y61.07 E.84667
G1 X155.306 Y61.07 E.01673
G1 X174.93 Y80.694 E.87033
G1 X174.93 Y81.227 E.01673
G1 X154.773 Y61.07 E.89398
G1 X154.239 Y61.07 E.01673
G1 X174.93 Y81.761 E.91764
G1 X174.93 Y82.294 E.01673
G1 X153.706 Y61.07 E.94129
G1 X153.172 Y61.07 E.01673
G1 X174.93 Y82.828 E.96495
G1 X174.93 Y83.361 E.01673
G1 X152.639 Y61.07 E.9886
G1 X152.106 Y61.07 E.01673
M73 Q1 S105
G1 X174.93 Y83.894 E1.01225
G1 X174.93 Y84.428 E.01673
G1 X151.572 Y61.07 E1.03591
G1 X151.039 Y61.07 E.01673
G1 X174.93 Y84.961 E1.05956
G1 X174.93 Y85.494 E.01673
G1 X150.506 Y61.07 E1.08322
G1 X149.972 Y61.07 E.01673
M73 P1 R104
G1 X174.93 Y86.028 E1.10687
G1 X174.93 Y86.561 E.01673
G1 X149.439 Y61.07 E1.13053
G1 X148.906 Y61.07 E.01673
G1 X174.93 Y87.094 E1.15418
G1 X174.93 Y87.628 E.01673
G1 X148.372 Y61.07 E1.17784
G1 X147.839 Y61.07 E.01673
G1 X174.93 Y88.161 E1.20149
G1 X174.93 Y88.695 E.01673
G1 X147.305 Y61.07 E1.22515
G1 X146.772 Y61.07 E.01673
G1 X174.93 Y89.228 E1.2488
G1 X174.93 Y89.761 E.01673
G1 X146.239 Y61.07 E1.27245
G1 X145.705 Y61.07 E.01673
G1 X174.93 Y90.295 E1.29611
G1 X174.93 Y90.828 E.01673
G1 X145.172 Y61.07 E1.31976
G1 X144.639 Y61.07 E.01673
G1 X174.93 Y91.361 E1.34342
G1 X174.93 Y91.895 E.01673
G1 X144.105 Y61.07 E1.36707
G1 X143.572 Y61.07 E.01673
G1 X174.93 Y92.428 E1.39073
G1 X174.93 Y92.962 E.01673
G1 X143.038 Y61.07 E1.41438
G1 X142.505 Y61.07 E.01673
G1 X174.93 Y93.495 E1.43804
G1 X174.93 Y94.028 E.01673
M73 P2 R104
G1 X141.972 Y61.07 E1.46169
G1 X141.438 Y61.07 E.01673
M73 Q2 S105
G1 X174.93 Y94.562 E1.48535
G1 X174.93 Y95.095 E.01673
G1 X140.905 Y61.07 E1.509
G1 X140.372 Y61.07 E.01673
G1 X174.93 Y95.628 E1.53266
G1 X174.93 Y96.162 E.01673
G1 X139.838 Y61.07 E1.55631
G1 X139.305 Y61.07 E.01673
G1 X174.93 Y96.695 E1.57996
G1 X174.93 Y97.228 E.01673
G1 X138.772 Y61.07 E1.60362
G1 X138.238 Y61.07 E.01673
G1 X174.93 Y97.762 E1.62727
G1 X174.93 Y98.295 E.01673
G1 X137.705 Y61.07 E1.65093
G1 X137.171 Y61.07 E.01673
M73 Q2 S104
G1 X174.93 Y98.829 E1.67458
G1 X174.93 Y99.362 E.01673
G1 X136.638 Y61.07 E1.69824
G1 X136.105 Y61.07 E.01673
M73 P2 R103
G1 X174.93 Y99.895 E1.72189
G1 X174.93 Y100.429 E.01673
G1 X136.07 Y61.568 E1.72344
G1 X136.07 Y62.102 E.01673
G1 X174.93 Y100.962 E1.72344
G1 X174.93 Y101.495 E.01673
G1 X136.07 Y62.635 E1.72344
G1 X136.07 Y63.168 E.01673
G1 X174.93 Y102.029 E1.72344
G1 X174.93 Y102.562 E.01673
G1 X136.07 Y63.702 E1.72344
G1 X136.07 Y64.235 E.01673
G1 X174.93 Y103.095 E1.72344
G1 X174.93 Y103.629 E.01673
G1 X136.07 Y64.769 E1.72344
G1 X136.07 Y65.302 E.01673
G1 X174.93 Y104.162 E1.72344
G1 X174.93 Y104.696 E.01673
G1 X136.07 Y65.835 E1.72344
G1 X136.07 Y66.369 E.01673
G1 X174.93 Y105.229 E1.72344
G1 X174.93 Y105.762 E.01673
G1 X136.07 Y66.902 E1.72344
G1 X136.07 Y67.435 E.01673
G1 X174.93 Y106.296 E1.72344
G1 X174.93 Y106.829 E.01673
M73 P3 R103
G1 X136.07 Y67.969 E1.72344
G1 X136.07 Y68.502 E.01673
M73 Q3 S104
G1 X174.93 Y107.362 E1.72344
G1 X174.93 Y107.896 E.01673
G1 X136.07 Y69.036 E1.72344
G1 X136.07 Y69.569 E.01673
G1 X174.93 Y108.429 E1.72344
G1 X174.93 Y108.963 E.01673
G1 X136.07 Y70.102 E1.72344
G1 X136.07 Y70.636 E.01673
G1 X174.93 Y109.496 E1.72344
G1 X174.93 Y110.029 E.01673
G1 X136.07 Y71.169 E1.72344
G1 X136.07 Y71.702 E.01673
M73 Q3 S103
G1 X174.93 Y110.563 E1.72344
G1 X174.93 Y111.096 E.01673
G1 X136.07 Y72.236 E1.72344
G1 X136.07 Y72.769 E.01673
M73 P3 R102
G1 X174.93 Y111.629 E1.72344
G1 X174.93 Y112.163 E.01673
G1 X136.07 Y73.302 E1.72344
G1 X136.07 Y73.836 E.01673
G1 X174.93 Y112.696 E1.72344
G1 X174.93 Y113.229 E.01673
G1 X136.07 Y74.369 E1.72344
G1 X136.07 Y74.903 E.01673
G1 X174.93 Y113.763 E1.72344
G1 X174.93 Y114.296 E.01673
G1 X136.07 Y75.436 E1.72344
G1 X136.07 Y75.969 E.01673
G1 X174.93 Y114.83 E1.72344
G1 X174.93 Y115.363 E.01673
G1 X136.07 Y76.503 E1.72344
G1 X136.07 Y77.036 E.01673
G1 X174.93 Y115.896 E1.72344
G1 X174.93 Y116.43 E.01673
G1 X136.07 Y77.569 E1.72344
G1 X136.07 Y78.103 E.01673
G1 X174.93 Y116.963 E1.72344
G1 X174.93 Y117.496 E.01673
G1 X136.07 Y78.636 E1.72344
G1 X136.07 Y79.169 E.01673
G1 X174.93 Y118.03 E1.72344
G1 X174.93 Y118.563 E.01673
G1 X136.07 Y79.703 E1.72344
G1 X136.07 Y80.236 E.01673
M73 P4 R102
G1 X174.93 Y119.096 E1.72344
G1 X174.93 Y119.63 E.01673
M73 Q4 S103
G1 X136.07 Y80.77 E1.72344
G1 X136.07 Y81.303 E.01673
G1 X174.93 Y120.163 E1.72344
G1 X174.93 Y120.697 E.01673
G1 X136.07 Y81.836 E1.72344
G1 X136.07 Y82.37 E.01673
G1 X174.93 Y121.23 E1.72344
G1 X174.93 Y121.763 E.01673
M73 Q4 S102
G1 X136.07 Y82.903 E1.72344
G1 X136.07 Y83.436 E.01673
G1 X174.93 Y122.297 E1.72344
G1 X174.93 Y122.83 E.01673
M73 P4 R101
G1 X136.07 Y83.97 E1.72344
G1 X136.07 Y84.503 E.01673
G1 X174.93 Y123.363 E1.72344
G1 X174.93 Y123.897 E.01673
G1 X136.07 Y85.037 E1.72344
G1 X136.07 Y85.57 E.01673
G1 X174.93 Y124.43 E1.72344
G1 X174.93 Y124.964 E.01673
G1 X136.07 Y86.103 E1.72344
G1 X136.07 Y86.637 E.01673
G1 X174.93 Y125.497 E1.72344
G1 X174.93 Y126.03 E.01673
G1 X136.07 Y87.17 E1.72344
G1 X136.07 Y87.703 E.01673
G1 X174.93 Y126.564 E1.72344
G1 X174.93 Y127.097 E.01673
G1 X136.07 Y88.237 E1.72344
G1 X136.07 Y88.77 E.01673
G1 X174.93 Y127.63 E1.72344
G1 X174.93 Y128.164 E.01673
G1 X136.07 Y89.303 E1.72344
G1 X136.07 Y89.837 E.01673
G1 X174.93 Y128.697 E1.72344
G1 X174.93 Y129.23 E.01673
G1 X136.07 Y90.37 E1.72344
G1 X136.07 Y90.904 E.01673
G1 X174.93 Y129.764 E1.72344
G1 X174.93 Y130.297 E.01673
G1 X136.07 Y91.437 E1.72344
G1 X136.07 Y91.97 E.01673
G1 X174.93 Y130.831 E1.72344
G1 X174.93 Y131.364 E.01673
M73 P5 R101
G1 X136.07 Y92.504 E1.72344
G1 X136.07 Y93.037 E.01673
M73 Q5 S102
G1 X174.93 Y131.897 E1.72344
G1 X174.93 Y132.431 E.01673
G1 X136.07 Y93.57 E1.72344
G1 X136.07 Y94.104 E.01673
G1 X174.93 Y132.964 E1.72344
G1 X174.93 Y133.497 E.01673
M73 Q5 S101
G1 X136.07 Y94.637 E1.72344
G1 X136.07 Y95.17 E.01673
G1 X174.93 Y134.031 E1.72344
G1 X174.93 Y134.564 E.01673
M73 P5 R100
G1 X136.07 Y95.704 E1.72344
G1 X136.07 Y96.237 E.01673
G1 X174.93 Y135.097 E1.72344
G1 X174.93 Y135.631 E.01673
G1 X136.07 Y96.771 E1.72344
G1 X136.07 Y97.304 E.01673
G1 X174.93 Y136.164 E1.72344
G1 X174.93 Y136.698 E.01673
G1 X136.07 Y97.837 E1.72344
G1 X136.07 Y98.371 E.01673
G1 X174.93 Y137.231 E1.72344
G1 X174.93 Y137.764 E.01673
G1 X136.07 Y98.904 E1.72344
G1 X136.07 Y99.437 E.01673
G1 X174.93 Y138.298 E1.72344
G1 X174.93 Y138.831 E.01673
G1 X136.07 Y99.971 E1.72344
G1 X136.07 Y100.504 E.01673
G1 X174.93 Y139.364 E1.72344
G1 X174.93 Y139.898 E.01673
G1 X136.07 Y101.038 E1.72344
G1 X136.07 Y101.571 E.01673
G1 X174.93 Y140.431 E1.72344
G1 X174.93 Y140.965 E.01673
G1 X136.07 Y102.104 E1.72344
G1 X136.07 Y102.638 E.01673
G1 X174.93 Y141.498 E1.72344
G1 X174.93 Y142.031 E.01673
G1 X136.07 Y103.171 E1.72344
G1 X136.07 Y103.704 E.01673
G1 X174.93 Y142.565 E1.72344
G1 X174.93 Y143.098 E.01673
G1 X136.07 Y104.238 E1.72344
G1 X136.07 Y104.771 E.01673
M73 P6 R100
G1 X174.93 Y143.631 E1.72344
G1 X174.93 Y144.165 E.01673
M73 Q6 S101
G1 X136.07 Y105.304 E1.72344
G1 X136.07 Y105.838 E.01673
M73 Q6 S100
G1 X174.93 Y144.698 E1.72344
G1 X174.93 Y145.231 E.01673
G1 X136.07 Y106.371 E1.72344
G1 X136.07 Y106.905 E.01673
G1 X174.93 Y145.765 E1.72344
G1 X174.93 Y146.298 E.01673
M73 P6 R99
G1 X136.07 Y107.438 E1.72344
G1 X136.07 Y107.971 E.01673
G1 X174.93 Y146.832 E1.72344
G1 X174.93 Y147.365 E.01673
G1 X136.07 Y108.505 E1.72344
G1 X136.07 Y109.038 E.01673
G1 X174.93 Y147.898 E1.72344
G1 X174.93 Y148.432 E.01673
G1 X136.07 Y109.571 E1.72344
G1 X136.07 Y110.105 E.01673
G1 X174.895 Y148.93 E1.72189
G1 X174.362 Y148.93 E.01673
G1 X136.07 Y110.638 E1.69824
G1 X136.07 Y111.171 E.01673
G1 X173.829 Y148.93 E1.67458
G1 X173.295 Y148.93 E.01673
G1 X136.07 Y111.705 E1.65093
G1 X136.07 Y112.238 E.01673
G1 X172.762 Y148.93 E1.62727
G1 X172.228 Y148.93 E.01673
G1 X136.07 Y112.772 E1.60362
G1 X136.07 Y113.305 E.01673
G1 X171.695 Y148.93 E1.57996
G1 X171.162 Y148.93 E.01673
G1 X136.07 Y113.838 E1.55631
G1 X136.07 Y114.372 E.01673
G1 X170.628 Y148.93 E1.53265
G1 X170.095 Y148.93 E.01673
G1 X136.07 Y114.905 E1.509
G1 X136.07 Y115.438 E.01673
G1 X169.562 Y148.93 E1.48535
G1 X169.028 Y148.93 E.01673
G1 X136.07 Y115.972 E1.46169
G1 X136.07 Y116.505 E.01673
G1 X168.495 Y148.93 E1.43804
G1 X167.962 Y148.93 E.01673
G1 X136.07 Y117.038 E1.41438
G1 X136.07 Y117.572 E.01673
M73 P7 R99
G1 X167.428 Y148.93 E1.39073
G1 X166.895 Y148.93 E.01673
M73 Q6 S99
G1 X136.07 Y118.105 E1.36707
G1 X136.07 Y118.639 E.01673
M73 Q7 S99
G1 X166.361 Y148.93 E1.34342
G1 X165.828 Y148.93 E.01673
G1 X136.07 Y119.172 E1.31976
G1 X136.07 Y119.705 E.01673
M73 P7 R98
G1 X165.295 Y148.93 E1.29611
G1 X164.761 Y148.93 E.01673
G1 X136.07 Y120.239 E1.27245
G1 X136.07 Y120.772 E.01673
G1 X164.228 Y148.93 E1.2488
G1 X163.695 Y148.93 E.01673
G1 X136.07 Y121.305 E1.22514
G1 X136.07 Y121.839 E.01673
G1 X163.161 Y148.93 E1.20149
G1 X162.628 Y148.93 E.01673
G1 X136.07 Y122.372 E1.17784
G1 X136.07 Y122.906 E.01673
G1 X162.094 Y148.93 E1.15418
G1 X161.561 Y148.93 E.01673
G1 X136.07 Y123.439 E1.13053
G1 X136.07 Y123.972 E.01673
G1 X161.028 Y148.93 E1.10687
G1 X160.494 Y148.93 E.01673
G1 X136.07 Y124.506 E1.08322
G1 X136.07 Y125.039 E.01673
G1 X159.961 Y148.93 E1.05956
G1 X159.428 Y148.93 E.01673
G1 X136.07 Y125.572 E1.03591
G1 X136.07 Y126.106 E.01673
G1 X158.894 Y148.93 E1.01225
G1 X158.361 Y148.93 E.01673
G1 X136.07 Y126.639 E.9886
G1 X136.07 Y127.172 E.01673
G1 X157.828 Y148.93 E.96494
G1 X157.294 Y148.93 E.01673
G1 X136.07 Y127.706 E.94129
G1 X136.07 Y128.239 E.01673
G1 X156.761 Y148.93 E.91764
G1 X156.227 Y148.93 E.01673
G1 X136.07 Y128.773 E.89398
G1 X136.07 Y129.306 E.01673
G1 X155.694 Y148.93 E.87033
G1 X155.161 Y148.93 E.01673
G1 X136.07 Y129.839 E.84667
G1 X136.07 Y130.373 E.01673
G1 X154.627 Y148.93 E.82302
G1 X154.094 Y148.93 E.01673
G1 X136.07 Y130.906 E.79936
G1 X136.07 Y131.439 E.01673
G1 X153.561 Y148.93 E.77571
G1 X153.027 Y148.93 E.01673
G1 X136.07 Y131.973 E.75205
G1 X136.07 Y132.506 E.01673
G1 X152.494 Y148.93 E.7284
G1 X151.961 Y148.93 E.01673
G1 X136.07 Y133.039 E.70474
G1 X136.07 Y133.573 E.01673
G1 X151.427 Y148.93 E.68109
G1 X150.894 Y148.93 E.01673
G1 X136.07 Y134.106 E.65743
G1 X136.07 Y134.64 E.01673
G1 X150.36 Y148.93 E.63378
G1 X149.827 Y148.93 E.01673
G1 X136.07 Y135.173 E.61013
G1 X136.07 Y135.706 E.01673
G1 X149.294 Y148.93 E.58647
G1 X148.76 Y148.93 E.01673
G1 X136.07 Y136.24 E.56282
G1 X136.07 Y136.773 E.01673
G1 X148.227 Y148.93 E.53916
G1 X147.694 Y148.93 E.01673
G1 X136.07 Y137.306 E.51551
G1 X136.07 Y137.84 E.01673
G1 X147.16 Y148.93 E.49185
G1 X146.627 Y148.93 E.01673
G1 X136.07 Y138.373 E.4682
G1 X136.07 Y138.907 E.01673
G1 X146.093 Y148.93 E.44454
G1 X145.56 Y148.93 E.01673
M73 Q7 S98
G1 X136.07 Y139.44 E.42089
G1 X136.07 Y139.973 E.01673
G1 X145.027 Y148.93 E.39723
G1 X144.493 Y148.93 E.01673
G1 X136.07 Y140.507 E.37358
G1 X136.07 Y141.04 E.01673
M73 P8 R98
G1 X143.96 Y148.93 E.34993
G1 X143.427 Y148.93 E.01673
G1 X136.07 Y141.573 E.32627
G1 X136.07 Y142.107 E.01673
G1 X142.893 Y148.93 E.30262
G1 X142.36 Y148.93 E.01673
G1 X136.07 Y142.64 E.27896
G1 X136.07 Y143.173 E.01673
G1 X141.827 Y148.93 E.25531
G1 X141.293 Y148.93 E.01673
G1 X136.07 Y143.707 E.23165
