; generated by PrusaSlicer 2.5.0+win64 on 2023-04-27 at 06:29:46 UTC


;
;
; 

; external perimeters extrusion width = 0.60mm
; perimeters extrusion width = 0.50mm
; infill extrusion width = 0.50mm
; solid infill extrusion width = 0.50mm
; top infill extrusion width = 0.45mm
; first layer extrusion width = 0.42mm

M73 P0 R107
M73 Q0 S108
M201 X1000 Y1000 Z200 E5000 ; sets maximum accelerations, mm/sec^2
M203 X200 Y200 Z12 E120 ; sets maximum feedrates, mm / sec
M204 P1250 R1250 T1250 ; sets acceleration (P, T) and retract acceleration (R), mm/sec^2
M205 X8.00 Y8.00 Z0.40 E4.50 ; sets the jerk limits, mm/sec
M205 S0 T0 ; sets the minimum extruding and travel feed rate, mm/sec
M107
;TYPE:Custom
M862.3 P "MK3S" ; printer model check
M862.1 P0.4 ; nozzle diameter check
M115 U3.11.0 ; tell printer latest fw version
G90 ; use absolute coordinates
M83 ; extruder relative mode
M104 S215 ; set extruder temp
M140 S60 ; set bed temp
M190 S60 ; wait for bed temp
M109 S215 ; wait for extruder temp
G28 W ; home all without mesh bed level
G80 ; mesh bed leveling

G1 Z0.2 F720
G1 Y-3 F1000 ; go outside print area
G92 E0
G1 X60 E9 F1000 ; intro line
G1 X100 E12.5 F1000 ; intro line

G92 E0
M221 S95

; Don't change E values below. Excessive value can damage the printer.

M907 E538 ; set extruder motor current
G21 ; set units to millimeters
G90 ; use absolute coordinates
M83 ; use relative distances for extrusion
M900 K0.05 ; Filament gcode LA 1.5
M900 K30 ; Filament gcode LA 1.0
M107
;LAYER_CHANGE
;Z:0.2
;HEIGHT:0.2
;BEFORE_LAYER_CHANGE
G92 E0.0
;0.2


G1 E-.8 F2100
G1 Z.4 F720
;AFTER_LAYER_CHANGE
;0.2
G1 X74.015 Y56.693 F10800
G1 Z.2 F720
G1 E.8 F2100
M204 S800
;TYPE:Skirt/Brim
;WIDTH:0.42
G1 F1200
G1 X75.06 Y55.817 E.04278
G1 X76 Y55.623 E.03008
G1 X117.042 Y55.623 E1.28683
G1 X174.042 Y56.623 E1.78747
G1 X175.342 Y57.038 E.04278
G1 X176.2 Y58.099 E.04278
G1 X176.377 Y59 E.0288
G1 X176.377 Y149 E2.82189
G1 X175.985 Y150.307 E.04278
G1 X174.94 Y151.183 E.04278
G1 X174.125 Y151.374 E.02624
G1 X117 Y154.377 E1.79359
G1 X76 Y154.377 E1.28553
G1 X74.693 Y153.985 E.04278
G1 X73.817 Y152.94 E.04278
G1 X73.623 Y152 E.03008
G1 X73.623 Y58 E2.9473
G1 X73.997 Y56.75 E.0409
M204 S1000
; printing object Lukas_Taschenlampe2.stl id:0 copy 0
;WIPE_START
G1 F8640
G1 X75.06 Y55.817 E-.32671
G1 X76 Y55.623 E-.22155
G1 X76.917 Y55.623 E-.21174
;WIPE_END
G1 E-.04 F2100
G1 Z.6 F720
G1 X116.213 Y151.213 F10800
G1 Z.2 F720
G1 E.8 F2100
M204 S800
;TYPE:Perimeter
;WIDTH:0.419999
G1 F1200
G1 X76.787 Y151.213 E1.23617
G1 X76.787 Y58.787 E2.89794
G1 X116.213 Y58.787 E1.23617
M73 Q0 S107
G1 X116.213 Y151.153 E2.89606
M204 S1000
G1 X116.59 Y151.59 F10800
M204 S800
;TYPE:External perimeter
G1 F1200
G1 X76.41 Y151.59 E1.25981
G1 X76.41 Y58.41 E2.92159
G1 X116.59 Y58.41 E1.25981
M73 P0 R106
G1 X116.59 Y151.53 E2.91971
M204 S1000
G1 X116.22 Y151.439 F10800
;WIPE_START
G1 F8640
G1 X113.299 Y151.535 E-.76
;WIPE_END
G1 E-.04 F2100
G1 Z.6 F720
G1 X115.336 Y58.9 F10800
G1 Z.2 F720
G1 E.8 F2100
M204 S800
;TYPE:Solid infill
;WIDTH:0.420833
G1 F1200
G1 X115.93 Y59.495 E.02641
G1 X115.93 Y60.029 E.01679
G1 X114.971 Y59.07 E.04262
G1 X114.437 Y59.07 E.01679
G1 X115.93 Y60.563 E.06637
G1 X115.93 Y61.098 E.01679
G1 X113.902 Y59.07 E.09012
G1 X113.368 Y59.07 E.01679
G1 X115.93 Y61.632 E.11388
G1 X115.93 Y62.167 E.01679
G1 X112.833 Y59.07 E.13763
G1 X112.299 Y59.07 E.01679
G1 X115.93 Y62.701 E.16138
G1 X115.93 Y63.236 E.01679
G1 X111.764 Y59.07 E.18513
G1 X111.23 Y59.07 E.01679
G1 X115.93 Y63.77 E.20888
G1 X115.93 Y64.305 E.01679
G1 X110.695 Y59.07 E.23263
G1 X110.161 Y59.07 E.01679
G1 X115.93 Y64.839 E.25638
G1 X115.93 Y65.373 E.01679
G1 X109.627 Y59.07 E.28013
G1 X109.092 Y59.07 E.01679
G1 X115.93 Y65.908 E.30388
G1 X115.93 Y66.442 E.01679
G1 X108.558 Y59.07 E.32763
G1 X108.023 Y59.07 E.01679
G1 X115.93 Y66.977 E.35138
G1 X115.93 Y67.511 E.01679
G1 X107.489 Y59.07 E.37513
G1 X106.954 Y59.07 E.01679
G1 X115.93 Y68.046 E.39888
G1 X115.93 Y68.58 E.01679
G1 X106.42 Y59.07 E.42264
G1 X105.885 Y59.07 E.01679
G1 X115.93 Y69.115 E.44639
G1 X115.93 Y69.649 E.01679
G1 X105.351 Y59.07 E.47014
G1 X104.816 Y59.07 E.01679
G1 X115.93 Y70.184 E.49389
G1 X115.93 Y70.718 E.01679
M73 P1 R106
M73 Q1 S107
G1 X104.282 Y59.07 E.51764
G1 X103.748 Y59.07 E.01679
G1 X115.93 Y71.252 E.54139
G1 X115.93 Y71.787 E.01679
G1 X103.213 Y59.07 E.56514
G1 X102.679 Y59.07 E.01679
G1 X115.93 Y72.321 E.58889
G1 X115.93 Y72.856 E.01679
G1 X102.144 Y59.07 E.61264
G1 X101.61 Y59.07 E.01679
G1 X115.93 Y73.39 E.63639
G1 X115.93 Y73.925 E.01679
G1 X101.075 Y59.07 E.66014
G1 X100.541 Y59.07 E.01679
G1 X115.93 Y74.459 E.68389
G1 X115.93 Y74.994 E.01679
G1 X100.006 Y59.07 E.70764
G1 X99.472 Y59.07 E.01679
G1 X115.93 Y75.528 E.7314
G1 X115.93 Y76.062 E.01679
G1 X98.938 Y59.07 E.75515
G1 X98.403 Y59.07 E.01679
G1 X115.93 Y76.597 E.7789
G1 X115.93 Y77.131 E.01679
G1 X97.869 Y59.07 E.80265
G1 X97.334 Y59.07 E.01679
G1 X115.93 Y77.666 E.8264
G1 X115.93 Y78.2 E.01679
G1 X96.8 Y59.07 E.85015
G1 X96.265 Y59.07 E.01679
G1 X115.93 Y78.735 E.8739
G1 X115.93 Y79.269 E.01679
G1 X95.731 Y59.07 E.89765
G1 X95.196 Y59.07 E.01679
G1 X115.93 Y79.804 E.9214
G1 X115.93 Y80.338 E.01679
G1 X94.662 Y59.07 E.94515
G1 X94.127 Y59.07 E.01679
G1 X115.93 Y80.873 E.9689
G1 X115.93 Y81.407 E.01679
G1 X93.593 Y59.07 E.99265
G1 X93.059 Y59.07 E.01679
M73 Q1 S106
G1 X115.93 Y81.941 E1.0164
G1 X115.93 Y82.476 E.01679
G1 X92.524 Y59.07 E1.04016
G1 X91.99 Y59.07 E.01679
G1 X115.93 Y83.01 E1.06391
G1 X115.93 Y83.545 E.01679
G1 X91.455 Y59.07 E1.08766
G1 X90.921 Y59.07 E.01679
G1 X115.93 Y84.079 E1.11141
G1 X115.93 Y84.614 E.01679
G1 X90.386 Y59.07 E1.13516
G1 X89.852 Y59.07 E.01679
G1 X115.93 Y85.148 E1.15891
G1 X115.93 Y85.683 E.01679
G1 X89.317 Y59.07 E1.18266
G1 X88.783 Y59.07 E.01679
M73 P1 R105
G1 X115.93 Y86.217 E1.20641
G1 X115.93 Y86.751 E.01679
G1 X88.249 Y59.07 E1.23016
G1 X87.714 Y59.07 E.01679
G1 X115.93 Y87.286 E1.25391
G1 X115.93 Y87.82 E.01679
G1 X87.18 Y59.07 E1.27766
G1 X86.645 Y59.07 E.01679
G1 X115.93 Y88.355 E1.30141
G1 X115.93 Y88.889 E.01679
G1 X86.111 Y59.07 E1.32516
G1 X85.576 Y59.07 E.01679
G1 X115.93 Y89.424 E1.34892
G1 X115.93 Y89.958 E.01679
G1 X85.042 Y59.07 E1.37267
G1 X84.507 Y59.07 E.01679
G1 X115.93 Y90.493 E1.39642
G1 X115.93 Y91.027 E.01679
G1 X83.973 Y59.07 E1.42017
G1 X83.438 Y59.07 E.01679
G1 X115.93 Y91.562 E1.44392
G1 X115.93 Y92.096 E.01679
G1 X82.904 Y59.07 E1.46767
G1 X82.37 Y59.07 E.01679
M73 P2 R105
M73 Q2 S106
G1 X115.93 Y92.63 E1.49142
G1 X115.93 Y93.165 E.01679
G1 X81.835 Y59.07 E1.51517
G1 X81.301 Y59.07 E.01679
G1 X115.93 Y93.699 E1.53892
G1 X115.93 Y94.234 E.01679
G1 X80.766 Y59.07 E1.56267
G1 X80.232 Y59.07 E.01679
G1 X115.93 Y94.768 E1.58642
G1 X115.93 Y95.303 E.01679
G1 X79.697 Y59.07 E1.61017
G1 X79.163 Y59.07 E.01679
G1 X115.93 Y95.837 E1.63392
G1 X115.93 Y96.372 E.01679
G1 X78.628 Y59.07 E1.65768
G1 X78.094 Y59.07 E.01679
M73 Q2 S105
G1 X115.93 Y96.906 E1.68143
G1 X115.93 Y97.44 E.01679
G1 X77.56 Y59.07 E1.70518
G1 X77.07 Y59.07 E.01539
G1 X77.07 Y59.115 E.00141
G1 X115.93 Y97.975 E1.72694
G1 X115.93 Y98.509 E.01679
G1 X77.07 Y59.649 E1.72694
G1 X77.07 Y60.184 E.01679
G1 X115.93 Y99.044 E1.72694
G1 X115.93 Y99.578 E.01679
M73 P2 R104
G1 X77.07 Y60.718 E1.72694
G1 X77.07 Y61.252 E.01679
G1 X115.93 Y100.113 E1.72694
G1 X115.93 Y100.647 E.01679
G1 X77.07 Y61.787 E1.72694
G1 X77.07 Y62.321 E.01679
G1 X115.93 Y101.182 E1.72694
G1 X115.93 Y101.716 E.01679
G1 X77.07 Y62.856 E1.72694
G1 X77.07 Y63.39 E.01679
G1 X115.93 Y102.251 E1.72694
G1 X115.93 Y102.785 E.01679
G1 X77.07 Y63.925 E1.72694
G1 X77.07 Y64.459 E.01679
G1 X115.93 Y103.319 E1.72694
G1 X115.93 Y103.854 E.01679
G1 X77.07 Y64.994 E1.72694
G1 X77.07 Y65.528 E.01679
G1 X115.93 Y104.388 E1.72694
G1 X115.93 Y104.923 E.01679
G1 X77.07 Y66.062 E1.72694
G1 X77.07 Y66.597 E.01679
M73 P3 R104
M73 Q3 S105
G1 X115.93 Y105.457 E1.72694
G1 X115.93 Y105.992 E.01679
G1 X77.07 Y67.131 E1.72694
G1 X77.07 Y67.666 E.01679
G1 X115.93 Y106.526 E1.72694
G1 X115.93 Y107.061 E.01679
G1 X77.07 Y68.2 E1.72694
G1 X77.07 Y68.735 E.01679
G1 X115.93 Y107.595 E1.72694
G1 X115.93 Y108.129 E.01679
G1 X77.07 Y69.269 E1.72694
G1 X77.07 Y69.804 E.01679
M73 Q3 S104
G1 X115.93 Y108.664 E1.72694
G1 X115.93 Y109.198 E.01679
G1 X77.07 Y70.338 E1.72694
G1 X77.07 Y70.873 E.01679
G1 X115.93 Y109.733 E1.72694
G1 X115.93 Y110.267 E.01679
G1 X77.07 Y71.407 E1.72694
G1 X77.07 Y71.941 E.01679
G1 X115.93 Y110.802 E1.72694
G1 X115.93 Y111.336 E.01679
M73 P3 R103
G1 X77.07 Y72.476 E1.72694
G1 X77.07 Y73.01 E.01679
G1 X115.93 Y111.871 E1.72694
G1 X115.93 Y112.405 E.01679
G1 X77.07 Y73.545 E1.72694
G1 X77.07 Y74.079 E.01679
G1 X115.93 Y112.94 E1.72694
G1 X115.93 Y113.474 E.01679
G1 X77.07 Y74.614 E1.72694
G1 X77.07 Y75.148 E.01679
G1 X115.93 Y114.008 E1.72694
G1 X115.93 Y114.543 E.01679
G1 X77.07 Y75.683 E1.72694
G1 X77.07 Y76.217 E.01679
G1 X115.93 Y115.077 E1.72694
G1 X115.93 Y115.612 E.01679
G1 X77.07 Y76.751 E1.72694
G1 X77.07 Y77.286 E.01679
G1 X115.93 Y116.146 E1.72694
G1 X115.93 Y116.681 E.01679
G1 X77.07 Y77.82 E1.72694
G1 X77.07 Y78.355 E.01679
G1 X115.93 Y117.215 E1.72694
G1 X115.93 Y117.75 E.01679
M73 P4 R103
M73 Q4 S104
G1 X77.07 Y78.889 E1.72694
G1 X77.07 Y79.424 E.01679
G1 X115.93 Y118.284 E1.72694
G1 X115.93 Y118.818 E.01679
G1 X77.07 Y79.958 E1.72694
G1 X77.07 Y80.493 E.01679
G1 X115.93 Y119.353 E1.72694
G1 X115.93 Y119.887 E.01679
M73 Q4 S103
G1 X77.07 Y81.027 E1.72694
G1 X77.07 Y81.562 E.01679
G1 X115.93 Y120.422 E1.72694
G1 X115.93 Y120.956 E.01679
G1 X77.07 Y82.096 E1.72694
G1 X77.07 Y82.63 E.01679
G1 X115.93 Y121.491 E1.72694
G1 X115.93 Y122.025 E.01679
G1 X77.07 Y83.165 E1.72694
G1 X77.07 Y83.699 E.01679
M73 P4 R102
G1 X115.93 Y122.56 E1.72694
G1 X115.93 Y123.094 E.01679
G1 X77.07 Y84.234 E1.72694
G1 X77.07 Y84.768 E.01679
G1 X115.93 Y123.628 E1.72694
G1 X115.93 Y124.163 E.01679
G1 X77.07 Y85.303 E1.72694
G1 X77.07 Y85.837 E.01679
G1 X115.93 Y124.697 E1.72694
G1 X115.93 Y125.232 E.01679
G1 X77.07 Y86.372 E1.72694
G1 X77.07 Y86.906 E.01679
G1 X115.93 Y125.766 E1.72694
G1 X115.93 Y126.301 E.01679
G1 X77.07 Y87.44 E1.72694
G1 X77.07 Y87.975 E.01679
G1 X115.93 Y126.835 E1.72694
G1 X115.93 Y127.37 E.01679
G1 X77.07 Y88.509 E1.72694
G1 X77.07 Y89.044 E.01679
G1 X115.93 Y127.904 E1.72694
G1 X115.93 Y128.439 E.01679
G1 X77.07 Y89.578 E1.72694
G1 X77.07 Y90.113 E.01679
G1 X115.93 Y128.973 E1.72694
G1 X115.93 Y129.507 E.01679
G1 X77.07 Y90.647 E1.72694
G1 X77.07 Y91.182 E.01679
M73 P5 R102
G1 X115.93 Y130.042 E1.72694
G1 X115.93 Y130.576 E.01679
M73 Q5 S103
G1 X77.07 Y91.716 E1.72694
G1 X77.07 Y92.251 E.01679
G1 X115.93 Y131.111 E1.72694
G1 X115.93 Y131.645 E.01679
M73 Q5 S102
G1 X77.07 Y92.785 E1.72694
G1 X77.07 Y93.319 E.01679
G1 X115.93 Y132.18 E1.72694
G1 X115.93 Y132.714 E.01679
G1 X77.07 Y93.854 E1.72694
G1 X77.07 Y94.388 E.01679
G1 X115.93 Y133.249 E1.72694
G1 X115.93 Y133.783 E.01679
G1 X77.07 Y94.923 E1.72694
G1 X77.07 Y95.457 E.01679
M73 P5 R101
G1 X115.93 Y134.317 E1.72694
G1 X115.93 Y134.852 E.01679
G1 X77.07 Y95.992 E1.72694
G1 X77.07 Y96.526 E.01679
G1 X115.93 Y135.386 E1.72694
G1 X115.93 Y135.921 E.01679
G1 X77.07 Y97.061 E1.72694
G1 X77.07 Y97.595 E.01679
G1 X115.93 Y136.455 E1.72694
G1 X115.93 Y136.99 E.01679
G1 X77.07 Y98.129 E1.72694
G1 X77.07 Y98.664 E.01679
G1 X115.93 Y137.524 E1.72694
G1 X115.93 Y138.059 E.01679
G1 X77.07 Y99.198 E1.72694
G1 X77.07 Y99.733 E.01679
G1 X115.93 Y138.593 E1.72694
G1 X115.93 Y139.128 E.01679
G1 X77.07 Y100.267 E1.72694
G1 X77.07 Y100.802 E.01679
G1 X115.93 Y139.662 E1.72694
G1 X115.93 Y140.196 E.01679
G1 X77.07 Y101.336 E1.72694
G1 X77.07 Y101.871 E.01679
G1 X115.93 Y140.731 E1.72694
G1 X115.93 Y141.265 E.01679
G1 X77.07 Y102.405 E1.72694
G1 X77.07 Y102.94 E.01679
G1 X115.93 Y141.8 E1.72694
G1 X115.93 Y142.334 E.01679
M73 P6 R101
G1 X77.07 Y103.474 E1.72694
G1 X77.07 Y104.008 E.01679
M73 Q6 S101
G1 X115.93 Y142.869 E1.72694
G1 X115.93 Y143.403 E.01679
G1 X77.07 Y104.543 E1.72694
G1 X77.07 Y105.077 E.01679
G1 X115.93 Y143.938 E1.72694
G1 X115.93 Y144.472 E.01679
G1 X77.07 Y105.612 E1.72694
G1 X77.07 Y106.146 E.01679
G1 X115.93 Y145.006 E1.72694
G1 X115.93 Y145.541 E.01679
M73 P6 R100
G1 X77.07 Y106.681 E1.72694
G1 X77.07 Y107.215 E.01679
G1 X115.93 Y146.075 E1.72694
G1 X115.93 Y146.61 E.01679
G1 X77.07 Y107.75 E1.72694
G1 X77.07 Y108.284 E.01679
G1 X115.93 Y147.144 E1.72694
G1 X115.93 Y147.679 E.01679
G1 X77.07 Y108.818 E1.72694
G1 X77.07 Y109.353 E.01679
G1 X115.93 Y148.213 E1.72694
G1 X115.93 Y148.748 E.01679
G1 X77.07 Y109.887 E1.72694
G1 X77.07 Y110.422 E.01679
G1 X115.93 Y149.282 E1.72694
G1 X115.93 Y149.817 E.01679
G1 X77.07 Y110.956 E1.72694
G1 X77.07 Y111.491 E.01679
G1 X115.93 Y150.351 E1.72694
G1 X115.93 Y150.885 E.01679
G1 X77.07 Y112.025 E1.72694
G1 X77.07 Y112.56 E.01679
G1 X115.44 Y150.93 E1.70517
G1 X114.906 Y150.93 E.01679
G1 X77.07 Y113.094 E1.68142
G1 X77.07 Y113.629 E.01679
G1 X114.371 Y150.93 E1.65767
G1 X113.837 Y150.93 E.01679
G1 X77.07 Y114.163 E1.63392
G1 X77.07 Y114.697 E.01679
G1 X113.303 Y150.93 E1.61017
G1 X112.768 Y150.93 E.01679
G1 X77.07 Y115.232 E1.58642
G1 X77.07 Y115.766 E.01679
M73 Q6 S100
G1 X112.234 Y150.93 E1.56267
G1 X111.699 Y150.93 E.01679
M73 P7 R100
G1 X77.07 Y116.301 E1.53892
G1 X77.07 Y116.835 E.01679
M73 Q7 S100
G1 X111.165 Y150.93 E1.51517
G1 X110.63 Y150.93 E.01679
G1 X77.07 Y117.37 E1.49142
G1 X77.07 Y117.904 E.01679
G1 X110.096 Y150.93 E1.46767
G1 X109.561 Y150.93 E.01679
M73 P7 R99
G1 X77.07 Y118.439 E1.44391
G1 X77.07 Y118.973 E.01679
G1 X109.027 Y150.93 E1.42016
G1 X108.493 Y150.93 E.01679
G1 X77.07 Y119.507 E1.39641
G1 X77.07 Y120.042 E.01679
G1 X107.958 Y150.93 E1.37266
G1 X107.424 Y150.93 E.01679
G1 X77.07 Y120.576 E1.34891
G1 X77.07 Y121.111 E.01679
G1 X106.889 Y150.93 E1.32516
G1 X106.355 Y150.93 E.01679
G1 X77.07 Y121.645 E1.30141
G1 X77.07 Y122.18 E.01679
G1 X105.82 Y150.93 E1.27766
G1 X105.286 Y150.93 E.01679
G1 X77.07 Y122.714 E1.25391
G1 X77.07 Y123.249 E.01679
G1 X104.751 Y150.93 E1.23016
G1 X104.217 Y150.93 E.01679
G1 X77.07 Y123.783 E1.20641
G1 X77.07 Y124.318 E.01679
G1 X103.682 Y150.93 E1.18266
G1 X103.148 Y150.93 E.01679
G1 X77.07 Y124.852 E1.15891
G1 X77.07 Y125.386 E.01679
G1 X102.614 Y150.93 E1.13515
G1 X102.079 Y150.93 E.01679
G1 X77.07 Y125.921 E1.1114
G1 X77.07 Y126.455 E.01679
G1 X101.545 Y150.93 E1.08765
G1 X101.01 Y150.93 E.01679
G1 X77.07 Y126.99 E1.0639
G1 X77.07 Y127.524 E.01679
G1 X100.476 Y150.93 E1.04015
G1 X99.941 Y150.93 E.01679
G1 X77.07 Y128.059 E1.0164
G1 X77.07 Y128.593 E.01679
G1 X99.407 Y150.93 E.99265
G1 X98.872 Y150.93 E.01679
G1 X77.07 Y129.128 E.9689
G1 X77.07 Y129.662 E.01679
G1 X98.338 Y150.93 E.94515
G1 X97.804 Y150.93 E.01679
G1 X77.07 Y130.196 E.9214
G1 X77.07 Y130.731 E.01679
G1 X97.269 Y150.93 E.89765
G1 X96.735 Y150.93 E.01679
G1 X77.07 Y131.265 E.8739
G1 X77.07 Y131.8 E.01679
M73 Q7 S99
G1 X96.2 Y150.93 E.85015
G1 X95.666 Y150.93 E.01679
G1 X77.07 Y132.334 E.82639
G1 X77.07 Y132.869 E.01679
G1 X95.131 Y150.93 E.80264
G1 X94.597 Y150.93 E.01679
G1 X77.07 Y133.403 E.77889
G1 X77.07 Y133.938 E.01679
G1 X94.062 Y150.93 E.75514
G1 X93.528 Y150.93 E.01679
M73 P8 R99
G1 X77.07 Y134.472 E.73139
G1 X77.07 Y135.007 E.01679
G1 X92.993 Y150.93 E.70764
G1 X92.459 Y150.93 E.01679
M73 Q8 S99
G1 X77.07 Y135.541 E.68389
G1 X77.07 Y136.075 E.01679
G1 X91.925 Y150.93 E.66014
G1 X91.39 Y150.93 E.01679
G1 X77.07 Y136.61 E.63639
G1 X77.07 Y137.144 E.01679
G1 X90.856 Y150.93 E.61264
G1 X90.321 Y150.93 E.01679
M73 P8 R98
G1 X77.07 Y137.679 E.58889
G1 X77.07 Y138.213 E.01679
G1 X89.787 Y150.93 E.56514
G1 X89.252 Y150.93 E.01679
G1 X77.07 Y138.748 E.54139
G1 X77.07 Y139.282 E.01679
G1 X88.718 Y150.93 E.51763
G1 X88.183 Y150.93 E.01679
G1 X77.07 Y139.817 E.49388
G1 X77.07 Y140.351 E.01679
G1 X87.649 Y150.93 E.47013
G1 X87.115 Y150.93 E.01679
G1 X77.07 Y140.885 E.44638
G1 X77.07 Y141.42 E.01679
G1 X86.58 Y150.93 E.42263
G1 X86.046 Y150.93 E.01679
G1 X77.07 Y141.954 E.39888
G1 X77.07 Y142.489 E.01679
G1 X85.511 Y150.93 E.37513
G1 X84.977 Y150.93 E.01679
G1 X77.07 Y143.023 E.35138
G1 X77.07 Y143.558 E.01679
G1 X84.442 Y150.93 E.32763
