; generated by PrusaSlicer 2.4.1+win64 on 2023-04-28 at 10:53:57 UTC


;
;
; 

; external perimeters extrusion width = 0.60mm
; perimeters extrusion width = 0.50mm
; infill extrusion width = 0.50mm
; solid infill extrusion width = 0.50mm
; top infill extrusion width = 0.45mm
; first layer extrusion width = 0.42mm

M73 P0 R95
M73 Q0 S96
M201 X1000 Y1000 Z200 E5000 ; sets maximum accelerations, mm/sec^2
M203 X200 Y200 Z12 E120 ; sets maximum feedrates, mm / sec
M204 P1250 R1250 T1250 ; sets acceleration (P, T) and retract acceleration (R), mm/sec^2
M205 X8.00 Y8.00 Z0.40 E4.50 ; sets the jerk limits, mm/sec
M205 S0 T0 ; sets the minimum extruding and travel feed rate, mm/sec
M107
;TYPE:Custom
M862.3 P "MK3S" ; printer model check
M862.1 P0.4 ; nozzle diameter check
M115 U3.11.0 ; tell printer latest fw version
G90 ; use absolute coordinates
M83 ; extruder relative mode
M104 S215 ; set extruder temp
M140 S60 ; set bed temp
M190 S60 ; wait for bed temp
M109 S215 ; wait for extruder temp
G28 W ; home all without mesh bed level
G80 ; mesh bed leveling

G1 Z0.2 F720
G1 Y-3 F1000 ; go outside print area
G92 E0
G1 X60 E9 F1000 ; intro line
G1 X100 E12.5 F1000 ; intro line

G92 E0
M221 S95

; Don't change E values below. Excessive value can damage the printer.

M907 E538 ; set extruder motor current
G21 ; set units to millimeters
G90 ; use absolute coordinates
M83 ; use relative distances for extrusion
M900 K0.05 ; Filament gcode LA 1.5
M900 K30 ; Filament gcode LA 1.0
M107
;LAYER_CHANGE
;Z:0.2
;HEIGHT:0.2
;BEFORE_LAYER_CHANGE
G92 E0.0
;0.2


G1 E-.8 F2100
G1 Z.4 F720
;AFTER_LAYER_CHANGE
;0.2
G1 X78.515 Y64.694 F10800
G1 Z.2 F720
G1 E.8 F2100
M204 S800
;TYPE:Skirt/Brim
;WIDTH:0.42
G1 F1200
G1 X79.56 Y63.818 E.04278
G1 X80.5 Y63.624 E.03008
G1 X121.648 Y63.629 E1.29017
G1 X169.648 Y66.627 E1.50794
G1 X170.928 Y67.099 E.04278
G1 X171.738 Y68.197 E.04278
G1 X171.877 Y68.999 E.02552
G1 X171.877 Y143.999 E2.35157
G1 X171.485 Y145.306 E.04278
G1 X170.44 Y146.182 E.04278
G1 X169.5 Y146.376 E.03008
G1 X131.5 Y146.376 E1.19146
G1 X80.453 Y145.376 E1.60084
G1 X79.154 Y144.958 E.04278
G1 X78.299 Y143.896 E.04278
G1 X78.123 Y142.999 E.02865
G1 X78.123 Y66.001 E2.41422
G1 X78.497 Y64.751 E.0409
M204 S1000
; printing object Lukas.Taschenlampe_Block_Batterie.stl id:0 copy 0
;WIPE_START
G1 F8640
G1 X79.56 Y63.818 E-.32671
G1 X80.5 Y63.624 E-.22155
G1 X81.417 Y63.624 E-.21174
;WIPE_END
G1 E-.04 F2100
G1 Z.6 F720
G1 X132.287 Y69.786 F10800
G1 Z.2 F720
G1 E.8 F2100
M204 S800
;TYPE:Perimeter
G1 F1200
G1 X168.713 Y69.786 E1.14211
G1 X168.713 Y143.212 E2.30222
M73 Q0 S95
G1 X132.287 Y143.212 E1.14211
G1 X132.287 Y69.846 E2.30033
M204 S1000
G1 X131.91 Y69.409 F10800
M204 S800
;TYPE:External perimeter
G1 F1200
G1 X169.09 Y69.409 E1.16575
G1 X169.09 Y143.589 E2.32586
G1 X131.91 Y143.589 E1.16575
G1 X131.91 Y69.469 E2.32398
M204 S1000
G1 X132.283 Y69.553 F10800
;WIPE_START
G1 F8640
G1 X135.201 Y69.464 E-.76
;WIPE_END
G1 E-.04 F2100
G1 Z.6 F720
G1 X167.836 Y69.899 F10800
G1 Z.2 F720
G1 E.8 F2100
M204 S800
;TYPE:Solid infill
;WIDTH:0.420531
G1 F1200
G1 X168.43 Y70.493 E.02636
G1 X168.43 Y71.027 E.01677
G1 X167.472 Y70.069 E.04254
G1 X166.938 Y70.069 E.01677
G1 X168.43 Y71.561 E.06625
G1 X168.43 Y72.095 E.01677
G1 X166.404 Y70.069 E.08997
G1 X165.87 Y70.069 E.01677
G1 X168.43 Y72.629 E.11368
G1 X168.43 Y73.163 E.01677
G1 X165.336 Y70.069 E.13739
G1 X164.802 Y70.069 E.01677
G1 X168.43 Y73.697 E.16111
G1 X168.43 Y74.231 E.01677
G1 X164.268 Y70.069 E.18482
G1 X163.734 Y70.069 E.01677
G1 X168.43 Y74.765 E.20853
G1 X168.43 Y75.299 E.01677
G1 X163.2 Y70.069 E.23224
G1 X162.666 Y70.069 E.01677
G1 X168.43 Y75.833 E.25596
G1 X168.43 Y76.367 E.01677
G1 X162.132 Y70.069 E.27967
G1 X161.598 Y70.069 E.01677
G1 X168.43 Y76.901 E.30338
G1 X168.43 Y77.435 E.01677
G1 X161.064 Y70.069 E.3271
G1 X160.53 Y70.069 E.01677
G1 X168.43 Y77.969 E.35081
G1 X168.43 Y78.503 E.01677
G1 X159.996 Y70.069 E.37452
G1 X159.462 Y70.069 E.01677
G1 X168.43 Y79.037 E.39823
G1 X168.43 Y79.571 E.01677
G1 X158.928 Y70.069 E.42195
G1 X158.394 Y70.069 E.01677
G1 X168.43 Y80.105 E.44566
G1 X168.43 Y80.639 E.01677
G1 X157.86 Y70.069 E.46937
G1 X157.326 Y70.069 E.01677
G1 X168.43 Y81.173 E.49309
G1 X168.43 Y81.707 E.01677
M73 P0 R94
G1 X156.792 Y70.069 E.5168
G1 X156.258 Y70.069 E.01677
M73 P1 R94
M73 Q1 S95
G1 X168.43 Y82.241 E.54051
G1 X168.43 Y82.775 E.01677
G1 X155.724 Y70.069 E.56422
G1 X155.19 Y70.069 E.01677
G1 X168.43 Y83.309 E.58794
G1 X168.43 Y83.843 E.01677
G1 X154.656 Y70.069 E.61165
G1 X154.122 Y70.069 E.01677
G1 X168.43 Y84.377 E.63536
G1 X168.43 Y84.912 E.01677
G1 X153.587 Y70.069 E.65907
G1 X153.053 Y70.069 E.01677
G1 X168.43 Y85.446 E.68279
G1 X168.43 Y85.98 E.01677
G1 X152.519 Y70.069 E.7065
G1 X151.985 Y70.069 E.01677
G1 X168.43 Y86.514 E.73021
G1 X168.43 Y87.048 E.01677
G1 X151.451 Y70.069 E.75393
G1 X150.917 Y70.069 E.01677
G1 X168.43 Y87.582 E.77764
G1 X168.43 Y88.116 E.01677
G1 X150.383 Y70.069 E.80135
G1 X149.849 Y70.069 E.01677
G1 X168.43 Y88.65 E.82506
G1 X168.43 Y89.184 E.01677
G1 X149.315 Y70.069 E.84878
G1 X148.781 Y70.069 E.01677
G1 X168.43 Y89.718 E.87249
G1 X168.43 Y90.252 E.01677
G1 X148.247 Y70.069 E.8962
G1 X147.713 Y70.069 E.01677
G1 X168.43 Y90.786 E.91992
G1 X168.43 Y91.32 E.01677
G1 X147.179 Y70.069 E.94363
G1 X146.645 Y70.069 E.01677
G1 X168.43 Y91.854 E.96734
G1 X168.43 Y92.388 E.01677
G1 X146.111 Y70.069 E.99105
G1 X145.577 Y70.069 E.01677
G1 X168.43 Y92.922 E1.01477
G1 X168.43 Y93.456 E.01677
G1 X145.043 Y70.069 E1.03848
G1 X144.509 Y70.069 E.01677
M73 Q1 S94
G1 X168.43 Y93.99 E1.06219
G1 X168.43 Y94.524 E.01677
G1 X143.975 Y70.069 E1.08591
G1 X143.441 Y70.069 E.01677
G1 X168.43 Y95.058 E1.10962
G1 X168.43 Y95.592 E.01677
G1 X142.907 Y70.069 E1.13333
G1 X142.373 Y70.069 E.01677
G1 X168.43 Y96.126 E1.15704
G1 X168.43 Y96.66 E.01677
G1 X141.839 Y70.069 E1.18076
G1 X141.305 Y70.069 E.01677
G1 X168.43 Y97.194 E1.20447
G1 X168.43 Y97.728 E.01677
G1 X140.771 Y70.069 E1.22818
G1 X140.237 Y70.069 E.01677
G1 X168.43 Y98.262 E1.2519
G1 X168.43 Y98.796 E.01677
G1 X139.703 Y70.069 E1.27561
G1 X139.169 Y70.069 E.01677
G1 X168.43 Y99.33 E1.29932
G1 X168.43 Y99.864 E.01677
G1 X138.635 Y70.069 E1.32303
G1 X138.101 Y70.069 E.01677
G1 X168.43 Y100.398 E1.34675
G1 X168.43 Y100.932 E.01677
G1 X137.567 Y70.069 E1.37046
G1 X137.033 Y70.069 E.01677
G1 X168.43 Y101.466 E1.39417
G1 X168.43 Y102 E.01677
M73 P2 R94
M73 Q2 S94
G1 X136.499 Y70.069 E1.41789
G1 X135.965 Y70.069 E.01677
M73 P2 R93
G1 X168.43 Y102.534 E1.4416
G1 X168.43 Y103.068 E.01677
G1 X135.431 Y70.069 E1.46531
G1 X134.897 Y70.069 E.01677
G1 X168.43 Y103.602 E1.48902
G1 X168.43 Y104.136 E.01677
G1 X134.363 Y70.069 E1.51274
G1 X133.829 Y70.069 E.01677
G1 X168.43 Y104.67 E1.53645
G1 X168.43 Y105.204 E.01677
G1 X133.295 Y70.069 E1.56016
G1 X132.761 Y70.069 E.01677
G1 X168.43 Y105.738 E1.58388
G1 X168.43 Y106.272 E.01677
G1 X132.57 Y70.412 E1.59235
G1 X132.57 Y70.946 E.01677
G1 X168.43 Y106.806 E1.59235
G1 X168.43 Y107.34 E.01677
G1 X132.57 Y71.48 E1.59235
G1 X132.57 Y72.014 E.01677
G1 X168.43 Y107.874 E1.59235
G1 X168.43 Y108.408 E.01677
G1 X132.57 Y72.548 E1.59235
G1 X132.57 Y73.082 E.01677
M73 Q2 S93
G1 X168.43 Y108.943 E1.59235
G1 X168.43 Y109.477 E.01677
G1 X132.57 Y73.616 E1.59235
G1 X132.57 Y74.15 E.01677
G1 X168.43 Y110.011 E1.59235
G1 X168.43 Y110.545 E.01677
G1 X132.57 Y74.684 E1.59235
G1 X132.57 Y75.218 E.01677
G1 X168.43 Y111.079 E1.59235
G1 X168.43 Y111.613 E.01677
G1 X132.57 Y75.752 E1.59235
G1 X132.57 Y76.286 E.01677
G1 X168.43 Y112.147 E1.59235
G1 X168.43 Y112.681 E.01677
G1 X132.57 Y76.82 E1.59235
G1 X132.57 Y77.354 E.01677
G1 X168.43 Y113.215 E1.59235
G1 X168.43 Y113.749 E.01677
G1 X132.57 Y77.888 E1.59235
G1 X132.57 Y78.422 E.01677
M73 P3 R93
M73 Q3 S93
G1 X168.43 Y114.283 E1.59235
G1 X168.43 Y114.817 E.01677
M73 P3 R92
G1 X132.57 Y78.957 E1.59235
G1 X132.57 Y79.491 E.01677
G1 X168.43 Y115.351 E1.59235
G1 X168.43 Y115.885 E.01677
G1 X132.57 Y80.025 E1.59235
G1 X132.57 Y80.559 E.01677
G1 X168.43 Y116.419 E1.59235
G1 X168.43 Y116.953 E.01677
G1 X132.57 Y81.093 E1.59235
G1 X132.57 Y81.627 E.01677
G1 X168.43 Y117.487 E1.59235
G1 X168.43 Y118.021 E.01677
G1 X132.57 Y82.161 E1.59235
G1 X132.57 Y82.695 E.01677
G1 X168.43 Y118.555 E1.59235
G1 X168.43 Y119.089 E.01677
G1 X132.57 Y83.229 E1.59235
G1 X132.57 Y83.763 E.01677
G1 X168.43 Y119.623 E1.59235
G1 X168.43 Y120.157 E.01677
G1 X132.57 Y84.297 E1.59235
G1 X132.57 Y84.831 E.01677
G1 X168.43 Y120.691 E1.59235
G1 X168.43 Y121.225 E.01677
M73 Q3 S92
G1 X132.57 Y85.365 E1.59235
G1 X132.57 Y85.899 E.01677
G1 X168.43 Y121.759 E1.59235
G1 X168.43 Y122.293 E.01677
G1 X132.57 Y86.433 E1.59235
G1 X132.57 Y86.967 E.01677
G1 X168.43 Y122.827 E1.59235
G1 X168.43 Y123.361 E.01677
G1 X132.57 Y87.501 E1.59235
G1 X132.57 Y88.035 E.01677
G1 X168.43 Y123.895 E1.59235
G1 X168.43 Y124.429 E.01677
G1 X132.57 Y88.569 E1.59235
G1 X132.57 Y89.103 E.01677
G1 X168.43 Y124.963 E1.59235
G1 X168.43 Y125.497 E.01677
G1 X132.57 Y89.637 E1.59235
G1 X132.57 Y90.171 E.01677
M73 P4 R92
M73 Q4 S92
G1 X168.43 Y126.031 E1.59235
G1 X168.43 Y126.565 E.01677
G1 X132.57 Y90.705 E1.59235
G1 X132.57 Y91.239 E.01677
G1 X168.43 Y127.099 E1.59235
G1 X168.43 Y127.633 E.01677
M73 P4 R91
G1 X132.57 Y91.773 E1.59235
G1 X132.57 Y92.307 E.01677
G1 X168.43 Y128.167 E1.59235
G1 X168.43 Y128.701 E.01677
G1 X132.57 Y92.841 E1.59235
G1 X132.57 Y93.375 E.01677
G1 X168.43 Y129.235 E1.59235
G1 X168.43 Y129.769 E.01677
G1 X132.57 Y93.909 E1.59235
G1 X132.57 Y94.443 E.01677
G1 X168.43 Y130.303 E1.59235
G1 X168.43 Y130.837 E.01677
G1 X132.57 Y94.977 E1.59235
G1 X132.57 Y95.511 E.01677
G1 X168.43 Y131.371 E1.59235
G1 X168.43 Y131.905 E.01677
G1 X132.57 Y96.045 E1.59235
G1 X132.57 Y96.579 E.01677
G1 X168.43 Y132.44 E1.59235
G1 X168.43 Y132.974 E.01677
G1 X132.57 Y97.113 E1.59235
G1 X132.57 Y97.647 E.01677
M73 Q4 S91
G1 X168.43 Y133.508 E1.59235
G1 X168.43 Y134.042 E.01677
G1 X132.57 Y98.181 E1.59235
G1 X132.57 Y98.715 E.01677
G1 X168.43 Y134.576 E1.59235
G1 X168.43 Y135.11 E.01677
G1 X132.57 Y99.249 E1.59235
G1 X132.57 Y99.783 E.01677
G1 X168.43 Y135.644 E1.59235
G1 X168.43 Y136.178 E.01677
G1 X132.57 Y100.317 E1.59235
G1 X132.57 Y100.851 E.01677
G1 X168.43 Y136.712 E1.59235
G1 X168.43 Y137.246 E.01677
G1 X132.57 Y101.385 E1.59235
G1 X132.57 Y101.919 E.01677
M73 P5 R91
G1 X168.43 Y137.78 E1.59235
G1 X168.43 Y138.314 E.01677
M73 Q5 S91
G1 X132.57 Y102.453 E1.59235
G1 X132.57 Y102.988 E.01677
G1 X168.43 Y138.848 E1.59235
G1 X168.43 Y139.382 E.01677
G1 X132.57 Y103.522 E1.59235
G1 X132.57 Y104.056 E.01677
M73 P5 R90
G1 X168.43 Y139.916 E1.59235
G1 X168.43 Y140.45 E.01677
G1 X132.57 Y104.59 E1.59235
G1 X132.57 Y105.124 E.01677
G1 X168.43 Y140.984 E1.59235
G1 X168.43 Y141.518 E.01677
G1 X132.57 Y105.658 E1.59235
G1 X132.57 Y106.192 E.01677
G1 X168.43 Y142.052 E1.59235
G1 X168.43 Y142.586 E.01677
G1 X132.57 Y106.726 E1.59235
G1 X132.57 Y107.26 E.01677
G1 X168.239 Y142.929 E1.58387
G1 X167.705 Y142.929 E.01677
G1 X132.57 Y107.794 E1.56016
G1 X132.57 Y108.328 E.01677
G1 X167.171 Y142.929 E1.53645
G1 X166.637 Y142.929 E.01677
G1 X132.57 Y108.862 E1.51273
G1 X132.57 Y109.396 E.01677
G1 X166.103 Y142.929 E1.48902
G1 X165.569 Y142.929 E.01677
G1 X132.57 Y109.93 E1.46531
G1 X132.57 Y110.464 E.01677
M73 Q5 S90
G1 X165.035 Y142.929 E1.44159
G1 X164.501 Y142.929 E.01677
G1 X132.57 Y110.998 E1.41788
G1 X132.57 Y111.532 E.01677
G1 X163.967 Y142.929 E1.39417
G1 X163.433 Y142.929 E.01677
G1 X132.57 Y112.066 E1.37046
G1 X132.57 Y112.6 E.01677
G1 X162.899 Y142.929 E1.34674
G1 X162.365 Y142.929 E.01677
G1 X132.57 Y113.134 E1.32303
G1 X132.57 Y113.668 E.01677
G1 X161.831 Y142.929 E1.29932
G1 X161.297 Y142.929 E.01677
G1 X132.57 Y114.202 E1.2756
G1 X132.57 Y114.736 E.01677
M73 P6 R90
G1 X160.763 Y142.929 E1.25189
G1 X160.229 Y142.929 E.01677
M73 Q6 S90
G1 X132.57 Y115.27 E1.22818
G1 X132.57 Y115.804 E.01677
G1 X159.695 Y142.929 E1.20447
G1 X159.161 Y142.929 E.01677
G1 X132.57 Y116.338 E1.18075
G1 X132.57 Y116.872 E.01677
G1 X158.627 Y142.929 E1.15704
G1 X158.093 Y142.929 E.01677
G1 X132.57 Y117.406 E1.13333
G1 X132.57 Y117.94 E.01677
M73 P6 R89
G1 X157.559 Y142.929 E1.10961
G1 X157.025 Y142.929 E.01677
G1 X132.57 Y118.474 E1.0859
G1 X132.57 Y119.008 E.01677
G1 X156.491 Y142.929 E1.06219
G1 X155.957 Y142.929 E.01677
G1 X132.57 Y119.542 E1.03848
G1 X132.57 Y120.076 E.01677
G1 X155.423 Y142.929 E1.01476
G1 X154.889 Y142.929 E.01677
G1 X132.57 Y120.61 E.99105
G1 X132.57 Y121.144 E.01677
G1 X154.355 Y142.929 E.96734
G1 X153.821 Y142.929 E.01677
G1 X132.57 Y121.678 E.94363
G1 X132.57 Y122.212 E.01677
G1 X153.287 Y142.929 E.91991
G1 X152.753 Y142.929 E.01677
G1 X132.57 Y122.746 E.8962
G1 X132.57 Y123.28 E.01677
G1 X152.219 Y142.929 E.87249
G1 X151.685 Y142.929 E.01677
G1 X132.57 Y123.814 E.84877
G1 X132.57 Y124.348 E.01677
G1 X151.151 Y142.929 E.82506
G1 X150.617 Y142.929 E.01677
G1 X132.57 Y124.882 E.80135
G1 X132.57 Y125.416 E.01677
G1 X150.083 Y142.929 E.77764
G1 X149.549 Y142.929 E.01677
G1 X132.57 Y125.95 E.75392
G1 X132.57 Y126.485 E.01677
G1 X149.014 Y142.929 E.73021
G1 X148.48 Y142.929 E.01677
G1 X132.57 Y127.019 E.7065
G1 X132.57 Y127.553 E.01677
G1 X147.946 Y142.929 E.68278
G1 X147.412 Y142.929 E.01677
G1 X132.57 Y128.087 E.65907
G1 X132.57 Y128.621 E.01677
M73 Q6 S89
G1 X146.878 Y142.929 E.63536
G1 X146.344 Y142.929 E.01677
G1 X132.57 Y129.155 E.61165
G1 X132.57 Y129.689 E.01677
G1 X145.81 Y142.929 E.58793
G1 X145.276 Y142.929 E.01677
G1 X132.57 Y130.223 E.56422
G1 X132.57 Y130.757 E.01677
G1 X144.742 Y142.929 E.54051
G1 X144.208 Y142.929 E.01677
G1 X132.57 Y131.291 E.51679
G1 X132.57 Y131.825 E.01677
G1 X143.674 Y142.929 E.49308
G1 X143.14 Y142.929 E.01677
G1 X132.57 Y132.359 E.46937
G1 X132.57 Y132.893 E.01677
G1 X142.606 Y142.929 E.44566
G1 X142.072 Y142.929 E.01677
G1 X132.57 Y133.427 E.42194
G1 X132.57 Y133.961 E.01677
G1 X141.538 Y142.929 E.39823
G1 X141.004 Y142.929 E.01677
G1 X132.57 Y134.495 E.37452
G1 X132.57 Y135.029 E.01677
G1 X140.47 Y142.929 E.3508
G1 X139.936 Y142.929 E.01677
G1 X132.57 Y135.563 E.32709
G1 X132.57 Y136.097 E.01677
G1 X139.402 Y142.929 E.30338
G1 X138.868 Y142.929 E.01677
G1 X132.57 Y136.631 E.27967
G1 X132.57 Y137.165 E.01677
G1 X138.334 Y142.929 E.25595
G1 X137.8 Y142.929 E.01677
G1 X132.57 Y137.699 E.23224
G1 X132.57 Y138.233 E.01677
G1 X137.266 Y142.929 E.20853
G1 X136.732 Y142.929 E.01677
G1 X132.57 Y138.767 E.18481
G1 X132.57 Y139.301 E.01677
G1 X136.198 Y142.929 E.1611
G1 X135.664 Y142.929 E.01677
G1 X132.57 Y139.835 E.13739
G1 X132.57 Y140.369 E.01677
G1 X135.13 Y142.929 E.11368
G1 X134.596 Y142.929 E.01677
G1 X132.57 Y140.903 E.08996
G1 X132.57 Y141.437 E.01677
G1 X134.062 Y142.929 E.06625
G1 X133.528 Y142.929 E.01677
G1 X132.57 Y141.971 E.04254
G1 X132.57 Y142.505 E.01677
G1 X133.163 Y143.099 E.02636
M204 S1000
;WIPE_START
G1 F8640
G1 X132.57 Y142.505 E-.19385
G1 X132.57 Y141.971 E-.12331
G1 X133.528 Y142.929 E-.31282
G1 X134.062 Y142.929 E-.12331
G1 X134.041 Y142.909 E-.00672
;WIPE_END
G1 E-.04 F2100
G1 Z.6 F720
G1 X120.713 Y142.212 F10800
G1 Z.2 F720
G1 E.8 F2100
M204 S800
;TYPE:Perimeter
;WIDTH:0.42
G1 F1200
G1 X81.287 Y142.212 E1.23617
G1 X81.287 Y66.788 E2.36486
M73 P7 R89
G1 X120.713 Y66.788 E1.23617
M73 Q7 S89
G1 X120.713 Y142.152 E2.36298
M204 S1000
G1 X121.09 Y142.589 F10800
M204 S800
;TYPE:External perimeter
G1 F1200
G1 X80.91 Y142.589 E1.25982
G1 X80.91 Y66.411 E2.38851
G1 X121.09 Y66.411 E1.25982
M73 P7 R88
G1 X121.09 Y142.529 E2.38663
M204 S1000
G1 X120.716 Y142.447 F10800
;WIPE_START
G1 F8640
G1 X117.799 Y142.534 E-.76
;WIPE_END
G1 E-.04 F2100
G1 Z.6 F720
G1 X119.835 Y66.901 F10800
G1 Z.2 F720
G1 E.8 F2100
M204 S800
;TYPE:Solid infill
;WIDTH:0.421164
G1 F1200
G1 X120.43 Y67.496 E.02647
G1 X120.43 Y68.031 E.01682
G1 X119.47 Y67.071 E.04271
G1 X118.935 Y67.071 E.01682
G1 X120.43 Y68.566 E.0665
G1 X120.43 Y69.101 E.01682
G1 X118.4 Y67.071 E.0903
G1 X117.865 Y67.071 E.01682
G1 X120.43 Y69.636 E.11409
G1 X120.43 Y70.171 E.01682
G1 X117.33 Y67.071 E.13788
G1 X116.795 Y67.071 E.01682
G1 X120.43 Y70.706 E.16167
G1 X120.43 Y71.241 E.01682
G1 X116.26 Y67.071 E.18547
