; generated by PrusaSlicer 2.5.2+win64 on 2023-06-22 at 11:39:07 UTC


;
;
; 

; external perimeters extrusion width = 0.45mm
; perimeters extrusion width = 0.45mm
; infill extrusion width = 0.45mm
; solid infill extrusion width = 0.45mm
; top infill extrusion width = 0.40mm
; first layer extrusion width = 0.42mm

M73 P0 R207
M73 Q0 S208
M201 X1000 Y1000 Z200 E5000 ; sets maximum accelerations, mm/sec^2
M203 X200 Y200 Z12 E120 ; sets maximum feedrates, mm / sec
M204 P1250 R1250 T1250 ; sets acceleration (P, T) and retract acceleration (R), mm/sec^2
M205 X8.00 Y8.00 Z0.40 E4.50 ; sets the jerk limits, mm/sec
M205 S0 T0 ; sets the minimum extruding and travel feed rate, mm/sec
M107
;TYPE:Custom
M862.3 P "MK3S" ; printer model check
M862.1 P0.4 ; nozzle diameter check
M115 U3.12.2 ; tell printer latest fw version
G90 ; use absolute coordinates
M83 ; extruder relative mode
M104 S215 ; set extruder temp
M140 S60 ; set bed temp
M190 S60 ; wait for bed temp
M109 S215 ; wait for extruder temp
G28 W ; home all without mesh bed level
G80 ; mesh bed leveling

G1 Z0.2 F720
G1 Y-3 F1000 ; go outside print area
G92 E0
G1 X60 E9 F1000 ; intro line
G1 X100 E12.5 F1000 ; intro line

G92 E0
M221 S95

; Don't change E values below. Excessive value can damage the printer.
M907 E430 ; set extruder motor current
G21 ; set units to millimeters
G90 ; use absolute coordinates
M83 ; use relative distances for extrusion
M900 K0.05 ; Filament gcode LA 1.5
M900 K30 ; Filament gcode LA 1.0
M107
;LAYER_CHANGE
;Z:0.2
;HEIGHT:0.2
;BEFORE_LAYER_CHANGE
G92 E0.0
;0.2


G1 E-.8 F2100
G1 Z.4 F720
;AFTER_LAYER_CHANGE
;0.2
G1 X69.839 Y59.76 F10800
G1 Z.2 F720
G1 E.8 F2100
M204 S800
;TYPE:Skirt/Brim
;WIDTH:0.42
G1 F1200
G1 X70.891 Y58.891 E.04278
G1 X71.816 Y58.703 E.02959
G1 X175.576 Y58.713 E3.25333
G1 X176.883 Y59.105 E.04278
G1 X177.76 Y60.151 E.04278
G1 X177.948 Y60.942 E.02551
G1 X180.872 Y107.771 E1.47115
G1 X180.877 Y148.92 E1.29017
G1 X180.485 Y150.227 E.04278
G1 X179.44 Y151.103 E.04278
G1 X178.5 Y151.297 E.03008
G1 X71.5 Y151.297 E3.35491
G1 X70.193 Y150.905 E.04278
G1 X69.317 Y149.859 E.04278
G1 X69.123 Y148.92 E.03008
G1 X69.123 Y107.903 E1.28603
G1 X69.439 Y61.064 E1.46864
G1 X69.822 Y59.817 E.0409
M204 S1000
; printing object Lukas_Taschenlampe_ AA_Stiwa_Logo.stl id:0 copy 0
;WIPE_START
G1 F8640
G1 X70.891 Y58.891 E-.32671
G1 X71.816 Y58.703 E-.21792
G1 X72.749 Y58.704 E-.21537
;WIPE_END
G1 E-.04 F2100
G1 Z.6 F720
G1 X72.287 Y108.707 F10800
G1 Z.2 F720
G1 E.8 F2100
M204 S800
;TYPE:Perimeter
;WIDTH:0.419999
G1 F1200
G1 X177.713 Y108.707 E3.30555
G1 X177.713 Y148.132 E1.23617
M73 P0 R206
G1 X72.287 Y148.132 E3.30555
G1 X72.287 Y108.767 E1.23429
M204 S1000
G1 X71.91 Y108.329 F10800
M204 S800
;TYPE:External perimeter
G1 F1200
G1 X178.09 Y108.329 E3.32919
G1 X178.09 Y148.51 E1.25981
G1 X71.91 Y148.51 E3.32919
G1 X71.91 Y108.389 E1.25793
M204 S1000
G1 X72.307 Y108.378 F10800
;WIPE_START
G1 F8640
G1 X75.201 Y108.388 E-.76
;WIPE_END
G1 E-.04 F2100
G1 Z.6 F720
G1 X176.78 Y108.876 F10800
G1 Z.2 F720
M73 Q0 S207
G1 E.8 F2100
M204 S800
;TYPE:Solid infill
;WIDTH:0.420694
G1 F1200
G1 X177.374 Y109.47 E.02639
G1 X177.374 Y110.005 E.01678
G1 X176.415 Y109.046 E.04259
G1 X175.881 Y109.046 E.01678
G1 X177.374 Y110.539 E.06632
G1 X177.374 Y111.073 E.01678
G1 X175.346 Y109.046 E.09005
G1 X174.812 Y109.046 E.01678
G1 X177.374 Y111.607 E.11379
G1 X177.374 Y112.142 E.01678
G1 X174.278 Y109.046 E.13752
G1 X173.744 Y109.046 E.01678
G1 X177.374 Y112.676 E.16125
G1 X177.374 Y113.21 E.01678
G1 X173.209 Y109.046 E.18499
G1 X172.675 Y109.046 E.01678
G1 X177.374 Y113.744 E.20872
G1 X177.374 Y114.279 E.01678
G1 X172.141 Y109.046 E.23245
G1 X171.607 Y109.046 E.01678
G1 X177.374 Y114.813 E.25619
G1 X177.374 Y115.347 E.01678
G1 X171.072 Y109.046 E.27992
G1 X170.538 Y109.046 E.01678
G1 X177.374 Y115.881 E.30365
G1 X177.374 Y116.416 E.01678
G1 X170.004 Y109.046 E.32738
G1 X169.47 Y109.046 E.01678
G1 X177.374 Y116.95 E.35112
G1 X177.374 Y117.484 E.01678
G1 X168.935 Y109.046 E.37485
G1 X168.401 Y109.046 E.01678
G1 X177.374 Y118.018 E.39858
G1 X177.374 Y118.553 E.01678
G1 X167.867 Y109.046 E.42232
G1 X167.333 Y109.046 E.01678
G1 X177.374 Y119.087 E.44605
G1 X177.374 Y119.621 E.01678
G1 X166.798 Y109.046 E.46978
G1 X166.264 Y109.046 E.01678
G1 X177.374 Y120.155 E.49352
G1 X177.374 Y120.69 E.01678
G1 X165.73 Y109.046 E.51725
G1 X165.196 Y109.046 E.01678
G1 X177.374 Y121.224 E.54098
G1 X177.374 Y121.758 E.01678
G1 X164.661 Y109.046 E.56472
G1 X164.127 Y109.046 E.01678
G1 X177.374 Y122.292 E.58845
G1 X177.374 Y122.827 E.01678
G1 X163.593 Y109.046 E.61218
G1 X163.059 Y109.046 E.01678
G1 X177.374 Y123.361 E.63592
G1 X177.374 Y123.895 E.01678
G1 X162.524 Y109.046 E.65965
G1 X161.99 Y109.046 E.01678
G1 X177.374 Y124.429 E.68338
G1 X177.374 Y124.964 E.01678
G1 X161.456 Y109.046 E.70712
G1 X160.922 Y109.046 E.01678
G1 X177.374 Y125.498 E.73085
G1 X177.374 Y126.032 E.01678
G1 X160.387 Y109.046 E.75458
G1 X159.853 Y109.046 E.01678
G1 X177.374 Y126.566 E.77832
G1 X177.374 Y127.101 E.01678
G1 X159.319 Y109.046 E.80205
G1 X158.785 Y109.046 E.01678
G1 X177.374 Y127.635 E.82578
G1 X177.374 Y128.169 E.01678
G1 X158.25 Y109.046 E.84952
G1 X157.716 Y109.046 E.01678
G1 X177.374 Y128.703 E.87325
G1 X177.374 Y129.238 E.01678
G1 X157.182 Y109.046 E.89698
G1 X156.648 Y109.046 E.01678
G1 X177.374 Y129.772 E.92072
G1 X177.374 Y130.306 E.01678
G1 X156.113 Y109.046 E.94445
G1 X155.579 Y109.046 E.01678
G1 X177.374 Y130.84 E.96818
G1 X177.374 Y131.375 E.01678
G1 X155.045 Y109.046 E.99192
G1 X154.511 Y109.046 E.01678
M73 P0 R205
G1 X177.374 Y131.909 E1.01565
G1 X177.374 Y132.443 E.01678
G1 X153.976 Y109.046 E1.03938
G1 X153.442 Y109.046 E.01678
G1 X177.374 Y132.977 E1.06312
G1 X177.374 Y133.512 E.01678
G1 X152.908 Y109.046 E1.08685
G1 X152.374 Y109.046 E.01678
G1 X177.374 Y134.046 E1.11058
G1 X177.374 Y134.58 E.01678
G1 X151.839 Y109.046 E1.13432
G1 X151.305 Y109.046 E.01678
G1 X177.374 Y135.114 E1.15805
G1 X177.374 Y135.649 E.01678
G1 X150.771 Y109.046 E1.18178
G1 X150.237 Y109.046 E.01678
G1 X177.374 Y136.183 E1.20552
G1 X177.374 Y136.717 E.01678
G1 X149.702 Y109.046 E1.22925
G1 X149.168 Y109.046 E.01678
G1 X177.374 Y137.251 E1.25298
G1 X177.374 Y137.786 E.01678
G1 X148.634 Y109.046 E1.27672
G1 X148.1 Y109.046 E.01678
G1 X177.374 Y138.32 E1.30045
G1 X177.374 Y138.854 E.01678
M73 Q0 S206
G1 X147.565 Y109.046 E1.32418
G1 X147.031 Y109.046 E.01678
G1 X177.374 Y139.388 E1.34792
G1 X177.374 Y139.923 E.01678
G1 X146.497 Y109.046 E1.37165
G1 X145.963 Y109.046 E.01678
M73 P1 R205
G1 X177.374 Y140.457 E1.39538
G1 X177.374 Y140.991 E.01678
M73 Q1 S206
G1 X145.428 Y109.046 E1.41912
G1 X144.894 Y109.046 E.01678
G1 X177.374 Y141.525 E1.44285
G1 X177.374 Y142.06 E.01678
G1 X144.36 Y109.046 E1.46658
G1 X143.826 Y109.046 E.01678
G1 X177.374 Y142.594 E1.49032
G1 X177.374 Y143.128 E.01678
G1 X143.291 Y109.046 E1.51405
G1 X142.757 Y109.046 E.01678
G1 X177.374 Y143.663 E1.53778
G1 X177.374 Y144.197 E.01678
G1 X142.223 Y109.046 E1.56152
G1 X141.688 Y109.046 E.01678
G1 X177.374 Y144.731 E1.58525
G1 X177.374 Y145.265 E.01678
G1 X141.154 Y109.046 E1.60898
G1 X140.62 Y109.046 E.01678
G1 X177.374 Y145.8 E1.63272
G1 X177.374 Y146.334 E.01678
G1 X140.086 Y109.046 E1.65645
G1 X139.551 Y109.046 E.01678
M73 P1 R204
G1 X177.374 Y146.868 E1.68018
G1 X177.374 Y147.402 E.01678
G1 X139.017 Y109.046 E1.70392
G1 X138.483 Y109.046 E.01678
G1 X177.23 Y147.793 E1.72128
G1 X176.696 Y147.793 E.01678
G1 X137.949 Y109.046 E1.72128
G1 X137.414 Y109.046 E.01678
G1 X176.162 Y147.793 E1.72128
G1 X175.627 Y147.793 E.01678
G1 X136.88 Y109.046 E1.72128
G1 X136.346 Y109.046 E.01678
G1 X175.093 Y147.793 E1.72128
G1 X174.559 Y147.793 E.01678
G1 X135.812 Y109.046 E1.72128
G1 X135.277 Y109.046 E.01678
G1 X174.025 Y147.793 E1.72128
G1 X173.49 Y147.793 E.01678
M73 Q1 S205
G1 X134.743 Y109.046 E1.72128
G1 X134.209 Y109.046 E.01678
G1 X172.956 Y147.793 E1.72128
G1 X172.422 Y147.793 E.01678
G1 X133.675 Y109.046 E1.72128
G1 X133.14 Y109.046 E.01678
G1 X171.888 Y147.793 E1.72128
G1 X171.353 Y147.793 E.01678
G1 X132.606 Y109.046 E1.72128
G1 X132.072 Y109.046 E.01678
G1 X170.819 Y147.793 E1.72128
G1 X170.285 Y147.793 E.01678
G1 X131.538 Y109.046 E1.72128
G1 X131.003 Y109.046 E.01678
G1 X169.751 Y147.793 E1.72128
G1 X169.216 Y147.793 E.01678
G1 X130.469 Y109.046 E1.72128
G1 X129.935 Y109.046 E.01678
G1 X168.682 Y147.793 E1.72128
G1 X168.148 Y147.793 E.01678
G1 X129.401 Y109.046 E1.72128
G1 X128.866 Y109.046 E.01678
G1 X167.614 Y147.793 E1.72128
G1 X167.079 Y147.793 E.01678
M73 P1 R203
G1 X128.332 Y109.046 E1.72128
G1 X127.798 Y109.046 E.01678
G1 X166.545 Y147.793 E1.72128
G1 X166.011 Y147.793 E.01678
G1 X127.264 Y109.046 E1.72128
G1 X126.729 Y109.046 E.01678
G1 X165.477 Y147.793 E1.72128
G1 X164.942 Y147.793 E.01678
G1 X126.195 Y109.046 E1.72128
G1 X125.661 Y109.046 E.01678
G1 X164.408 Y147.793 E1.72128
G1 X163.874 Y147.793 E.01678
G1 X125.127 Y109.046 E1.72128
G1 X124.592 Y109.046 E.01678
G1 X163.34 Y147.793 E1.72128
G1 X162.805 Y147.793 E.01678
G1 X124.058 Y109.046 E1.72128
G1 X123.524 Y109.046 E.01678
M73 Q1 S204
G1 X162.271 Y147.793 E1.72128
G1 X161.737 Y147.793 E.01678
G1 X122.99 Y109.046 E1.72128
G1 X122.455 Y109.046 E.01678
G1 X161.203 Y147.793 E1.72128
G1 X160.668 Y147.793 E.01678
G1 X121.921 Y109.046 E1.72128
G1 X121.387 Y109.046 E.01678
G1 X160.134 Y147.793 E1.72128
G1 X159.6 Y147.793 E.01678
M73 P2 R203
M73 Q2 S204
G1 X120.853 Y109.046 E1.72128
G1 X120.318 Y109.046 E.01678
G1 X159.066 Y147.793 E1.72128
G1 X158.531 Y147.793 E.01678
G1 X119.784 Y109.046 E1.72128
G1 X119.25 Y109.046 E.01678
G1 X157.997 Y147.793 E1.72128
G1 X157.463 Y147.793 E.01678
G1 X118.716 Y109.046 E1.72128
G1 X118.181 Y109.046 E.01678
G1 X156.928 Y147.793 E1.72128
G1 X156.394 Y147.793 E.01678
G1 X117.647 Y109.046 E1.72128
G1 X117.113 Y109.046 E.01678
G1 X155.86 Y147.793 E1.72128
G1 X155.326 Y147.793 E.01678
M73 P2 R202
G1 X116.579 Y109.046 E1.72128
G1 X116.044 Y109.046 E.01678
G1 X154.791 Y147.793 E1.72128
G1 X154.257 Y147.793 E.01678
G1 X115.51 Y109.046 E1.72128
G1 X114.976 Y109.046 E.01678
G1 X153.723 Y147.793 E1.72128
G1 X153.189 Y147.793 E.01678
G1 X114.442 Y109.046 E1.72128
G1 X113.907 Y109.046 E.01678
G1 X152.654 Y147.793 E1.72128
G1 X152.12 Y147.793 E.01678
G1 X113.373 Y109.046 E1.72128
G1 X112.839 Y109.046 E.01678
G1 X151.586 Y147.793 E1.72128
G1 X151.052 Y147.793 E.01678
G1 X112.305 Y109.046 E1.72128
G1 X111.77 Y109.046 E.01678
M73 Q2 S203
G1 X150.517 Y147.793 E1.72128
G1 X149.983 Y147.793 E.01678
G1 X111.236 Y109.046 E1.72128
G1 X110.702 Y109.046 E.01678
G1 X149.449 Y147.793 E1.72128
G1 X148.915 Y147.793 E.01678
G1 X110.168 Y109.046 E1.72128
G1 X109.633 Y109.046 E.01678
G1 X148.38 Y147.793 E1.72128
G1 X147.846 Y147.793 E.01678
G1 X109.099 Y109.046 E1.72128
G1 X108.565 Y109.046 E.01678
G1 X147.312 Y147.793 E1.72128
G1 X146.778 Y147.793 E.01678
G1 X108.031 Y109.046 E1.72128
G1 X107.496 Y109.046 E.01678
G1 X146.243 Y147.793 E1.72128
G1 X145.709 Y147.793 E.01678
G1 X106.962 Y109.046 E1.72128
G1 X106.428 Y109.046 E.01678
G1 X145.175 Y147.793 E1.72128
G1 X144.641 Y147.793 E.01678
G1 X105.894 Y109.046 E1.72128
G1 X105.359 Y109.046 E.01678
G1 X144.106 Y147.793 E1.72128
G1 X143.572 Y147.793 E.01678
M73 P2 R201
G1 X104.825 Y109.046 E1.72128
G1 X104.291 Y109.046 E.01678
G1 X143.038 Y147.793 E1.72128
G1 X142.504 Y147.793 E.01678
G1 X103.757 Y109.046 E1.72128
G1 X103.222 Y109.046 E.01678
G1 X141.969 Y147.793 E1.72128
G1 X141.435 Y147.793 E.01678
G1 X102.688 Y109.046 E1.72128
G1 X102.154 Y109.046 E.01678
G1 X140.901 Y147.793 E1.72128
G1 X140.367 Y147.793 E.01678
G1 X101.62 Y109.046 E1.72128
G1 X101.085 Y109.046 E.01678
G1 X139.832 Y147.793 E1.72128
G1 X139.298 Y147.793 E.01678
G1 X100.551 Y109.046 E1.72128
G1 X100.017 Y109.046 E.01678
M73 Q2 S202
G1 X138.764 Y147.793 E1.72128
G1 X138.23 Y147.793 E.01678
G1 X99.482 Y109.046 E1.72128
G1 X98.948 Y109.046 E.01678
G1 X137.695 Y147.793 E1.72128
G1 X137.161 Y147.793 E.01678
G1 X98.414 Y109.046 E1.72128
G1 X97.88 Y109.046 E.01678
G1 X136.627 Y147.793 E1.72128
G1 X136.093 Y147.793 E.01678
M73 P3 R201
G1 X97.345 Y109.046 E1.72128
G1 X96.811 Y109.046 E.01678
M73 Q3 S202
G1 X135.558 Y147.793 E1.72128
G1 X135.024 Y147.793 E.01678
G1 X96.277 Y109.046 E1.72128
G1 X95.743 Y109.046 E.01678
G1 X134.49 Y147.793 E1.72128
G1 X133.956 Y147.793 E.01678
G1 X95.208 Y109.046 E1.72128
G1 X94.674 Y109.046 E.01678
G1 X133.421 Y147.793 E1.72128
G1 X132.887 Y147.793 E.01678
G1 X94.14 Y109.046 E1.72128
G1 X93.606 Y109.046 E.01678
M73 P3 R200
G1 X132.353 Y147.793 E1.72128
G1 X131.819 Y147.793 E.01678
G1 X93.071 Y109.046 E1.72128
G1 X92.537 Y109.046 E.01678
G1 X131.284 Y147.793 E1.72128
G1 X130.75 Y147.793 E.01678
G1 X92.003 Y109.046 E1.72128
G1 X91.469 Y109.046 E.01678
G1 X130.216 Y147.793 E1.72128
G1 X129.682 Y147.793 E.01678
G1 X90.934 Y109.046 E1.72128
G1 X90.4 Y109.046 E.01678
G1 X129.147 Y147.793 E1.72128
G1 X128.613 Y147.793 E.01678
G1 X89.866 Y109.046 E1.72128
G1 X89.332 Y109.046 E.01678
G1 X128.079 Y147.793 E1.72128
G1 X127.545 Y147.793 E.01678
M73 Q3 S201
G1 X88.797 Y109.046 E1.72128
G1 X88.263 Y109.046 E.01678
G1 X127.01 Y147.793 E1.72128
G1 X126.476 Y147.793 E.01678
G1 X87.729 Y109.046 E1.72128
G1 X87.195 Y109.046 E.01678
G1 X125.942 Y147.793 E1.72128
G1 X125.408 Y147.793 E.01678
G1 X86.66 Y109.046 E1.72128
G1 X86.126 Y109.046 E.01678
G1 X124.873 Y147.793 E1.72128
G1 X124.339 Y147.793 E.01678
G1 X85.592 Y109.046 E1.72128
G1 X85.058 Y109.046 E.01678
G1 X123.805 Y147.793 E1.72128
G1 X123.271 Y147.793 E.01678
G1 X84.523 Y109.046 E1.72128
G1 X83.989 Y109.046 E.01678
G1 X122.736 Y147.793 E1.72128
G1 X122.202 Y147.793 E.01678
G1 X83.455 Y109.046 E1.72128
G1 X82.921 Y109.046 E.01678
G1 X121.668 Y147.793 E1.72128
G1 X121.134 Y147.793 E.01678
G1 X82.386 Y109.046 E1.72128
G1 X81.852 Y109.046 E.01678
M73 P3 R199
G1 X120.599 Y147.793 E1.72128
G1 X120.065 Y147.793 E.01678
G1 X81.318 Y109.046 E1.72128
G1 X80.784 Y109.046 E.01678
G1 X119.531 Y147.793 E1.72128
G1 X118.997 Y147.793 E.01678
G1 X80.249 Y109.046 E1.72128
G1 X79.715 Y109.046 E.01678
G1 X118.462 Y147.793 E1.72128
G1 X117.928 Y147.793 E.01678
G1 X79.181 Y109.046 E1.72128
G1 X78.647 Y109.046 E.01678
G1 X117.394 Y147.793 E1.72128
G1 X116.86 Y147.793 E.01678
G1 X78.112 Y109.046 E1.72128
G1 X77.578 Y109.046 E.01678
G1 X116.325 Y147.793 E1.72128
G1 X115.791 Y147.793 E.01678
M73 Q3 S200
G1 X77.044 Y109.046 E1.72128
G1 X76.51 Y109.046 E.01678
G1 X115.257 Y147.793 E1.72128
G1 X114.723 Y147.793 E.01678
G1 X75.975 Y109.046 E1.72128
G1 X75.441 Y109.046 E.01678
G1 X114.188 Y147.793 E1.72128
G1 X113.654 Y147.793 E.01678
G1 X74.907 Y109.046 E1.72128
G1 X74.373 Y109.046 E.01678
G1 X113.12 Y147.793 E1.72128
G1 X112.585 Y147.793 E.01678
G1 X73.838 Y109.046 E1.72128
G1 X73.304 Y109.046 E.01678
M73 P4 R199
G1 X112.051 Y147.793 E1.72128
G1 X111.517 Y147.793 E.01678
M73 Q4 S200
G1 X72.77 Y109.046 E1.72128
G1 X72.626 Y109.046 E.0045
G1 X72.626 Y109.437 E.01228
G1 X110.983 Y147.793 E1.70391
G1 X110.448 Y147.793 E.01678
G1 X72.626 Y109.971 E1.68018
G1 X72.626 Y110.505 E.01678
G1 X109.914 Y147.793 E1.65645
G1 X109.38 Y147.793 E.01678
M73 P4 R198
G1 X72.626 Y111.04 E1.63271
G1 X72.626 Y111.574 E.01678
G1 X108.846 Y147.793 E1.60898
G1 X108.311 Y147.793 E.01678
G1 X72.626 Y112.108 E1.58525
G1 X72.626 Y112.642 E.01678
G1 X107.777 Y147.793 E1.56151
G1 X107.243 Y147.793 E.01678
G1 X72.626 Y113.177 E1.53778
G1 X72.626 Y113.711 E.01678
G1 X106.709 Y147.793 E1.51405
G1 X106.174 Y147.793 E.01678
G1 X72.626 Y114.245 E1.49032
G1 X72.626 Y114.779 E.01678
G1 X105.64 Y147.793 E1.46658
G1 X105.106 Y147.793 E.01678
G1 X72.626 Y115.314 E1.44285
G1 X72.626 Y115.848 E.01678
G1 X104.572 Y147.793 E1.41912
G1 X104.037 Y147.793 E.01678
G1 X72.626 Y116.382 E1.39538
G1 X72.626 Y116.916 E.01678
M73 Q4 S199
G1 X103.503 Y147.793 E1.37165
G1 X102.969 Y147.793 E.01678
G1 X72.626 Y117.451 E1.34792
G1 X72.626 Y117.985 E.01678
G1 X102.435 Y147.793 E1.32418
G1 X101.9 Y147.793 E.01678
G1 X72.626 Y118.519 E1.30045
G1 X72.626 Y119.053 E.01678
G1 X101.366 Y147.793 E1.27672
G1 X100.832 Y147.793 E.01678
G1 X72.626 Y119.588 E1.25298
G1 X72.626 Y120.122 E.01678
