; generated by PrusaSlicer 2.5.2+win64 on 2023-06-20 at 12:15:13 UTC


;
;
; 

; external perimeters extrusion width = 0.45mm
; perimeters extrusion width = 0.45mm
; infill extrusion width = 0.45mm
; solid infill extrusion width = 0.45mm
; top infill extrusion width = 0.40mm
; first layer extrusion width = 0.42mm

M73 P0 R208
M73 Q0 S210
M201 X1000 Y1000 Z200 E5000 ; sets maximum accelerations, mm/sec^2
M203 X200 Y200 Z12 E120 ; sets maximum feedrates, mm / sec
M204 P1250 R1250 T1250 ; sets acceleration (P, T) and retract acceleration (R), mm/sec^2
M205 X8.00 Y8.00 Z0.40 E4.50 ; sets the jerk limits, mm/sec
M205 S0 T0 ; sets the minimum extruding and travel feed rate, mm/sec
M107
;TYPE:Custom
M862.3 P "MK3S" ; printer model check
M862.1 P0.4 ; nozzle diameter check
M115 U3.12.2 ; tell printer latest fw version
G90 ; use absolute coordinates
M83 ; extruder relative mode
M104 S215 ; set extruder temp
M140 S60 ; set bed temp
M190 S60 ; wait for bed temp
M109 S215 ; wait for extruder temp
G28 W ; home all without mesh bed level
G80 ; mesh bed leveling

G1 Z0.2 F720
G1 Y-3 F1000 ; go outside print area
G92 E0
G1 X60 E9 F1000 ; intro line
G1 X100 E12.5 F1000 ; intro line

G92 E0
M221 S95

; Don't change E values below. Excessive value can damage the printer.
M907 E430 ; set extruder motor current
G21 ; set units to millimeters
G90 ; use absolute coordinates
M83 ; use relative distances for extrusion
M900 K0.05 ; Filament gcode LA 1.5
M900 K30 ; Filament gcode LA 1.0
M107
;LAYER_CHANGE
;Z:0.2
;HEIGHT:0.2
;BEFORE_LAYER_CHANGE
G92 E0.0
;0.2


G1 E-.8 F2100
G1 Z.4 F720
;AFTER_LAYER_CHANGE
;0.2
G1 X69.515 Y56.693 F10800
G1 Z.2 F720
G1 E.8 F2100
M204 S800
;TYPE:Skirt/Brim
;WIDTH:0.42
G1 F1200
G1 X70.56 Y55.817 E.04278
G1 X71.5 Y55.623 E.03008
G1 X178.5 Y55.623 E3.35491
G1 X179.807 Y56.015 E.04278
G1 X180.683 Y57.06 E.04278
G1 X180.877 Y58 E.03008
G1 X180.877 Y99 E1.28553
G1 X178.875 Y152.09 E1.66577
G1 X178.435 Y153.381 E.04278
G1 X177.357 Y154.217 E.04278
G1 X176.5 Y154.377 E.02733
G1 X71.5 Y154.377 E3.2922
G1 X70.193 Y153.985 E.04278
M73 Q0 S209
G1 X69.317 Y152.94 E.04278
G1 X69.123 Y152 E.03008
G1 X69.123 Y58 E2.9473
G1 X69.497 Y56.75 E.0409
M204 S1000
; printing object Lukas_Taschenlampe_ AA_Stiwa_Logo.stl id:0 copy 0
;WIPE_START
G1 F8640
G1 X70.56 Y55.817 E-.32671
G1 X71.5 Y55.623 E-.22155
G1 X72.417 Y55.623 E-.21174
;WIPE_END
G1 E-.04 F2100
G1 Z.6 F720
G1 X175.713 Y114.987 F10800
G1 Z.2 F720
G1 E.8 F2100
M204 S800
;TYPE:Perimeter
;WIDTH:0.419999
G1 F1200
G1 X175.713 Y151.213 E1.13583
G1 X72.287 Y151.213 E3.24284
G1 X72.287 Y114.987 E1.13583
G1 X175.653 Y114.987 E3.24096
M204 S1000
M73 P0 R207
G1 X176.09 Y114.61 F10800
M204 S800
;TYPE:External perimeter
G1 F1200
G1 X176.09 Y151.59 E1.15948
G1 X71.91 Y151.59 E3.26649
G1 X71.91 Y114.61 E1.15948
G1 X176.03 Y114.61 E3.2646
M204 S1000
G1 X175.931 Y114.977 F10800
;WIPE_START
G1 F8640
G1 X176.035 Y117.901 E-.76
;WIPE_END
G1 E-.04 F2100
G1 Z.6 F720
G1 X174.779 Y115.157 F10800
G1 Z.2 F720
G1 E.8 F2100
M204 S800
;TYPE:Solid infill
;WIDTH:0.421081
G1 F1200
G1 X175.374 Y115.752 E.02645
G1 X175.374 Y116.286 E.01682
G1 X174.414 Y115.326 E.04269
G1 X173.879 Y115.326 E.01682
G1 X175.374 Y116.821 E.06647
G1 X175.374 Y117.356 E.01682
G1 X173.344 Y115.326 E.09025
G1 X172.809 Y115.326 E.01682
G1 X175.374 Y117.891 E.11404
G1 X175.374 Y118.426 E.01682
G1 X172.274 Y115.326 E.13782
G1 X171.74 Y115.326 E.01682
G1 X175.374 Y118.96 E.1616
G1 X175.374 Y119.495 E.01682
G1 X171.205 Y115.326 E.18538
G1 X170.67 Y115.326 E.01682
G1 X175.374 Y120.03 E.20916
G1 X175.374 Y120.565 E.01682
G1 X170.135 Y115.326 E.23295
G1 X169.6 Y115.326 E.01682
G1 X175.374 Y121.1 E.25673
G1 X175.374 Y121.634 E.01682
G1 X169.066 Y115.326 E.28051
G1 X168.531 Y115.326 E.01682
G1 X175.374 Y122.169 E.30429
G1 X175.374 Y122.704 E.01682
G1 X167.996 Y115.326 E.32807
G1 X167.461 Y115.326 E.01682
G1 X175.374 Y123.239 E.35186
G1 X175.374 Y123.774 E.01682
G1 X166.926 Y115.326 E.37564
G1 X166.392 Y115.326 E.01682
G1 X175.374 Y124.308 E.39942
G1 X175.374 Y124.843 E.01682
G1 X165.857 Y115.326 E.4232
G1 X165.322 Y115.326 E.01682
G1 X175.374 Y125.378 E.44698
G1 X175.374 Y125.913 E.01682
G1 X164.787 Y115.326 E.47076
G1 X164.252 Y115.326 E.01682
G1 X175.374 Y126.448 E.49455
G1 X175.374 Y126.982 E.01682
G1 X163.718 Y115.326 E.51833
G1 X163.183 Y115.326 E.01682
G1 X175.374 Y127.517 E.54211
G1 X175.374 Y128.052 E.01682
G1 X162.648 Y115.326 E.56589
G1 X162.113 Y115.326 E.01682
G1 X175.374 Y128.587 E.58967
G1 X175.374 Y129.122 E.01682
G1 X161.578 Y115.326 E.61346
G1 X161.044 Y115.326 E.01682
G1 X175.374 Y129.656 E.63724
G1 X175.374 Y130.191 E.01682
G1 X160.509 Y115.326 E.66102
G1 X159.974 Y115.326 E.01682
G1 X175.374 Y130.726 E.6848
G1 X175.374 Y131.261 E.01682
G1 X159.439 Y115.326 E.70858
G1 X158.904 Y115.326 E.01682
G1 X175.374 Y131.796 E.73237
G1 X175.374 Y132.33 E.01682
G1 X158.37 Y115.326 E.75615
G1 X157.835 Y115.326 E.01682
G1 X175.374 Y132.865 E.77993
G1 X175.374 Y133.4 E.01682
M73 Q0 S208
G1 X157.3 Y115.326 E.80371
G1 X156.765 Y115.326 E.01682
G1 X175.374 Y133.935 E.82749
G1 X175.374 Y134.47 E.01682
G1 X156.23 Y115.326 E.85128
G1 X155.696 Y115.326 E.01682
G1 X175.374 Y135.004 E.87506
G1 X175.374 Y135.539 E.01682
G1 X155.161 Y115.326 E.89884
G1 X154.626 Y115.326 E.01682
G1 X175.374 Y136.074 E.92262
G1 X175.374 Y136.609 E.01682
G1 X154.091 Y115.326 E.9464
G1 X153.556 Y115.326 E.01682
G1 X175.374 Y137.144 E.97019
G1 X175.374 Y137.678 E.01682
G1 X153.022 Y115.326 E.99397
G1 X152.487 Y115.326 E.01682
G1 X175.374 Y138.213 E1.01775
G1 X175.374 Y138.748 E.01682
G1 X151.952 Y115.326 E1.04153
G1 X151.417 Y115.326 E.01682
G1 X175.374 Y139.283 E1.06531
G1 X175.374 Y139.818 E.01682
M73 P0 R206
G1 X150.882 Y115.326 E1.0891
G1 X150.348 Y115.326 E.01682
G1 X175.374 Y140.352 E1.11288
G1 X175.374 Y140.887 E.01682
G1 X149.813 Y115.326 E1.13666
G1 X149.278 Y115.326 E.01682
G1 X175.374 Y141.422 E1.16044
G1 X175.374 Y141.957 E.01682
G1 X148.743 Y115.326 E1.18422
G1 X148.208 Y115.326 E.01682
G1 X175.374 Y142.492 E1.20801
G1 X175.374 Y143.026 E.01682
G1 X147.674 Y115.326 E1.23179
G1 X147.139 Y115.326 E.01682
G1 X175.374 Y143.561 E1.25557
G1 X175.374 Y144.096 E.01682
G1 X146.604 Y115.326 E1.27935
G1 X146.069 Y115.326 E.01682
G1 X175.374 Y144.631 E1.30313
G1 X175.374 Y145.166 E.01682
G1 X145.534 Y115.326 E1.32692
G1 X145 Y115.326 E.01682
G1 X175.374 Y145.7 E1.3507
G1 X175.374 Y146.235 E.01682
G1 X144.465 Y115.326 E1.37448
G1 X143.93 Y115.326 E.01682
G1 X175.374 Y146.77 E1.39826
G1 X175.374 Y147.305 E.01682
M73 P1 R206
M73 Q1 S208
G1 X143.395 Y115.326 E1.42204
G1 X142.86 Y115.326 E.01682
G1 X175.374 Y147.84 E1.44583
G1 X175.374 Y148.374 E.01682
G1 X142.326 Y115.326 E1.46961
G1 X141.791 Y115.326 E.01682
G1 X175.374 Y148.909 E1.49339
G1 X175.374 Y149.444 E.01682
G1 X141.256 Y115.326 E1.51717
G1 X140.721 Y115.326 E.01682
G1 X175.374 Y149.979 E1.54095
G1 X175.374 Y150.514 E.01682
M73 Q1 S207
G1 X140.186 Y115.326 E1.56473
G1 X139.652 Y115.326 E.01682
G1 X175.199 Y150.874 E1.58074
G1 X174.664 Y150.874 E.01682
G1 X139.117 Y115.326 E1.58074
G1 X138.582 Y115.326 E.01682
G1 X174.129 Y150.874 E1.58074
G1 X173.594 Y150.874 E.01682
G1 X138.047 Y115.326 E1.58074
G1 X137.512 Y115.326 E.01682
G1 X173.059 Y150.874 E1.58074
G1 X172.525 Y150.874 E.01682
G1 X136.978 Y115.326 E1.58074
G1 X136.443 Y115.326 E.01682
M73 P1 R205
G1 X171.99 Y150.874 E1.58074
G1 X171.455 Y150.874 E.01682
G1 X135.908 Y115.326 E1.58074
G1 X135.373 Y115.326 E.01682
G1 X170.92 Y150.874 E1.58074
G1 X170.385 Y150.874 E.01682
G1 X134.838 Y115.326 E1.58074
G1 X134.304 Y115.326 E.01682
G1 X169.851 Y150.874 E1.58074
G1 X169.316 Y150.874 E.01682
G1 X133.769 Y115.326 E1.58074
G1 X133.234 Y115.326 E.01682
G1 X168.781 Y150.874 E1.58074
G1 X168.246 Y150.874 E.01682
G1 X132.699 Y115.326 E1.58074
G1 X132.164 Y115.326 E.01682
G1 X167.711 Y150.874 E1.58074
G1 X167.177 Y150.874 E.01682
G1 X131.63 Y115.326 E1.58074
G1 X131.095 Y115.326 E.01682
G1 X166.642 Y150.874 E1.58074
G1 X166.107 Y150.874 E.01682
G1 X130.56 Y115.326 E1.58074
G1 X130.025 Y115.326 E.01682
G1 X165.572 Y150.874 E1.58074
G1 X165.037 Y150.874 E.01682
G1 X129.49 Y115.326 E1.58074
G1 X128.956 Y115.326 E.01682
G1 X164.503 Y150.874 E1.58074
G1 X163.968 Y150.874 E.01682
G1 X128.421 Y115.326 E1.58074
G1 X127.886 Y115.326 E.01682
M73 Q1 S206
G1 X163.433 Y150.874 E1.58074
G1 X162.898 Y150.874 E.01682
G1 X127.351 Y115.326 E1.58074
G1 X126.816 Y115.326 E.01682
G1 X162.363 Y150.874 E1.58074
G1 X161.829 Y150.874 E.01682
G1 X126.282 Y115.326 E1.58074
G1 X125.747 Y115.326 E.01682
G1 X161.294 Y150.874 E1.58074
G1 X160.759 Y150.874 E.01682
G1 X125.212 Y115.326 E1.58074
G1 X124.677 Y115.326 E.01682
G1 X160.224 Y150.874 E1.58074
G1 X159.689 Y150.874 E.01682
G1 X124.142 Y115.326 E1.58074
M73 P1 R204
G1 X123.608 Y115.326 E.01682
G1 X159.155 Y150.874 E1.58074
G1 X158.62 Y150.874 E.01682
G1 X123.073 Y115.326 E1.58074
G1 X122.538 Y115.326 E.01682
G1 X158.085 Y150.874 E1.58074
G1 X157.55 Y150.874 E.01682
G1 X122.003 Y115.326 E1.58074
G1 X121.468 Y115.326 E.01682
G1 X157.015 Y150.874 E1.58074
G1 X156.481 Y150.874 E.01682
G1 X120.934 Y115.326 E1.58074
G1 X120.399 Y115.326 E.01682
G1 X155.946 Y150.874 E1.58074
G1 X155.411 Y150.874 E.01682
G1 X119.864 Y115.326 E1.58074
G1 X119.329 Y115.326 E.01682
G1 X154.876 Y150.874 E1.58074
G1 X154.341 Y150.874 E.01682
G1 X118.794 Y115.326 E1.58074
G1 X118.26 Y115.326 E.01682
G1 X153.807 Y150.874 E1.58074
G1 X153.272 Y150.874 E.01682
G1 X117.725 Y115.326 E1.58074
G1 X117.19 Y115.326 E.01682
M73 P2 R204
G1 X152.737 Y150.874 E1.58074
G1 X152.202 Y150.874 E.01682
M73 Q2 S206
G1 X116.655 Y115.326 E1.58074
G1 X116.12 Y115.326 E.01682
G1 X151.667 Y150.874 E1.58074
G1 X151.133 Y150.874 E.01682
G1 X115.586 Y115.326 E1.58074
G1 X115.051 Y115.326 E.01682
M73 Q2 S205
G1 X150.598 Y150.874 E1.58074
G1 X150.063 Y150.874 E.01682
G1 X114.516 Y115.326 E1.58074
G1 X113.981 Y115.326 E.01682
G1 X149.528 Y150.874 E1.58074
G1 X148.993 Y150.874 E.01682
G1 X113.446 Y115.326 E1.58074
G1 X112.912 Y115.326 E.01682
G1 X148.459 Y150.874 E1.58074
G1 X147.924 Y150.874 E.01682
G1 X112.377 Y115.326 E1.58074
G1 X111.842 Y115.326 E.01682
G1 X147.389 Y150.874 E1.58074
G1 X146.854 Y150.874 E.01682
M73 P2 R203
G1 X111.307 Y115.326 E1.58074
G1 X110.772 Y115.326 E.01682
G1 X146.319 Y150.874 E1.58074
G1 X145.785 Y150.874 E.01682
G1 X110.238 Y115.326 E1.58074
G1 X109.703 Y115.326 E.01682
G1 X145.25 Y150.874 E1.58074
G1 X144.715 Y150.874 E.01682
G1 X109.168 Y115.326 E1.58074
G1 X108.633 Y115.326 E.01682
G1 X144.18 Y150.874 E1.58074
G1 X143.645 Y150.874 E.01682
G1 X108.098 Y115.326 E1.58074
G1 X107.564 Y115.326 E.01682
G1 X143.111 Y150.874 E1.58074
G1 X142.576 Y150.874 E.01682
G1 X107.029 Y115.326 E1.58074
G1 X106.494 Y115.326 E.01682
G1 X142.041 Y150.874 E1.58074
G1 X141.506 Y150.874 E.01682
G1 X105.959 Y115.326 E1.58074
G1 X105.424 Y115.326 E.01682
G1 X140.971 Y150.874 E1.58074
G1 X140.437 Y150.874 E.01682
G1 X104.89 Y115.326 E1.58074
G1 X104.355 Y115.326 E.01682
G1 X139.902 Y150.874 E1.58074
G1 X139.367 Y150.874 E.01682
G1 X103.82 Y115.326 E1.58074
G1 X103.285 Y115.326 E.01682
G1 X138.832 Y150.874 E1.58074
G1 X138.297 Y150.874 E.01682
M73 Q2 S204
G1 X102.75 Y115.326 E1.58074
G1 X102.216 Y115.326 E.01682
G1 X137.763 Y150.874 E1.58074
G1 X137.228 Y150.874 E.01682
G1 X101.681 Y115.326 E1.58074
G1 X101.146 Y115.326 E.01682
G1 X136.693 Y150.874 E1.58074
G1 X136.158 Y150.874 E.01682
G1 X100.611 Y115.326 E1.58074
G1 X100.076 Y115.326 E.01682
G1 X135.623 Y150.874 E1.58074
G1 X135.089 Y150.874 E.01682
G1 X99.542 Y115.326 E1.58074
G1 X99.007 Y115.326 E.01682
M73 P2 R202
G1 X134.554 Y150.874 E1.58074
G1 X134.019 Y150.874 E.01682
G1 X98.472 Y115.326 E1.58074
G1 X97.937 Y115.326 E.01682
G1 X133.484 Y150.874 E1.58074
G1 X132.949 Y150.874 E.01682
G1 X97.402 Y115.326 E1.58074
G1 X96.868 Y115.326 E.01682
G1 X132.415 Y150.874 E1.58074
G1 X131.88 Y150.874 E.01682
G1 X96.333 Y115.326 E1.58074
G1 X95.798 Y115.326 E.01682
G1 X131.345 Y150.874 E1.58074
G1 X130.81 Y150.874 E.01682
G1 X95.263 Y115.326 E1.58074
G1 X94.728 Y115.326 E.01682
G1 X130.275 Y150.874 E1.58074
G1 X129.741 Y150.874 E.01682
G1 X94.194 Y115.326 E1.58074
G1 X93.659 Y115.326 E.01682
G1 X129.206 Y150.874 E1.58074
G1 X128.671 Y150.874 E.01682
G1 X93.124 Y115.326 E1.58074
G1 X92.589 Y115.326 E.01682
G1 X128.136 Y150.874 E1.58074
G1 X127.601 Y150.874 E.01682
G1 X92.054 Y115.326 E1.58074
G1 X91.52 Y115.326 E.01682
G1 X127.067 Y150.874 E1.58074
G1 X126.532 Y150.874 E.01682
M73 P3 R202
G1 X90.985 Y115.326 E1.58074
G1 X90.45 Y115.326 E.01682
M73 Q3 S204
G1 X125.997 Y150.874 E1.58074
G1 X125.462 Y150.874 E.01682
M73 Q3 S203
G1 X89.915 Y115.326 E1.58074
G1 X89.38 Y115.326 E.01682
G1 X124.927 Y150.874 E1.58074
G1 X124.393 Y150.874 E.01682
G1 X88.846 Y115.326 E1.58074
G1 X88.311 Y115.326 E.01682
G1 X123.858 Y150.874 E1.58074
G1 X123.323 Y150.874 E.01682
G1 X87.776 Y115.326 E1.58074
G1 X87.241 Y115.326 E.01682
G1 X122.788 Y150.874 E1.58074
G1 X122.253 Y150.874 E.01682
G1 X86.706 Y115.326 E1.58074
G1 X86.172 Y115.326 E.01682
M73 P3 R201
G1 X121.719 Y150.874 E1.58074
G1 X121.184 Y150.874 E.01682
G1 X85.637 Y115.326 E1.58074
G1 X85.102 Y115.326 E.01682
G1 X120.649 Y150.874 E1.58074
G1 X120.114 Y150.874 E.01682
G1 X84.567 Y115.326 E1.58074
G1 X84.032 Y115.326 E.01682
G1 X119.579 Y150.874 E1.58074
G1 X119.045 Y150.874 E.01682
G1 X83.498 Y115.326 E1.58074
G1 X82.963 Y115.326 E.01682
G1 X118.51 Y150.874 E1.58074
G1 X117.975 Y150.874 E.01682
G1 X82.428 Y115.326 E1.58074
G1 X81.893 Y115.326 E.01682
G1 X117.44 Y150.874 E1.58074
G1 X116.905 Y150.874 E.01682
G1 X81.358 Y115.326 E1.58074
G1 X80.824 Y115.326 E.01682
G1 X116.371 Y150.874 E1.58074
G1 X115.836 Y150.874 E.01682
G1 X80.289 Y115.326 E1.58074
G1 X79.754 Y115.326 E.01682
G1 X115.301 Y150.874 E1.58074
G1 X114.766 Y150.874 E.01682
G1 X79.219 Y115.326 E1.58074
G1 X78.684 Y115.326 E.01682
G1 X114.231 Y150.874 E1.58074
G1 X113.697 Y150.874 E.01682
G1 X78.15 Y115.326 E1.58074
G1 X77.615 Y115.326 E.01682
M73 Q3 S202
G1 X113.162 Y150.874 E1.58074
G1 X112.627 Y150.874 E.01682
G1 X77.08 Y115.326 E1.58074
G1 X76.545 Y115.326 E.01682
G1 X112.092 Y150.874 E1.58074
G1 X111.557 Y150.874 E.01682
G1 X76.01 Y115.326 E1.58074
G1 X75.476 Y115.326 E.01682
G1 X111.023 Y150.874 E1.58074
G1 X110.488 Y150.874 E.01682
G1 X74.941 Y115.326 E1.58074
G1 X74.406 Y115.326 E.01682
G1 X109.953 Y150.874 E1.58074
G1 X109.418 Y150.874 E.01682
M73 P3 R200
G1 X73.871 Y115.326 E1.58074
G1 X73.336 Y115.326 E.01682
G1 X108.883 Y150.874 E1.58074
G1 X108.349 Y150.874 E.01682
G1 X72.802 Y115.326 E1.58074
G1 X72.626 Y115.326 E.00551
G1 X72.626 Y115.686 E.01131
G1 X107.814 Y150.874 E1.56474
G1 X107.279 Y150.874 E.01682
G1 X72.626 Y116.221 E1.54096
G1 X72.626 Y116.756 E.01682
G1 X106.744 Y150.874 E1.51718
G1 X106.209 Y150.874 E.01682
G1 X72.626 Y117.291 E1.4934
G1 X72.626 Y117.825 E.01682
G1 X105.675 Y150.874 E1.46962
G1 X105.14 Y150.874 E.01682
G1 X72.626 Y118.36 E1.44583
G1 X72.626 Y118.895 E.01682
G1 X104.605 Y150.874 E1.42205
G1 X104.07 Y150.874 E.01682
G1 X72.626 Y119.43 E1.39827
G1 X72.626 Y119.965 E.01682
G1 X103.535 Y150.874 E1.37449
G1 X103.001 Y150.874 E.01682
G1 X72.626 Y120.499 E1.35071
G1 X72.626 Y121.034 E.01682
G1 X102.466 Y150.874 E1.32692
G1 X101.931 Y150.874 E.01682
G1 X72.626 Y121.569 E1.30314
G1 X72.626 Y122.104 E.01682
G1 X101.396 Y150.874 E1.27936
G1 X100.861 Y150.874 E.01682
G1 X72.626 Y122.639 E1.25558
G1 X72.626 Y123.173 E.01682
G1 X100.327 Y150.874 E1.2318
G1 X99.792 Y150.874 E.01682
M73 Q3 S201
G1 X72.626 Y123.708 E1.20801
G1 X72.626 Y124.243 E.01682
M73 P4 R200
G1 X99.257 Y150.874 E1.18423
G1 X98.722 Y150.874 E.01682
G1 X72.626 Y124.778 E1.16045
G1 X72.626 Y125.313 E.01682
M73 Q4 S201
G1 X98.187 Y150.874 E1.13667
G1 X97.653 Y150.874 E.01682
G1 X72.626 Y125.847 E1.11289
G1 X72.626 Y126.382 E.01682
G1 X97.118 Y150.874 E1.0891
G1 X96.583 Y150.874 E.01682
G1 X72.626 Y126.917 E1.06532
G1 X72.626 Y127.452 E.01682
G1 X96.048 Y150.874 E1.04154
G1 X95.513 Y150.874 E.01682
G1 X72.626 Y127.987 E1.01776
G1 X72.626 Y128.521 E.01682
G1 X94.979 Y150.874 E.99398
G1 X94.444 Y150.874 E.01682
G1 X72.626 Y129.056 E.97019
