; generated by PrusaSlicer 2.5.0+win64 on 2023-04-28 at 08:09:33 UTC


;
;
; 

; external perimeters extrusion width = 0.60mm
; perimeters extrusion width = 0.50mm
; infill extrusion width = 0.50mm
; solid infill extrusion width = 0.50mm
; top infill extrusion width = 0.45mm
; first layer extrusion width = 0.42mm

M73 P0 R192
M73 Q0 S194
M201 X1000 Y1000 Z200 E5000 ; sets maximum accelerations, mm/sec^2
M203 X200 Y200 Z12 E120 ; sets maximum feedrates, mm / sec
M204 P1250 R1250 T1250 ; sets acceleration (P, T) and retract acceleration (R), mm/sec^2
M205 X8.00 Y8.00 Z0.40 E4.50 ; sets the jerk limits, mm/sec
M205 S0 T0 ; sets the minimum extruding and travel feed rate, mm/sec
M107
;TYPE:Custom
M862.3 P "MK3S" ; printer model check
M862.1 P0.4 ; nozzle diameter check
M115 U3.11.0 ; tell printer latest fw version
G90 ; use absolute coordinates
M83 ; extruder relative mode
M104 S215 ; set extruder temp
M140 S60 ; set bed temp
M190 S60 ; wait for bed temp
M109 S215 ; wait for extruder temp
G28 W ; home all without mesh bed level
G80 ; mesh bed leveling

G1 Z0.2 F720
G1 Y-3 F1000 ; go outside print area
G92 E0
G1 X60 E9 F1000 ; intro line
G1 X100 E12.5 F1000 ; intro line

G92 E0
M221 S95

; Don't change E values below. Excessive value can damage the printer.

M907 E538 ; set extruder motor current
G21 ; set units to millimeters
G90 ; use absolute coordinates
M83 ; use relative distances for extrusion
M900 K0.05 ; Filament gcode LA 1.5
M900 K30 ; Filament gcode LA 1.0
M107
;LAYER_CHANGE
;Z:0.2
;HEIGHT:0.2
;BEFORE_LAYER_CHANGE
G92 E0.0
;0.2


G1 E-.8 F2100
G1 Z.4 F720
;AFTER_LAYER_CHANGE
;0.2
G1 X55.715 Y68.222 F10800
G1 Z.2 F720
G1 E.8 F2100
M204 S800
;TYPE:Skirt/Brim
;WIDTH:0.42
G1 F1200
G1 X105.996 Y27.159 E2.03548
G1 X107.5 Y26.623 E.05005
M73 P0 R191
G1 X172.35 Y26.623 E2.03333
G1 X173.657 Y27.015 E.04278
G1 X174.488 Y27.96 E.03947
G1 X204.638 Y89.96 E2.16163
G1 X204.877 Y91 E.03345
M73 Q0 S193
G1 X204.877 Y181 E2.82189
G1 X204.485 Y182.307 E.04278
G1 X203.44 Y183.183 E.04278
G1 X202.5 Y183.377 E.03008
G1 X142.178 Y183.355 E1.89136
G1 X47.178 Y170.355 E3.00642
G1 X45.936 Y169.79 E.04278
G1 X45.123 Y168 E.06164
G1 X45.123 Y78 E2.82189
G1 X45.515 Y76.693 E.04278
G1 X45.996 Y76.159 E.02256
G1 X55.668 Y68.26 E.39153
M204 S1000
; printing object Michael Taschenlampe 2.stl id:0 copy 0
;WIPE_START
G1 F8640
G1 X58.218 Y66.178 E-.76
;WIPE_END
G1 E-.04 F2100
G1 Z.6 F720
G1 X150.79 Y91.787 F10800
G1 Z.2 F720
G1 E.8 F2100
M204 S800
;TYPE:Perimeter
;WIDTH:0.419999
G1 F1200
G1 X194.711 Y91.787 E1.3771
G1 X194.711 Y180.213 E2.77253
G1 X150.79 Y180.213 E1.3771
G1 X150.79 Y91.847 E2.77064
M204 S1000
G1 X150.413 Y91.41 F10800
M204 S800
;TYPE:External perimeter
G1 F1200
G1 X195.088 Y91.41 E1.40075
G1 X195.088 Y180.59 E2.79617
G1 X150.413 Y180.59 E1.40075
G1 X150.413 Y91.47 E2.79429
M204 S1000
G1 X150.786 Y91.554 F10800
;WIPE_START
G1 F8640
G1 X153.704 Y91.466 E-.76
;WIPE_END
G1 E-.04 F2100
G1 Z.6 F720
G1 X193.834 Y91.9 F10800
G1 Z.2 F720
G1 E.8 F2100
M204 S800
;TYPE:Solid infill
;WIDTH:0.42072
G1 F1200
G1 X194.428 Y92.494 E.02639
G1 X194.428 Y93.029 E.01678
G1 X193.469 Y92.07 E.04259
G1 X192.935 Y92.07 E.01678
G1 X194.428 Y93.563 E.06633
G1 X194.428 Y94.097 E.01678
G1 X192.401 Y92.07 E.09007
G1 X191.867 Y92.07 E.01678
G1 X194.428 Y94.631 E.1138
G1 X194.428 Y95.166 E.01678
G1 X191.332 Y92.07 E.13754
G1 X190.798 Y92.07 E.01678
G1 X194.428 Y95.7 E.16128
G1 X194.428 Y96.234 E.01678
G1 X190.264 Y92.07 E.18501
G1 X189.729 Y92.07 E.01678
G1 X194.428 Y96.769 E.20875
G1 X194.428 Y97.303 E.01678
G1 X189.195 Y92.07 E.23248
G1 X188.661 Y92.07 E.01678
G1 X194.428 Y97.837 E.25622
G1 X194.428 Y98.371 E.01678
G1 X188.127 Y92.07 E.27996
G1 X187.592 Y92.07 E.01678
G1 X194.428 Y98.906 E.30369
G1 X194.428 Y99.44 E.01678
G1 X187.058 Y92.07 E.32743
G1 X186.524 Y92.07 E.01678
M73 P0 R190
G1 X194.428 Y99.974 E.35117
G1 X194.428 Y100.509 E.01678
G1 X185.989 Y92.07 E.3749
G1 X185.455 Y92.07 E.01678
G1 X194.428 Y101.043 E.39864
G1 X194.428 Y101.577 E.01678
G1 X184.921 Y92.07 E.42238
G1 X184.386 Y92.07 E.01678
G1 X194.428 Y102.112 E.44611
G1 X194.428 Y102.646 E.01678
G1 X183.852 Y92.07 E.46985
G1 X183.318 Y92.07 E.01678
G1 X194.428 Y103.18 E.49359
G1 X194.428 Y103.714 E.01678
G1 X182.784 Y92.07 E.51732
G1 X182.249 Y92.07 E.01678
G1 X194.428 Y104.249 E.54106
G1 X194.428 Y104.783 E.01678
G1 X181.715 Y92.07 E.5648
G1 X181.181 Y92.07 E.01678
G1 X194.428 Y105.317 E.58853
G1 X194.428 Y105.852 E.01678
M73 Q0 S192
G1 X180.646 Y92.07 E.61227
G1 X180.112 Y92.07 E.01678
G1 X194.428 Y106.386 E.63601
G1 X194.428 Y106.92 E.01678
G1 X179.578 Y92.07 E.65974
G1 X179.044 Y92.07 E.01678
G1 X194.428 Y107.454 E.68348
G1 X194.428 Y107.989 E.01678
G1 X178.509 Y92.07 E.70722
G1 X177.975 Y92.07 E.01678
G1 X194.428 Y108.523 E.73095
G1 X194.428 Y109.057 E.01678
G1 X177.441 Y92.07 E.75469
G1 X176.906 Y92.07 E.01678
G1 X194.428 Y109.592 E.77843
G1 X194.428 Y110.126 E.01678
G1 X176.372 Y92.07 E.80216
G1 X175.838 Y92.07 E.01678
G1 X194.428 Y110.66 E.8259
G1 X194.428 Y111.194 E.01678
G1 X175.304 Y92.07 E.84964
G1 X174.769 Y92.07 E.01678
G1 X194.428 Y111.729 E.87337
G1 X194.428 Y112.263 E.01678
G1 X174.235 Y92.07 E.89711
G1 X173.701 Y92.07 E.01678
G1 X194.428 Y112.797 E.92085
G1 X194.428 Y113.332 E.01678
G1 X173.166 Y92.07 E.94458
G1 X172.632 Y92.07 E.01678
G1 X194.428 Y113.866 E.96832
G1 X194.428 Y114.4 E.01678
G1 X172.098 Y92.07 E.99206
G1 X171.564 Y92.07 E.01678
G1 X194.428 Y114.934 E1.01579
G1 X194.428 Y115.469 E.01678
G1 X171.029 Y92.07 E1.03953
G1 X170.495 Y92.07 E.01678
G1 X194.428 Y116.003 E1.06326
G1 X194.428 Y116.537 E.01678
G1 X169.961 Y92.07 E1.087
G1 X169.426 Y92.07 E.01678
G1 X194.428 Y117.072 E1.11074
G1 X194.428 Y117.606 E.01678
G1 X168.892 Y92.07 E1.13447
G1 X168.358 Y92.07 E.01678
G1 X194.428 Y118.14 E1.15821
G1 X194.428 Y118.674 E.01678
G1 X167.824 Y92.07 E1.18195
G1 X167.289 Y92.07 E.01678
G1 X194.428 Y119.209 E1.20568
G1 X194.428 Y119.743 E.01678
M73 P1 R190
G1 X166.755 Y92.07 E1.22942
G1 X166.221 Y92.07 E.01678
M73 Q1 S192
G1 X194.428 Y120.277 E1.25316
G1 X194.428 Y120.812 E.01678
G1 X165.686 Y92.07 E1.27689
G1 X165.152 Y92.07 E.01678
G1 X194.428 Y121.346 E1.30063
G1 X194.428 Y121.88 E.01678
G1 X164.618 Y92.07 E1.32437
G1 X164.083 Y92.07 E.01678
G1 X194.428 Y122.415 E1.3481
G1 X194.428 Y122.949 E.01678
M73 P1 R189
G1 X163.549 Y92.07 E1.37184
G1 X163.015 Y92.07 E.01678
G1 X194.428 Y123.483 E1.39558
G1 X194.428 Y124.017 E.01678
G1 X162.481 Y92.07 E1.41931
G1 X161.946 Y92.07 E.01678
G1 X194.428 Y124.552 E1.44305
G1 X194.428 Y125.086 E.01678
M73 Q1 S191
G1 X161.412 Y92.07 E1.46679
G1 X160.878 Y92.07 E.01678
G1 X194.428 Y125.62 E1.49052
G1 X194.428 Y126.155 E.01678
G1 X160.343 Y92.07 E1.51426
G1 X159.809 Y92.07 E.01678
G1 X194.428 Y126.689 E1.538
G1 X194.428 Y127.223 E.01678
G1 X159.275 Y92.07 E1.56173
G1 X158.741 Y92.07 E.01678
G1 X194.428 Y127.757 E1.58547
G1 X194.428 Y128.292 E.01678
G1 X158.206 Y92.07 E1.60921
G1 X157.672 Y92.07 E.01678
G1 X194.428 Y128.826 E1.63294
G1 X194.428 Y129.36 E.01678
G1 X157.138 Y92.07 E1.65668
G1 X156.603 Y92.07 E.01678
G1 X194.428 Y129.895 E1.68042
G1 X194.428 Y130.429 E.01678
G1 X156.069 Y92.07 E1.70415
G1 X155.535 Y92.07 E.01678
G1 X194.428 Y130.963 E1.72789
G1 X194.428 Y131.497 E.01678
G1 X155.001 Y92.07 E1.75163
G1 X154.466 Y92.07 E.01678
G1 X194.428 Y132.032 E1.77536
G1 X194.428 Y132.566 E.01678
G1 X153.932 Y92.07 E1.7991
G1 X153.398 Y92.07 E.01678
G1 X194.428 Y133.1 E1.82284
G1 X194.428 Y133.635 E.01678
G1 X152.863 Y92.07 E1.84657
G1 X152.329 Y92.07 E.01678
G1 X194.428 Y134.169 E1.87031
G1 X194.428 Y134.703 E.01678
G1 X151.795 Y92.07 E1.89404
G1 X151.261 Y92.07 E.01678
M73 P1 R188
G1 X194.428 Y135.237 E1.91778
G1 X194.428 Y135.772 E.01678
G1 X151.073 Y92.417 E1.92612
G1 X151.073 Y92.951 E.01678
G1 X194.428 Y136.306 E1.92612
G1 X194.428 Y136.84 E.01678
M73 Q1 S190
G1 X151.073 Y93.485 E1.92612
G1 X151.073 Y94.019 E.01678
G1 X194.428 Y137.375 E1.92612
G1 X194.428 Y137.909 E.01678
G1 X151.073 Y94.554 E1.92612
G1 X151.073 Y95.088 E.01678
G1 X194.428 Y138.443 E1.92612
G1 X194.428 Y138.978 E.01678
G1 X151.073 Y95.622 E1.92612
G1 X151.073 Y96.157 E.01678
G1 X194.428 Y139.512 E1.92612
G1 X194.428 Y140.046 E.01678
G1 X151.073 Y96.691 E1.92612
G1 X151.073 Y97.225 E.01678
G1 X194.428 Y140.58 E1.92612
G1 X194.428 Y141.115 E.01678
G1 X151.073 Y97.759 E1.92612
G1 X151.073 Y98.294 E.01678
G1 X194.428 Y141.649 E1.92612
G1 X194.428 Y142.183 E.01678
G1 X151.073 Y98.828 E1.92612
G1 X151.073 Y99.362 E.01678
M73 P2 R188
G1 X194.428 Y142.718 E1.92612
G1 X194.428 Y143.252 E.01678
M73 Q2 S190
G1 X151.073 Y99.897 E1.92612
G1 X151.073 Y100.431 E.01678
G1 X194.428 Y143.786 E1.92612
G1 X194.428 Y144.32 E.01678
G1 X151.073 Y100.965 E1.92612
G1 X151.073 Y101.499 E.01678
G1 X194.428 Y144.855 E1.92612
G1 X194.428 Y145.389 E.01678
G1 X151.073 Y102.034 E1.92612
G1 X151.073 Y102.568 E.01678
M73 P2 R187
G1 X194.428 Y145.923 E1.92612
G1 X194.428 Y146.458 E.01678
G1 X151.073 Y103.102 E1.92612
G1 X151.073 Y103.637 E.01678
M73 Q2 S189
G1 X194.428 Y146.992 E1.92612
G1 X194.428 Y147.526 E.01678
G1 X151.073 Y104.171 E1.92612
G1 X151.073 Y104.705 E.01678
G1 X194.428 Y148.06 E1.92612
G1 X194.428 Y148.595 E.01678
G1 X151.073 Y105.239 E1.92612
G1 X151.073 Y105.774 E.01678
G1 X194.428 Y149.129 E1.92612
G1 X194.428 Y149.663 E.01678
G1 X151.073 Y106.308 E1.92612
G1 X151.073 Y106.842 E.01678
G1 X194.428 Y150.198 E1.92612
G1 X194.428 Y150.732 E.01678
G1 X151.073 Y107.377 E1.92612
G1 X151.073 Y107.911 E.01678
G1 X194.428 Y151.266 E1.92612
G1 X194.428 Y151.8 E.01678
G1 X151.073 Y108.445 E1.92612
G1 X151.073 Y108.979 E.01678
G1 X194.428 Y152.335 E1.92612
G1 X194.428 Y152.869 E.01678
G1 X151.073 Y109.514 E1.92612
G1 X151.073 Y110.048 E.01678
G1 X194.428 Y153.403 E1.92612
G1 X194.428 Y153.938 E.01678
G1 X151.073 Y110.582 E1.92612
G1 X151.073 Y111.117 E.01678
G1 X194.428 Y154.472 E1.92612
G1 X194.428 Y155.006 E.01678
G1 X151.073 Y111.651 E1.92612
G1 X151.073 Y112.185 E.01678
G1 X194.428 Y155.541 E1.92612
G1 X194.428 Y156.075 E.01678
M73 P2 R186
G1 X151.073 Y112.72 E1.92612
G1 X151.073 Y113.254 E.01678
G1 X194.428 Y156.609 E1.92612
G1 X194.428 Y157.143 E.01678
G1 X151.073 Y113.788 E1.92612
G1 X151.073 Y114.322 E.01678
M73 Q2 S188
G1 X194.428 Y157.678 E1.92612
G1 X194.428 Y158.212 E.01678
G1 X151.073 Y114.857 E1.92612
G1 X151.073 Y115.391 E.01678
G1 X194.428 Y158.746 E1.92612
G1 X194.428 Y159.281 E.01678
G1 X151.073 Y115.925 E1.92612
G1 X151.073 Y116.46 E.01678
G1 X194.428 Y159.815 E1.92612
G1 X194.428 Y160.349 E.01678
G1 X151.073 Y116.994 E1.92612
G1 X151.073 Y117.528 E.01678
G1 X194.428 Y160.883 E1.92612
G1 X194.428 Y161.418 E.01678
G1 X151.073 Y118.062 E1.92612
G1 X151.073 Y118.597 E.01678
G1 X194.428 Y161.952 E1.92612
G1 X194.428 Y162.486 E.01678
M73 P3 R186
G1 X151.073 Y119.131 E1.92612
G1 X151.073 Y119.665 E.01678
M73 Q3 S188
G1 X194.428 Y163.021 E1.92612
G1 X194.428 Y163.555 E.01678
G1 X151.073 Y120.2 E1.92612
G1 X151.073 Y120.734 E.01678
G1 X194.428 Y164.089 E1.92612
G1 X194.428 Y164.623 E.01678
G1 X151.073 Y121.268 E1.92612
G1 X151.073 Y121.802 E.01678
G1 X194.428 Y165.158 E1.92612
G1 X194.428 Y165.692 E.01678
G1 X151.073 Y122.337 E1.92612
G1 X151.073 Y122.871 E.01678
M73 P3 R185
G1 X194.428 Y166.226 E1.92612
G1 X194.428 Y166.761 E.01678
G1 X151.073 Y123.405 E1.92612
G1 X151.073 Y123.94 E.01678
G1 X194.428 Y167.295 E1.92612
G1 X194.428 Y167.829 E.01678
M73 Q3 S187
G1 X151.073 Y124.474 E1.92612
G1 X151.073 Y125.008 E.01678
G1 X194.428 Y168.363 E1.92612
G1 X194.428 Y168.898 E.01678
G1 X151.073 Y125.542 E1.92612
G1 X151.073 Y126.077 E.01678
G1 X194.428 Y169.432 E1.92612
G1 X194.428 Y169.966 E.01678
G1 X151.073 Y126.611 E1.92612
G1 X151.073 Y127.145 E.01678
G1 X194.428 Y170.501 E1.92612
G1 X194.428 Y171.035 E.01678
G1 X151.073 Y127.68 E1.92612
G1 X151.073 Y128.214 E.01678
G1 X194.428 Y171.569 E1.92612
G1 X194.428 Y172.103 E.01678
G1 X151.073 Y128.748 E1.92612
G1 X151.073 Y129.283 E.01678
G1 X194.428 Y172.638 E1.92612
G1 X194.428 Y173.172 E.01678
G1 X151.073 Y129.817 E1.92612
G1 X151.073 Y130.351 E.01678
G1 X194.428 Y173.706 E1.92612
G1 X194.428 Y174.241 E.01678
G1 X151.073 Y130.885 E1.92612
G1 X151.073 Y131.42 E.01678
G1 X194.428 Y174.775 E1.92612
G1 X194.428 Y175.309 E.01678
G1 X151.073 Y131.954 E1.92612
G1 X151.073 Y132.488 E.01678
G1 X194.428 Y175.844 E1.92612
G1 X194.428 Y176.378 E.01678
M73 P3 R184
G1 X151.073 Y133.023 E1.92612
G1 X151.073 Y133.557 E.01678
G1 X194.428 Y176.912 E1.92612
G1 X194.428 Y177.446 E.01678
G1 X151.073 Y134.091 E1.92612
G1 X151.073 Y134.625 E.01678
M73 Q3 S186
G1 X194.428 Y177.981 E1.92612
G1 X194.428 Y178.515 E.01678
G1 X151.073 Y135.16 E1.92612
G1 X151.073 Y135.694 E.01678
G1 X194.428 Y179.049 E1.92612
G1 X194.428 Y179.584 E.01678
G1 X151.073 Y136.228 E1.92612
G1 X151.073 Y136.763 E.01678
G1 X194.24 Y179.93 E1.91778
G1 X193.706 Y179.93 E.01678
G1 X151.073 Y137.297 E1.89404
G1 X151.073 Y137.831 E.01678
G1 X193.172 Y179.93 E1.87031
G1 X192.638 Y179.93 E.01678
G1 X151.073 Y138.365 E1.84657
G1 X151.073 Y138.9 E.01678
M73 P4 R184
G1 X192.103 Y179.93 E1.82283
G1 X191.569 Y179.93 E.01678
G1 X151.073 Y139.434 E1.7991
G1 X151.073 Y139.968 E.01678
M73 Q4 S186
G1 X191.035 Y179.93 E1.77536
G1 X190.5 Y179.93 E.01678
G1 X151.073 Y140.503 E1.75162
G1 X151.073 Y141.037 E.01678
G1 X189.966 Y179.93 E1.72789
G1 X189.432 Y179.93 E.01678
G1 X151.073 Y141.571 E1.70415
G1 X151.073 Y142.105 E.01678
G1 X188.898 Y179.93 E1.68041
G1 X188.363 Y179.93 E.01678
G1 X151.073 Y142.64 E1.65668
G1 X151.073 Y143.174 E.01678
G1 X187.829 Y179.93 E1.63294
G1 X187.295 Y179.93 E.01678
G1 X151.073 Y143.708 E1.6092
G1 X151.073 Y144.243 E.01678
M73 P4 R183
G1 X186.76 Y179.93 E1.58547
G1 X186.226 Y179.93 E.01678
G1 X151.073 Y144.777 E1.56173
G1 X151.073 Y145.311 E.01678
G1 X185.692 Y179.93 E1.53799
G1 X185.158 Y179.93 E.01678
M73 Q4 S185
G1 X151.073 Y145.845 E1.51426
G1 X151.073 Y146.38 E.01678
G1 X184.623 Y179.93 E1.49052
G1 X184.089 Y179.93 E.01678
G1 X151.073 Y146.914 E1.46678
G1 X151.073 Y147.448 E.01678
G1 X183.555 Y179.93 E1.44305
G1 X183.02 Y179.93 E.01678
G1 X151.073 Y147.983 E1.41931
G1 X151.073 Y148.517 E.01678
G1 X182.486 Y179.93 E1.39557
G1 X181.952 Y179.93 E.01678
G1 X151.073 Y149.051 E1.37184
G1 X151.073 Y149.586 E.01678
G1 X181.417 Y179.93 E1.3481
G1 X180.883 Y179.93 E.01678
G1 X151.073 Y150.12 E1.32436
G1 X151.073 Y150.654 E.01678
G1 X180.349 Y179.93 E1.30063
G1 X179.815 Y179.93 E.01678
G1 X151.073 Y151.188 E1.27689
G1 X151.073 Y151.723 E.01678
G1 X179.28 Y179.93 E1.25316
G1 X178.746 Y179.93 E.01678
G1 X151.073 Y152.257 E1.22942
G1 X151.073 Y152.791 E.01678
G1 X178.212 Y179.93 E1.20568
G1 X177.677 Y179.93 E.01678
G1 X151.073 Y153.326 E1.18195
G1 X151.073 Y153.86 E.01678
G1 X177.143 Y179.93 E1.15821
G1 X176.609 Y179.93 E.01678
G1 X151.073 Y154.394 E1.13447
G1 X151.073 Y154.928 E.01678
G1 X176.075 Y179.93 E1.11074
G1 X175.54 Y179.93 E.01678
G1 X151.073 Y155.463 E1.087
G1 X151.073 Y155.997 E.01678
G1 X175.006 Y179.93 E1.06326
G1 X174.472 Y179.93 E.01678
G1 X151.073 Y156.531 E1.03953
G1 X151.073 Y157.066 E.01678
G1 X173.937 Y179.93 E1.01579
G1 X173.403 Y179.93 E.01678
G1 X151.073 Y157.6 E.99205
G1 X151.073 Y158.134 E.01678
G1 X172.869 Y179.93 E.96832
G1 X172.335 Y179.93 E.01678
G1 X151.073 Y158.668 E.94458
G1 X151.073 Y159.203 E.01678
G1 X171.8 Y179.93 E.92084
G1 X171.266 Y179.93 E.01678
M73 P4 R182
G1 X151.073 Y159.737 E.89711
G1 X151.073 Y160.271 E.01678
G1 X170.732 Y179.93 E.87337
G1 X170.197 Y179.93 E.01678
G1 X151.073 Y160.806 E.84963
G1 X151.073 Y161.34 E.01678
G1 X169.663 Y179.93 E.8259
G1 X169.129 Y179.93 E.01678
G1 X151.073 Y161.874 E.80216
G1 X151.073 Y162.408 E.01678
G1 X168.595 Y179.93 E.77842
G1 X168.06 Y179.93 E.01678
M73 Q4 S184
G1 X151.073 Y162.943 E.75469
G1 X151.073 Y163.477 E.01678
G1 X167.526 Y179.93 E.73095
G1 X166.992 Y179.93 E.01678
G1 X151.073 Y164.011 E.70721
G1 X151.073 Y164.546 E.01678
G1 X166.457 Y179.93 E.68348
G1 X165.923 Y179.93 E.01678
G1 X151.073 Y165.08 E.65974
G1 X151.073 Y165.614 E.01678
G1 X165.389 Y179.93 E.636
G1 X164.854 Y179.93 E.01678
G1 X151.073 Y166.149 E.61227
G1 X151.073 Y166.683 E.01678
G1 X164.32 Y179.93 E.58853
