; generated by PrusaSlicer 2.5.0+win64 on 2023-01-23 at 12:56:55 UTC


;
;
; 

; external perimeters extrusion width = 0.45mm
; perimeters extrusion width = 0.45mm
; infill extrusion width = 0.45mm
; solid infill extrusion width = 0.45mm
; top infill extrusion width = 0.40mm
; first layer extrusion width = 0.42mm

M73 P0 R23
M73 Q0 S23
M201 X1000 Y1000 Z200 E5000 ; sets maximum accelerations, mm/sec^2
M203 X200 Y200 Z12 E120 ; sets maximum feedrates, mm / sec
M204 P1250 R1250 T1250 ; sets acceleration (P, T) and retract acceleration (R), mm/sec^2
M205 X8.00 Y8.00 Z0.40 E4.50 ; sets the jerk limits, mm/sec
M205 S0 T0 ; sets the minimum extruding and travel feed rate, mm/sec
M107
;TYPE:Custom
M862.3 P "MK3S" ; printer model check
M862.1 P0.4 ; nozzle diameter check
M115 U3.11.0 ; tell printer latest fw version
G90 ; use absolute coordinates
M83 ; extruder relative mode
M104 S215 ; set extruder temp
M140 S60 ; set bed temp
M190 S60 ; wait for bed temp
M109 S215 ; wait for extruder temp
G28 W ; home all without mesh bed level
G80 ; mesh bed leveling

G1 Z0.2 F720
G1 Y-3 F1000 ; go outside print area
G92 E0
G1 X60 E9 F1000 ; intro line
G1 X100 E12.5 F1000 ; intro line

G92 E0
M221 S95

; Don't change E values below. Excessive value can damage the printer.
M907 E430 ; set extruder motor current
G21 ; set units to millimeters
G90 ; use absolute coordinates
M83 ; use relative distances for extrusion
M900 K0.05 ; Filament gcode LA 1.5
M900 K30 ; Filament gcode LA 1.0
M107
;LAYER_CHANGE
;Z:0.2
;HEIGHT:0.2
;BEFORE_LAYER_CHANGE
G92 E0.0
;0.2


G1 E-.8 F2100
M73 P0 R22
G1 Z.4 F720
;AFTER_LAYER_CHANGE
;0.2
G1 X114.927 Y92.837 F10800
G1 Z.2 F720
M73 Q0 S22
G1 E.8 F2100
M204 S800
;TYPE:Skirt/Brim
;WIDTH:0.42
G1 F1200
G1 X115.532 Y92.235 E.02677
G1 X115.866 Y92.026 E.01235
G1 X116.604 Y91.715 E.0251
G1 X117.322 Y91.574 E.02294
G1 X132.315 Y91.55 E.4701
G1 X132.873 Y91.607 E.01758
G1 X133.255 Y91.686 E.01223
G1 X134.212 Y92.083 E.03248
G1 X135.21 Y92.918 E.04082
G1 X135.751 Y93.797 E.03235
G1 X136.047 Y94.922 E.03648
G1 X136.069 Y110.528 E.48931
G1 X136.014 Y111.125 E.01879
G1 X135.721 Y112.044 E.03025
G1 X135.416 Y112.606 E.02005
G1 X135.023 Y113.104 E.01987
G1 X134.16 Y113.784 E.03446
G1 X133.518 Y114.077 E.02212
G1 X132.315 Y114.282 E.03828
G1 X117.685 Y114.282 E.45871
G1 X116.607 Y114.117 E.0342
G1 X116.111 Y113.922 E.01672
G1 X115.084 Y113.184 E.03964
G1 X114.358 Y112.25 E.03709
G1 X114.184 Y111.87 E.01311
G1 X113.932 Y110.534 E.04264
G1 X113.931 Y95.304 E.47752
G1 X114.068 Y94.317 E.03124
G1 X114.316 Y93.712 E.02051
G1 X114.893 Y92.886 E.03157
M204 S1000
G1 X115.202 Y93.102 F10800
M204 S800
G1 F1200
G1 X115.754 Y92.54 E.02467
G1 X116.274 Y92.248 E.01871
G1 X117.058 Y91.991 E.02589
G1 X117.685 Y91.927 E.01975
G1 X132.796 Y91.976 E.47381
G1 X133.178 Y92.055 E.01223
G1 X134.004 Y92.398 E.02803
G1 X134.923 Y93.163 E.03747
G1 X135.403 Y93.941 E.02868
G1 X135.671 Y94.953 E.03281
G1 X135.692 Y110.528 E.48836
G1 X135.64 Y111.075 E.01722
G1 X135.387 Y111.868 E.02611
G1 X134.756 Y112.838 E.03627
G1 X133.964 Y113.463 E.03165
G1 X133.407 Y113.717 E.01917
G1 X132.315 Y113.905 E.03475
G1 X117.685 Y113.905 E.45871
G1 X116.723 Y113.759 E.0305
M73 P1 R22
M73 Q1 S22
G1 X116.255 Y113.574 E.0158
G1 X115.369 Y112.937 E.03421
G1 X114.967 Y112.474 E.01922
G1 X114.538 Y111.739 E.02668
G1 X114.309 Y110.534 E.03847
G1 X114.308 Y95.304 E.47752
G1 X114.425 Y94.442 E.02726
G1 X114.634 Y93.918 E.0177
G1 X115.168 Y93.151 E.02931
M204 S1000
; printing object Moyai.stl id:0 copy 0
;WIPE_START
G1 F8640
G1 X115.754 Y92.54 E-.19536
G1 X116.274 Y92.248 E-.13775
G1 X117.058 Y91.991 E-.19068
G1 X117.685 Y91.927 E-.14543
G1 X118.078 Y91.928 E-.09077
;WIPE_END
G1 E-.04 F2100
G1 Z.6 F720
G1 X117.667 Y110.732 F10800
G1 Z.2 F720
G1 E.8 F2100
M204 S800
;TYPE:Perimeter
;WIDTH:0.419999
G1 F1200
G1 X117.553 Y110.622 E.00495
G1 X117.472 Y110.449 E.00598
G1 X117.472 Y95.368 E.47286
G1 X117.666 Y95.101 E.01036
G1 X132.201 Y95.091 E.45574
G1 X132.291 Y95.103 E.00284
G1 X132.485 Y95.216 E.00705
G1 X132.528 Y95.337 E.00404
G1 X132.528 Y110.414 E.47272
G1 X132.523 Y110.513 E.0031
G1 X132.408 Y110.68 E.00635
G1 X132.234 Y110.741 E.00578
G1 X117.726 Y110.735 E.45489
M204 S1000
G1 X117.41 Y111.036 F10800
M204 S800
;TYPE:External perimeter
G1 F1200
G1 X117.144 Y110.723 E.01287
G1 X117.095 Y110.488 E.00754
G1 X117.095 Y95.501 E.46991
G1 X117.109 Y95.226 E.00862
G1 X117.426 Y94.789 E.01694
G1 X117.712 Y94.714 E.00927
G1 X132.201 Y94.714 E.45429
G1 X132.522 Y94.765 E.01018
G1 X132.798 Y94.981 E.01098
G1 X132.905 Y95.337 E.01166
G1 X132.905 Y110.414 E.47272
G1 X132.888 Y110.631 E.00683
G1 X132.744 Y110.897 E.00948
G1 X132.524 Y111.066 E.0087
G1 X132.273 Y111.118 E.00803
G1 X117.712 Y111.118 E.45655
G1 X117.468 Y111.052 E.00793
M204 S1000
G1 X117.432 Y110.636 F10800
;WIPE_START
G1 F8640
G1 X117.144 Y110.723 E-.10651
G1 X117.095 Y110.488 E-.05552
G1 X117.095 Y107.898 E-.59797
;WIPE_END
G1 E-.04 F2100
G1 Z.6 F720
G1 X132.415 Y96.101 F10800
G1 Z.2 F720
G1 E.8 F2100
M204 S800
;TYPE:Solid infill
;WIDTH:0.42259
G1 F1200
G1 X131.691 Y95.377 E.03232
G1 X131.154 Y95.377 E.01695
G1 X132.245 Y96.468 E.04872
G1 X132.245 Y97.005 E.01695
G1 X130.617 Y95.376 E.0727
G1 X130.08 Y95.376 E.01695
G1 X132.245 Y97.542 E.09667
G1 X132.245 Y98.079 E.01695
G1 X129.543 Y95.376 E.12065
G1 X129.006 Y95.376 E.01695
G1 X132.245 Y98.616 E.14463
G1 X132.245 Y99.152 E.01695
G1 X128.469 Y95.376 E.16861
G1 X127.932 Y95.376 E.01695
G1 X132.245 Y99.689 E.19258
G1 X132.245 Y100.226 E.01695
G1 X127.395 Y95.376 E.21656
G1 X126.858 Y95.376 E.01695
G1 X132.245 Y100.763 E.24054
G1 X132.245 Y101.3 E.01695
G1 X126.32 Y95.376 E.26451
G1 X125.783 Y95.375 E.01695
G1 X132.245 Y101.837 E.28849
G1 X132.245 Y102.374 E.01695
G1 X125.246 Y95.375 E.31247
G1 X124.709 Y95.375 E.01695
G1 X132.245 Y102.911 E.33644
G1 X132.245 Y103.448 E.01695
G1 X124.172 Y95.375 E.36042
M73 Q2 S22
G1 X123.635 Y95.375 E.01695
M73 P2 R22
G1 X132.245 Y103.985 E.3844
G1 X132.245 Y104.522 E.01695
G1 X123.098 Y95.375 E.40837
G1 X122.561 Y95.375 E.01695
G1 X132.245 Y105.059 E.43235
G1 X132.245 Y105.596 E.01695
G1 X122.024 Y95.375 E.45633
G1 X121.487 Y95.375 E.01695
G1 X132.245 Y106.133 E.4803
G1 X132.245 Y106.67 E.01695
G1 X120.95 Y95.375 E.50428
G1 X120.413 Y95.374 E.01695
G1 X132.245 Y107.206 E.52826
G1 X132.245 Y107.743 E.01695
G1 X119.876 Y95.374 E.55224
G1 X119.339 Y95.374 E.01695
G1 X132.245 Y108.28 E.57621
G1 X132.245 Y108.817 E.01695
G1 X118.802 Y95.374 E.60019
G1 X118.265 Y95.374 E.01695
G1 X132.245 Y109.354 E.62417
G1 X132.245 Y109.891 E.01695
G1 X117.78 Y95.426 E.64583
G1 X117.755 Y95.46 E.00133
G1 X117.755 Y95.938 E.0151
G1 X132.245 Y110.428 E.64694
G1 X132.199 Y110.458 E.00173
G1 X131.738 Y110.458 E.01456
G1 X117.755 Y96.475 E.6243
G1 X117.755 Y97.012 E.01695
G1 X131.201 Y110.458 E.60033
G1 X130.664 Y110.458 E.01695
M73 Q3 S22
G1 X117.755 Y97.549 E.57635
G1 X117.755 Y98.086 E.01695
M73 P3 R22
G1 X130.127 Y110.458 E.55238
G1 X129.59 Y110.458 E.01695
G1 X117.755 Y98.623 E.52841
G1 X117.755 Y99.159 E.01695
G1 X129.053 Y110.458 E.50443
G1 X128.516 Y110.458 E.01695
G1 X117.755 Y99.696 E.48046
G1 X117.755 Y100.233 E.01695
G1 X127.979 Y110.458 E.45648
G1 X127.442 Y110.458 E.01695
G1 X117.755 Y100.77 E.43251
G1 X117.755 Y101.307 E.01695
G1 X126.905 Y110.458 E.40853
G1 X126.368 Y110.458 E.01695
G1 X117.755 Y101.844 E.38456
G1 X117.755 Y102.381 E.01695
G1 X125.831 Y110.458 E.36059
G1 X125.294 Y110.458 E.01695
G1 X117.755 Y102.918 E.33661
G1 X117.755 Y103.455 E.01695
G1 X124.757 Y110.457 E.31264
G1 X124.22 Y110.457 E.01695
G1 X117.755 Y103.992 E.28866
G1 X117.755 Y104.529 E.01695
G1 X123.683 Y110.457 E.26469
G1 X123.146 Y110.457 E.01695
G1 X117.755 Y105.066 E.24072
G1 X117.755 Y105.603 E.01695
G1 X122.61 Y110.457 E.21674
G1 X122.073 Y110.457 E.01695
G1 X117.755 Y106.14 E.19277
G1 X117.755 Y106.677 E.01695
G1 X121.536 Y110.457 E.16879
G1 X120.999 Y110.457 E.01695
G1 X117.755 Y107.213 E.14482
G1 X117.755 Y107.75 E.01695
G1 X120.462 Y110.457 E.12084
G1 X119.925 Y110.457 E.01695
G1 X117.755 Y108.287 E.09687
G1 X117.755 Y108.824 E.01695
G1 X119.388 Y110.457 E.0729
G1 X118.851 Y110.457 E.01695
G1 X117.755 Y109.361 E.04892
G1 X117.755 Y109.898 E.01695
G1 X118.483 Y110.627 E.03252
M204 S1000
; stop printing object Moyai.stl id:0 copy 0
M106 S84.15
;LAYER_CHANGE
;Z:0.4
;HEIGHT:0.2
;BEFORE_LAYER_CHANGE
G92 E0.0
;0.4


;WIPE_START
G1 F8640
G1 X117.755 Y109.898 E-.23788
G1 X117.755 Y109.361 E-.12398
G1 X118.851 Y110.457 E-.35782
G1 X119.025 Y110.457 E-.04032
;WIPE_END
G1 E-.04 F2100
G1 Z.6 F720
;AFTER_LAYER_CHANGE
;0.4
G1 X119.025 Y114.282 F10800
G1 Z.4 F720
G1 E.8 F2100
;TYPE:Skirt/Brim
;WIDTH:0.42
G1 F3000
G1 X117.685 Y114.282 E.04202
G1 X116.607 Y114.117 E.0342
G1 X116.111 Y113.922 E.01672
G1 X115.084 Y113.184 E.03964
G1 X114.358 Y112.25 E.03709
G1 X114.184 Y111.87 E.01311
G1 X113.932 Y110.534 E.04264
G1 X113.931 Y95.304 E.47752
G1 X114.068 Y94.317 E.03124
G1 X114.316 Y93.712 E.02051
G1 X114.927 Y92.837 E.03346
G1 X115.532 Y92.235 E.02677
G1 X115.866 Y92.026 E.01235
G1 X116.604 Y91.715 E.0251
G1 X117.322 Y91.574 E.02294
G1 X132.315 Y91.55 E.4701
G1 X132.873 Y91.607 E.01758
G1 X133.255 Y91.686 E.01223
M73 Q4 S22
G1 X134.212 Y92.083 E.03248
G1 X135.21 Y92.918 E.04082
G1 X135.751 Y93.797 E.03235
G1 X136.047 Y94.922 E.03648
G1 X136.069 Y110.528 E.48931
G1 X136.014 Y111.125 E.01879
M73 P4 R22
G1 X135.721 Y112.044 E.03025
G1 X135.416 Y112.606 E.02005
G1 X135.023 Y113.104 E.01987
G1 X134.16 Y113.784 E.03446
G1 X133.518 Y114.077 E.02212
G1 X132.315 Y114.282 E.03828
G1 X119.085 Y114.282 E.41481
G1 X119.085 Y113.905 F10800
G1 F3000
G1 X117.685 Y113.905 E.0439
G1 X116.723 Y113.759 E.0305
G1 X116.255 Y113.574 E.0158
G1 X115.369 Y112.937 E.03421
G1 X114.967 Y112.474 E.01922
G1 X114.538 Y111.739 E.02668
G1 X114.309 Y110.534 E.03847
G1 X114.308 Y95.304 E.47752
G1 X114.425 Y94.442 E.02726
G1 X114.634 Y93.918 E.0177
G1 X115.231 Y93.06 E.03278
G1 X115.754 Y92.54 E.0231
G1 X116.274 Y92.248 E.01871
G1 X117.058 Y91.991 E.02589
G1 X117.685 Y91.927 E.01975
G1 X132.796 Y91.976 E.47381
G1 X133.178 Y92.055 E.01223
G1 X134.004 Y92.398 E.02803
G1 X134.923 Y93.163 E.03747
G1 X135.403 Y93.941 E.02868
G1 X135.671 Y94.953 E.03281
G1 X135.692 Y110.528 E.48836
G1 X135.64 Y111.075 E.01722
G1 X135.387 Y111.868 E.02611
G1 X134.756 Y112.838 E.03627
G1 X133.964 Y113.463 E.03165
G1 X133.407 Y113.717 E.01917
G1 X132.315 Y113.905 E.03475
G1 X119.145 Y113.905 E.41293
; printing object Moyai.stl id:0 copy 0
;WIPE_START
G1 F8640
G1 X117.685 Y113.905 E-.33718
G1 X116.723 Y113.759 E-.2246
G1 X116.255 Y113.574 E-.11635
G1 X115.967 Y113.367 E-.08188
;WIPE_END
G1 E-.04 F2100
G1 Z.8 F720
G1 X117.538 Y110.846 F10800
G1 Z.4 F720
G1 E.8 F2100
M204 S800
;TYPE:Perimeter
;WIDTH:0.449999
G1 F2700
G1 X117.355 Y110.633 E.00948
G1 X117.317 Y110.459 E.00604
G1 X117.317 Y95.356 E.51122
G1 X117.563 Y94.974 E.01538
G1 X117.73 Y94.936 E.00579
G1 X132.185 Y94.936 E.4893
G1 X132.426 Y94.972 E.00823
G1 X132.624 Y95.126 E.00849
G1 X132.683 Y95.434 E.01061
G1 X132.683 Y110.465 E.50878
G1 X132.616 Y110.669 E.00725
G1 X132.43 Y110.858 E.00898
G1 X132.249 Y110.896 E.00625
G1 X117.807 Y110.896 E.48885
G1 X117.597 Y110.857 E.00725
M204 S1000
G1 X117.288 Y111.179 F10800
M204 S800
;TYPE:External perimeter
G1 F1500
G1 X116.98 Y110.821 E.01599
G1 X116.91 Y110.503 E.011
G1 X116.91 Y95.491 E.50814
G1 X116.941 Y95.135 E.01212
G1 X117.3 Y94.644 E.02059
G1 X117.436 Y94.585 E.00502
G1 X117.701 Y94.529 E.00916
G1 X132.185 Y94.529 E.49027
G1 X132.6 Y94.593 E.01422
G1 X132.903 Y94.827 E.01296
G1 X133 Y94.949 E.00527
G1 X133.09 Y95.434 E.0167
G1 X133.09 Y110.412 E.507
G1 X133.066 Y110.69 E.00943
G1 X132.893 Y111.015 E.01247
G1 X132.606 Y111.237 E.0123
G1 X132.292 Y111.303 E.01086
G1 X117.807 Y111.303 E.49028
G1 X117.649 Y111.296 E.00537
G1 X117.342 Y111.201 E.01087
M204 S1000
G1 X117.339 Y110.783 F10800
;WIPE_START
G1 F8640
G1 X116.98 Y110.821 E-.12129
G1 X116.91 Y110.503 E-.07503
G1 X116.91 Y108.062 E-.56368
;WIPE_END
G1 E-.04 F2100
G1 Z.8 F720
G1 X132.561 Y109.734 F10800
G1 Z.4 F720
G1 E.8 F2100
;TYPE:Solid infill
;WIDTH:0.457567
G1 F4747
G1 X131.704 Y110.591 E.04175
G1 X131.118 Y110.591 E.02022
G1 X132.378 Y109.331 E.06142
G1 X132.378 Y108.745 E.02022
G1 X130.532 Y110.591 E.09001
G1 X129.945 Y110.591 E.02022
G1 X132.378 Y108.158 E.1186
G1 X132.378 Y107.572 E.02022
G1 X129.359 Y110.591 E.14719
G1 X128.772 Y110.591 E.02022
G1 X132.378 Y106.985 E.17579
G1 X132.378 Y106.399 E.02022
G1 X128.186 Y110.591 E.20438
G1 X127.6 Y110.591 E.02022
G1 X132.378 Y105.813 E.23297
G1 X132.378 Y105.226 E.02022
G1 X127.013 Y110.591 E.26156
G1 X126.427 Y110.591 E.02022
G1 X132.378 Y104.64 E.29015
G1 X132.378 Y104.053 E.02022
G1 X125.84 Y110.591 E.31875
G1 X125.254 Y110.591 E.02022
G1 X132.378 Y103.467 E.34734
G1 X132.378 Y102.881 E.02022
G1 X124.668 Y110.591 E.37593
G1 X124.081 Y110.591 E.02022
G1 X132.378 Y102.294 E.40452
G1 X132.378 Y101.708 E.02022
G1 X123.495 Y110.591 E.43312
G1 X122.908 Y110.591 E.02022
G1 X132.378 Y101.121 E.46171
G1 X132.378 Y100.535 E.02022
G1 X122.322 Y110.591 E.4903
G1 X121.736 Y110.591 E.02022
M73 P4 R21
G1 X132.378 Y99.949 E.51889
G1 X132.378 Y99.362 E.02022
G1 X121.149 Y110.591 E.54749
G1 X120.563 Y110.591 E.02022
G1 X132.378 Y98.776 E.57608
G1 X132.378 Y98.189 E.02022
M73 Q4 S21
G1 X119.976 Y110.591 E.60467
G1 X119.39 Y110.591 E.02022
G1 X132.378 Y97.603 E.63326
G1 X132.378 Y97.017 E.02022
G1 X118.804 Y110.591 E.66186
G1 X118.217 Y110.591 E.02022
G1 X132.378 Y96.43 E.69045
G1 X132.378 Y95.844 E.02022
G1 X117.679 Y110.542 E.71667
G1 X117.637 Y110.493 E.00224
G1 X117.622 Y110.426 E.00236
G1 X117.622 Y110.013 E.01425
G1 X132.342 Y95.294 E.7177
G1 X132.296 Y95.258 E.00198
G1 X132.193 Y95.241 E.0036
G1 X131.807 Y95.242 E.01331
G1 X117.622 Y109.426 E.69164
G1 X117.622 Y108.84 E.02022
M73 Q5 S21
G1 X131.22 Y95.242 E.66303
G1 X130.634 Y95.242 E.02023
M73 P5 R21
G1 X117.622 Y108.253 E.63442
G1 X117.622 Y107.667 E.02022
G1 X130.047 Y95.243 E.60581
G1 X129.46 Y95.243 E.02023
G1 X117.622 Y107.081 E.5772
G1 X117.622 Y106.494 E.02022
G1 X128.873 Y95.243 E.5486
G1 X128.287 Y95.244 E.02023
G1 X117.622 Y105.908 E.51999
G1 X117.622 Y105.321 E.02022
G1 X127.7 Y95.244 E.49138
G1 X127.113 Y95.244 E.02023
G1 X117.622 Y104.735 E.46277
G1 X117.622 Y104.149 E.02022
G1 X126.527 Y95.244 E.43416
G1 X125.94 Y95.245 E.02023
G1 X117.622 Y103.562 E.40555
G1 X117.622 Y102.976 E.02022
G1 X125.353 Y95.245 E.37695
G1 X124.766 Y95.245 E.02023
G1 X117.622 Y102.389 E.34834
G1 X117.622 Y101.803 E.02022
G1 X124.18 Y95.246 E.31973
G1 X123.593 Y95.246 E.02023
G1 X117.622 Y101.217 E.29112
G1 X117.622 Y100.63 E.02022
G1 X123.006 Y95.246 E.26251
G1 X122.42 Y95.247 E.02023
G1 X117.622 Y100.044 E.23391
G1 X117.622 Y99.458 E.02022
G1 X121.833 Y95.247 E.2053
G1 X121.246 Y95.247 E.02023
G1 X117.622 Y98.871 E.17669
G1 X117.622 Y98.285 E.02022
G1 X120.659 Y95.248 E.14808
G1 X120.073 Y95.248 E.02023
G1 X117.622 Y97.698 E.11947
G1 X117.622 Y97.112 E.02022
G1 X119.486 Y95.248 E.09087
G1 X118.899 Y95.249 E.02023
G1 X117.622 Y96.526 E.06226
G1 X117.622 Y95.939 E.02022
G1 X118.496 Y95.066 E.04259
; stop printing object Moyai.stl id:0 copy 0
M106 S170.85
;LAYER_CHANGE
;Z:0.6
;HEIGHT:0.2
;BEFORE_LAYER_CHANGE
G92 E0.0
;0.6


;WIPE_START
G1 F8640
G1 X117.622 Y95.939 E-.28521
G1 X117.622 Y96.526 E-.1354
G1 X118.662 Y95.486 E-.33939
;WIPE_END
G1 E-.04 F2100
G1 Z.8 F720
;AFTER_LAYER_CHANGE
;0.6
G1 X118.655 Y91.572 F10800
G1 Z.6 F720
G1 E.8 F2100
;TYPE:Skirt/Brim
;WIDTH:0.42
G1 F3000
G1 X132.315 Y91.55 E.42829
G1 X132.873 Y91.607 E.01758
G1 X133.255 Y91.686 E.01223
G1 X134.212 Y92.083 E.03248
G1 X135.21 Y92.918 E.04082
G1 X135.751 Y93.797 E.03235
G1 X136.047 Y94.922 E.03648
G1 X136.069 Y110.528 E.48931
G1 X136.014 Y111.125 E.01879
G1 X135.721 Y112.044 E.03025
G1 X135.416 Y112.606 E.02005
G1 X135.023 Y113.104 E.01987
G1 X134.16 Y113.784 E.03446
G1 X133.518 Y114.077 E.02212
G1 X132.315 Y114.282 E.03828
G1 X117.685 Y114.282 E.45871
G1 X116.607 Y114.117 E.0342
G1 X116.111 Y113.922 E.01672
G1 X115.084 Y113.184 E.03964
G1 X114.358 Y112.25 E.03709
G1 X114.184 Y111.87 E.01311
G1 X113.932 Y110.534 E.04264
