; generated by PrusaSlicer 2.5.0+win64 on 2023-04-26 at 11:39:57 UTC


;
;
; 

; external perimeters extrusion width = 0.60mm
; perimeters extrusion width = 0.50mm
; infill extrusion width = 0.50mm
; solid infill extrusion width = 0.50mm
; top infill extrusion width = 0.45mm
; first layer extrusion width = 0.42mm

M73 P0 R129
M73 Q0 S130
M201 X1000 Y1000 Z200 E5000 ; sets maximum accelerations, mm/sec^2
M203 X200 Y200 Z12 E120 ; sets maximum feedrates, mm / sec
M204 P1250 R1250 T1250 ; sets acceleration (P, T) and retract acceleration (R), mm/sec^2
M205 X8.00 Y8.00 Z0.40 E4.50 ; sets the jerk limits, mm/sec
M205 S0 T0 ; sets the minimum extruding and travel feed rate, mm/sec
M107
;TYPE:Custom
M862.3 P "MK3S" ; printer model check
M862.1 P0.4 ; nozzle diameter check
M115 U3.11.0 ; tell printer latest fw version
G90 ; use absolute coordinates
M83 ; extruder relative mode
M104 S215 ; set extruder temp
M140 S60 ; set bed temp
M190 S60 ; wait for bed temp
M109 S215 ; wait for extruder temp
G28 W ; home all without mesh bed level
G80 ; mesh bed leveling

G1 Z0.2 F720
G1 Y-3 F1000 ; go outside print area
G92 E0
G1 X60 E9 F1000 ; intro line
G1 X100 E12.5 F1000 ; intro line

G92 E0
M221 S95

; Don't change E values below. Excessive value can damage the printer.

M907 E538 ; set extruder motor current
G21 ; set units to millimeters
G90 ; use absolute coordinates
M83 ; use relative distances for extrusion
M900 K0.05 ; Filament gcode LA 1.5
M900 K30 ; Filament gcode LA 1.0
M107
;LAYER_CHANGE
;Z:0.2
;HEIGHT:0.2
;BEFORE_LAYER_CHANGE
G92 E0.0
;0.2


G1 E-.8 F2100
G1 Z.4 F720
;AFTER_LAYER_CHANGE
;0.2
G1 X66.515 Y53.993 F10800
G1 Z.2 F720
G1 E.8 F2100
M204 S800
;TYPE:Skirt/Brim
;WIDTH:0.42
G1 F1200
G1 X67.56 Y53.117 E.04278
G1 X68.5 Y52.923 E.03008
G1 X181.5 Y52.923 E3.54304
G1 X182.807 Y53.315 E.04278
G1 X183.683 Y54.36 E.04278
G1 X183.877 Y55.3 E.03008
G1 X183.877 Y154.7 E3.11662
G1 X183.485 Y156.007 E.04278
G1 X182.44 Y156.883 E.04278
G1 X181.5 Y157.077 E.03008
G1 X68.5 Y157.077 E3.54304
G1 X67.193 Y156.685 E.04278
G1 X66.317 Y155.64 E.04278
G1 X66.123 Y154.7 E.03008
G1 X66.123 Y55.3 E3.11662
G1 X66.497 Y54.05 E.0409
M204 S1000
; printing object Simon Taschenlampe.stl id:0 copy 0
;WIPE_START
M73 P0 R128
G1 F8640
G1 X67.56 Y53.117 E-.32671
G1 X68.5 Y52.923 E-.22155
G1 X69.417 Y52.923 E-.21174
;WIPE_END
G1 E-.04 F2100
G1 Z.6 F720
G1 X180.713 Y116.287 F10800
G1 Z.2 F720
G1 E.8 F2100
M204 S800
;TYPE:Perimeter
;WIDTH:0.419999
G1 F1200
G1 X180.713 Y153.913 E1.17973
G1 X69.287 Y153.913 E3.49367
G1 X69.287 Y116.287 E1.17973
G1 X180.653 Y116.287 E3.49179
M204 S1000
G1 X181.09 Y115.91 F10800
M204 S800
;TYPE:External perimeter
G1 F1200
G1 X181.09 Y154.29 E1.20338
G1 X68.91 Y154.29 E3.51732
G1 X68.91 Y115.91 E1.20338
G1 X181.03 Y115.91 E3.51544
M204 S1000
G1 X180.929 Y116.276 F10800
;WIPE_START
M73 Q0 S129
G1 F8640
G1 X181.035 Y119.201 E-.76
;WIPE_END
G1 E-.04 F2100
G1 Z.6 F720
G1 X179.835 Y116.4 F10800
G1 Z.2 F720
G1 E.8 F2100
M204 S800
;TYPE:Solid infill
;WIDTH:0.421081
G1 F1200
G1 X180.43 Y116.995 E.02645
G1 X180.43 Y117.53 E.01682
G1 X179.47 Y116.57 E.04269
G1 X178.935 Y116.57 E.01682
G1 X180.43 Y118.065 E.06647
G1 X180.43 Y118.599 E.01682
G1 X178.401 Y116.57 E.09025
G1 X177.866 Y116.57 E.01682
G1 X180.43 Y119.134 E.11404
G1 X180.43 Y119.669 E.01682
G1 X177.331 Y116.57 E.13782
G1 X176.796 Y116.57 E.01682
G1 X180.43 Y120.204 E.1616
G1 X180.43 Y120.739 E.01682
G1 X176.261 Y116.57 E.18538
G1 X175.727 Y116.57 E.01682
G1 X180.43 Y121.273 E.20916
G1 X180.43 Y121.808 E.01682
G1 X175.192 Y116.57 E.23295
G1 X174.657 Y116.57 E.01682
G1 X180.43 Y122.343 E.25673
G1 X180.43 Y122.878 E.01682
G1 X174.122 Y116.57 E.28051
G1 X173.587 Y116.57 E.01682
G1 X180.43 Y123.413 E.30429
G1 X180.43 Y123.947 E.01682
G1 X173.053 Y116.57 E.32807
G1 X172.518 Y116.57 E.01682
G1 X180.43 Y124.482 E.35186
G1 X180.43 Y125.017 E.01682
G1 X171.983 Y116.57 E.37564
G1 X171.448 Y116.57 E.01682
G1 X180.43 Y125.552 E.39942
G1 X180.43 Y126.087 E.01682
G1 X170.913 Y116.57 E.4232
G1 X170.379 Y116.57 E.01682
G1 X180.43 Y126.621 E.44698
G1 X180.43 Y127.156 E.01682
G1 X169.844 Y116.57 E.47076
G1 X169.309 Y116.57 E.01682
G1 X180.43 Y127.691 E.49455
G1 X180.43 Y128.226 E.01682
G1 X168.774 Y116.57 E.51833
G1 X168.239 Y116.57 E.01682
G1 X180.43 Y128.761 E.54211
G1 X180.43 Y129.295 E.01682
G1 X167.705 Y116.57 E.56589
G1 X167.17 Y116.57 E.01682
G1 X180.43 Y129.83 E.58967
G1 X180.43 Y130.365 E.01682
G1 X166.635 Y116.57 E.61346
G1 X166.1 Y116.57 E.01682
G1 X180.43 Y130.9 E.63724
G1 X180.43 Y131.435 E.01682
G1 X165.565 Y116.57 E.66102
G1 X165.031 Y116.57 E.01682
G1 X180.43 Y131.969 E.6848
G1 X180.43 Y132.504 E.01682
M73 P1 R128
G1 X164.496 Y116.57 E.70858
G1 X163.961 Y116.57 E.01682
M73 Q1 S129
G1 X180.43 Y133.039 E.73237
G1 X180.43 Y133.574 E.01682
G1 X163.426 Y116.57 E.75615
G1 X162.891 Y116.57 E.01682
G1 X180.43 Y134.109 E.77993
G1 X180.43 Y134.643 E.01682
G1 X162.357 Y116.57 E.80371
G1 X161.822 Y116.57 E.01682
G1 X180.43 Y135.178 E.82749
G1 X180.43 Y135.713 E.01682
G1 X161.287 Y116.57 E.85128
G1 X160.752 Y116.57 E.01682
G1 X180.43 Y136.248 E.87506
G1 X180.43 Y136.783 E.01682
G1 X160.217 Y116.57 E.89884
G1 X159.683 Y116.57 E.01682
M73 P1 R127
G1 X180.43 Y137.317 E.92262
G1 X180.43 Y137.852 E.01682
G1 X159.148 Y116.57 E.9464
G1 X158.613 Y116.57 E.01682
G1 X180.43 Y138.387 E.97019
G1 X180.43 Y138.922 E.01682
G1 X158.078 Y116.57 E.99397
G1 X157.543 Y116.57 E.01682
G1 X180.43 Y139.457 E1.01775
G1 X180.43 Y139.991 E.01682
G1 X157.009 Y116.57 E1.04153
G1 X156.474 Y116.57 E.01682
G1 X180.43 Y140.526 E1.06531
G1 X180.43 Y141.061 E.01682
G1 X155.939 Y116.57 E1.0891
G1 X155.404 Y116.57 E.01682
G1 X180.43 Y141.596 E1.11288
G1 X180.43 Y142.131 E.01682
G1 X154.869 Y116.57 E1.13666
G1 X154.335 Y116.57 E.01682
G1 X180.43 Y142.665 E1.16044
G1 X180.43 Y143.2 E.01682
G1 X153.8 Y116.57 E1.18422
G1 X153.265 Y116.57 E.01682
G1 X180.43 Y143.735 E1.20801
G1 X180.43 Y144.27 E.01682
G1 X152.73 Y116.57 E1.23179
G1 X152.195 Y116.57 E.01682
G1 X180.43 Y144.805 E1.25557
G1 X180.43 Y145.339 E.01682
G1 X151.661 Y116.57 E1.27935
G1 X151.126 Y116.57 E.01682
M73 Q1 S128
G1 X180.43 Y145.874 E1.30313
G1 X180.43 Y146.409 E.01682
G1 X150.591 Y116.57 E1.32692
G1 X150.056 Y116.57 E.01682
G1 X180.43 Y146.944 E1.3507
G1 X180.43 Y147.479 E.01682
G1 X149.521 Y116.57 E1.37448
G1 X148.987 Y116.57 E.01682
G1 X180.43 Y148.013 E1.39826
G1 X180.43 Y148.548 E.01682
G1 X148.452 Y116.57 E1.42204
G1 X147.917 Y116.57 E.01682
G1 X180.43 Y149.083 E1.44583
G1 X180.43 Y149.618 E.01682
G1 X147.382 Y116.57 E1.46961
G1 X146.847 Y116.57 E.01682
G1 X180.43 Y150.153 E1.49339
G1 X180.43 Y150.687 E.01682
G1 X146.313 Y116.57 E1.51717
G1 X145.778 Y116.57 E.01682
G1 X180.43 Y151.222 E1.54095
G1 X180.43 Y151.757 E.01682
G1 X145.243 Y116.57 E1.56473
G1 X144.708 Y116.57 E.01682
G1 X180.43 Y152.292 E1.58852
G1 X180.43 Y152.827 E.01682
M73 P1 R126
G1 X144.173 Y116.57 E1.6123
G1 X143.639 Y116.57 E.01682
G1 X180.43 Y153.361 E1.63608
G1 X180.43 Y153.63 E.00845
G1 X180.164 Y153.63 E.00837
G1 X143.104 Y116.57 E1.64803
G1 X142.569 Y116.57 E.01682
M73 P2 R126
M73 Q2 S128
G1 X179.629 Y153.63 E1.64803
G1 X179.094 Y153.63 E.01682
G1 X142.034 Y116.57 E1.64803
G1 X141.499 Y116.57 E.01682
G1 X178.56 Y153.63 E1.64803
G1 X178.025 Y153.63 E.01682
G1 X140.965 Y116.57 E1.64803
G1 X140.43 Y116.57 E.01682
G1 X177.49 Y153.63 E1.64803
G1 X176.955 Y153.63 E.01682
G1 X139.895 Y116.57 E1.64803
G1 X139.36 Y116.57 E.01682
G1 X176.42 Y153.63 E1.64803
G1 X175.886 Y153.63 E.01682
G1 X138.825 Y116.57 E1.64803
G1 X138.291 Y116.57 E.01682
M73 Q2 S127
G1 X175.351 Y153.63 E1.64803
G1 X174.816 Y153.63 E.01682
G1 X137.756 Y116.57 E1.64803
G1 X137.221 Y116.57 E.01682
G1 X174.281 Y153.63 E1.64803
G1 X173.746 Y153.63 E.01682
G1 X136.686 Y116.57 E1.64803
G1 X136.151 Y116.57 E.01682
G1 X173.212 Y153.63 E1.64803
G1 X172.677 Y153.63 E.01682
G1 X135.617 Y116.57 E1.64803
G1 X135.082 Y116.57 E.01682
G1 X172.142 Y153.63 E1.64803
G1 X171.607 Y153.63 E.01682
G1 X134.547 Y116.57 E1.64803
G1 X134.012 Y116.57 E.01682
G1 X171.072 Y153.63 E1.64803
G1 X170.538 Y153.63 E.01682
G1 X133.477 Y116.57 E1.64803
G1 X132.943 Y116.57 E.01682
G1 X170.003 Y153.63 E1.64803
G1 X169.468 Y153.63 E.01682
G1 X132.408 Y116.57 E1.64803
G1 X131.873 Y116.57 E.01682
M73 P2 R125
G1 X168.933 Y153.63 E1.64803
G1 X168.398 Y153.63 E.01682
G1 X131.338 Y116.57 E1.64803
G1 X130.803 Y116.57 E.01682
G1 X167.864 Y153.63 E1.64803
G1 X167.329 Y153.63 E.01682
G1 X130.269 Y116.57 E1.64803
G1 X129.734 Y116.57 E.01682
G1 X166.794 Y153.63 E1.64803
G1 X166.259 Y153.63 E.01682
G1 X129.199 Y116.57 E1.64803
G1 X128.664 Y116.57 E.01682
G1 X165.724 Y153.63 E1.64803
G1 X165.19 Y153.63 E.01682
G1 X128.129 Y116.57 E1.64803
G1 X127.595 Y116.57 E.01682
G1 X164.655 Y153.63 E1.64803
G1 X164.12 Y153.63 E.01682
M73 P3 R125
G1 X127.06 Y116.57 E1.64803
G1 X126.525 Y116.57 E.01682
M73 Q3 S127
G1 X163.585 Y153.63 E1.64803
G1 X163.05 Y153.63 E.01682
M73 Q3 S126
G1 X125.99 Y116.57 E1.64803
G1 X125.455 Y116.57 E.01682
G1 X162.516 Y153.63 E1.64803
G1 X161.981 Y153.63 E.01682
G1 X124.92 Y116.57 E1.64803
G1 X124.386 Y116.57 E.01682
G1 X161.446 Y153.63 E1.64803
G1 X160.911 Y153.63 E.01682
G1 X123.851 Y116.57 E1.64803
G1 X123.316 Y116.57 E.01682
G1 X160.376 Y153.63 E1.64803
G1 X159.842 Y153.63 E.01682
G1 X122.781 Y116.57 E1.64803
G1 X122.246 Y116.57 E.01682
G1 X159.307 Y153.63 E1.64803
G1 X158.772 Y153.63 E.01682
G1 X121.712 Y116.57 E1.64803
G1 X121.177 Y116.57 E.01682
G1 X158.237 Y153.63 E1.64803
G1 X157.702 Y153.63 E.01682
G1 X120.642 Y116.57 E1.64803
G1 X120.107 Y116.57 E.01682
M73 P3 R124
G1 X157.168 Y153.63 E1.64803
G1 X156.633 Y153.63 E.01682
G1 X119.572 Y116.57 E1.64803
G1 X119.038 Y116.57 E.01682
G1 X156.098 Y153.63 E1.64803
G1 X155.563 Y153.63 E.01682
G1 X118.503 Y116.57 E1.64803
G1 X117.968 Y116.57 E.01682
G1 X155.028 Y153.63 E1.64803
G1 X154.494 Y153.63 E.01682
G1 X117.433 Y116.57 E1.64803
G1 X116.898 Y116.57 E.01682
G1 X153.959 Y153.63 E1.64803
G1 X153.424 Y153.63 E.01682
G1 X116.364 Y116.57 E1.64803
G1 X115.829 Y116.57 E.01682
G1 X152.889 Y153.63 E1.64803
G1 X152.354 Y153.63 E.01682
G1 X115.294 Y116.57 E1.64803
G1 X114.759 Y116.57 E.01682
G1 X151.82 Y153.63 E1.64803
G1 X151.285 Y153.63 E.01682
M73 Q3 S125
G1 X114.224 Y116.57 E1.64803
G1 X113.69 Y116.57 E.01682
G1 X150.75 Y153.63 E1.64803
G1 X150.215 Y153.63 E.01682
G1 X113.155 Y116.57 E1.64803
G1 X112.62 Y116.57 E.01682
G1 X149.68 Y153.63 E1.64803
G1 X149.146 Y153.63 E.01682
G1 X112.085 Y116.57 E1.64803
G1 X111.55 Y116.57 E.01682
M73 P4 R124
G1 X148.611 Y153.63 E1.64803
G1 X148.076 Y153.63 E.01682
M73 Q4 S125
G1 X111.016 Y116.57 E1.64803
G1 X110.481 Y116.57 E.01682
G1 X147.541 Y153.63 E1.64803
G1 X147.006 Y153.63 E.01682
G1 X109.946 Y116.57 E1.64803
G1 X109.411 Y116.57 E.01682
G1 X146.472 Y153.63 E1.64803
G1 X145.937 Y153.63 E.01682
G1 X108.876 Y116.57 E1.64803
G1 X108.342 Y116.57 E.01682
G1 X145.402 Y153.63 E1.64803
G1 X144.867 Y153.63 E.01682
M73 P4 R123
G1 X107.807 Y116.57 E1.64803
G1 X107.272 Y116.57 E.01682
G1 X144.332 Y153.63 E1.64803
G1 X143.798 Y153.63 E.01682
G1 X106.737 Y116.57 E1.64803
G1 X106.202 Y116.57 E.01682
G1 X143.263 Y153.63 E1.64803
G1 X142.728 Y153.63 E.01682
G1 X105.668 Y116.57 E1.64803
G1 X105.133 Y116.57 E.01682
G1 X142.193 Y153.63 E1.64803
G1 X141.658 Y153.63 E.01682
G1 X104.598 Y116.57 E1.64803
G1 X104.063 Y116.57 E.01682
G1 X141.124 Y153.63 E1.64803
G1 X140.589 Y153.63 E.01682
G1 X103.528 Y116.57 E1.64803
G1 X102.994 Y116.57 E.01682
G1 X140.054 Y153.63 E1.64803
G1 X139.519 Y153.63 E.01682
G1 X102.459 Y116.57 E1.64803
G1 X101.924 Y116.57 E.01682
M73 Q4 S124
G1 X138.984 Y153.63 E1.64803
G1 X138.45 Y153.63 E.01682
G1 X101.389 Y116.57 E1.64803
G1 X100.854 Y116.57 E.01682
G1 X137.915 Y153.63 E1.64803
G1 X137.38 Y153.63 E.01682
G1 X100.32 Y116.57 E1.64803
G1 X99.785 Y116.57 E.01682
G1 X136.845 Y153.63 E1.64803
G1 X136.31 Y153.63 E.01682
G1 X99.25 Y116.57 E1.64803
G1 X98.715 Y116.57 E.01682
G1 X135.776 Y153.63 E1.64803
G1 X135.241 Y153.63 E.01682
G1 X98.18 Y116.57 E1.64803
G1 X97.646 Y116.57 E.01682
G1 X134.706 Y153.63 E1.64803
G1 X134.171 Y153.63 E.01682
G1 X97.111 Y116.57 E1.64803
G1 X96.576 Y116.57 E.01682
G1 X133.636 Y153.63 E1.64803
G1 X133.102 Y153.63 E.01682
G1 X96.041 Y116.57 E1.64803
G1 X95.506 Y116.57 E.01682
M73 P5 R122
G1 X132.567 Y153.63 E1.64803
G1 X132.032 Y153.63 E.01682
M73 Q5 S124
G1 X94.972 Y116.57 E1.64803
G1 X94.437 Y116.57 E.01682
G1 X131.497 Y153.63 E1.64803
G1 X130.962 Y153.63 E.01682
G1 X93.902 Y116.57 E1.64803
G1 X93.367 Y116.57 E.01682
G1 X130.428 Y153.63 E1.64803
G1 X129.893 Y153.63 E.01682
G1 X92.832 Y116.57 E1.64803
G1 X92.298 Y116.57 E.01682
G1 X129.358 Y153.63 E1.64803
G1 X128.823 Y153.63 E.01682
G1 X91.763 Y116.57 E1.64803
G1 X91.228 Y116.57 E.01682
G1 X128.288 Y153.63 E1.64803
G1 X127.754 Y153.63 E.01682
G1 X90.693 Y116.57 E1.64803
G1 X90.158 Y116.57 E.01682
M73 Q5 S123
G1 X127.219 Y153.63 E1.64803
G1 X126.684 Y153.63 E.01682
G1 X89.624 Y116.57 E1.64803
G1 X89.089 Y116.57 E.01682
G1 X126.149 Y153.63 E1.64803
G1 X125.614 Y153.63 E.01682
G1 X88.554 Y116.57 E1.64803
G1 X88.019 Y116.57 E.01682
G1 X125.08 Y153.63 E1.64803
G1 X124.545 Y153.63 E.01682
G1 X87.484 Y116.57 E1.64803
G1 X86.95 Y116.57 E.01682
G1 X124.01 Y153.63 E1.64803
G1 X123.475 Y153.63 E.01682
G1 X86.415 Y116.57 E1.64803
G1 X85.88 Y116.57 E.01682
G1 X122.94 Y153.63 E1.64803
G1 X122.406 Y153.63 E.01682
G1 X85.345 Y116.57 E1.64803
G1 X84.81 Y116.57 E.01682
G1 X121.871 Y153.63 E1.64803
G1 X121.336 Y153.63 E.01682
G1 X84.276 Y116.57 E1.64803
G1 X83.741 Y116.57 E.01682
M73 P5 R121
G1 X120.801 Y153.63 E1.64803
G1 X120.266 Y153.63 E.01682
G1 X83.206 Y116.57 E1.64803
G1 X82.671 Y116.57 E.01682
G1 X119.732 Y153.63 E1.64803
G1 X119.197 Y153.63 E.01682
G1 X82.136 Y116.57 E1.64803
G1 X81.602 Y116.57 E.01682
G1 X118.662 Y153.63 E1.64803
G1 X118.127 Y153.63 E.01682
G1 X81.067 Y116.57 E1.64803
G1 X80.532 Y116.57 E.01682
G1 X117.592 Y153.63 E1.64803
G1 X117.058 Y153.63 E.01682
M73 P6 R121
G1 X79.997 Y116.57 E1.64803
G1 X79.462 Y116.57 E.01682
G1 X116.523 Y153.63 E1.64803
G1 X115.988 Y153.63 E.01682
M73 Q6 S123
G1 X78.928 Y116.57 E1.64803
G1 X78.393 Y116.57 E.01682
G1 X115.453 Y153.63 E1.64803
G1 X114.918 Y153.63 E.01682
M73 Q6 S122
G1 X77.858 Y116.57 E1.64803
G1 X77.323 Y116.57 E.01682
G1 X114.384 Y153.63 E1.64803
G1 X113.849 Y153.63 E.01682
G1 X76.788 Y116.57 E1.64803
G1 X76.254 Y116.57 E.01682
G1 X113.314 Y153.63 E1.64803
G1 X112.779 Y153.63 E.01682
G1 X75.719 Y116.57 E1.64803
G1 X75.184 Y116.57 E.01682
G1 X112.244 Y153.63 E1.64803
G1 X111.71 Y153.63 E.01682
G1 X74.649 Y116.57 E1.64803
G1 X74.114 Y116.57 E.01682
G1 X111.175 Y153.63 E1.64803
G1 X110.64 Y153.63 E.01682
G1 X73.58 Y116.57 E1.64803
G1 X73.045 Y116.57 E.01682
G1 X110.105 Y153.63 E1.64803
G1 X109.57 Y153.63 E.01682
G1 X72.51 Y116.57 E1.64803
G1 X71.975 Y116.57 E.01682
G1 X109.036 Y153.63 E1.64803
G1 X108.501 Y153.63 E.01682
M73 P6 R120
G1 X71.44 Y116.57 E1.64803
G1 X70.906 Y116.57 E.01682
G1 X107.966 Y153.63 E1.64803
G1 X107.431 Y153.63 E.01682
G1 X70.371 Y116.57 E1.64803
G1 X69.836 Y116.57 E.01682
G1 X106.896 Y153.63 E1.64803
G1 X106.362 Y153.63 E.01682
G1 X69.57 Y116.838 E1.63608
G1 X69.57 Y117.373 E.01682
G1 X105.827 Y153.63 E1.6123
G1 X105.292 Y153.63 E.01682
G1 X69.57 Y117.908 E1.58852
G1 X69.57 Y118.443 E.01682
G1 X104.757 Y153.63 E1.56474
G1 X104.222 Y153.63 E.01682
G1 X69.57 Y118.978 E1.54095
G1 X69.57 Y119.512 E.01682
G1 X103.688 Y153.63 E1.51717
G1 X103.153 Y153.63 E.01682
G1 X69.57 Y120.047 E1.49339
G1 X69.57 Y120.582 E.01682
M73 Q6 S121
G1 X102.618 Y153.63 E1.46961
G1 X102.083 Y153.63 E.01682
G1 X69.57 Y121.117 E1.44583
G1 X69.57 Y121.652 E.01682
M73 P7 R120
G1 X101.548 Y153.63 E1.42204
G1 X101.014 Y153.63 E.01682
G1 X69.57 Y122.186 E1.39826
G1 X69.57 Y122.721 E.01682
G1 X100.479 Y153.63 E1.37448
G1 X99.944 Y153.63 E.01682
M73 Q7 S121
G1 X69.57 Y123.256 E1.3507
G1 X69.57 Y123.791 E.01682
G1 X99.409 Y153.63 E1.32692
G1 X98.874 Y153.63 E.01682
G1 X69.57 Y124.326 E1.30313
G1 X69.57 Y124.86 E.01682
G1 X98.34 Y153.63 E1.27935
G1 X97.805 Y153.63 E.01682
G1 X69.57 Y125.395 E1.25557
G1 X69.57 Y125.93 E.01682
G1 X97.27 Y153.63 E1.23179
