; generated by PrusaSlicer 2.5.2+win64 on 2023-05-22 at 06:46:56 UTC


;
;

;
;

;
;
; 

; external perimeters extrusion width = 0.45mm
; perimeters extrusion width = 0.45mm
; infill extrusion width = 0.45mm
; solid infill extrusion width = 0.45mm
; top infill extrusion width = 0.45mm
; first layer extrusion width = 0.50mm

M73 P0 R180
M201 X2500 Y2500 Z200 E2500 ; sets maximum accelerations, mm/sec^2
M203 X200 Y200 Z40 E100 ; sets maximum feedrates, mm / sec
M204 P2000 R1200 T2000 ; sets acceleration (P, T) and retract acceleration (R), mm/sec^2
M205 X8.00 Y8.00 Z2.00 E10.00 ; sets the jerk limits, mm/sec
M205 S0 T0 ; sets the minimum extruding and travel feed rate, mm/sec
M107
;TYPE:Custom
M17 ; enable steppers
M862.3 P "MK4" ; printer model check
M862.1 P0.4 ; nozzle diameter check
M330 SYSLOG
M331 loadcell_raw
M331 loadcell_threshold
M331 loadcell_hysteresis
M331 loadcell_scale
M331 probe_z
M331 probe_z_raw
M331 probe_z_diff
M331 home_diff
M331 fsensor_raw
M331 temp_hbr
M331 temp_bed
M331 temp_noz
M331 temp_brd
M331 ttemp_bed
M331 ttemp_noz
M331 pos_z
M331 fan_speed
M331 fan_hbr_speed
M331 tmc_sg_x
M331 tmc_sg_y
M331 tmc_sg_z
M331 tmc_sg_e

M555 X74.5 Y53.5 W101 H99

G90 ; use absolute coordinates
M92 E380 ; set steps/mm for extruder
M83 ; extruder relative mode

M140 S60 ; set bed temp

M104 S170 ; set extruder temp for bed leveling
M109 R170 ; wait for temp


M84 E ; turn off E motor

G28 ; home all without mesh bed level

; probe to clean the nozzle
G1 X106.5 Y53.5 Z5 F4800

M302 S160 ; lower cold extrusion limit to 160C


G1 E-2 F2400 ; retraction


M84 E ; turn off E motor

G29 P9 X74.5 Y53.5 W32 H4

M106 S100

G0 X74.5 Y53.5 Z40 F10000

M190 S60 ; wait for bed temp

M107

;
; MBL
;
M84 E ; turn off E motor
G29 ; mesh bed leveling
M104 S215 ; set extruder temp
G0 X74.5 Y53 Z30 F4800

M109 S215 ; wait for extruder temp
G1 Z0.2 F720
G92 E0

M569 S0 E ; set spreadcycle mode for extruder

;
; Extrude purge line
;

G1 E2 F2400 ; deretraction


; move right
G1 X106.5 E4.8 F1000
; move down
G1 Y51.5 E0.225 F1000
; move left
G1 X74.5 E9.6 F800

G92 E0
M221 S100 ; set flow to 100%
G21 ; set units to millimeters
G90 ; use absolute coordinates
M83 ; use relative distances for extrusion
M900 K0.06 ; Filament gcode

M142 S36 ; set heatbreak target temp
M107
;LAYER_CHANGE
;Z:0.2
;HEIGHT:0.2
;BEFORE_LAYER_CHANGE
G92 E0.0
;0.2


G1 E-.8 F2100
G1 Z.2 F720
;AFTER_LAYER_CHANGE
;0.2
; printing object Taschenlampe_Schalter_seitlich_AAA.stl id:0 copy 0
G1 Z.4
G1 X171.593 Y115.607 F12000
G1 Z.2 F720
G1 E.8 F1500
M204 P600
;TYPE:Perimeter
;WIDTH:0.499999
G1 F1200
G1 X171.593 Y151.593 E1.36769
G1 X75.407 Y151.593 E3.65567
G1 X75.407 Y115.607 E1.36769
G1 X171.533 Y115.607 E3.65339
M204 P1000
G1 X172.05 Y115.15 F12000
M204 P600
;TYPE:External perimeter
G1 F1200
G1 X172.05 Y152.05 E1.40243
G1 X74.95 Y152.05 E3.69041
G1 X74.95 Y115.15 E1.40243
G1 X171.99 Y115.15 E3.68813
M204 P1000
G1 X171.893 Y115.518 F12000
G1 E-.64 F2100
;WIPE_START
G1 F9600
G1 X171.991 Y115.881 E-.152
;WIPE_END
G1 E-.008 F2100
G1 Z.4 F720
G1 X170.462 Y115.813 F12000
G1 Z.2 F720
G1 E.8 F1500
M204 P600
;TYPE:Solid infill
;WIDTH:0.500764
G1 F1200
G1 X171.182 Y116.533 E.03876
G1 X171.182 Y117.18 E.02465
G1 X170.02 Y116.018 E.06255
G1 X169.372 Y116.018 E.02465
G1 X171.182 Y117.828 E.09741
G1 X171.182 Y118.475 E.02465
G1 X168.725 Y116.018 E.13227
G1 X168.077 Y116.018 E.02465
G1 X171.182 Y119.123 E.16713
G1 X171.182 Y119.77 E.02465
G1 X167.43 Y116.018 E.20199
G1 X166.782 Y116.018 E.02465
G1 X171.182 Y120.418 E.23685
G1 X171.182 Y121.065 E.02465
G1 X166.135 Y116.018 E.27171
G1 X165.487 Y116.018 E.02465
G1 X171.182 Y121.713 E.30657
G1 X171.182 Y122.36 E.02465
G1 X164.84 Y116.018 E.34143
G1 X164.192 Y116.018 E.02465
G1 X171.182 Y123.008 E.37629
G1 X171.182 Y123.655 E.02465
G1 X163.545 Y116.018 E.41115
G1 X162.897 Y116.018 E.02465
G1 X171.182 Y124.303 E.44601
G1 X171.182 Y124.95 E.02465
G1 X162.25 Y116.018 E.48087
G1 X161.602 Y116.018 E.02465
G1 X171.182 Y125.598 E.51573
G1 X171.182 Y126.245 E.02465
G1 X160.955 Y116.018 E.55059
G1 X160.308 Y116.018 E.02465
M73 P0 R179
G1 X171.182 Y126.892 E.58545
G1 X171.182 Y127.54 E.02465
G1 X159.66 Y116.018 E.62031
G1 X159.013 Y116.018 E.02465
G1 X171.182 Y128.187 E.65517
G1 X171.182 Y128.835 E.02465
G1 X158.365 Y116.018 E.69003
G1 X157.718 Y116.018 E.02465
G1 X171.182 Y129.482 E.72489
G1 X171.182 Y130.13 E.02465
G1 X157.07 Y116.018 E.75975
G1 X156.423 Y116.018 E.02465
G1 X171.182 Y130.777 E.79461
G1 X171.182 Y131.425 E.02465
G1 X155.775 Y116.018 E.82947
G1 X155.128 Y116.018 E.02465
G1 X171.182 Y132.072 E.86433
G1 X171.182 Y132.72 E.02465
G1 X154.48 Y116.018 E.89919
G1 X153.833 Y116.018 E.02465
G1 X171.182 Y133.367 E.93405
G1 X171.182 Y134.015 E.02465
G1 X153.185 Y116.018 E.96891
G1 X152.538 Y116.018 E.02465
G1 X171.182 Y134.662 E1.00377
G1 X171.182 Y135.31 E.02465
G1 X151.89 Y116.018 E1.03863
G1 X151.243 Y116.018 E.02465
G1 X171.182 Y135.957 E1.07349
G1 X171.182 Y136.605 E.02465
G1 X150.595 Y116.018 E1.10835
G1 X149.948 Y116.018 E.02465
G1 X171.182 Y137.252 E1.14321
G1 X171.182 Y137.9 E.02465
G1 X149.3 Y116.018 E1.17807
G1 X148.653 Y116.018 E.02465
G1 X171.182 Y138.547 E1.21293
G1 X171.182 Y139.195 E.02465
G1 X148.005 Y116.018 E1.24779
G1 X147.358 Y116.018 E.02465
G1 X171.182 Y139.842 E1.28265
G1 X171.182 Y140.49 E.02465
G1 X146.71 Y116.018 E1.31751
G1 X146.063 Y116.018 E.02465
G1 X171.182 Y141.137 E1.35237
G1 X171.182 Y141.785 E.02465
G1 X145.415 Y116.018 E1.38723
G1 X144.768 Y116.018 E.02465
G1 X171.182 Y142.432 E1.42209
G1 X171.182 Y143.08 E.02465
G1 X144.12 Y116.018 E1.45695
G1 X143.473 Y116.018 E.02465
G1 X171.182 Y143.727 E1.49181
G1 X171.182 Y144.375 E.02465
G1 X142.825 Y116.018 E1.52667
G1 X142.178 Y116.018 E.02465
G1 X171.182 Y145.022 E1.56153
G1 X171.182 Y145.67 E.02465
G1 X141.53 Y116.018 E1.59639
G1 X140.883 Y116.018 E.02465
G1 X171.182 Y146.317 E1.63125
G1 X171.182 Y146.965 E.02465
G1 X140.235 Y116.018 E1.66611
G1 X139.588 Y116.018 E.02465
G1 X171.182 Y147.612 E1.70097
G1 X171.182 Y148.26 E.02465
G1 X138.94 Y116.018 E1.73583
G1 X138.293 Y116.018 E.02465
G1 X171.182 Y148.907 E1.77069
G1 X171.182 Y149.555 E.02465
G1 X137.645 Y116.018 E1.80555
G1 X136.998 Y116.018 E.02465
G1 X171.182 Y150.202 E1.84041
G1 X171.182 Y150.85 E.02465
G1 X136.35 Y116.018 E1.87527
G1 X135.703 Y116.018 E.02465
M73 P0 R178
G1 X170.866 Y151.182 E1.89315
G1 X170.219 Y151.182 E.02465
G1 X135.055 Y116.018 E1.89315
G1 X134.408 Y116.018 E.02465
M73 P1 R178
G1 X169.571 Y151.182 E1.89315
G1 X168.924 Y151.182 E.02465
G1 X133.76 Y116.018 E1.89315
G1 X133.113 Y116.018 E.02465
G1 X168.276 Y151.182 E1.89315
G1 X167.629 Y151.182 E.02465
G1 X132.465 Y116.018 E1.89315
G1 X131.818 Y116.018 E.02465
G1 X166.981 Y151.182 E1.89315
G1 X166.334 Y151.182 E.02465
G1 X131.171 Y116.018 E1.89315
G1 X130.523 Y116.018 E.02465
G1 X165.686 Y151.182 E1.89315
G1 X165.039 Y151.182 E.02465
G1 X129.876 Y116.018 E1.89315
G1 X129.228 Y116.018 E.02465
G1 X164.391 Y151.182 E1.89315
G1 X163.744 Y151.182 E.02465
G1 X128.581 Y116.018 E1.89315
G1 X127.933 Y116.018 E.02465
G1 X163.096 Y151.182 E1.89315
G1 X162.449 Y151.182 E.02465
G1 X127.286 Y116.018 E1.89315
G1 X126.638 Y116.018 E.02465
G1 X161.801 Y151.182 E1.89315
G1 X161.154 Y151.182 E.02465
G1 X125.991 Y116.018 E1.89315
G1 X125.343 Y116.018 E.02465
G1 X160.506 Y151.182 E1.89315
G1 X159.859 Y151.182 E.02465
G1 X124.696 Y116.018 E1.89315
G1 X124.048 Y116.018 E.02465
G1 X159.211 Y151.182 E1.89315
G1 X158.564 Y151.182 E.02465
G1 X123.401 Y116.018 E1.89315
G1 X122.753 Y116.018 E.02465
G1 X157.916 Y151.182 E1.89315
G1 X157.269 Y151.182 E.02465
G1 X122.106 Y116.018 E1.89315
G1 X121.458 Y116.018 E.02465
G1 X156.621 Y151.182 E1.89315
G1 X155.974 Y151.182 E.02465
M73 P1 R177
G1 X120.811 Y116.018 E1.89315
G1 X120.163 Y116.018 E.02465
G1 X155.326 Y151.182 E1.89315
G1 X154.679 Y151.182 E.02465
G1 X119.516 Y116.018 E1.89315
G1 X118.868 Y116.018 E.02465
G1 X154.031 Y151.182 E1.89315
G1 X153.384 Y151.182 E.02465
G1 X118.221 Y116.018 E1.89315
G1 X117.573 Y116.018 E.02465
G1 X152.736 Y151.182 E1.89315
G1 X152.089 Y151.182 E.02465
G1 X116.926 Y116.018 E1.89315
G1 X116.278 Y116.018 E.02465
G1 X151.441 Y151.182 E1.89315
G1 X150.794 Y151.182 E.02465
G1 X115.631 Y116.018 E1.89315
G1 X114.983 Y116.018 E.02465
G1 X150.146 Y151.182 E1.89315
G1 X149.499 Y151.182 E.02465
G1 X114.336 Y116.018 E1.89315
G1 X113.688 Y116.018 E.02465
G1 X148.851 Y151.182 E1.89315
G1 X148.204 Y151.182 E.02465
G1 X113.041 Y116.018 E1.89315
G1 X112.393 Y116.018 E.02465
G1 X147.556 Y151.182 E1.89315
G1 X146.909 Y151.182 E.02465
G1 X111.746 Y116.018 E1.89315
G1 X111.098 Y116.018 E.02465
G1 X146.261 Y151.182 E1.89315
G1 X145.614 Y151.182 E.02465
G1 X110.451 Y116.018 E1.89315
G1 X109.803 Y116.018 E.02465
G1 X144.967 Y151.182 E1.89315
G1 X144.319 Y151.182 E.02465
G1 X109.156 Y116.018 E1.89315
G1 X108.508 Y116.018 E.02465
G1 X143.672 Y151.182 E1.89315
G1 X143.024 Y151.182 E.02465
G1 X107.861 Y116.018 E1.89315
G1 X107.213 Y116.018 E.02465
M73 P2 R177
G1 X142.377 Y151.182 E1.89315
G1 X141.729 Y151.182 E.02465
G1 X106.566 Y116.018 E1.89315
G1 X105.918 Y116.018 E.02465
G1 X141.082 Y151.182 E1.89315
G1 X140.434 Y151.182 E.02465
M73 P2 R176
G1 X105.271 Y116.018 E1.89315
G1 X104.623 Y116.018 E.02465
G1 X139.787 Y151.182 E1.89315
G1 X139.139 Y151.182 E.02465
G1 X103.976 Y116.018 E1.89315
G1 X103.328 Y116.018 E.02465
G1 X138.492 Y151.182 E1.89315
G1 X137.844 Y151.182 E.02465
G1 X102.681 Y116.018 E1.89315
G1 X102.033 Y116.018 E.02465
G1 X137.197 Y151.182 E1.89315
G1 X136.549 Y151.182 E.02465
G1 X101.386 Y116.018 E1.89315
G1 X100.739 Y116.018 E.02465
G1 X135.902 Y151.182 E1.89315
G1 X135.254 Y151.182 E.02465
G1 X100.091 Y116.018 E1.89315
G1 X99.444 Y116.018 E.02465
G1 X134.607 Y151.182 E1.89315
G1 X133.959 Y151.182 E.02465
G1 X98.796 Y116.018 E1.89315
G1 X98.149 Y116.018 E.02465
G1 X133.312 Y151.182 E1.89315
G1 X132.664 Y151.182 E.02465
G1 X97.501 Y116.018 E1.89315
G1 X96.854 Y116.018 E.02465
G1 X132.017 Y151.182 E1.89315
G1 X131.369 Y151.182 E.02465
G1 X96.206 Y116.018 E1.89315
G1 X95.559 Y116.018 E.02465
G1 X130.722 Y151.182 E1.89315
G1 X130.074 Y151.182 E.02465
G1 X94.911 Y116.018 E1.89315
G1 X94.264 Y116.018 E.02465
G1 X129.427 Y151.182 E1.89315
G1 X128.779 Y151.182 E.02465
G1 X93.616 Y116.018 E1.89315
G1 X92.969 Y116.018 E.02465
G1 X128.132 Y151.182 E1.89315
G1 X127.484 Y151.182 E.02465
G1 X92.321 Y116.018 E1.89315
G1 X91.674 Y116.018 E.02465
G1 X126.837 Y151.182 E1.89315
G1 X126.189 Y151.182 E.02465
G1 X91.026 Y116.018 E1.89315
G1 X90.379 Y116.018 E.02465
G1 X125.542 Y151.182 E1.89315
G1 X124.894 Y151.182 E.02465
M73 P2 R175
G1 X89.731 Y116.018 E1.89315
G1 X89.084 Y116.018 E.02465
G1 X124.247 Y151.182 E1.89315
G1 X123.599 Y151.182 E.02465
G1 X88.436 Y116.018 E1.89315
G1 X87.789 Y116.018 E.02465
G1 X122.952 Y151.182 E1.89315
G1 X122.304 Y151.182 E.02465
G1 X87.141 Y116.018 E1.89315
G1 X86.494 Y116.018 E.02465
G1 X121.657 Y151.182 E1.89315
G1 X121.009 Y151.182 E.02465
G1 X85.846 Y116.018 E1.89315
G1 X85.199 Y116.018 E.02465
G1 X120.362 Y151.182 E1.89315
G1 X119.714 Y151.182 E.02465
G1 X84.551 Y116.018 E1.89315
G1 X83.904 Y116.018 E.02465
G1 X119.067 Y151.182 E1.89315
G1 X118.419 Y151.182 E.02465
G1 X83.256 Y116.018 E1.89315
G1 X82.609 Y116.018 E.02465
G1 X117.772 Y151.182 E1.89315
G1 X117.124 Y151.182 E.02465
G1 X81.961 Y116.018 E1.89315
G1 X81.314 Y116.018 E.02465
G1 X116.477 Y151.182 E1.89315
G1 X115.829 Y151.182 E.02465
G1 X80.666 Y116.018 E1.89315
G1 X80.019 Y116.018 E.02465
G1 X115.182 Y151.182 E1.89315
G1 X114.535 Y151.182 E.02465
M73 P3 R175
G1 X79.371 Y116.018 E1.89315
G1 X78.724 Y116.018 E.02465
G1 X113.887 Y151.182 E1.89315
G1 X113.24 Y151.182 E.02465
G1 X78.076 Y116.018 E1.89315
G1 X77.429 Y116.018 E.02465
G1 X112.592 Y151.182 E1.89315
G1 X111.945 Y151.182 E.02465
G1 X76.781 Y116.018 E1.89315
G1 X76.134 Y116.018 E.02465
G1 X111.297 Y151.182 E1.89315
G1 X110.65 Y151.182 E.02465
G1 X75.818 Y116.35 E1.87527
G1 X75.818 Y116.998 E.02465
M73 P3 R174
G1 X110.002 Y151.182 E1.84041
G1 X109.355 Y151.182 E.02465
G1 X75.818 Y117.645 E1.80555
G1 X75.818 Y118.293 E.02465
G1 X108.707 Y151.182 E1.77069
G1 X108.06 Y151.182 E.02465
G1 X75.818 Y118.94 E1.73583
G1 X75.818 Y119.588 E.02465
G1 X107.412 Y151.182 E1.70097
G1 X106.765 Y151.182 E.02465
G1 X75.818 Y120.235 E1.66611
G1 X75.818 Y120.883 E.02465
G1 X106.117 Y151.182 E1.63125
G1 X105.47 Y151.182 E.02465
G1 X75.818 Y121.53 E1.59639
G1 X75.818 Y122.178 E.02465
G1 X104.822 Y151.182 E1.56153
G1 X104.175 Y151.182 E.02465
G1 X75.818 Y122.825 E1.52667
G1 X75.818 Y123.473 E.02465
G1 X103.527 Y151.182 E1.49181
G1 X102.88 Y151.182 E.02465
G1 X75.818 Y124.12 E1.45695
G1 X75.818 Y124.768 E.02465
G1 X102.232 Y151.182 E1.42209
G1 X101.585 Y151.182 E.02465
G1 X75.818 Y125.415 E1.38723
G1 X75.818 Y126.063 E.02465
G1 X100.937 Y151.182 E1.35237
G1 X100.29 Y151.182 E.02465
G1 X75.818 Y126.71 E1.31751
G1 X75.818 Y127.358 E.02465
G1 X99.642 Y151.182 E1.28265
G1 X98.995 Y151.182 E.02465
G1 X75.818 Y128.005 E1.24779
G1 X75.818 Y128.653 E.02465
G1 X98.347 Y151.182 E1.21293
G1 X97.7 Y151.182 E.02465
G1 X75.818 Y129.3 E1.17807
G1 X75.818 Y129.948 E.02465
G1 X97.052 Y151.182 E1.14321
G1 X96.405 Y151.182 E.02465
G1 X75.818 Y130.595 E1.10835
G1 X75.818 Y131.243 E.02465
G1 X95.757 Y151.182 E1.07349
G1 X95.11 Y151.182 E.02465
G1 X75.818 Y131.89 E1.03863
G1 X75.818 Y132.538 E.02465
G1 X94.462 Y151.182 E1.00377
G1 X93.815 Y151.182 E.02465
G1 X75.818 Y133.185 E.96891
G1 X75.818 Y133.833 E.02465
G1 X93.167 Y151.182 E.93405
G1 X92.52 Y151.182 E.02465
G1 X75.818 Y134.48 E.89919
G1 X75.818 Y135.128 E.02465
G1 X91.872 Y151.182 E.86433
G1 X91.225 Y151.182 E.02465
G1 X75.818 Y135.775 E.82947
G1 X75.818 Y136.423 E.02465
G1 X90.577 Y151.182 E.79461
G1 X89.93 Y151.182 E.02465
G1 X75.818 Y137.07 E.75975
G1 X75.818 Y137.718 E.02465
G1 X89.282 Y151.182 E.72489
G1 X88.635 Y151.182 E.02465
G1 X75.818 Y138.365 E.69003
G1 X75.818 Y139.013 E.02465
M73 P3 R173
G1 X87.987 Y151.182 E.65517
G1 X87.34 Y151.182 E.02465
G1 X75.818 Y139.66 E.62031
G1 X75.818 Y140.308 E.02465
G1 X86.692 Y151.182 E.58545
G1 X86.045 Y151.182 E.02465
G1 X75.818 Y140.955 E.55059
G1 X75.818 Y141.603 E.02465
G1 X85.397 Y151.182 E.51573
G1 X84.75 Y151.182 E.02465
G1 X75.818 Y142.25 E.48087
G1 X75.818 Y142.897 E.02465
G1 X84.103 Y151.182 E.44601
G1 X83.455 Y151.182 E.02465
G1 X75.818 Y143.545 E.41115
G1 X75.818 Y144.192 E.02465
G1 X82.808 Y151.182 E.37629
G1 X82.16 Y151.182 E.02465
G1 X75.818 Y144.84 E.34143
G1 X75.818 Y145.487 E.02465
G1 X81.513 Y151.182 E.30657
G1 X80.865 Y151.182 E.02465
G1 X75.818 Y146.135 E.27171
G1 X75.818 Y146.782 E.02465
G1 X80.218 Y151.182 E.23685
G1 X79.57 Y151.182 E.02465
G1 X75.818 Y147.43 E.20199
G1 X75.818 Y148.077 E.02465
G1 X78.923 Y151.182 E.16713
G1 X78.275 Y151.182 E.02465
G1 X75.818 Y148.725 E.13227
G1 X75.818 Y149.372 E.02465
G1 X77.628 Y151.182 E.09741
G1 X76.98 Y151.182 E.02465
G1 X75.818 Y150.02 E.06255
G1 X75.818 Y150.667 E.02465
G1 X76.538 Y151.387 E.03876
M204 P1000
G1 E-.64 F2100
;WIPE_START
G1 F9600
G1 X76.021 Y150.87 E-.152
;WIPE_END
G1 E-.008 F2100
G1 Z.4 F720
G1 X75.407 Y97.593 F12000
G1 Z.2 F720
G1 E.8 F1500
M204 P600
;TYPE:Perimeter
;WIDTH:0.499999
G1 F1200
G1 X75.407 Y58.407 E1.48931
G1 X174.593 Y58.407 E3.76968
G1 X174.593 Y97.593 E1.48931
G1 X75.467 Y97.593 E3.7674
M204 P1000
G1 X74.95 Y98.05 F12000
M204 P600
;TYPE:External perimeter
G1 F1200
G1 X74.95 Y57.95 E1.52405
G1 X175.05 Y57.95 E3.80443
G1 X175.05 Y98.05 E1.52405
G1 X75.01 Y98.05 E3.80215
M204 P1000
G1 X75.105 Y97.681 F12000
M73 P4 R173
G1 E-.64 F2100
;WIPE_START
G1 F9600
G1 X75.009 Y97.319 E-.152
;WIPE_END
G1 E-.008 F2100
G1 Z.4 F720
G1 X173.459 Y58.613 F12000
G1 Z.2 F720
G1 E.8 F1500
M204 P600
;TYPE:Solid infill
;WIDTH:0.502007
G1 F1200
G1 X174.182 Y59.335 E.03901
G1 X174.182 Y59.985 E.02478
G1 X173.015 Y58.818 E.06295
G1 X172.366 Y58.818 E.02478
G1 X174.182 Y60.634 E.098
G1 X174.182 Y61.283 E.02478
G1 X171.717 Y58.818 E.13305
G1 X171.068 Y58.818 E.02478
G1 X174.182 Y61.932 E.1681
G1 X174.182 Y62.582 E.02478
G1 X170.418 Y58.818 E.20315
G1 X169.769 Y58.818 E.02478
G1 X174.182 Y63.231 E.2382
