; generated by PrusaSlicer 2.4.1+win64 on 2023-04-21 at 11:04:02 UTC


;
;
; 

; external perimeters extrusion width = 0.60mm
; perimeters extrusion width = 0.50mm
; infill extrusion width = 0.50mm
; solid infill extrusion width = 0.50mm
; top infill extrusion width = 0.45mm
; first layer extrusion width = 0.42mm

M73 P0 R3
M73 Q0 S3
M201 X1000 Y1000 Z200 E5000 ; sets maximum accelerations, mm/sec^2
M203 X200 Y200 Z12 E120 ; sets maximum feedrates, mm / sec
M204 P1250 R1250 T1250 ; sets acceleration (P, T) and retract acceleration (R), mm/sec^2
M205 X8.00 Y8.00 Z0.40 E4.50 ; sets the jerk limits, mm/sec
M205 S0 T0 ; sets the minimum extruding and travel feed rate, mm/sec
M107
;TYPE:Custom
M862.3 P "MK3S" ; printer model check
M862.1 P0.4 ; nozzle diameter check
M115 U3.11.0 ; tell printer latest fw version
G90 ; use absolute coordinates
M83 ; extruder relative mode
M104 S215 ; set extruder temp
M140 S60 ; set bed temp
M190 S60 ; wait for bed temp
M109 S215 ; wait for extruder temp
G28 W ; home all without mesh bed level
G80 ; mesh bed leveling

G1 Z0.2 F720
G1 Y-3 F1000 ; go outside print area
G92 E0
G1 X60 E9 F1000 ; intro line
G1 X100 E12.5 F1000 ; intro line

G92 E0
M221 S95

; Don't change E values below. Excessive value can damage the printer.

M907 E538 ; set extruder motor current
G21 ; set units to millimeters
G90 ; use absolute coordinates
M83 ; use relative distances for extrusion
M900 K0.05 ; Filament gcode LA 1.5
M900 K30 ; Filament gcode LA 1.0
M107
;LAYER_CHANGE
;Z:0.2
;HEIGHT:0.2
;BEFORE_LAYER_CHANGE
G92 E0.0
;0.2


M73 P1 R3
M73 Q1 S3
G1 E-.8 F2100
M73 P2 R3
M73 Q2 S3
G1 Z.4 F720
;AFTER_LAYER_CHANGE
;0.2
G1 X108.552 Y92.056 F10800
G1 Z.2 F720
M73 P3 R3
M73 Q3 S3
G1 E.8 F2100
M204 S800
;TYPE:Skirt/Brim
;WIDTH:0.42
G1 F1200
G1 X111.554 Y89.053 E.13314
G1 X113.502 Y88.246 E.06611
G1 X136.498 Y88.246 E.72102
G1 X138.446 Y89.053 E.06611
G1 X141.448 Y92.056 E.13314
G1 X142.254 Y94.003 E.06608
G1 X142.254 Y115.998 E.68964
G1 X141.447 Y117.945 E.06609
M73 P4 R3
M73 Q4 S3
G1 X138.445 Y120.947 E.13311
G1 X136.498 Y121.754 E.06609
G1 X113.502 Y121.754 E.72102
G1 X111.555 Y120.947 E.06609
M73 Q5 S3
G1 X108.553 Y117.945 E.13311
M73 P5 R3
G1 X107.746 Y115.998 E.06609
G1 X107.746 Y94.003 E.68964
G1 X108.529 Y92.111 E.0642
M204 S1000
G1 X108.819 Y92.322 F10800
M204 S800
G1 F1200
G1 X111.821 Y89.319 E.13314
G1 X113.502 Y88.623 E.05706
G1 X136.498 Y88.623 E.72102
G1 X138.179 Y89.319 E.05706
M73 P6 R3
M73 Q6 S3
G1 X141.181 Y92.322 E.13314
G1 X141.877 Y94.003 E.05703
G1 X141.877 Y115.998 E.68964
G1 X141.181 Y117.679 E.05704
M73 Q7 S3
G1 X138.179 Y120.681 E.13311
G1 X136.498 Y121.377 E.05704
M73 P7 R3
G1 X113.502 Y121.377 E.72102
G1 X111.821 Y120.681 E.05704
G1 X108.819 Y117.679 E.13311
G1 X108.123 Y115.998 E.05704
G1 X108.123 Y94.003 E.68964
G1 X108.796 Y92.378 E.05515
M204 S1000
; printing object GleichrichterDeckel.stl id:0 copy 0
;WIPE_START
M73 P8 R3
M73 Q8 S3
G1 F8640
G1 X111.11 Y90.038 E-.76
;WIPE_END
G1 E-.04 F2100
G1 Z.6 F720
G1 X111.287 Y94.79 F10800
G1 Z.2 F720
G1 E.8 F2100
M204 S800
;TYPE:Perimeter
G1 F1200
G1 X114.289 Y94.79 E.09413
G1 X114.289 Y91.787 E.09416
G1 X135.711 Y91.787 E.67167
G1 X135.711 Y94.79 E.09416
M73 P9 R3
M73 Q9 S3
G1 X138.713 Y94.79 E.09413
G1 X138.713 Y115.211 E.64028
G1 X135.711 Y115.211 E.09413
G1 X135.711 Y118.213 E.09413
G1 X114.289 Y118.213 E.67167
G1 X114.289 Y115.211 E.09413
M73 P10 R3
M73 Q10 S3
G1 X111.287 Y115.211 E.09413
G1 X111.287 Y94.85 E.6384
M204 S1000
G1 X110.91 Y94.413 F10800
M204 S800
;TYPE:External perimeter
G1 F1200
G1 X113.912 Y94.413 E.09413
G1 X113.912 Y91.41 E.09416
M73 Q11 S3
G1 X136.088 Y91.41 E.69531
G1 X136.088 Y94.413 E.09416
M73 P11 R3
G1 X139.09 Y94.413 E.09413
G1 X139.09 Y115.588 E.66393
G1 X136.088 Y115.588 E.09413
M73 P12 R3
M73 Q12 S3
G1 X136.088 Y118.59 E.09413
G1 X113.912 Y118.59 E.69531
G1 X113.912 Y115.588 E.09413
G1 X110.91 Y115.588 E.09413
G1 X110.91 Y94.473 E.66205
M204 S1000
G1 X111.265 Y94.597 F10800
;WIPE_START
M73 P13 R3
M73 Q13 S3
G1 F8640
G1 X113.912 Y94.413 E-.69331
G1 X113.912 Y94.124 E-.06669
;WIPE_END
G1 E-.04 F2100
G1 Z.6 F720
G1 X135.598 Y92.663 F10800
G1 Z.2 F720
G1 E.8 F2100
M204 S800
;TYPE:Solid infill
;WIDTH:0.420075
G1 F1200
G1 X135.005 Y92.07 E.02629
G1 X134.472 Y92.07 E.01673
G1 X135.428 Y93.026 E.04242
G1 X135.428 Y93.56 E.01673
G1 X133.938 Y92.07 E.06607
G1 X133.405 Y92.07 E.01673
G1 X135.598 Y94.263 E.09726
M204 S1000
;WIPE_START
G1 F8640
G1 X133.405 Y92.07 E-.71608
G1 X133.595 Y92.07 E-.04392
;WIPE_END
G1 E-.04 F2100
G1 Z.6 F720
G1 X137.838 Y94.903 F10800
G1 Z.2 F720
G1 E.8 F2100
M204 S800
M73 Q14 S3
G1 F1200
G1 X138.43 Y95.495 E.02624
G1 X138.43 Y96.028 E.01673
G1 X137.475 Y95.073 E.04237
G1 X136.941 Y95.073 E.01673
G1 X138.43 Y96.562 E.06603
G1 X138.43 Y97.095 E.01673
M73 P14 R3
G1 X136.238 Y94.903 E.09721
M204 S1000
;WIPE_START
G1 F8640
G1 X138.43 Y97.095 E-.71575
G1 X138.43 Y96.903 E-.04425
;WIPE_END
G1 E-.04 F2100
G1 Z.6 F720
G1 X138.6 Y97.798 F10800
G1 Z.2 F720
G1 E.8 F2100
M204 S800
G1 F1200
G1 X135.875 Y95.073 E.12087
G1 X135.428 Y95.073 E.014
G1 X135.428 Y94.626 E.014
G1 X132.872 Y92.07 E.11339
G1 X132.338 Y92.07 E.01673
G1 X138.43 Y98.162 E.27018
G1 X138.43 Y98.695 E.01673
G1 X131.805 Y92.07 E.29384
G1 X131.271 Y92.07 E.01673
M73 Q15 S3
G1 X138.43 Y99.229 E.31749
G1 X138.43 Y99.762 E.01673
M73 P15 R3
G1 X130.738 Y92.07 E.34115
G1 X130.205 Y92.07 E.01673
G1 X138.43 Y100.295 E.3648
G1 X138.43 Y100.829 E.01673
G1 X129.671 Y92.07 E.38846
G1 X129.138 Y92.07 E.01673
M73 Q16 S3
G1 X138.43 Y101.362 E.41211
G1 X138.43 Y101.895 E.01673
M73 P16 R3
G1 X128.605 Y92.07 E.43577
G1 X128.071 Y92.07 E.01673
G1 X138.43 Y102.429 E.45943
G1 X138.43 Y102.962 E.01673
G1 X127.538 Y92.07 E.48308
G1 X127.004 Y92.07 E.01673
M73 P17 R3
M73 Q17 S3
G1 X138.43 Y103.496 E.50674
G1 X138.43 Y104.029 E.01673
G1 X126.471 Y92.07 E.53039
G1 X125.938 Y92.07 E.01673
M73 Q18 S3
G1 X138.43 Y104.562 E.55405
G1 X138.43 Y105.096 E.01673
M73 P18 R3
G1 X125.404 Y92.07 E.5777
G1 X124.871 Y92.07 E.01673
G1 X138.43 Y105.629 E.60136
G1 X138.43 Y106.162 E.01673
M73 P19 R3
M73 Q19 S3
G1 X124.338 Y92.07 E.62501
G1 X123.804 Y92.07 E.01673
G1 X138.43 Y106.696 E.64867
G1 X138.43 Y107.229 E.01673
M73 P20 R3
M73 Q20 S3
G1 X123.271 Y92.07 E.67233
G1 X122.737 Y92.07 E.01673
G1 X138.43 Y107.763 E.69598
G1 X138.43 Y108.296 E.01673
M73 P21 R3
M73 Q21 S3
G1 X122.204 Y92.07 E.71964
G1 X121.671 Y92.07 E.01673
G1 X138.43 Y108.829 E.74329
G1 X138.43 Y109.363 E.01673
M73 P22 R3
M73 Q22 S3
G1 X121.137 Y92.07 E.76695
G1 X120.604 Y92.07 E.01673
G1 X138.43 Y109.896 E.7906
G1 X138.43 Y110.43 E.01673
M73 P23 R3
M73 Q23 S3
G1 X120.07 Y92.07 E.81426
G1 X119.537 Y92.07 E.01673
M73 P23 R2
M73 Q23 S2
G1 X138.43 Y110.963 E.83792
G1 X138.43 Y111.496 E.01673
M73 P24 R2
M73 Q24 S2
G1 X119.004 Y92.07 E.86157
G1 X118.47 Y92.07 E.01673
M73 Q25 S2
G1 X138.43 Y112.03 E.88523
G1 X138.43 Y112.563 E.01673
M73 P25 R2
G1 X117.937 Y92.07 E.90888
G1 X117.404 Y92.07 E.01673
M73 P26 R2
M73 Q26 S2
G1 X138.43 Y113.096 E.93254
G1 X138.43 Y113.63 E.01673
G1 X116.87 Y92.07 E.95619
G1 X116.337 Y92.07 E.01673
M73 P27 R2
M73 Q27 S2
G1 X138.43 Y114.163 E.97985
G1 X138.43 Y114.697 E.01673
M73 P28 R2
M73 Q28 S2
G1 X115.803 Y92.07 E1.0035
G1 X115.27 Y92.07 E.01673
G1 X138.128 Y114.928 E1.01378
M73 Q29 S2
G1 X137.595 Y114.928 E.01673
M73 P29 R2
G1 X114.737 Y92.07 E1.01378
G1 X114.572 Y92.07 E.00517
M73 P30 R2
M73 Q30 S2
G1 X114.572 Y92.438 E.01156
G1 X137.062 Y114.928 E.99743
G1 X136.528 Y114.928 E.01673
M73 P31 R2
M73 Q31 S2
G1 X114.572 Y92.972 E.97378
G1 X114.572 Y93.505 E.01673
G1 X135.995 Y114.928 E.95012
G1 X135.461 Y114.928 E.01673
M73 P32 R2
M73 Q32 S2
G1 X114.572 Y94.039 E.92646
G1 X114.572 Y94.572 E.01673
M73 P33 R2
M73 Q33 S2
G1 X135.428 Y115.428 E.92499
G1 X135.428 Y115.962 E.01673
G1 X114.539 Y95.073 E.92642
G1 X114.006 Y95.073 E.01673
M73 P34 R2
M73 Q34 S2
G1 X135.428 Y116.495 E.95008
G1 X135.428 Y117.028 E.01673
M73 Q35 S2
G1 X113.473 Y95.073 E.97374
G1 X112.939 Y95.073 E.01673
M73 P35 R2
G1 X135.428 Y117.562 E.99739
G1 X135.428 Y117.93 E.01155
M73 P36 R2
M73 Q36 S2
G1 X135.263 Y117.93 E.00517
G1 X112.406 Y95.073 E1.01373
G1 X111.873 Y95.073 E.01673
M73 P37 R2
M73 Q37 S2
G1 X134.73 Y117.93 E1.01373
G1 X134.196 Y117.93 E.01673
G1 X111.57 Y95.304 E1.0035
G1 X111.57 Y95.837 E.01673
M73 P38 R2
M73 Q38 S2
G1 X133.663 Y117.93 E.97984
G1 X133.13 Y117.93 E.01673
M73 P39 R2
M73 Q39 S2
G1 X111.57 Y96.37 E.95619
G1 X111.57 Y96.904 E.01673
G1 X132.596 Y117.93 E.93253
G1 X132.063 Y117.93 E.01673
M73 P40 R2
M73 Q40 S2
G1 X111.57 Y97.437 E.90888
G1 X111.57 Y97.97 E.01673
M73 P41 R2
M73 Q41 S2
G1 X131.53 Y117.93 E.88522
G1 X130.996 Y117.93 E.01673
G1 X111.57 Y98.504 E.86157
G1 X111.57 Y99.037 E.01673
M73 P42 R2
M73 Q42 S2
G1 X130.463 Y117.93 E.83791
G1 X129.929 Y117.93 E.01673
G1 X111.57 Y99.571 E.81426
M73 Q43 S2
G1 X111.57 Y100.104 E.01673
M73 P43 R2
G1 X129.396 Y117.93 E.7906
G1 X128.863 Y117.93 E.01673
M73 P44 R2
M73 Q44 S2
G1 X111.57 Y100.637 E.76694
G1 X111.57 Y101.171 E.01673
G1 X128.329 Y117.93 E.74329
G1 X127.796 Y117.93 E.01673
M73 P45 R2
M73 Q45 S2
G1 X111.57 Y101.704 E.71963
G1 X111.57 Y102.237 E.01673
G1 X127.263 Y117.93 E.69598
G1 X126.729 Y117.93 E.01673
M73 P46 R2
M73 Q46 S2
G1 X111.57 Y102.771 E.67232
G1 X111.57 Y103.304 E.01673
G1 X126.196 Y117.93 E.64867
G1 X125.662 Y117.93 E.01673
M73 P47 R2
M73 Q47 S2
G1 X111.57 Y103.838 E.62501
G1 X111.57 Y104.371 E.01673
G1 X125.129 Y117.93 E.60135
G1 X124.596 Y117.93 E.01673
G1 X111.57 Y104.904 E.5777
G1 X111.57 Y105.438 E.01673
M73 P48 R2
M73 Q48 S2
G1 X124.062 Y117.93 E.55404
G1 X123.529 Y117.93 E.01673
G1 X111.57 Y105.971 E.53039
G1 X111.57 Y106.505 E.01673
M73 P49 R1
M73 Q49 S1
G1 X122.995 Y117.93 E.50673
G1 X122.462 Y117.93 E.01673
G1 X111.57 Y107.038 E.48308
G1 X111.57 Y107.571 E.01673
G1 X121.929 Y117.93 E.45942
G1 X121.395 Y117.93 E.01673
M73 P50 R1
M73 Q50 S1
G1 X111.57 Y108.105 E.43577
G1 X111.57 Y108.638 E.01673
G1 X120.862 Y117.93 E.41211
G1 X120.329 Y117.93 E.01673
G1 X111.57 Y109.171 E.38845
G1 X111.57 Y109.705 E.01673
M73 P51 R1
M73 Q51 S1
G1 X119.795 Y117.93 E.3648
G1 X119.262 Y117.93 E.01673
G1 X111.57 Y110.238 E.34114
G1 X111.57 Y110.772 E.01673
G1 X118.728 Y117.93 E.31749
G1 X118.195 Y117.93 E.01673
G1 X111.57 Y111.305 E.29383
G1 X111.57 Y111.838 E.01673
M73 Q52 S1
G1 X117.662 Y117.93 E.27018
M73 P52 R1
G1 X117.128 Y117.93 E.01673
G1 X114.572 Y115.374 E.11338
G1 X114.572 Y114.928 E.01397
G1 X114.126 Y114.928 E.01397
G1 X111.57 Y112.372 E.11338
G1 X111.57 Y112.905 E.01673
G1 X113.593 Y114.928 E.08973
G1 X113.06 Y114.928 E.01673
G1 X111.57 Y113.438 E.06607
G1 X111.57 Y113.972 E.01673
G1 X112.526 Y114.928 E.04241
G1 X111.993 Y114.928 E.01673
G1 X111.4 Y114.335 E.02628
M204 S1000
;WIPE_START
G1 F8640
G1 X111.993 Y114.928 E-.19352
G1 X112.526 Y114.928 E-.12316
G1 X111.57 Y113.972 E-.31229
G1 X111.57 Y113.438 E-.12316
G1 X111.594 Y113.463 E-.00787
;WIPE_END
G1 E-.04 F2100
G1 Z.6 F720
G1 X114.402 Y115.737 F10800
G1 Z.2 F720
G1 E.8 F2100
M204 S800
G1 F1200
G1 X116.595 Y117.93 E.09725
G1 X116.062 Y117.93 E.01673
G1 X114.572 Y116.44 E.06607
G1 X114.572 Y116.974 E.01673
G1 X115.528 Y117.93 E.04241
M73 Q53 S1
G1 X114.995 Y117.93 E.01673
G1 X114.402 Y117.337 E.02628
M204 S1000
; stop printing object GleichrichterDeckel.stl id:0 copy 0
M106 S84.15
;LAYER_CHANGE
;Z:0.5
;HEIGHT:0.3
;BEFORE_LAYER_CHANGE
G92 E0.0
;0.5


;WIPE_START
M73 P53 R1
G1 F8640
G1 X114.995 Y117.93 E-.19352
G1 X115.528 Y117.93 E-.12316
G1 X114.572 Y116.974 E-.31229
G1 X114.572 Y116.44 E-.12316
G1 X114.596 Y116.465 E-.00787
;WIPE_END
G1 E-.04 F2100
G1 Z.6 F720
;AFTER_LAYER_CHANGE
;0.5
M104 S210 ; set temperature
G1 X114.596 Y121.754 F10800
G1 Z.5 F720
G1 E.8 F2100
;TYPE:Skirt/Brim
;WIDTH:0.42
G1 F2700
G1 X113.502 Y121.754 E.04852
G1 X111.555 Y120.947 E.0935
G1 X108.553 Y117.945 E.18831
G1 X107.746 Y115.998 E.0935
G1 X107.746 Y94.003 E.97558
G1 X108.552 Y92.056 E.09348
G1 X111.554 Y89.053 E.18834
G1 X113.502 Y88.246 E.09352
G1 X136.498 Y88.246 E1.01998
G1 X138.446 Y89.053 E.09352
G1 X141.448 Y92.056 E.18834
G1 X142.254 Y94.003 E.09348
G1 X142.254 Y115.998 E.97558
M73 Q54 S1
G1 X141.447 Y117.945 E.0935
M73 P54 R1
G1 X138.445 Y120.947 E.18831
G1 X136.498 Y121.754 E.0935
G1 X114.656 Y121.754 E.9688
G1 X114.656 Y121.377 F10800
G1 F2700
G1 X113.502 Y121.377 E.05118
G1 X111.821 Y120.681 E.0807
G1 X108.819 Y117.679 E.18831
G1 X108.123 Y115.998 E.0807
G1 X108.123 Y94.003 E.97558
G1 X108.819 Y92.322 E.08068
G1 X111.821 Y89.319 E.18834
G1 X113.502 Y88.623 E.08071
G1 X136.498 Y88.623 E1.01998
G1 X138.179 Y89.319 E.08071
M73 P55 R1
M73 Q55 S1
G1 X141.181 Y92.322 E.18834
G1 X141.877 Y94.003 E.08068
G1 X141.877 Y115.998 E.97558
G1 X141.181 Y117.679 E.0807
G1 X138.179 Y120.681 E.18831
G1 X136.498 Y121.377 E.0807
G1 X114.716 Y121.377 E.96614
; printing object GleichrichterDeckel.stl id:0 copy 0
;WIPE_START
G1 F8640
G1 X113.502 Y121.377 E-.28031
G1 X111.821 Y120.681 E-.42009
G1 X111.639 Y120.498 E-.0596
;WIPE_END
G1 E-.04 F2100
G1 Z.9 F720
G1 X135.712 Y94.789 F10800
G1 Z.5 F720
M73 Q56 S1
G1 E.8 F2100
M204 S800
;TYPE:Perimeter
;WIDTH:0.5
M73 P56 R1
G1 F3000
G1 X138.714 Y94.789 E.16311
G1 X138.714 Y115.212 E1.10968
G1 X135.712 Y115.212 E.16311
G1 X135.712 Y118.214 E.16311
G1 X114.288 Y118.214 E1.16407
G1 X114.288 Y115.212 E.16311
G1 X111.286 Y115.212 E.16311
G1 X111.286 Y94.789 E1.10968
G1 X114.288 Y94.789 E.16311
G1 X114.288 Y91.786 E.16316
G1 X135.712 Y91.786 E1.16407
G1 X135.712 Y94.729 E.1599
M204 S1000
M73 P57 R1
M73 Q57 S1
G1 X136.198 Y94.303 F10800
M204 S800
;TYPE:External perimeter
;WIDTH:0.6
G1 F2100
G1 X139.2 Y94.303 E.20055
G1 X139.2 Y115.698 E1.4293
G1 X136.198 Y115.698 E.20055
G1 X136.198 Y118.7 E.20055
G1 X113.802 Y118.7 E1.49617
G1 X113.802 Y115.698 E.20055
G1 X110.8 Y115.698 E.20055
G1 X110.8 Y94.303 E1.4293
M73 Q58 S1
G1 X113.802 Y94.303 E.20055
M73 P58 R1
G1 X113.802 Y91.3 E.20062
G1 X136.198 Y91.3 E1.49617
G1 X136.198 Y94.243 E.19661
M204 S1000
G1 X136.382 Y94.658 F10800
;WIPE_START
G1 F8640
G1 X139.2 Y94.303 E-.69331
G1 X139.2 Y94.592 E-.06669
;WIPE_END
G1 E-.04 F2100
G1 Z.9 F720
G1 X137.691 Y115.082 F10800
G1 Z.5 F720
G1 E.8 F2100
;TYPE:Solid infill
;WIDTH:0.505558
G1 F4800
G1 X138.388 Y114.385 E.05419
G1 X138.388 Y113.761 E.03433
M73 Q59 S1
G1 X137.263 Y114.886 E.08749
G1 X136.64 Y114.886 E.03433
M73 P59 R1
G1 X138.388 Y113.138 E.13604
G1 X138.388 Y112.514 E.03433
G1 X135.82 Y115.082 E.19985
;WIPE_START
G1 F8640
G1 X138.147 Y112.754 E-.76
;WIPE_END
G1 E-.04 F2100
G1 Z.9 F720
G1 X135.582 Y117.191 F10800
G1 Z.5 F720
G1 E.8 F2100
G1 F4800
G1 X134.885 Y117.888 E.05419
G1 X134.261 Y117.888 E.03433
G1 X135.386 Y116.763 E.08749
G1 X135.386 Y116.14 E.03433
G1 X133.638 Y117.888 E.13604
G1 X133.014 Y117.888 E.03433
G1 X135.582 Y115.32 E.19985
;WIPE_START
G1 F8640
G1 X133.254 Y117.647 E-.76
;WIPE_END
G1 E-.04 F2100
G1 Z.9 F720
G1 X132.194 Y118.084 F10800
G1 Z.5 F720
G1 E.8 F2100
G1 F4800
G1 X138.388 Y111.89 E.48201
G1 X138.388 Y111.266 E.03433
G1 X131.766 Y117.888 E.51531
G1 X131.142 Y117.888 E.03433
G1 X138.388 Y110.642 E.56386
G1 X138.388 Y110.018 E.03433
G1 X130.518 Y117.888 E.61241
G1 X129.894 Y117.888 E.03433
M73 Q60 S1
G1 X138.388 Y109.394 E.66097
G1 X138.388 Y108.77 E.03433
M73 P60 R1
G1 X129.27 Y117.888 E.70952
G1 X128.646 Y117.888 E.03433
G1 X138.388 Y108.146 E.75807
G1 X138.388 Y107.522 E.03433
G1 X128.022 Y117.888 E.80662
G1 X127.398 Y117.888 E.03433
G1 X138.388 Y106.898 E.85518
G1 X138.388 Y106.274 E.03433
G1 X126.774 Y117.888 E.90373
G1 X126.15 Y117.888 E.03433
G1 X138.388 Y105.65 E.95228
G1 X138.388 Y105.027 E.03433
G1 X125.527 Y117.888 E1.00083
G1 X124.903 Y117.888 E.03433
M73 Q61 S1
G1 X138.388 Y104.403 E1.04939
G1 X138.388 Y103.779 E.03433
M73 P61 R1
G1 X124.279 Y117.888 E1.09794
G1 X123.655 Y117.888 E.03433
G1 X138.388 Y103.155 E1.14649
G1 X138.388 Y102.531 E.03433
G1 X123.031 Y117.888 E1.19504
G1 X122.407 Y117.888 E.03433
G1 X138.388 Y101.907 E1.24359
G1 X138.388 Y101.283 E.03433
G1 X121.783 Y117.888 E1.29215
G1 X121.159 Y117.888 E.03433
G1 X138.388 Y100.659 E1.3407
G1 X138.388 Y100.035 E.03433
M73 P62 R1
M73 Q62 S1
G1 X120.535 Y117.888 E1.38925
