; generated by PrusaSlicer 2.4.1+win64 on 2023-04-21 at 11:05:25 UTC


;
;
; 

; external perimeters extrusion width = 0.60mm
; perimeters extrusion width = 0.50mm
; infill extrusion width = 0.50mm
; solid infill extrusion width = 0.50mm
; top infill extrusion width = 0.45mm
; first layer extrusion width = 0.42mm

M73 P0 R33
M73 Q0 S33
M201 X1000 Y1000 Z200 E5000 ; sets maximum accelerations, mm/sec^2
M203 X200 Y200 Z12 E120 ; sets maximum feedrates, mm / sec
M204 P1250 R1250 T1250 ; sets acceleration (P, T) and retract acceleration (R), mm/sec^2
M205 X8.00 Y8.00 Z0.40 E4.50 ; sets the jerk limits, mm/sec
M205 S0 T0 ; sets the minimum extruding and travel feed rate, mm/sec
M107
;TYPE:Custom
M862.3 P "MK3S" ; printer model check
M862.1 P0.4 ; nozzle diameter check
M115 U3.11.0 ; tell printer latest fw version
G90 ; use absolute coordinates
M83 ; extruder relative mode
M104 S215 ; set extruder temp
M140 S60 ; set bed temp
M190 S60 ; wait for bed temp
M109 S215 ; wait for extruder temp
G28 W ; home all without mesh bed level
G80 ; mesh bed leveling

G1 Z0.2 F720
G1 Y-3 F1000 ; go outside print area
G92 E0
G1 X60 E9 F1000 ; intro line
G1 X100 E12.5 F1000 ; intro line

G92 E0
M221 S95

; Don't change E values below. Excessive value can damage the printer.

M907 E538 ; set extruder motor current
G21 ; set units to millimeters
G90 ; use absolute coordinates
M83 ; use relative distances for extrusion
M900 K0.05 ; Filament gcode LA 1.5
M900 K30 ; Filament gcode LA 1.0
M107
;LAYER_CHANGE
;Z:0.2
;HEIGHT:0.2
;BEFORE_LAYER_CHANGE
G92 E0.0
;0.2


G1 E-.8 F2100
M73 P0 R32
G1 Z.4 F720
;AFTER_LAYER_CHANGE
;0.2
G1 X108.549 Y71.643 F10800
G1 Z.2 F720
M73 Q0 S32
G1 E.8 F2100
M204 S800
;TYPE:Skirt/Brim
;WIDTH:0.42
G1 F1200
G1 X109.617 Y70.793 E.04278
G1 X110.5 Y70.623 E.02821
G1 X140.5 Y70.623 E.94063
G1 X141.807 Y71.015 E.04278
G1 X142.683 Y72.06 E.04278
G1 X142.877 Y73 E.03008
G1 X142.877 Y103 E.94063
G1 X140.872 Y134.151 E.97874
G1 X140.181 Y135.679 E.05258
G1 X137.179 Y138.681 E.13311
G1 X135.498 Y139.377 E.05704
G1 X112.502 Y139.377 E.72102
G1 X110.821 Y138.681 E.05704
G1 X107.819 Y135.679 E.13311
G1 X107.123 Y133.998 E.05704
G1 X107.124 Y111.942 E.69155
G1 X108.124 Y72.939 E1.22331
G1 X108.53 Y71.7 E.0409
M204 S1000
; printing object Gleichrichter.stl id:0 copy 0
;WIPE_START
G1 F8640
G1 X109.617 Y70.793 E-.32671
G1 X110.5 Y70.623 E-.20775
G1 X111.477 Y70.623 E-.22554
;WIPE_END
G1 E-.04 F2100
G1 Z.6 F720
G1 X113.289 Y109.787 F10800
G1 Z.2 F720
G1 E.8 F2100
M204 S800
;TYPE:Perimeter
G1 F1200
G1 X134.711 Y109.787 E.67167
G1 X134.711 Y112.79 E.09416
G1 X137.713 Y112.79 E.09413
G1 X137.713 Y133.211 E.64028
G1 X134.711 Y133.211 E.09413
M73 P1 R32
M73 Q1 S32
G1 X134.711 Y136.213 E.09413
G1 X113.289 Y136.213 E.67167
G1 X113.289 Y133.211 E.09413
G1 X110.287 Y133.211 E.09413
G1 X110.287 Y112.79 E.64028
G1 X113.289 Y112.79 E.09413
G1 X113.289 Y109.847 E.09228
M204 S1000
G1 X112.912 Y109.41 F10800
M204 S800
;TYPE:External perimeter
G1 F1200
G1 X135.088 Y109.41 E.69531
G1 X135.088 Y112.413 E.09416
G1 X138.09 Y112.413 E.09413
G1 X138.09 Y133.588 E.66393
G1 X135.088 Y133.588 E.09413
G1 X135.088 Y136.59 E.09413
G1 X112.912 Y136.59 E.69531
G1 X112.912 Y133.588 E.09413
G1 X109.91 Y133.588 E.09413
G1 X109.91 Y112.413 E.66393
G1 X112.912 Y112.413 E.09413
G1 X112.912 Y109.47 E.09228
M204 S1000
G1 X113.195 Y109.693 F10800
;WIPE_START
G1 F8640
G1 X116.203 Y109.461 E-.76
;WIPE_END
G1 E-.04 F2100
G1 Z.6 F720
G1 X134.598 Y110.663 F10800
G1 Z.2 F720
G1 E.8 F2100
M204 S800
;TYPE:Solid infill
;WIDTH:0.420075
G1 F1200
G1 X134.005 Y110.07 E.02629
G1 X133.472 Y110.07 E.01673
G1 X134.428 Y111.026 E.04242
G1 X134.428 Y111.56 E.01673
G1 X132.938 Y110.07 E.06607
G1 X132.405 Y110.07 E.01673
G1 X134.598 Y112.263 E.09726
M204 S1000
;WIPE_START
G1 F8640
G1 X132.405 Y110.07 E-.71608
G1 X132.595 Y110.07 E-.04392
;WIPE_END
G1 E-.04 F2100
G1 Z.6 F720
G1 X136.838 Y112.903 F10800
G1 Z.2 F720
G1 E.8 F2100
M204 S800
G1 F1200
G1 X137.43 Y113.495 E.02624
G1 X137.43 Y114.028 E.01673
G1 X136.475 Y113.073 E.04237
G1 X135.941 Y113.073 E.01673
G1 X137.43 Y114.562 E.06603
G1 X137.43 Y115.095 E.01673
G1 X135.238 Y112.903 E.09721
M204 S1000
;WIPE_START
G1 F8640
G1 X137.43 Y115.095 E-.71575
G1 X137.43 Y114.903 E-.04425
;WIPE_END
G1 E-.04 F2100
G1 Z.6 F720
G1 X137.6 Y115.798 F10800
G1 Z.2 F720
G1 E.8 F2100
M204 S800
G1 F1200
G1 X134.875 Y113.073 E.12087
G1 X134.428 Y113.073 E.014
G1 X134.428 Y112.626 E.014
G1 X131.872 Y110.07 E.11339
G1 X131.338 Y110.07 E.01673
G1 X137.43 Y116.162 E.27018
G1 X137.43 Y116.695 E.01673
G1 X130.805 Y110.07 E.29384
G1 X130.271 Y110.07 E.01673
G1 X137.43 Y117.229 E.31749
G1 X137.43 Y117.762 E.01673
G1 X129.738 Y110.07 E.34115
G1 X129.205 Y110.07 E.01673
G1 X137.43 Y118.295 E.3648
G1 X137.43 Y118.829 E.01673
G1 X128.671 Y110.07 E.38846
G1 X128.138 Y110.07 E.01673
G1 X137.43 Y119.362 E.41211
G1 X137.43 Y119.895 E.01673
G1 X127.605 Y110.07 E.43577
G1 X127.071 Y110.07 E.01673
G1 X137.43 Y120.429 E.45943
G1 X137.43 Y120.962 E.01673
G1 X126.538 Y110.07 E.48308
G1 X126.004 Y110.07 E.01673
G1 X137.43 Y121.496 E.50674
G1 X137.43 Y122.029 E.01673
G1 X125.471 Y110.07 E.53039
G1 X124.938 Y110.07 E.01673
M73 P2 R32
M73 Q2 S32
G1 X137.43 Y122.562 E.55405
G1 X137.43 Y123.096 E.01673
G1 X124.404 Y110.07 E.5777
G1 X123.871 Y110.07 E.01673
G1 X137.43 Y123.629 E.60136
G1 X137.43 Y124.162 E.01673
G1 X123.338 Y110.07 E.62502
G1 X122.804 Y110.07 E.01673
G1 X137.43 Y124.696 E.64867
G1 X137.43 Y125.229 E.01673
G1 X122.271 Y110.07 E.67233
G1 X121.737 Y110.07 E.01673
G1 X137.43 Y125.763 E.69598
G1 X137.43 Y126.296 E.01673
G1 X121.204 Y110.07 E.71964
G1 X120.671 Y110.07 E.01673
G1 X137.43 Y126.829 E.74329
G1 X137.43 Y127.363 E.01673
G1 X120.137 Y110.07 E.76695
G1 X119.604 Y110.07 E.01673
G1 X137.43 Y127.896 E.7906
G1 X137.43 Y128.43 E.01673
G1 X119.07 Y110.07 E.81426
G1 X118.537 Y110.07 E.01673
G1 X137.43 Y128.963 E.83792
G1 X137.43 Y129.496 E.01673
G1 X118.004 Y110.07 E.86157
G1 X117.47 Y110.07 E.01673
G1 X137.43 Y130.03 E.88523
G1 X137.43 Y130.563 E.01673
G1 X116.937 Y110.07 E.90888
G1 X116.404 Y110.07 E.01673
G1 X137.43 Y131.096 E.93254
G1 X137.43 Y131.63 E.01673
M73 P3 R32
M73 Q3 S32
G1 X115.87 Y110.07 E.95619
G1 X115.337 Y110.07 E.01673
G1 X137.43 Y132.163 E.97985
G1 X137.43 Y132.697 E.01673
G1 X114.803 Y110.07 E1.0035
G1 X114.27 Y110.07 E.01673
M73 P3 R31
G1 X137.128 Y132.928 E1.01378
G1 X136.595 Y132.928 E.01673
M73 Q3 S31
G1 X113.737 Y110.07 E1.01378
G1 X113.572 Y110.07 E.00517
G1 X113.572 Y110.438 E.01156
G1 X136.062 Y132.928 E.99743
G1 X135.528 Y132.928 E.01673
G1 X113.572 Y110.972 E.97378
G1 X113.572 Y111.505 E.01673
G1 X134.995 Y132.928 E.95012
G1 X134.461 Y132.928 E.01673
G1 X113.572 Y112.039 E.92647
G1 X113.572 Y112.572 E.01673
G1 X134.428 Y133.428 E.92499
G1 X134.428 Y133.962 E.01673
G1 X113.539 Y113.073 E.92642
G1 X113.006 Y113.073 E.01673
G1 X134.428 Y134.495 E.95008
G1 X134.428 Y135.028 E.01673
M73 P4 R31
M73 Q4 S31
G1 X112.473 Y113.073 E.97374
G1 X111.939 Y113.073 E.01673
G1 X134.428 Y135.562 E.99739
G1 X134.428 Y135.93 E.01155
G1 X134.263 Y135.93 E.00517
G1 X111.406 Y113.073 E1.01373
G1 X110.873 Y113.073 E.01673
G1 X133.73 Y135.93 E1.01373
G1 X133.196 Y135.93 E.01673
G1 X110.57 Y113.304 E1.0035
G1 X110.57 Y113.837 E.01673
G1 X132.663 Y135.93 E.97985
G1 X132.13 Y135.93 E.01673
G1 X110.57 Y114.37 E.95619
G1 X110.57 Y114.904 E.01673
G1 X131.596 Y135.93 E.93253
G1 X131.063 Y135.93 E.01673
G1 X110.57 Y115.437 E.90888
G1 X110.57 Y115.97 E.01673
G1 X130.53 Y135.93 E.88522
G1 X129.996 Y135.93 E.01673
G1 X110.57 Y116.504 E.86157
G1 X110.57 Y117.037 E.01673
G1 X129.463 Y135.93 E.83791
G1 X128.929 Y135.93 E.01673
G1 X110.57 Y117.571 E.81426
G1 X110.57 Y118.104 E.01673
M73 P5 R31
M73 Q5 S31
G1 X128.396 Y135.93 E.7906
G1 X127.863 Y135.93 E.01673
G1 X110.57 Y118.637 E.76695
G1 X110.57 Y119.171 E.01673
G1 X127.329 Y135.93 E.74329
G1 X126.796 Y135.93 E.01673
G1 X110.57 Y119.704 E.71963
G1 X110.57 Y120.237 E.01673
G1 X126.263 Y135.93 E.69598
G1 X125.729 Y135.93 E.01673
G1 X110.57 Y120.771 E.67232
G1 X110.57 Y121.304 E.01673
G1 X125.196 Y135.93 E.64867
G1 X124.662 Y135.93 E.01673
G1 X110.57 Y121.838 E.62501
G1 X110.57 Y122.371 E.01673
G1 X124.129 Y135.93 E.60136
G1 X123.596 Y135.93 E.01673
G1 X110.57 Y122.904 E.5777
G1 X110.57 Y123.438 E.01673
G1 X123.062 Y135.93 E.55405
G1 X122.529 Y135.93 E.01673
G1 X110.57 Y123.971 E.53039
G1 X110.57 Y124.504 E.01673
G1 X121.996 Y135.93 E.50673
G1 X121.462 Y135.93 E.01673
G1 X110.57 Y125.038 E.48308
G1 X110.57 Y125.571 E.01673
G1 X120.929 Y135.93 E.45942
G1 X120.395 Y135.93 E.01673
G1 X110.57 Y126.105 E.43577
G1 X110.57 Y126.638 E.01673
G1 X119.862 Y135.93 E.41211
G1 X119.329 Y135.93 E.01673
G1 X110.57 Y127.171 E.38846
G1 X110.57 Y127.705 E.01673
G1 X118.795 Y135.93 E.3648
G1 X118.262 Y135.93 E.01673
G1 X110.57 Y128.238 E.34114
G1 X110.57 Y128.771 E.01673
G1 X117.729 Y135.93 E.31749
G1 X117.195 Y135.93 E.01673
M73 Q6 S31
G1 X110.57 Y129.305 E.29383
G1 X110.57 Y129.838 E.01673
M73 P6 R31
G1 X116.662 Y135.93 E.27018
G1 X116.128 Y135.93 E.01673
G1 X113.572 Y133.374 E.11338
G1 X113.572 Y132.928 E.01397
G1 X113.126 Y132.928 E.01397
G1 X110.57 Y130.372 E.11338
G1 X110.57 Y130.905 E.01673
G1 X112.593 Y132.928 E.08973
G1 X112.06 Y132.928 E.01673
G1 X110.57 Y131.438 E.06607
G1 X110.57 Y131.972 E.01673
G1 X111.526 Y132.928 E.04242
G1 X110.993 Y132.928 E.01673
G1 X110.4 Y132.335 E.02629
M204 S1000
;WIPE_START
G1 F8640
G1 X110.993 Y132.928 E-.19354
G1 X111.526 Y132.928 E-.12316
G1 X110.57 Y131.972 E-.3123
G1 X110.57 Y131.438 E-.12316
G1 X110.594 Y131.462 E-.00785
;WIPE_END
G1 E-.04 F2100
G1 Z.6 F720
G1 X113.402 Y133.737 F10800
G1 Z.2 F720
G1 E.8 F2100
M204 S800
G1 F1200
G1 X115.595 Y135.93 E.09725
G1 X115.062 Y135.93 E.01673
G1 X113.572 Y134.44 E.06607
G1 X113.572 Y134.974 E.01673
G1 X114.528 Y135.93 E.04242
G1 X113.995 Y135.93 E.01673
G1 X113.402 Y135.337 E.02629
M204 S1000
;WIPE_START
G1 F8640
G1 X113.995 Y135.93 E-.19354
G1 X114.528 Y135.93 E-.12316
G1 X113.572 Y134.974 E-.3123
G1 X113.572 Y134.44 E-.12316
G1 X113.596 Y134.464 E-.00785
;WIPE_END
G1 E-.04 F2100
G1 Z.6 F720
G1 X111.287 Y102.213 F10800
G1 Z.2 F720
G1 E.8 F2100
M204 S800
;TYPE:Perimeter
;WIDTH:0.42
G1 F1200
G1 X111.287 Y73.787 E.89127
G1 X139.713 Y73.787 E.89127
G1 X139.713 Y102.213 E.89127
M73 P6 R30
G1 X111.347 Y102.213 E.88939
M204 S1000
M73 Q6 S30
G1 X110.91 Y102.59 F10800
M204 S800
;TYPE:External perimeter
G1 F1200
G1 X110.91 Y73.41 E.91492
G1 X140.09 Y73.41 E.91492
G1 X140.09 Y102.59 E.91492
G1 X110.97 Y102.59 E.91304
M204 S1000
G1 X111.014 Y102.204 F10800
;WIPE_START
G1 F8640
G1 X110.963 Y99.299 E-.76
;WIPE_END
G1 E-.04 F2100
G1 Z.6 F720
G1 X138.831 Y73.9 F10800
G1 Z.2 F720
G1 E.8 F2100
M204 S800
;TYPE:Solid infill
;WIDTH:0.42324
G1 F1200
G1 X139.43 Y74.5 E.02681
G1 X139.43 Y75.037 E.01701
G1 X138.463 Y74.07 E.04327
G1 X137.925 Y74.07 E.01701
G1 X139.43 Y75.575 E.06733
G1 X139.43 Y76.113 E.01701
G1 X137.387 Y74.07 E.09138
G1 X136.849 Y74.07 E.01701
G1 X139.43 Y76.651 E.11544
G1 X139.43 Y77.189 E.01701
G1 X136.311 Y74.07 E.13949
G1 X135.773 Y74.07 E.01701
G1 X139.43 Y77.727 E.16355
G1 X139.43 Y78.265 E.01701
G1 X135.235 Y74.07 E.1876
G1 X134.698 Y74.07 E.01701
G1 X139.43 Y78.802 E.21165
G1 X139.43 Y79.34 E.01701
G1 X134.16 Y74.07 E.23571
G1 X133.622 Y74.07 E.01701
G1 X139.43 Y79.878 E.25976
G1 X139.43 Y80.416 E.01701
G1 X133.084 Y74.07 E.28382
G1 X132.546 Y74.07 E.01701
G1 X139.43 Y80.954 E.30787
G1 X139.43 Y81.492 E.01701
M73 Q7 S30
G1 X132.008 Y74.07 E.33193
G1 X131.47 Y74.07 E.01701
M73 P7 R30
G1 X139.43 Y82.03 E.35598
G1 X139.43 Y82.567 E.01701
G1 X130.933 Y74.07 E.38003
G1 X130.395 Y74.07 E.01701
G1 X139.43 Y83.105 E.40409
G1 X139.43 Y83.643 E.01701
G1 X129.857 Y74.07 E.42814
G1 X129.319 Y74.07 E.01701
G1 X139.43 Y84.181 E.4522
G1 X139.43 Y84.719 E.01701
G1 X128.781 Y74.07 E.47625
G1 X128.243 Y74.07 E.01701
G1 X139.43 Y85.257 E.50031
G1 X139.43 Y85.795 E.01701
G1 X127.705 Y74.07 E.52436
G1 X127.168 Y74.07 E.01701
G1 X139.43 Y86.332 E.54841
G1 X139.43 Y86.87 E.01701
G1 X126.63 Y74.07 E.57247
G1 X126.092 Y74.07 E.01701
G1 X139.43 Y87.408 E.59652
G1 X139.43 Y87.946 E.01701
G1 X125.554 Y74.07 E.62058
G1 X125.016 Y74.07 E.01701
G1 X139.43 Y88.484 E.64463
G1 X139.43 Y89.022 E.01701
G1 X124.478 Y74.07 E.66869
G1 X123.94 Y74.07 E.01701
G1 X139.43 Y89.56 E.69274
G1 X139.43 Y90.097 E.01701
G1 X123.403 Y74.07 E.71679
G1 X122.865 Y74.07 E.01701
G1 X139.43 Y90.635 E.74085
G1 X139.43 Y91.173 E.01701
G1 X122.327 Y74.07 E.7649
G1 X121.789 Y74.07 E.01701
G1 X139.43 Y91.711 E.78896
G1 X139.43 Y92.249 E.01701
G1 X121.251 Y74.07 E.81301
G1 X120.713 Y74.07 E.01701
M73 Q8 S30
G1 X139.43 Y92.787 E.83707
G1 X139.43 Y93.325 E.01701
M73 P8 R30
G1 X120.175 Y74.07 E.86112
G1 X119.638 Y74.07 E.01701
G1 X139.43 Y93.862 E.88517
G1 X139.43 Y94.4 E.01701
G1 X119.1 Y74.07 E.90923
G1 X118.562 Y74.07 E.01701
G1 X139.43 Y94.938 E.93328
G1 X139.43 Y95.476 E.01701
G1 X118.024 Y74.07 E.95734
G1 X117.486 Y74.07 E.01701
G1 X139.43 Y96.014 E.98139
G1 X139.43 Y96.552 E.01701
G1 X116.948 Y74.07 E1.00545
G1 X116.411 Y74.07 E.01701
G1 X139.43 Y97.089 E1.0295
G1 X139.43 Y97.627 E.01701
G1 X115.873 Y74.07 E1.05355
G1 X115.335 Y74.07 E.01701
G1 X139.43 Y98.165 E1.07761
G1 X139.43 Y98.703 E.01701
G1 X114.797 Y74.07 E1.10166
G1 X114.259 Y74.07 E.01701
G1 X139.43 Y99.241 E1.12572
G1 X139.43 Y99.779 E.01701
M73 P9 R30
M73 Q9 S30
G1 X113.721 Y74.07 E1.14977
G1 X113.183 Y74.07 E.01701
G1 X139.43 Y100.317 E1.17383
G1 X139.43 Y100.854 E.01701
G1 X112.646 Y74.07 E1.19788
G1 X112.108 Y74.07 E.01701
M73 P9 R29
G1 X139.43 Y101.392 E1.22193
G1 X139.43 Y101.93 E.01701
M73 Q9 S29
G1 X111.57 Y74.07 E1.24599
G1 X111.57 Y74.608 E.01701
G1 X138.892 Y101.93 E1.22193
G1 X138.354 Y101.93 E.01701
G1 X111.57 Y75.146 E1.19788
G1 X111.57 Y75.683 E.01701
G1 X137.817 Y101.93 E1.17382
G1 X137.279 Y101.93 E.01701
G1 X111.57 Y76.221 E1.14977
G1 X111.57 Y76.759 E.01701
G1 X136.741 Y101.93 E1.12571
G1 X136.203 Y101.93 E.01701
M73 P10 R29
M73 Q10 S29
G1 X111.57 Y77.297 E1.10166
G1 X111.57 Y77.835 E.01701
G1 X135.665 Y101.93 E1.0776
G1 X135.127 Y101.93 E.01701
G1 X111.57 Y78.373 E1.05355
G1 X111.57 Y78.911 E.01701
G1 X134.589 Y101.93 E1.0295
G1 X134.052 Y101.93 E.01701
G1 X111.57 Y79.448 E1.00544
G1 X111.57 Y79.986 E.01701
G1 X133.514 Y101.93 E.98139
G1 X132.976 Y101.93 E.01701
G1 X111.57 Y80.524 E.95733
G1 X111.57 Y81.062 E.01701
G1 X132.438 Y101.93 E.93328
G1 X131.9 Y101.93 E.01701
G1 X111.57 Y81.6 E.90922
G1 X111.57 Y82.138 E.01701
G1 X131.362 Y101.93 E.88517
G1 X130.824 Y101.93 E.01701
G1 X111.57 Y82.676 E.86112
G1 X111.57 Y83.213 E.01701
G1 X130.287 Y101.93 E.83706
G1 X129.749 Y101.93 E.01701
G1 X111.57 Y83.751 E.81301
G1 X111.57 Y84.289 E.01701
M73 P11 R29
M73 Q11 S29
G1 X129.211 Y101.93 E.78895
G1 X128.673 Y101.93 E.01701
G1 X111.57 Y84.827 E.7649
G1 X111.57 Y85.365 E.01701
G1 X128.135 Y101.93 E.74085
G1 X127.597 Y101.93 E.01701
G1 X111.57 Y85.903 E.71679
G1 X111.57 Y86.441 E.01701
G1 X127.059 Y101.93 E.69274
G1 X126.522 Y101.93 E.01701
G1 X111.57 Y86.978 E.66868
G1 X111.57 Y87.516 E.01701
G1 X125.984 Y101.93 E.64463
G1 X125.446 Y101.93 E.01701
G1 X111.57 Y88.054 E.62057
G1 X111.57 Y88.592 E.01701
G1 X124.908 Y101.93 E.59652
G1 X124.37 Y101.93 E.01701
G1 X111.57 Y89.13 E.57246
G1 X111.57 Y89.668 E.01701
G1 X123.832 Y101.93 E.54841
G1 X123.294 Y101.93 E.01701
G1 X111.57 Y90.206 E.52436
G1 X111.57 Y90.743 E.01701
G1 X122.757 Y101.93 E.5003
G1 X122.219 Y101.93 E.01701
G1 X111.57 Y91.281 E.47625
G1 X111.57 Y91.819 E.01701
G1 X121.681 Y101.93 E.45219
G1 X121.143 Y101.93 E.01701
G1 X111.57 Y92.357 E.42814
G1 X111.57 Y92.895 E.01701
G1 X120.605 Y101.93 E.40409
G1 X120.067 Y101.93 E.01701
G1 X111.57 Y93.433 E.38003
G1 X111.57 Y93.97 E.01701
G1 X119.53 Y101.93 E.35598
G1 X118.992 Y101.93 E.01701
G1 X111.57 Y94.508 E.33192
G1 X111.57 Y95.046 E.01701
G1 X118.454 Y101.93 E.30787
G1 X117.916 Y101.93 E.01701
G1 X111.57 Y95.584 E.28381
G1 X111.57 Y96.122 E.01701
M73 P12 R29
M73 Q12 S29
G1 X117.378 Y101.93 E.25976
G1 X116.84 Y101.93 E.01701
G1 X111.57 Y96.66 E.23571
G1 X111.57 Y97.198 E.01701
G1 X116.302 Y101.93 E.21165
G1 X115.765 Y101.93 E.01701
