; generated by PrusaSlicer 2.4.1+win64 on 2023-04-17 at 15:25:51 UTC


;
;
; 

; external perimeters extrusion width = 0.60mm
; perimeters extrusion width = 0.50mm
; infill extrusion width = 0.50mm
; solid infill extrusion width = 0.50mm
; top infill extrusion width = 0.45mm
; first layer extrusion width = 0.42mm

M73 P0 R199
M73 Q0 S199
M201 X1000 Y1000 Z200 E5000 ; sets maximum accelerations, mm/sec^2
M203 X200 Y200 Z12 E120 ; sets maximum feedrates, mm / sec
M204 P1250 R1250 T1250 ; sets acceleration (P, T) and retract acceleration (R), mm/sec^2
M205 X8.00 Y8.00 Z0.40 E4.50 ; sets the jerk limits, mm/sec
M205 S0 T0 ; sets the minimum extruding and travel feed rate, mm/sec
M107
;TYPE:Custom
M862.3 P "MK3S" ; printer model check
M862.1 P0.4 ; nozzle diameter check
M115 U3.11.0 ; tell printer latest fw version
G90 ; use absolute coordinates
M83 ; extruder relative mode
M104 S215 ; set extruder temp
M140 S60 ; set bed temp
M190 S60 ; wait for bed temp
M109 S215 ; wait for extruder temp
G28 W ; home all without mesh bed level
G80 ; mesh bed leveling

G1 Z0.2 F720
G1 Y-3 F1000 ; go outside print area
G92 E0
G1 X60 E9 F1000 ; intro line
G1 X100 E12.5 F1000 ; intro line

G92 E0
M221 S95

; Don't change E values below. Excessive value can damage the printer.

M907 E538 ; set extruder motor current
G21 ; set units to millimeters
G90 ; use absolute coordinates
M83 ; use relative distances for extrusion
M900 K0.05 ; Filament gcode LA 1.5
M900 K30 ; Filament gcode LA 1.0
M107
;LAYER_CHANGE
;Z:0.2
;HEIGHT:0.2
;BEFORE_LAYER_CHANGE
G92 E0.0
;0.2


G1 E-.8 F2100
G1 Z.4 F720
;AFTER_LAYER_CHANGE
;0.2
G1 X62.236 Y43.406 F10800
G1 Z.2 F720
G1 E.8 F2100
M204 S800
;TYPE:Skirt/Brim
;WIDTH:0.42
G1 F1200
G1 X64 Y42.623 E.06051
G1 X204 Y42.623 E4.3896
G1 X205.307 Y43.015 E.04278
G1 X206.183 Y44.06 E.04278
G1 X206.377 Y45 E.03008
G1 X206.377 Y165 E3.76252
G1 X205.985 Y166.307 E.04278
G1 X204.94 Y167.183 E.04278
G1 X204 Y167.377 E.03008
G1 X46 Y167.377 E4.95398
G1 X44.693 Y166.985 E.04278
M73 P0 R198
G1 X43.817 Y165.94 E.04278
G1 X43.623 Y165 E.03008
G1 X43.651 Y161.639 E.1054
G1 X61.651 Y44.639 E3.71161
G1 X62.211 Y43.46 E.0409
M204 S1000
; printing object RasiAbdeckung.stl id:0 copy 0
;WIPE_START
G1 F8640
G1 X64 Y42.623 E-.4562
G1 X65.316 Y42.623 E-.3038
;WIPE_END
G1 E-.04 F2100
G1 Z.6 F720
G1 X64.787 Y45.787 F10800
G1 Z.2 F720
G1 E.8 F2100
M204 S800
;TYPE:Perimeter
G1 F1200
G1 X203.213 Y45.787 E4.34025
G1 X203.213 Y164.213 E3.71316
G1 X46.787 Y164.213 E4.90462
G1 X46.787 Y162.787 E.04471
M73 Q0 S198
G1 X64.787 Y162.787 E.56438
G1 X64.787 Y45.847 E3.66657
M204 S1000
G1 X64.41 Y45.41 F10800
M204 S800
;TYPE:External perimeter
G1 F1200
G1 X203.59 Y45.41 E4.36389
G1 X203.59 Y164.59 E3.73681
G1 X46.41 Y164.59 E4.92827
G1 X46.41 Y162.41 E.06835
G1 X64.41 Y162.41 E.56438
G1 X64.41 Y45.47 E3.66657
M204 S1000
M73 P0 R197
G1 X64.746 Y45.627 F10800
;WIPE_START
G1 F8640
G1 X67.701 Y45.469 E-.76
;WIPE_END
G1 E-.04 F2100
G1 Z.6 F720
G1 X202.336 Y45.9 F10800
G1 Z.2 F720
G1 E.8 F2100
M204 S800
;TYPE:Solid infill
;WIDTH:0.420513
G1 F1200
G1 X202.93 Y46.494 E.02636
G1 X202.93 Y47.028 E.01677
G1 X201.972 Y46.07 E.04254
G1 X201.438 Y46.07 E.01677
G1 X202.93 Y47.562 E.06625
G1 X202.93 Y48.096 E.01677
G1 X200.904 Y46.07 E.08996
G1 X200.37 Y46.07 E.01677
G1 X202.93 Y48.63 E.11367
G1 X202.93 Y49.164 E.01677
G1 X199.836 Y46.07 E.13738
G1 X199.302 Y46.07 E.01677
G1 X202.93 Y49.698 E.16109
G1 X202.93 Y50.232 E.01677
G1 X198.768 Y46.07 E.1848
G1 X198.234 Y46.07 E.01677
G1 X202.93 Y50.766 E.20851
G1 X202.93 Y51.3 E.01677
G1 X197.7 Y46.07 E.23222
G1 X197.166 Y46.07 E.01677
G1 X202.93 Y51.834 E.25593
G1 X202.93 Y52.368 E.01677
G1 X196.632 Y46.07 E.27964
G1 X196.098 Y46.07 E.01677
G1 X202.93 Y52.902 E.30335
G1 X202.93 Y53.436 E.01677
G1 X195.564 Y46.07 E.32706
G1 X195.03 Y46.07 E.01677
G1 X202.93 Y53.97 E.35077
G1 X202.93 Y54.504 E.01677
G1 X194.496 Y46.07 E.37448
G1 X193.962 Y46.07 E.01677
G1 X202.93 Y55.038 E.3982
G1 X202.93 Y55.572 E.01677
G1 X193.428 Y46.07 E.42191
G1 X192.894 Y46.07 E.01677
G1 X202.93 Y56.106 E.44562
G1 X202.93 Y56.64 E.01677
G1 X192.36 Y46.07 E.46933
G1 X191.826 Y46.07 E.01677
G1 X202.93 Y57.174 E.49304
G1 X202.93 Y57.708 E.01677
G1 X191.292 Y46.07 E.51675
G1 X190.758 Y46.07 E.01677
G1 X202.93 Y58.242 E.54046
G1 X202.93 Y58.776 E.01677
G1 X190.224 Y46.07 E.56417
G1 X189.69 Y46.07 E.01677
G1 X202.93 Y59.31 E.58788
G1 X202.93 Y59.844 E.01677
G1 X189.156 Y46.07 E.61159
G1 X188.622 Y46.07 E.01677
G1 X202.93 Y60.378 E.6353
G1 X202.93 Y60.912 E.01677
G1 X188.088 Y46.07 E.65901
G1 X187.554 Y46.07 E.01677
G1 X202.93 Y61.446 E.68272
G1 X202.93 Y61.98 E.01677
M73 Q0 S197
G1 X187.02 Y46.07 E.70643
G1 X186.486 Y46.07 E.01677
G1 X202.93 Y62.514 E.73014
G1 X202.93 Y63.048 E.01677
G1 X185.952 Y46.07 E.75385
G1 X185.418 Y46.07 E.01677
G1 X202.93 Y63.582 E.77756
G1 X202.93 Y64.116 E.01677
G1 X184.884 Y46.07 E.80127
G1 X184.35 Y46.07 E.01677
G1 X202.93 Y64.65 E.82499
G1 X202.93 Y65.184 E.01677
G1 X183.816 Y46.07 E.8487
G1 X183.282 Y46.07 E.01677
G1 X202.93 Y65.718 E.87241
G1 X202.93 Y66.252 E.01677
G1 X182.748 Y46.07 E.89612
M73 Q1 S197
G1 X182.214 Y46.07 E.01677
M73 P1 R197
G1 X202.93 Y66.786 E.91983
G1 X202.93 Y67.32 E.01677
G1 X181.68 Y46.07 E.94354
G1 X181.146 Y46.07 E.01677
G1 X202.93 Y67.854 E.96725
G1 X202.93 Y68.388 E.01677
G1 X180.612 Y46.07 E.99096
G1 X180.078 Y46.07 E.01677
G1 X202.93 Y68.922 E1.01467
G1 X202.93 Y69.456 E.01677
G1 X179.544 Y46.07 E1.03838
G1 X179.01 Y46.07 E.01677
G1 X202.93 Y69.99 E1.06209
G1 X202.93 Y70.524 E.01677
G1 X178.476 Y46.07 E1.0858
G1 X177.942 Y46.07 E.01677
G1 X202.93 Y71.058 E1.10951
G1 X202.93 Y71.592 E.01677
G1 X177.408 Y46.07 E1.13322
G1 X176.874 Y46.07 E.01677
G1 X202.93 Y72.126 E1.15693
G1 X202.93 Y72.66 E.01677
G1 X176.34 Y46.07 E1.18064
G1 X175.806 Y46.07 E.01677
G1 X202.93 Y73.194 E1.20435
G1 X202.93 Y73.728 E.01677
G1 X175.272 Y46.07 E1.22806
G1 X174.738 Y46.07 E.01677
M73 P1 R196
G1 X202.93 Y74.262 E1.25178
G1 X202.93 Y74.796 E.01677
G1 X174.204 Y46.07 E1.27549
G1 X173.67 Y46.07 E.01677
G1 X202.93 Y75.33 E1.2992
G1 X202.93 Y75.864 E.01677
G1 X173.136 Y46.07 E1.32291
G1 X172.602 Y46.07 E.01677
G1 X202.93 Y76.398 E1.34662
G1 X202.93 Y76.932 E.01677
G1 X172.068 Y46.07 E1.37033
G1 X171.534 Y46.07 E.01677
G1 X202.93 Y77.466 E1.39404
G1 X202.93 Y78 E.01677
G1 X171 Y46.07 E1.41775
G1 X170.466 Y46.07 E.01677
G1 X202.93 Y78.534 E1.44146
G1 X202.93 Y79.068 E.01677
G1 X169.932 Y46.07 E1.46517
G1 X169.398 Y46.07 E.01677
G1 X202.93 Y79.602 E1.48888
G1 X202.93 Y80.136 E.01677
M73 Q1 S196
G1 X168.864 Y46.07 E1.51259
G1 X168.33 Y46.07 E.01677
G1 X202.93 Y80.67 E1.5363
G1 X202.93 Y81.204 E.01677
G1 X167.796 Y46.07 E1.56001
G1 X167.262 Y46.07 E.01677
G1 X202.93 Y81.738 E1.58372
G1 X202.93 Y82.272 E.01677
G1 X166.728 Y46.07 E1.60743
G1 X166.194 Y46.07 E.01677
G1 X202.93 Y82.806 E1.63114
G1 X202.93 Y83.34 E.01677
G1 X165.66 Y46.07 E1.65486
G1 X165.126 Y46.07 E.01677
G1 X202.93 Y83.874 E1.67857
G1 X202.93 Y84.408 E.01677
G1 X164.592 Y46.07 E1.70228
G1 X164.058 Y46.07 E.01677
G1 X202.93 Y84.942 E1.72599
G1 X202.93 Y85.476 E.01677
G1 X163.524 Y46.07 E1.7497
G1 X162.99 Y46.07 E.01677
G1 X202.93 Y86.01 E1.77341
G1 X202.93 Y86.544 E.01677
G1 X162.456 Y46.07 E1.79712
G1 X161.922 Y46.07 E.01677
M73 P1 R195
G1 X202.93 Y87.078 E1.82083
G1 X202.93 Y87.612 E.01677
G1 X161.388 Y46.07 E1.84454
G1 X160.854 Y46.07 E.01677
G1 X202.93 Y88.146 E1.86825
G1 X202.93 Y88.68 E.01677
G1 X160.32 Y46.07 E1.89196
G1 X159.786 Y46.07 E.01677
G1 X202.93 Y89.214 E1.91567
G1 X202.93 Y89.748 E.01677
G1 X159.252 Y46.07 E1.93938
G1 X158.718 Y46.07 E.01677
G1 X202.93 Y90.282 E1.96309
G1 X202.93 Y90.816 E.01677
G1 X158.184 Y46.07 E1.9868
G1 X157.65 Y46.07 E.01677
M73 Q1 S195
G1 X202.93 Y91.35 E2.01051
G1 X202.93 Y91.884 E.01677
G1 X157.116 Y46.07 E2.03422
G1 X156.582 Y46.07 E.01677
G1 X202.93 Y92.418 E2.05793
G1 X202.93 Y92.952 E.01677
G1 X156.048 Y46.07 E2.08165
G1 X155.514 Y46.07 E.01677
M73 P2 R195
M73 Q2 S195
G1 X202.93 Y93.486 E2.10536
G1 X202.93 Y94.02 E.01677
G1 X154.98 Y46.07 E2.12907
G1 X154.446 Y46.07 E.01677
G1 X202.93 Y94.554 E2.15278
G1 X202.93 Y95.088 E.01677
G1 X153.912 Y46.07 E2.17649
G1 X153.378 Y46.07 E.01677
G1 X202.93 Y95.622 E2.2002
G1 X202.93 Y96.156 E.01677
G1 X152.844 Y46.07 E2.22391
G1 X152.31 Y46.07 E.01677
G1 X202.93 Y96.69 E2.24762
G1 X202.93 Y97.224 E.01677
M73 P2 R194
G1 X151.776 Y46.07 E2.27133
G1 X151.242 Y46.07 E.01677
G1 X202.93 Y97.758 E2.29504
G1 X202.93 Y98.292 E.01677
G1 X150.708 Y46.07 E2.31875
G1 X150.174 Y46.07 E.01677
G1 X202.93 Y98.826 E2.34246
G1 X202.93 Y99.36 E.01677
G1 X149.64 Y46.07 E2.36617
G1 X149.106 Y46.07 E.01677
G1 X202.93 Y99.894 E2.38988
G1 X202.93 Y100.428 E.01677
M73 Q2 S194
G1 X148.572 Y46.07 E2.41359
G1 X148.038 Y46.07 E.01677
G1 X202.93 Y100.962 E2.4373
G1 X202.93 Y101.496 E.01677
G1 X147.504 Y46.07 E2.46101
G1 X146.97 Y46.07 E.01677
G1 X202.93 Y102.03 E2.48472
G1 X202.93 Y102.564 E.01677
G1 X146.436 Y46.07 E2.50844
G1 X145.902 Y46.07 E.01677
G1 X202.93 Y103.098 E2.53215
G1 X202.93 Y103.632 E.01677
G1 X145.368 Y46.07 E2.55586
G1 X144.834 Y46.07 E.01677
G1 X202.93 Y104.166 E2.57957
G1 X202.93 Y104.7 E.01677
G1 X144.3 Y46.07 E2.60328
G1 X143.766 Y46.07 E.01677
M73 P2 R193
G1 X202.93 Y105.234 E2.62699
G1 X202.93 Y105.768 E.01677
G1 X143.232 Y46.07 E2.6507
G1 X142.698 Y46.07 E.01677
G1 X202.93 Y106.302 E2.67441
G1 X202.93 Y106.836 E.01677
G1 X142.164 Y46.07 E2.69812
G1 X141.63 Y46.07 E.01677
G1 X202.93 Y107.37 E2.72183
G1 X202.93 Y107.904 E.01677
G1 X141.096 Y46.07 E2.74554
G1 X140.562 Y46.07 E.01677
M73 Q2 S193
G1 X202.93 Y108.438 E2.76925
G1 X202.93 Y108.972 E.01677
G1 X140.028 Y46.07 E2.79296
G1 X139.494 Y46.07 E.01677
M73 P3 R193
M73 Q3 S193
G1 X202.93 Y109.506 E2.81667
G1 X202.93 Y110.04 E.01677
G1 X138.96 Y46.07 E2.84038
G1 X138.426 Y46.07 E.01677
G1 X202.93 Y110.574 E2.86409
G1 X202.93 Y111.108 E.01677
G1 X137.892 Y46.07 E2.8878
G1 X137.358 Y46.07 E.01677
G1 X202.93 Y111.642 E2.91152
G1 X202.93 Y112.176 E.01677
G1 X136.824 Y46.07 E2.93523
G1 X136.29 Y46.07 E.01677
M73 P3 R192
G1 X202.93 Y112.71 E2.95894
G1 X202.93 Y113.244 E.01677
G1 X135.756 Y46.07 E2.98265
G1 X135.222 Y46.07 E.01677
G1 X202.93 Y113.778 E3.00636
G1 X202.93 Y114.312 E.01677
G1 X134.688 Y46.07 E3.03007
G1 X134.155 Y46.07 E.01677
G1 X202.93 Y114.845 E3.05378
G1 X202.93 Y115.379 E.01677
M73 Q3 S192
G1 X133.621 Y46.07 E3.07749
G1 X133.087 Y46.07 E.01677
G1 X202.93 Y115.913 E3.1012
G1 X202.93 Y116.447 E.01677
G1 X132.553 Y46.07 E3.12491
G1 X132.019 Y46.07 E.01677
G1 X202.93 Y116.981 E3.14862
G1 X202.93 Y117.515 E.01677
G1 X131.485 Y46.07 E3.17233
G1 X130.951 Y46.07 E.01677
G1 X202.93 Y118.049 E3.19604
G1 X202.93 Y118.583 E.01677
G1 X130.417 Y46.07 E3.21975
G1 X129.883 Y46.07 E.01677
M73 P3 R191
G1 X202.93 Y119.117 E3.24346
G1 X202.93 Y119.651 E.01677
G1 X129.349 Y46.07 E3.26717
G1 X128.815 Y46.07 E.01677
G1 X202.93 Y120.185 E3.29088
G1 X202.93 Y120.719 E.01677
G1 X128.281 Y46.07 E3.31459
G1 X127.747 Y46.07 E.01677
M73 Q3 S191
G1 X202.93 Y121.253 E3.33831
G1 X202.93 Y121.787 E.01677
G1 X127.213 Y46.07 E3.36202
G1 X126.679 Y46.07 E.01677
M73 P4 R191
M73 Q4 S191
G1 X202.93 Y122.321 E3.38573
G1 X202.93 Y122.855 E.01677
G1 X126.145 Y46.07 E3.40944
G1 X125.611 Y46.07 E.01677
G1 X202.93 Y123.389 E3.43315
G1 X202.93 Y123.923 E.01677
G1 X125.077 Y46.07 E3.45686
G1 X124.543 Y46.07 E.01677
G1 X202.93 Y124.457 E3.48057
G1 X202.93 Y124.991 E.01677
M73 P4 R190
G1 X124.009 Y46.07 E3.50428
G1 X123.475 Y46.07 E.01677
G1 X202.93 Y125.525 E3.52799
G1 X202.93 Y126.059 E.01677
G1 X122.941 Y46.07 E3.5517
G1 X122.407 Y46.07 E.01677
G1 X202.93 Y126.593 E3.57541
G1 X202.93 Y127.127 E.01677
M73 Q4 S190
G1 X121.873 Y46.07 E3.59912
G1 X121.339 Y46.07 E.01677
G1 X202.93 Y127.661 E3.62283
G1 X202.93 Y128.195 E.01677
G1 X120.805 Y46.07 E3.64654
G1 X120.271 Y46.07 E.01677
G1 X202.93 Y128.729 E3.67025
G1 X202.93 Y129.263 E.01677
G1 X119.737 Y46.07 E3.69396
G1 X119.203 Y46.07 E.01677
G1 X202.93 Y129.797 E3.71767
G1 X202.93 Y130.331 E.01677
M73 P4 R189
G1 X118.669 Y46.07 E3.74138
G1 X118.135 Y46.07 E.01677
G1 X202.93 Y130.865 E3.7651
G1 X202.93 Y131.399 E.01677
G1 X117.601 Y46.07 E3.78881
G1 X117.067 Y46.07 E.01677
G1 X202.93 Y131.933 E3.81252
G1 X202.93 Y132.467 E.01677
M73 Q4 S189
G1 X116.533 Y46.07 E3.83623
G1 X115.999 Y46.07 E.01677
G1 X202.93 Y133.001 E3.85994
G1 X202.93 Y133.535 E.01677
M73 P5 R189
M73 Q5 S189
G1 X115.465 Y46.07 E3.88365
G1 X114.931 Y46.07 E.01677
G1 X202.93 Y134.069 E3.90736
G1 X202.93 Y134.603 E.01677
G1 X114.397 Y46.07 E3.93107
G1 X113.863 Y46.07 E.01677
G1 X202.93 Y135.137 E3.95478
G1 X202.93 Y135.671 E.01677
M73 P5 R188
G1 X113.329 Y46.07 E3.97849
G1 X112.795 Y46.07 E.01677
G1 X202.93 Y136.205 E4.0022
G1 X202.93 Y136.739 E.01677
G1 X112.261 Y46.07 E4.02591
G1 X111.727 Y46.07 E.01677
G1 X202.93 Y137.273 E4.04962
G1 X202.93 Y137.807 E.01677
M73 Q5 S188
G1 X111.193 Y46.07 E4.07333
G1 X110.659 Y46.07 E.01677
G1 X202.93 Y138.341 E4.09704
G1 X202.93 Y138.875 E.01677
G1 X110.125 Y46.07 E4.12075
G1 X109.591 Y46.07 E.01677
G1 X202.93 Y139.409 E4.14446
G1 X202.93 Y139.943 E.01677
G1 X109.057 Y46.07 E4.16818
G1 X108.523 Y46.07 E.01677
M73 P5 R187
G1 X202.93 Y140.477 E4.19189
G1 X202.93 Y141.011 E.01677
G1 X107.989 Y46.07 E4.2156
G1 X107.455 Y46.07 E.01677
G1 X202.93 Y141.545 E4.23931
G1 X202.93 Y142.079 E.01677
G1 X106.921 Y46.07 E4.26302
G1 X106.387 Y46.07 E.01677
M73 Q5 S187
G1 X202.93 Y142.613 E4.28673
G1 X202.93 Y143.147 E.01677
M73 P6 R187
M73 Q6 S187
G1 X105.853 Y46.07 E4.31044
G1 X105.319 Y46.07 E.01677
G1 X202.93 Y143.681 E4.33415
G1 X202.93 Y144.215 E.01677
G1 X104.785 Y46.07 E4.35786
G1 X104.251 Y46.07 E.01677
G1 X202.93 Y144.749 E4.38157
G1 X202.93 Y145.283 E.01677
M73 P6 R186
G1 X103.717 Y46.07 E4.40528
G1 X103.183 Y46.07 E.01677
G1 X202.93 Y145.817 E4.42899
G1 X202.93 Y146.351 E.01677
G1 X102.649 Y46.07 E4.4527
G1 X102.115 Y46.07 E.01677
G1 X202.93 Y146.885 E4.47641
G1 X202.93 Y147.419 E.01677
M73 Q6 S186
G1 X101.581 Y46.07 E4.50012
G1 X101.047 Y46.07 E.01677
G1 X202.93 Y147.953 E4.52383
G1 X202.93 Y148.487 E.01677
G1 X100.513 Y46.07 E4.54754
G1 X99.979 Y46.07 E.01677
G1 X202.93 Y149.021 E4.57125
G1 X202.93 Y149.555 E.01677
M73 P6 R185
G1 X99.445 Y46.07 E4.59497
G1 X98.911 Y46.07 E.01677
G1 X202.93 Y150.089 E4.61868
G1 X202.93 Y150.623 E.01677
G1 X98.377 Y46.07 E4.64239
G1 X97.843 Y46.07 E.01677
G1 X202.93 Y151.157 E4.6661
G1 X202.93 Y151.691 E.01677
M73 Q6 S185
G1 X97.309 Y46.07 E4.68981
G1 X96.775 Y46.07 E.01677
M73 P7 R185
M73 Q7 S185
G1 X202.93 Y152.225 E4.71352
G1 X202.93 Y152.759 E.01677
G1 X96.241 Y46.07 E4.73723
G1 X95.707 Y46.07 E.01677
G1 X202.93 Y153.293 E4.76094
G1 X202.93 Y153.827 E.01677
M73 P7 R184
G1 X95.173 Y46.07 E4.78465
G1 X94.639 Y46.07 E.01677
G1 X202.93 Y154.361 E4.80836
G1 X202.93 Y154.895 E.01677
G1 X94.105 Y46.07 E4.83207
G1 X93.571 Y46.07 E.01677
G1 X202.93 Y155.429 E4.85578
G1 X202.93 Y155.963 E.01677
M73 Q7 S184
G1 X93.037 Y46.07 E4.87949
G1 X92.503 Y46.07 E.01677
G1 X202.93 Y156.497 E4.9032
G1 X202.93 Y157.031 E.01677
G1 X91.969 Y46.07 E4.92691
G1 X91.435 Y46.07 E.01677
G1 X202.93 Y157.565 E4.95062
G1 X202.93 Y158.099 E.01677
M73 P7 R183
G1 X90.901 Y46.07 E4.97433
G1 X90.367 Y46.07 E.01677
G1 X202.93 Y158.633 E4.99804
G1 X202.93 Y159.167 E.01677
G1 X89.833 Y46.07 E5.02176
G1 X89.299 Y46.07 E.01677
M73 Q7 S183
G1 X202.93 Y159.701 E5.04547
G1 X202.93 Y160.235 E.01677
M73 P8 R183
M73 Q8 S183
G1 X88.765 Y46.07 E5.06918
G1 X88.231 Y46.07 E.01677
G1 X202.93 Y160.769 E5.09289
G1 X202.93 Y161.303 E.01677
G1 X87.697 Y46.07 E5.1166
G1 X87.163 Y46.07 E.01677
G1 X202.93 Y161.837 E5.14031
G1 X202.93 Y162.371 E.01677
M73 P8 R182
G1 X86.629 Y46.07 E5.16402
G1 X86.095 Y46.07 E.01677
G1 X202.93 Y162.905 E5.18773
G1 X202.93 Y163.439 E.01677
G1 X85.561 Y46.07 E5.21144
G1 X85.027 Y46.07 E.01677
M73 Q8 S182
G1 X202.887 Y163.93 E5.23324
G1 X202.353 Y163.93 E.01677
G1 X84.493 Y46.07 E5.23324
G1 X83.959 Y46.07 E.01677
G1 X201.819 Y163.93 E5.23324
G1 X201.285 Y163.93 E.01677
G1 X83.425 Y46.07 E5.23324
G1 X82.891 Y46.07 E.01677
M73 P8 R181
G1 X200.751 Y163.93 E5.23324
G1 X200.217 Y163.93 E.01677
G1 X82.357 Y46.07 E5.23324
