; generated by PrusaSlicer 2.4.1+win64 on 2023-04-27 at 09:27:20 UTC


;
;
; 

; external perimeters extrusion width = 0.60mm
; perimeters extrusion width = 0.50mm
; infill extrusion width = 0.50mm
; solid infill extrusion width = 0.50mm
; top infill extrusion width = 0.45mm
; first layer extrusion width = 0.42mm

M73 P0 R150
M73 Q0 S154
M201 X1000 Y1000 Z200 E5000 ; sets maximum accelerations, mm/sec^2
M203 X200 Y200 Z12 E120 ; sets maximum feedrates, mm / sec
M204 P1250 R1250 T1250 ; sets acceleration (P, T) and retract acceleration (R), mm/sec^2
M205 X8.00 Y8.00 Z0.40 E4.50 ; sets the jerk limits, mm/sec
M205 S0 T0 ; sets the minimum extruding and travel feed rate, mm/sec
M107
;TYPE:Custom
M862.3 P "MK3S" ; printer model check
M862.1 P0.4 ; nozzle diameter check
M115 U3.11.0 ; tell printer latest fw version
G90 ; use absolute coordinates
M83 ; extruder relative mode
M104 S215 ; set extruder temp
M140 S60 ; set bed temp
M190 S60 ; wait for bed temp
M109 S215 ; wait for extruder temp
G28 W ; home all without mesh bed level
G80 ; mesh bed leveling

G1 Z0.2 F720
G1 Y-3 F1000 ; go outside print area
G92 E0
G1 X60 E9 F1000 ; intro line
G1 X100 E12.5 F1000 ; intro line

G92 E0
M221 S95

; Don't change E values below. Excessive value can damage the printer.

M907 E538 ; set extruder motor current
G21 ; set units to millimeters
G90 ; use absolute coordinates
M83 ; use relative distances for extrusion
M900 K0.05 ; Filament gcode LA 1.5
M900 K30 ; Filament gcode LA 1.0
M107
;LAYER_CHANGE
;Z:0.2
;HEIGHT:0.2
;BEFORE_LAYER_CHANGE
G92 E0.0
;0.2


G1 E-.8 F2100
G1 Z.4 F720
;AFTER_LAYER_CHANGE
;0.2
G1 X34.06 Y67.817 F10800
G1 Z.2 F720
G1 E.8 F2100
M204 S800
;TYPE:Skirt/Brim
;WIDTH:0.42
G1 F1200
G1 X35 Y67.623 E.03008
G1 X215 Y67.623 E5.64377
G1 X216.307 Y68.015 E.04278
G1 X217.183 Y69.06 E.04278
G1 X217.377 Y70 E.03008
G1 X217.377 Y140 E2.1948
G1 X216.985 Y141.307 E.04278
G1 X215.94 Y142.183 E.04278
G1 X215 Y142.377 E.03008
G1 X35 Y142.377 E5.64377
G1 X33.693 Y141.985 E.04278
G1 X32.817 Y140.94 E.04278
G1 X32.623 Y140 E.03008
G1 X32.623 Y70 E2.1948
G1 X33.015 Y68.693 E.04278
G1 X34.014 Y67.855 E.0409
M204 S1000
; printing object RasiAbdeckung3_1mm.stl id:0 copy 0
;WIPE_START
G1 F8640
G1 X35 Y67.623 E-.23384
G1 X37.279 Y67.623 E-.52616
;WIPE_END
G1 E-.04 F2100
G1 Z.6 F720
G1 X35.787 Y70.787 F10800
G1 Z.2 F720
G1 E.8 F2100
M204 S800
;TYPE:Perimeter
G1 F1200
G1 X214.213 Y70.787 E5.59442
G1 X214.213 Y139.213 E2.14544
G1 X35.787 Y139.213 E5.59442
G1 X35.787 Y70.847 E2.14356
M204 S1000
G1 X35.41 Y70.41 F10800
M204 S800
;TYPE:External perimeter
M73 Q0 S153
G1 F1200
G1 X214.59 Y70.41 E5.61806
G1 X214.59 Y139.59 E2.16909
M73 P0 R149
G1 X35.41 Y139.59 E5.61806
G1 X35.41 Y70.47 E2.16721
M204 S1000
G1 X35.807 Y70.459 F10800
;WIPE_START
G1 F8640
G1 X38.701 Y70.469 E-.76
;WIPE_END
G1 E-.04 F2100
G1 Z.6 F720
G1 X213.337 Y70.9 F10800
G1 Z.2 F720
G1 E.8 F2100
M204 S800
;TYPE:Solid infill
;WIDTH:0.420157
G1 F1200
G1 X213.93 Y71.493 E.0263
G1 X213.93 Y72.027 E.01673
G1 X212.973 Y71.07 E.04244
G1 X212.44 Y71.07 E.01673
G1 X213.93 Y72.56 E.06611
G1 X213.93 Y73.094 E.01673
G1 X211.906 Y71.07 E.08977
G1 X211.373 Y71.07 E.01673
G1 X213.93 Y73.627 E.11344
G1 X213.93 Y74.161 E.01673
G1 X210.839 Y71.07 E.1371
G1 X210.306 Y71.07 E.01673
G1 X213.93 Y74.694 E.16077
G1 X213.93 Y75.228 E.01673
G1 X209.772 Y71.07 E.18444
G1 X209.239 Y71.07 E.01673
G1 X213.93 Y75.761 E.2081
G1 X213.93 Y76.295 E.01673
G1 X208.705 Y71.07 E.23177
G1 X208.172 Y71.07 E.01673
G1 X213.93 Y76.828 E.25543
G1 X213.93 Y77.362 E.01673
G1 X207.638 Y71.07 E.2791
G1 X207.105 Y71.07 E.01673
G1 X213.93 Y77.895 E.30277
G1 X213.93 Y78.429 E.01673
G1 X206.571 Y71.07 E.32643
G1 X206.038 Y71.07 E.01673
G1 X213.93 Y78.962 E.3501
G1 X213.93 Y79.496 E.01673
G1 X205.504 Y71.07 E.37376
G1 X204.971 Y71.07 E.01673
G1 X213.93 Y80.029 E.39743
G1 X213.93 Y80.563 E.01673
M73 P1 R149
G1 X204.437 Y71.07 E.42109
G1 X203.904 Y71.07 E.01673
G1 X213.93 Y81.096 E.44476
G1 X213.93 Y81.629 E.01673
G1 X203.371 Y71.07 E.46843
M73 Q1 S153
G1 X202.837 Y71.07 E.01673
G1 X213.93 Y82.163 E.49209
G1 X213.93 Y82.696 E.01673
G1 X202.304 Y71.07 E.51576
G1 X201.77 Y71.07 E.01673
G1 X213.93 Y83.23 E.53942
G1 X213.93 Y83.763 E.01673
G1 X201.237 Y71.07 E.56309
G1 X200.703 Y71.07 E.01673
G1 X213.93 Y84.297 E.58676
G1 X213.93 Y84.83 E.01673
G1 X200.17 Y71.07 E.61042
G1 X199.636 Y71.07 E.01673
G1 X213.93 Y85.364 E.63409
G1 X213.93 Y85.897 E.01673
G1 X199.103 Y71.07 E.65775
G1 X198.569 Y71.07 E.01673
G1 X213.93 Y86.431 E.68142
G1 X213.93 Y86.964 E.01673
G1 X198.036 Y71.07 E.70509
G1 X197.502 Y71.07 E.01673
G1 X213.93 Y87.498 E.72875
G1 X213.93 Y88.031 E.01673
G1 X196.969 Y71.07 E.75242
G1 X196.435 Y71.07 E.01673
G1 X213.93 Y88.565 E.77608
G1 X213.93 Y89.098 E.01673
G1 X195.902 Y71.07 E.79975
G1 X195.368 Y71.07 E.01673
G1 X213.93 Y89.632 E.82341
G1 X213.93 Y90.165 E.01673
G1 X194.835 Y71.07 E.84708
G1 X194.301 Y71.07 E.01673
G1 X213.93 Y90.699 E.87075
G1 X213.93 Y91.232 E.01673
G1 X193.768 Y71.07 E.89441
G1 X193.234 Y71.07 E.01673
G1 X213.93 Y91.766 E.91808
G1 X213.93 Y92.299 E.01673
M73 Q1 S152
G1 X192.701 Y71.07 E.94174
G1 X192.167 Y71.07 E.01673
G1 X213.93 Y92.833 E.96541
G1 X213.93 Y93.366 E.01673
G1 X191.634 Y71.07 E.98908
G1 X191.1 Y71.07 E.01673
G1 X213.93 Y93.9 E1.01274
G1 X213.93 Y94.433 E.01673
M73 P1 R148
G1 X190.567 Y71.07 E1.03641
G1 X190.033 Y71.07 E.01673
G1 X213.93 Y94.967 E1.06007
G1 X213.93 Y95.5 E.01673
G1 X189.5 Y71.07 E1.08374
G1 X188.966 Y71.07 E.01673
G1 X213.93 Y96.034 E1.10741
G1 X213.93 Y96.567 E.01673
G1 X188.433 Y71.07 E1.13107
G1 X187.899 Y71.07 E.01673
G1 X213.93 Y97.101 E1.15474
G1 X213.93 Y97.634 E.01673
G1 X187.366 Y71.07 E1.1784
G1 X186.832 Y71.07 E.01673
G1 X213.93 Y98.168 E1.20207
G1 X213.93 Y98.701 E.01673
G1 X186.299 Y71.07 E1.22573
G1 X185.765 Y71.07 E.01673
G1 X213.93 Y99.235 E1.2494
G1 X213.93 Y99.768 E.01673
G1 X185.232 Y71.07 E1.27307
G1 X184.698 Y71.07 E.01673
G1 X213.93 Y100.302 E1.29673
G1 X213.93 Y100.835 E.01673
G1 X184.165 Y71.07 E1.3204
G1 X183.631 Y71.07 E.01673
G1 X213.93 Y101.369 E1.34406
G1 X213.93 Y101.902 E.01673
G1 X183.098 Y71.07 E1.36773
G1 X182.564 Y71.07 E.01673
G1 X213.93 Y102.436 E1.3914
G1 X213.93 Y102.969 E.01673
G1 X182.031 Y71.07 E1.41506
G1 X181.497 Y71.07 E.01673
G1 X213.93 Y103.503 E1.43873
G1 X213.93 Y104.036 E.01673
G1 X180.964 Y71.07 E1.46239
G1 X180.43 Y71.07 E.01673
G1 X213.93 Y104.57 E1.48606
G1 X213.93 Y105.103 E.01673
G1 X179.897 Y71.07 E1.50972
G1 X179.363 Y71.07 E.01673
G1 X213.93 Y105.637 E1.53339
G1 X213.93 Y106.17 E.01673
G1 X178.83 Y71.07 E1.55706
G1 X178.296 Y71.07 E.01673
G1 X213.93 Y106.704 E1.58072
G1 X213.93 Y107.237 E.01673
G1 X177.763 Y71.07 E1.60439
G1 X177.229 Y71.07 E.01673
M73 Q1 S151
G1 X213.93 Y107.771 E1.62805
G1 X213.93 Y108.304 E.01673
G1 X176.696 Y71.07 E1.65172
G1 X176.162 Y71.07 E.01673
M73 P1 R147
G1 X213.93 Y108.838 E1.67539
G1 X213.93 Y109.371 E.01673
M73 P2 R147
G1 X175.629 Y71.07 E1.69905
G1 X175.095 Y71.07 E.01673
M73 Q2 S151
G1 X213.93 Y109.905 E1.72272
G1 X213.93 Y110.438 E.01673
G1 X174.562 Y71.07 E1.74638
G1 X174.028 Y71.07 E.01673
G1 X213.93 Y110.972 E1.77005
G1 X213.93 Y111.505 E.01673
G1 X173.495 Y71.07 E1.79372
G1 X172.961 Y71.07 E.01673
G1 X213.93 Y112.039 E1.81738
G1 X213.93 Y112.572 E.01673
G1 X172.428 Y71.07 E1.84105
G1 X171.894 Y71.07 E.01673
G1 X213.93 Y113.106 E1.86471
G1 X213.93 Y113.639 E.01673
G1 X171.361 Y71.07 E1.88838
G1 X170.827 Y71.07 E.01673
G1 X213.93 Y114.173 E1.91204
G1 X213.93 Y114.706 E.01673
G1 X170.294 Y71.07 E1.93571
G1 X169.76 Y71.07 E.01673
G1 X213.93 Y115.24 E1.95938
G1 X213.93 Y115.773 E.01673
G1 X169.227 Y71.07 E1.98304
G1 X168.693 Y71.07 E.01673
G1 X213.93 Y116.307 E2.00671
G1 X213.93 Y116.84 E.01673
G1 X168.16 Y71.07 E2.03037
G1 X167.626 Y71.07 E.01673
G1 X213.93 Y117.374 E2.05404
G1 X213.93 Y117.907 E.01673
G1 X167.093 Y71.07 E2.07771
G1 X166.559 Y71.07 E.01673
M73 Q2 S150
G1 X213.93 Y118.441 E2.10137
G1 X213.93 Y118.974 E.01673
G1 X166.026 Y71.07 E2.12504
G1 X165.492 Y71.07 E.01673
M73 P2 R146
G1 X213.93 Y119.508 E2.1487
G1 X213.93 Y120.041 E.01673
G1 X164.959 Y71.07 E2.17237
G1 X164.425 Y71.07 E.01673
G1 X213.93 Y120.575 E2.19604
G1 X213.93 Y121.108 E.01673
G1 X163.892 Y71.07 E2.2197
G1 X163.358 Y71.07 E.01673
G1 X213.93 Y121.642 E2.24337
G1 X213.93 Y122.175 E.01673
G1 X162.825 Y71.07 E2.26703
G1 X162.291 Y71.07 E.01673
G1 X213.93 Y122.709 E2.2907
G1 X213.93 Y123.242 E.01673
G1 X161.758 Y71.07 E2.31436
G1 X161.225 Y71.07 E.01673
G1 X213.93 Y123.775 E2.33803
G1 X213.93 Y124.309 E.01673
M73 P3 R146
G1 X160.691 Y71.07 E2.3617
G1 X160.158 Y71.07 E.01673
M73 Q3 S150
G1 X213.93 Y124.842 E2.38536
G1 X213.93 Y125.376 E.01673
G1 X159.624 Y71.07 E2.40903
G1 X159.091 Y71.07 E.01673
G1 X213.93 Y125.909 E2.43269
G1 X213.93 Y126.443 E.01673
G1 X158.557 Y71.07 E2.45636
G1 X158.024 Y71.07 E.01673
G1 X213.93 Y126.976 E2.48003
G1 X213.93 Y127.51 E.01673
M73 Q3 S149
G1 X157.49 Y71.07 E2.50369
G1 X156.957 Y71.07 E.01673
M73 P3 R145
G1 X213.93 Y128.043 E2.52736
G1 X213.93 Y128.577 E.01673
G1 X156.423 Y71.07 E2.55102
G1 X155.89 Y71.07 E.01673
G1 X213.93 Y129.11 E2.57469
G1 X213.93 Y129.644 E.01673
G1 X155.356 Y71.07 E2.59836
G1 X154.823 Y71.07 E.01673
G1 X213.93 Y130.177 E2.62202
G1 X213.93 Y130.711 E.01673
G1 X154.289 Y71.07 E2.64569
G1 X153.756 Y71.07 E.01673
G1 X213.93 Y131.244 E2.66935
G1 X213.93 Y131.778 E.01673
G1 X153.222 Y71.07 E2.69302
G1 X152.689 Y71.07 E.01673
G1 X213.93 Y132.311 E2.71668
G1 X213.93 Y132.845 E.01673
G1 X152.155 Y71.07 E2.74035
G1 X151.622 Y71.07 E.01673
G1 X213.93 Y133.378 E2.76402
G1 X213.93 Y133.912 E.01673
G1 X151.088 Y71.07 E2.78768
G1 X150.555 Y71.07 E.01673
G1 X213.93 Y134.445 E2.81135
G1 X213.93 Y134.979 E.01673
M73 Q3 S148
G1 X150.021 Y71.07 E2.83501
G1 X149.488 Y71.07 E.01673
M73 P3 R144
G1 X213.93 Y135.512 E2.85868
G1 X213.93 Y136.046 E.01673
M73 P4 R144
G1 X148.954 Y71.07 E2.88235
G1 X148.421 Y71.07 E.01673
M73 Q4 S148
G1 X213.93 Y136.579 E2.90601
G1 X213.93 Y137.113 E.01673
G1 X147.887 Y71.07 E2.92968
G1 X147.354 Y71.07 E.01673
G1 X213.93 Y137.646 E2.95334
G1 X213.93 Y138.18 E.01673
G1 X146.82 Y71.07 E2.97701
G1 X146.287 Y71.07 E.01673
G1 X213.93 Y138.713 E3.00068
G1 X213.93 Y138.93 E.0068
G1 X213.613 Y138.93 E.00993
G1 X145.753 Y71.07 E3.01029
G1 X145.22 Y71.07 E.01673
G1 X213.08 Y138.93 E3.01029
G1 X212.546 Y138.93 E.01673
G1 X144.686 Y71.07 E3.01029
G1 X144.153 Y71.07 E.01673
G1 X212.013 Y138.93 E3.01029
G1 X211.479 Y138.93 E.01673
M73 Q4 S147
G1 X143.619 Y71.07 E3.01029
G1 X143.086 Y71.07 E.01673
G1 X210.946 Y138.93 E3.01029
G1 X210.412 Y138.93 E.01673
M73 P4 R143
G1 X142.552 Y71.07 E3.01029
G1 X142.019 Y71.07 E.01673
G1 X209.879 Y138.93 E3.01029
G1 X209.345 Y138.93 E.01673
G1 X141.485 Y71.07 E3.01029
G1 X140.952 Y71.07 E.01673
G1 X208.812 Y138.93 E3.01029
G1 X208.279 Y138.93 E.01673
G1 X140.418 Y71.07 E3.01029
G1 X139.885 Y71.07 E.01673
G1 X207.745 Y138.93 E3.01029
G1 X207.212 Y138.93 E.01673
M73 P5 R143
G1 X139.351 Y71.07 E3.01029
G1 X138.818 Y71.07 E.01673
G1 X206.678 Y138.93 E3.01029
G1 X206.145 Y138.93 E.01673
G1 X138.284 Y71.07 E3.01029
G1 X137.751 Y71.07 E.01673
M73 Q5 S147
G1 X205.611 Y138.93 E3.01029
G1 X205.078 Y138.93 E.01673
G1 X137.217 Y71.07 E3.01029
G1 X136.684 Y71.07 E.01673
M73 Q5 S146
G1 X204.544 Y138.93 E3.01029
G1 X204.011 Y138.93 E.01673
M73 P5 R142
G1 X136.15 Y71.07 E3.01029
G1 X135.617 Y71.07 E.01673
G1 X203.477 Y138.93 E3.01029
G1 X202.944 Y138.93 E.01673
G1 X135.083 Y71.07 E3.01029
G1 X134.55 Y71.07 E.01673
G1 X202.41 Y138.93 E3.01029
G1 X201.877 Y138.93 E.01673
G1 X134.016 Y71.07 E3.01029
G1 X133.483 Y71.07 E.01673
G1 X201.343 Y138.93 E3.01029
G1 X200.81 Y138.93 E.01673
G1 X132.949 Y71.07 E3.01029
G1 X132.416 Y71.07 E.01673
G1 X200.276 Y138.93 E3.01029
G1 X199.743 Y138.93 E.01673
G1 X131.882 Y71.07 E3.01029
G1 X131.349 Y71.07 E.01673
G1 X199.209 Y138.93 E3.01029
G1 X198.676 Y138.93 E.01673
G1 X130.815 Y71.07 E3.01029
G1 X130.282 Y71.07 E.01673
M73 Q5 S145
G1 X198.142 Y138.93 E3.01029
G1 X197.609 Y138.93 E.01673
M73 P5 R141
G1 X129.748 Y71.07 E3.01029
G1 X129.215 Y71.07 E.01673
M73 P6 R141
G1 X197.075 Y138.93 E3.01029
G1 X196.542 Y138.93 E.01673
G1 X128.681 Y71.07 E3.01029
G1 X128.148 Y71.07 E.01673
G1 X196.008 Y138.93 E3.01029
G1 X195.475 Y138.93 E.01673
M73 Q6 S145
G1 X127.614 Y71.07 E3.01029
G1 X127.081 Y71.07 E.01673
G1 X194.941 Y138.93 E3.01029
G1 X194.408 Y138.93 E.01673
G1 X126.547 Y71.07 E3.01029
G1 X126.014 Y71.07 E.01673
G1 X193.874 Y138.93 E3.01029
G1 X193.341 Y138.93 E.01673
G1 X125.48 Y71.07 E3.01029
G1 X124.947 Y71.07 E.01673
G1 X192.807 Y138.93 E3.01029
G1 X192.274 Y138.93 E.01673
G1 X124.413 Y71.07 E3.01029
G1 X123.88 Y71.07 E.01673
G1 X191.74 Y138.93 E3.01029
G1 X191.207 Y138.93 E.01673
M73 Q6 S144
G1 X123.346 Y71.07 E3.01029
G1 X122.813 Y71.07 E.01673
M73 P6 R140
G1 X190.673 Y138.93 E3.01029
G1 X190.14 Y138.93 E.01673
G1 X122.279 Y71.07 E3.01029
G1 X121.746 Y71.07 E.01673
G1 X189.606 Y138.93 E3.01029
G1 X189.073 Y138.93 E.01673
G1 X121.212 Y71.07 E3.01029
G1 X120.679 Y71.07 E.01673
G1 X188.539 Y138.93 E3.01029
G1 X188.006 Y138.93 E.01673
G1 X120.145 Y71.07 E3.01029
G1 X119.612 Y71.07 E.01673
G1 X187.472 Y138.93 E3.01029
G1 X186.939 Y138.93 E.01673
M73 P7 R140
G1 X119.079 Y71.07 E3.01029
G1 X118.545 Y71.07 E.01673
G1 X186.405 Y138.93 E3.01029
G1 X185.872 Y138.93 E.01673
G1 X118.012 Y71.07 E3.01029
G1 X117.478 Y71.07 E.01673
M73 Q7 S144
G1 X185.338 Y138.93 E3.01029
G1 X184.805 Y138.93 E.01673
M73 Q7 S143
G1 X116.945 Y71.07 E3.01029
G1 X116.411 Y71.07 E.01673
M73 P7 R139
G1 X184.271 Y138.93 E3.01029
G1 X183.738 Y138.93 E.01673
G1 X115.878 Y71.07 E3.01029
G1 X115.344 Y71.07 E.01673
G1 X183.204 Y138.93 E3.01029
G1 X182.671 Y138.93 E.01673
G1 X114.811 Y71.07 E3.01029
G1 X114.277 Y71.07 E.01673
G1 X182.137 Y138.93 E3.01029
G1 X181.604 Y138.93 E.01673
G1 X113.744 Y71.07 E3.01029
G1 X113.21 Y71.07 E.01673
G1 X181.07 Y138.93 E3.01029
G1 X180.537 Y138.93 E.01673
G1 X112.677 Y71.07 E3.01029
G1 X112.143 Y71.07 E.01673
G1 X180.003 Y138.93 E3.01029
G1 X179.47 Y138.93 E.01673
G1 X111.61 Y71.07 E3.01029
G1 X111.076 Y71.07 E.01673
G1 X178.936 Y138.93 E3.01029
G1 X178.403 Y138.93 E.01673
M73 Q7 S142
G1 X110.543 Y71.07 E3.01029
G1 X110.009 Y71.07 E.01673
G1 X177.869 Y138.93 E3.01029
G1 X177.336 Y138.93 E.01673
M73 P7 R138
G1 X109.476 Y71.07 E3.01029
G1 X108.942 Y71.07 E.01673
M73 P8 R138
G1 X176.802 Y138.93 E3.01029
G1 X176.269 Y138.93 E.01673
G1 X108.409 Y71.07 E3.01029
G1 X107.875 Y71.07 E.01673
G1 X175.735 Y138.93 E3.01029
G1 X175.202 Y138.93 E.01673
M73 Q8 S142
G1 X107.342 Y71.07 E3.01029
G1 X106.808 Y71.07 E.01673
G1 X174.668 Y138.93 E3.01029
G1 X174.135 Y138.93 E.01673
G1 X106.275 Y71.07 E3.01029
G1 X105.741 Y71.07 E.01673
G1 X173.601 Y138.93 E3.01029
G1 X173.068 Y138.93 E.01673
G1 X105.208 Y71.07 E3.01029
G1 X104.674 Y71.07 E.01673
G1 X172.534 Y138.93 E3.01029
G1 X172.001 Y138.93 E.01673
G1 X104.141 Y71.07 E3.01029
G1 X103.607 Y71.07 E.01673
M73 Q8 S141
G1 X171.467 Y138.93 E3.01029
G1 X170.934 Y138.93 E.01673
M73 P8 R137
G1 X103.074 Y71.07 E3.01029
G1 X102.54 Y71.07 E.01673
G1 X170.4 Y138.93 E3.01029
G1 X169.867 Y138.93 E.01673
G1 X102.007 Y71.07 E3.01029
G1 X101.473 Y71.07 E.01673
G1 X169.333 Y138.93 E3.01029
G1 X168.8 Y138.93 E.01673
G1 X100.94 Y71.07 E3.01029
G1 X100.406 Y71.07 E.01673
G1 X168.266 Y138.93 E3.01029
G1 X167.733 Y138.93 E.01673
G1 X99.873 Y71.07 E3.01029
G1 X99.339 Y71.07 E.01673
M73 P9 R137
G1 X167.199 Y138.93 E3.01029
G1 X166.666 Y138.93 E.01673
G1 X98.806 Y71.07 E3.01029
G1 X98.272 Y71.07 E.01673
G1 X166.133 Y138.93 E3.01029
G1 X165.599 Y138.93 E.01673
G1 X97.739 Y71.07 E3.01029
G1 X97.205 Y71.07 E.01673
M73 Q8 S140
G1 X165.066 Y138.93 E3.01029
G1 X164.532 Y138.93 E.01673
M73 P9 R136
M73 Q9 S140
G1 X96.672 Y71.07 E3.01029
G1 X96.138 Y71.07 E.01673
G1 X163.999 Y138.93 E3.01029
G1 X163.465 Y138.93 E.01673
G1 X95.605 Y71.07 E3.01029
G1 X95.071 Y71.07 E.01673
G1 X162.932 Y138.93 E3.01029
G1 X162.398 Y138.93 E.01673
G1 X94.538 Y71.07 E3.01029
G1 X94.004 Y71.07 E.01673
G1 X161.865 Y138.93 E3.01029
G1 X161.331 Y138.93 E.01673
G1 X93.471 Y71.07 E3.01029
G1 X92.937 Y71.07 E.01673
