; generated by PrusaSlicer 2.8.0+win64 on 2024-10-30 at 06:57:42 UTC


;
;
; 

; external perimeters extrusion width = 0.60mm
; perimeters extrusion width = 0.50mm
; infill extrusion width = 0.50mm
; solid infill extrusion width = 0.50mm
; top infill extrusion width = 0.45mm
; support material extrusion width = 0.38mm
; first layer extrusion width = 0.42mm

M73 P0 R50
M73 Q0 S51
M201 X1000 Y1000 Z200 E5000 ; sets maximum accelerations, mm/sec^2
M203 X200 Y200 Z12 E120 ; sets maximum feedrates, mm / sec
M204 S1250 T1250 ; sets acceleration (S) and retract acceleration (R), mm/sec^2
M205 X8.00 Y8.00 Z0.40 E4.50 ; sets the jerk limits, mm/sec
M205 S0 T0 ; sets the minimum extruding and travel feed rate, mm/sec

; printing object Batterie_Halter_2x_AA__2x_AAA.stl id:0 copy 0
; stop printing object Batterie_Halter_2x_AA__2x_AAA.stl id:0 copy 0

;TYPE:Custom
M862.3 P "MK3S" ; printer model check
M862.1 P0.4 ; nozzle diameter check
M115 U3.13.3 ; tell printer latest fw version
G90 ; use absolute coordinates
M83 ; extruder relative mode
M104 S215 ; set extruder temp
M140 S60 ; set bed temp
M190 S60 ; wait for bed temp
M109 S215 ; wait for extruder temp
G28 W ; home all without mesh bed level
G80 X96.519 Y84.1948 W56.962 H44.655 ; mesh bed levelling

G1 Z0.2 F720
G1 Y-3 F1000 ; go outside print area
G92 E0
G1 X60 E9 F1000 ; intro line
G1 X100 E12.5 F1000 ; intro line

G92 E0
M221 S95

; Don't change E values below. Excessive value can damage the printer.

M907 E538 ; set extruder motor current
G21 ; set units to millimeters
G90 ; use absolute coordinates
M83 ; use relative distances for extrusion

M900 K0.05 ; Filament gcode LA 1.5
M900 K30 ; Filament gcode LA 1.0




M107
;LAYER_CHANGE
;Z:0.2
;HEIGHT:0.2
G1 E-.8 F2100
G1 Z.6 F720
G1 X97.579 Y85.536 F10800
G1 Z.2 F720
G1 E.8 F2100
M204 S800
;TYPE:Skirt/Brim
;WIDTH:0.42
G1 F1200
G1 X98.021 Y85.091 E.01967
G1 X99.03 Y84.543 E.036
G1 X100 Y84.383 E.03082
G1 X150.186 Y84.391 E1.57355
G1 X151.216 Y84.633 E.03317
G1 X151.964 Y85.079 E.02731
G1 X152.408 Y85.521 E.01964
G1 X152.867 Y86.284 E.02792
G1 X153.109 Y87.314 E.03317
G1 X153.292 Y113.305 E.81495
G1 X153.292 Y126.473 E.41287
G1 X152.902 Y127.721 E.041
G1 X151.869 Y128.523 E.041
G1 X151.104 Y128.661 E.02437
G1 X98.896 Y128.661 E1.63695
G1 X97.648 Y128.27 E.04101
G1 X96.846 Y127.237 E.041
G1 X96.708 Y126.473 E.02434
G1 X96.708 Y113.305 E.41287
G1 X96.883 Y87.485 E.80959
G1 X96.924 Y87.017 E.01473
G1 X97.133 Y86.284 E.0239
G1 X97.548 Y85.588 E.02541
M204 S1000
;WIPE_START
G1 F8640
G1 X97.579 Y85.536 E-.01398
G1 X98.021 Y85.091 E-.14482
G1 X99.03 Y84.543 E-.26512
G1 X100 Y84.383 E-.227
G1 X100.646 Y84.383 E-.14908
;WIPE_END
G1 Z.6 F720
; printing object Batterie_Halter_2x_AA__2x_AAA.stl id:0 copy 0
G1 X151.104 Y126.473 F10800
G1 Z.2 F720
G1 E.8 F2100
M204 S800
;TYPE:Support material
G1 F1200
G1 X138.262 Y126.473 E.40265
G1 X138.262 Y114.07 E.38889
G1 X150.654 Y114.07 E.38854
G1 X150.988 Y113.736 E.01481
G1 X150.988 Y113.32 E.01304
G1 X151.104 Y113.32 E.00364
G1 X151.104 Y126.416 E.41062
M204 S1000
G1 X151.104 Y126.416 F10800
G1 X150.558 Y126.303
M204 S800
G1 F1200
G1 X150.558 Y114.409 E.37293
G1 X150.139 Y114.409 E.01314
G1 X150.139 Y126.133 E.3676
G1 X149.72 Y126.133 E.01314
G1 X149.72 Y114.409 E.3676
G1 X149.301 Y114.409 E.01314
G1 X149.301 Y126.133 E.3676
G1 X148.882 Y126.133 E.01314
G1 X148.882 Y114.409 E.3676
G1 X148.463 Y114.409 E.01314
G1 X148.463 Y126.133 E.3676
G1 X148.044 Y126.133 E.01314
G1 X148.044 Y114.409 E.3676
G1 X147.625 Y114.409 E.01314
G1 X147.625 Y126.133 E.3676
G1 X147.206 Y126.133 E.01314
G1 X147.206 Y114.409 E.3676
G1 X146.787 Y114.409 E.01314
G1 X146.787 Y126.133 E.3676
G1 X146.368 Y126.133 E.01314
G1 X146.368 Y114.409 E.3676
G1 X145.949 Y114.409 E.01314
G1 X145.949 Y126.133 E.3676
G1 X145.53 Y126.133 E.01314
G1 X145.53 Y114.409 E.3676
G1 X145.111 Y114.409 E.01314
G1 X145.111 Y126.133 E.3676
G1 X144.692 Y126.133 E.01314
G1 X144.692 Y114.409 E.3676
G1 X144.273 Y114.409 E.01314
G1 X144.273 Y126.133 E.3676
G1 X143.854 Y126.133 E.01314
G1 X143.854 Y114.409 E.3676
G1 X143.435 Y114.409 E.01314
M73 P1 R50
M73 Q1 S51
G1 X143.435 Y126.133 E.3676
G1 X143.016 Y126.133 E.01314
G1 X143.016 Y114.409 E.3676
G1 X142.597 Y114.409 E.01314
M73 Q1 S50
G1 X142.597 Y126.133 E.3676
G1 X142.178 Y126.133 E.01314
G1 X142.178 Y114.409 E.3676
G1 X141.759 Y114.409 E.01314
G1 X141.759 Y126.133 E.3676
G1 X141.34 Y126.133 E.01314
G1 X141.34 Y114.409 E.3676
G1 X140.921 Y114.409 E.01314
G1 X140.921 Y126.133 E.3676
G1 X140.502 Y126.133 E.01314
G1 X140.502 Y114.409 E.3676
G1 X140.083 Y114.409 E.01314
G1 X140.083 Y126.133 E.3676
G1 X139.664 Y126.133 E.01314
G1 X139.664 Y114.409 E.3676
G1 X139.245 Y114.409 E.01314
G1 X139.245 Y126.133 E.3676
G1 X138.826 Y126.133 E.01314
G1 X138.826 Y114.24 E.3729
M204 S1000
;WIPE_START
G1 F8640
G1 X138.826 Y117.705 E-.8
;WIPE_END
G1 Z.6 F720
G1 X99.012 Y113.736 F10800
G1 Z.2 F720
G1 E.8 F2100
M204 S800
G1 F1200
G1 X99.346 Y114.07 E.01481
G1 X111.738 Y114.07 E.38854
G1 X111.738 Y126.473 E.38889
G1 X98.896 Y126.473 E.40265
G1 X98.896 Y113.32 E.4124
G1 X99.012 Y113.32 E.00364
G1 X99.012 Y113.68 E.01129
M204 S1000
G1 X99.012 Y113.68 F10800
G1 X111.174 Y126.303
M204 S800
G1 F1200
G1 X111.174 Y114.409 E.37293
G1 X110.755 Y114.409 E.01314
G1 X110.755 Y126.133 E.3676
G1 X110.336 Y126.133 E.01314
G1 X110.336 Y114.409 E.3676
G1 X109.917 Y114.409 E.01314
G1 X109.917 Y126.133 E.3676
G1 X109.498 Y126.133 E.01314
G1 X109.498 Y114.409 E.3676
G1 X109.079 Y114.409 E.01314
G1 X109.079 Y126.133 E.3676
G1 X108.66 Y126.133 E.01314
G1 X108.66 Y114.409 E.3676
G1 X108.241 Y114.409 E.01314
G1 X108.241 Y126.133 E.3676
G1 X107.822 Y126.133 E.01314
G1 X107.822 Y114.409 E.3676
G1 X107.403 Y114.409 E.01314
G1 X107.403 Y126.133 E.3676
G1 X106.984 Y126.133 E.01314
G1 X106.984 Y114.409 E.3676
G1 X106.565 Y114.409 E.01314
G1 X106.565 Y126.133 E.3676
G1 X106.146 Y126.133 E.01314
G1 X106.146 Y114.409 E.3676
G1 X105.727 Y114.409 E.01314
G1 X105.727 Y126.133 E.3676
G1 X105.308 Y126.133 E.01314
G1 X105.308 Y114.409 E.3676
G1 X104.889 Y114.409 E.01314
G1 X104.889 Y126.133 E.3676
G1 X104.47 Y126.133 E.01314
G1 X104.47 Y114.409 E.3676
G1 X104.051 Y114.409 E.01314
M73 P1 R49
G1 X104.051 Y126.133 E.3676
G1 X103.632 Y126.133 E.01314
G1 X103.632 Y114.409 E.3676
G1 X103.213 Y114.409 E.01314
G1 X103.213 Y126.133 E.3676
G1 X102.794 Y126.133 E.01314
G1 X102.794 Y114.409 E.3676
G1 X102.375 Y114.409 E.01314
G1 X102.375 Y126.133 E.3676
G1 X101.956 Y126.133 E.01314
G1 X101.956 Y114.409 E.3676
G1 X101.537 Y114.409 E.01314
G1 X101.537 Y126.133 E.3676
G1 X101.118 Y126.133 E.01314
G1 X101.118 Y114.409 E.3676
G1 X100.699 Y114.409 E.01314
G1 X100.699 Y126.133 E.3676
G1 X100.28 Y126.133 E.01314
G1 X100.28 Y114.409 E.3676
G1 X99.861 Y114.409 E.01314
G1 X99.861 Y126.133 E.3676
G1 X99.442 Y126.133 E.01314
G1 X99.442 Y114.24 E.3729
M204 S1000
;WIPE_START
G1 F8640
G1 X99.442 Y117.705 E-.8
;WIPE_END
G1 Z.6 F720
G1 X100.369 Y112.713 F10800
G1 Z.2 F720
G1 E.8 F2100
M204 S800
;TYPE:Perimeter
;WIDTH:0.419999
G1 F1200
G1 X100.37 Y87.869 E.77896
G1 X149.631 Y87.87 E1.54454
M73 P2 R49
M73 Q2 S50
G1 X149.631 Y112.713 E.77893
G1 X100.429 Y112.713 E1.54269
M204 S1000
G1 X100.429 Y112.713 F10800
G1 X99.992 Y113.09
M204 S800
;TYPE:External perimeter
G1 F1200
G1 X99.993 Y87.527 E.80151
G1 X100.024 Y87.492 E.00147
G1 X149.993 Y87.493 E1.56674
G1 X150.008 Y87.543 E.00164
G1 X150.008 Y113.09 E.80101
G1 X100.052 Y113.09 E1.56633
M204 S1000
;WIPE_START
G1 F8640
G1 X99.992 Y113.09 E-.01385
G1 X99.992 Y109.685 E-.78615
;WIPE_END
G1 Z.6 F720
G1 X148.694 Y88.04 F10800
G1 Z.2 F720
G1 E.8 F2100
M204 S800
;TYPE:Solid infill
;WIDTH:0.422287
G1 F1200
G1 X149.292 Y88.637 E.02665
G1 X149.292 Y89.174 E.01694
G1 X148.327 Y88.209 E.04305
G1 X147.791 Y88.209 E.01691
G1 X149.292 Y89.71 E.06696
G1 X149.292 Y90.247 E.01694
G1 X147.254 Y88.209 E.09092
G1 X146.718 Y88.209 E.01691
G1 X149.292 Y90.783 E.11483
G1 X149.292 Y91.32 E.01694
G1 X146.181 Y88.209 E.13878
G1 X145.645 Y88.209 E.01691
G1 X149.292 Y91.856 E.1627
G1 X149.292 Y92.393 E.01694
G1 X145.108 Y88.209 E.18665
G1 X144.572 Y88.209 E.01691
G1 X149.292 Y92.929 E.21056
G1 X149.292 Y93.466 E.01694
G1 X144.035 Y88.209 E.23452
G1 X143.499 Y88.209 E.01691
G1 X149.292 Y94.002 E.25843
G1 X149.292 Y94.539 E.01694
G1 X142.962 Y88.209 E.28239
G1 X142.426 Y88.209 E.01691
G1 X149.292 Y95.075 E.3063
G1 X149.292 Y95.612 E.01694
G1 X141.889 Y88.209 E.33025
G1 X141.353 Y88.209 E.01691
G1 X149.292 Y96.148 E.35416
G1 X149.292 Y96.685 E.01694
G1 X140.816 Y88.209 E.37812
G1 X140.28 Y88.209 E.01691
G1 X149.292 Y97.221 E.40203
G1 X149.292 Y97.758 E.01694
G1 X139.743 Y88.209 E.42599
G1 X139.206 Y88.209 E.01694
G1 X149.292 Y98.294 E.44992
G1 X149.292 Y98.831 E.01694
G1 X138.67 Y88.209 E.47385
G1 X138.133 Y88.209 E.01694
G1 X149.292 Y99.367 E.49779
G1 X149.292 Y99.904 E.01694
G1 X137.597 Y88.209 E.52172
G1 X137.06 Y88.209 E.01694
G1 X149.292 Y100.44 E.54566
G1 X149.292 Y100.977 E.01694
G1 X136.524 Y88.209 E.56959
G1 X135.987 Y88.209 E.01694
G1 X149.292 Y101.513 E.59352
G1 X149.292 Y102.05 E.01694
G1 X135.451 Y88.209 E.61746
G1 X134.914 Y88.209 E.01694
G1 X149.292 Y102.586 E.64139
G1 X149.292 Y103.123 E.01694
M73 P3 R49
G1 X134.378 Y88.209 E.66532
G1 X133.841 Y88.209 E.01694
M73 Q3 S49
G1 X149.292 Y103.659 E.68926
G1 X149.292 Y104.196 E.01694
G1 X133.305 Y88.209 E.71319
G1 X132.768 Y88.209 E.01694
G1 X149.292 Y104.732 E.73712
G1 X149.292 Y105.269 E.01694
G1 X132.232 Y88.209 E.76106
G1 X131.695 Y88.209 E.01694
G1 X149.292 Y105.805 E.78499
G1 X149.292 Y106.342 E.01694
G1 X131.159 Y88.209 E.80892
G1 X130.622 Y88.209 E.01694
G1 X149.292 Y106.878 E.83286
G1 X149.292 Y107.415 E.01694
G1 X130.086 Y88.209 E.85679
G1 X129.549 Y88.209 E.01694
G1 X149.292 Y107.951 E.88073
G1 X149.292 Y108.488 E.01694
G1 X129.013 Y88.209 E.90466
G1 X128.476 Y88.209 E.01694
G1 X149.292 Y109.024 E.92859
G1 X149.292 Y109.561 E.01694
G1 X127.94 Y88.209 E.95253
G1 X127.403 Y88.209 E.01694
G1 X149.292 Y110.097 E.97646
G1 X149.292 Y110.634 E.01694
G1 X126.867 Y88.209 E1.00039
G1 X126.33 Y88.209 E.01694
G1 X149.292 Y111.17 E1.02433
G1 X149.292 Y111.707 E.01694
M73 P3 R48
G1 X125.794 Y88.209 E1.04826
G1 X125.257 Y88.209 E.01694
G1 X149.292 Y112.243 E1.07219
G1 X149.292 Y112.374 E.00413
G1 X148.885 Y112.374 E.01284
G1 X124.721 Y88.209 E1.07799
G1 X124.184 Y88.209 E.01694
G1 X148.349 Y112.374 E1.07802
G1 X147.812 Y112.374 E.01694
G1 X123.648 Y88.209 E1.07799
G1 X123.111 Y88.209 E.01694
M73 P4 R48
G1 X147.276 Y112.374 E1.07802
G1 X146.739 Y112.374 E.01694
M73 Q4 S49
G1 X122.574 Y88.209 E1.07802
G1 X122.038 Y88.209 E.01691
G1 X146.203 Y112.374 E1.07802
G1 X145.666 Y112.374 E.01694
G1 X121.501 Y88.209 E1.07802
G1 X120.965 Y88.209 E.01691
G1 X145.13 Y112.374 E1.07802
G1 X144.593 Y112.374 E.01694
G1 X120.428 Y88.209 E1.07802
G1 X119.892 Y88.209 E.01691
G1 X144.057 Y112.374 E1.07802
G1 X143.52 Y112.374 E.01694
G1 X119.355 Y88.209 E1.07802
G1 X118.819 Y88.209 E.01691
G1 X142.984 Y112.374 E1.07802
G1 X142.447 Y112.374 E.01694
G1 X118.282 Y88.209 E1.07802
G1 X117.746 Y88.209 E.01691
G1 X141.911 Y112.374 E1.07802
G1 X141.374 Y112.374 E.01694
G1 X117.209 Y88.209 E1.07802
G1 X116.673 Y88.209 E.01691
G1 X140.838 Y112.374 E1.07802
G1 X140.301 Y112.374 E.01694
G1 X116.136 Y88.209 E1.07802
G1 X115.6 Y88.209 E.01691
G1 X139.765 Y112.374 E1.07802
G1 X139.228 Y112.374 E.01694
G1 X115.063 Y88.209 E1.07802
G1 X114.527 Y88.209 E.01691
G1 X138.692 Y112.374 E1.07802
G1 X138.155 Y112.374 E.01694
M73 Q4 S48
G1 X113.99 Y88.209 E1.07802
G1 X113.454 Y88.209 E.01691
M73 P5 R48
M73 Q5 S48
G1 X137.619 Y112.374 E1.07802
G1 X137.082 Y112.374 E.01694
G1 X112.917 Y88.209 E1.07802
G1 X112.381 Y88.209 E.01691
G1 X136.546 Y112.374 E1.07802
G1 X136.009 Y112.374 E.01694
G1 X111.844 Y88.209 E1.07802
G1 X111.308 Y88.209 E.01691
G1 X135.473 Y112.374 E1.07802
G1 X134.936 Y112.374 E.01694
G1 X110.771 Y88.209 E1.07802
G1 X110.235 Y88.209 E.01691
G1 X134.4 Y112.374 E1.07802
G1 X133.863 Y112.374 E.01694
G1 X109.698 Y88.209 E1.07802
G1 X109.162 Y88.209 E.01691
G1 X133.327 Y112.374 E1.07802
G1 X132.79 Y112.374 E.01694
G1 X108.625 Y88.209 E1.07802
G1 X108.089 Y88.209 E.01691
G1 X132.254 Y112.374 E1.07802
G1 X131.717 Y112.374 E.01694
M73 P5 R47
G1 X107.552 Y88.209 E1.07802
G1 X107.016 Y88.209 E.01691
G1 X131.18 Y112.374 E1.07799
G1 X130.644 Y112.374 E.01691
G1 X106.479 Y88.209 E1.07802
G1 X105.943 Y88.209 E.01691
G1 X130.107 Y112.374 E1.07799
G1 X129.571 Y112.374 E.01691
G1 X105.406 Y88.209 E1.07802
G1 X104.869 Y88.209 E.01694
G1 X129.034 Y112.374 E1.07802
G1 X128.498 Y112.374 E.01691
M73 P6 R47
G1 X104.333 Y88.209 E1.07802
G1 X103.796 Y88.209 E.01694
M73 Q6 S48
G1 X127.961 Y112.374 E1.07802
G1 X127.425 Y112.374 E.01691
G1 X103.26 Y88.209 E1.07802
G1 X102.723 Y88.209 E.01694
G1 X126.888 Y112.374 E1.07802
G1 X126.352 Y112.374 E.01691
G1 X102.187 Y88.209 E1.07802
G1 X101.65 Y88.208 E.01694
G1 X125.815 Y112.374 E1.07804
G1 X125.279 Y112.374 E.01691
G1 X101.114 Y88.208 E1.07804
G1 X100.709 Y88.208 E.01278
G1 X100.709 Y88.34 E.00416
G1 X124.742 Y112.374 E1.07215
G1 X124.206 Y112.374 E.01691
G1 X100.709 Y88.877 E1.04822
G1 X100.709 Y89.413 E.01691
G1 X123.669 Y112.374 E1.02428
G1 X123.133 Y112.374 E.01691
G1 X100.709 Y89.95 E1.00035
G1 X100.709 Y90.486 E.01691
G1 X122.596 Y112.374 E.97642
G1 X122.06 Y112.374 E.01691
G1 X100.709 Y91.023 E.95248
G1 X100.709 Y91.559 E.01691
G1 X121.523 Y112.374 E.92855
G1 X120.987 Y112.374 E.01691
G1 X100.709 Y92.096 E.90461
G1 X100.709 Y92.632 E.01691
G1 X120.45 Y112.374 E.88068
G1 X119.914 Y112.374 E.01691
G1 X100.709 Y93.169 E.85675
G1 X100.709 Y93.705 E.01691
G1 X119.377 Y112.374 E.83281
G1 X118.841 Y112.374 E.01691
M73 Q6 S47
G1 X100.709 Y94.242 E.80888
G1 X100.709 Y94.778 E.01691
M73 P7 R47
G1 X118.304 Y112.374 E.78495
G1 X117.768 Y112.374 E.01691
G1 X100.709 Y95.315 E.76101
G1 X100.709 Y95.851 E.01691
M73 Q7 S47
G1 X117.231 Y112.374 E.73708
G1 X116.695 Y112.374 E.01691
G1 X100.709 Y96.388 E.71315
G1 X100.709 Y96.924 E.01691
G1 X116.158 Y112.374 E.68921
G1 X115.622 Y112.374 E.01691
G1 X100.709 Y97.461 E.66528
G1 X100.709 Y97.997 E.01691
G1 X115.085 Y112.374 E.64135
G1 X114.549 Y112.374 E.01691
G1 X100.709 Y98.534 E.61741
G1 X100.709 Y99.07 E.01691
G1 X114.012 Y112.374 E.59348
G1 X113.476 Y112.374 E.01691
G1 X100.709 Y99.607 E.56954
G1 X100.709 Y100.143 E.01691
G1 X112.939 Y112.374 E.54561
G1 X112.403 Y112.374 E.01691
G1 X100.709 Y100.68 E.52168
G1 X100.709 Y101.216 E.01691
G1 X111.866 Y112.374 E.49774
G1 X111.33 Y112.374 E.01691
G1 X100.709 Y101.753 E.47381
G1 X100.709 Y102.289 E.01691
G1 X110.793 Y112.374 E.44988
G1 X110.257 Y112.374 E.01691
G1 X100.709 Y102.826 E.42594
G1 X100.709 Y103.362 E.01691
G1 X109.72 Y112.374 E.40201
G1 X109.184 Y112.374 E.01691
G1 X100.709 Y103.899 E.37808
G1 X100.709 Y104.435 E.01691
G1 X108.647 Y112.374 E.35414
G1 X108.111 Y112.374 E.01691
G1 X100.709 Y104.972 E.33021
G1 X100.709 Y105.508 E.01691
M73 P7 R46
G1 X107.574 Y112.374 E.30627
G1 X107.038 Y112.374 E.01691
G1 X100.709 Y106.045 E.28234
G1 X100.709 Y106.581 E.01691
G1 X106.501 Y112.374 E.25841
G1 X105.965 Y112.374 E.01691
G1 X100.709 Y107.118 E.23447
G1 X100.709 Y107.654 E.01691
G1 X105.428 Y112.374 E.21054
G1 X104.892 Y112.374 E.01691
G1 X100.709 Y108.19 E.18663
G1 X100.709 Y108.727 E.01694
G1 X104.355 Y112.374 E.16267
G1 X103.819 Y112.374 E.01691
G1 X100.709 Y109.263 E.13876
G1 X100.709 Y109.8 E.01694
G1 X103.282 Y112.374 E.11481
G1 X102.746 Y112.374 E.01691
G1 X100.709 Y110.336 E.09089
G1 X100.709 Y110.873 E.01694
G1 X102.209 Y112.374 E.06694
G1 X101.673 Y112.374 E.01691
G1 X100.709 Y111.409 E.04303
G1 X100.709 Y111.946 E.01694
G1 X101.306 Y112.543 E.02663
M204 S1000
M106 S84.15
;LAYER_CHANGE
;Z:0.448718
;HEIGHT:0.248718
;BEFORE_LAYER_CHANGE
G92 E0.0
;0.448718


;WIPE_START
G1 F8640
G1 X100.709 Y111.946 E-.19495
G1 X100.709 Y111.409 E-.12399
G1 X101.673 Y112.374 E-.31495
G1 X102.209 Y112.374 E-.12376
G1 X102.079 Y112.244 E-.04235
;WIPE_END
G1 Z.449 F720
;AFTER_LAYER_CHANGE
;0.448718
M104 S210 ; set temperature
G1 Z.849
G1 X148.156 Y123.525 F10800
G1 Z.449 F720
G1 E.8 F2100
;TYPE:Support material
;WIDTH:0.38
G1 F2700
