; generated by PrusaSlicer 2.8.0+win64 on 2024-10-30 at 07:14:34 UTC


;
;
; 

; external perimeters extrusion width = 0.60mm
; perimeters extrusion width = 0.50mm
; infill extrusion width = 0.50mm
; solid infill extrusion width = 0.50mm
; top infill extrusion width = 0.45mm
; support material extrusion width = 0.38mm
; first layer extrusion width = 0.42mm

M73 P0 R102
M73 Q0 S102
M201 X1000 Y1000 Z200 E5000 ; sets maximum accelerations, mm/sec^2
M203 X200 Y200 Z12 E120 ; sets maximum feedrates, mm / sec
M204 S1250 T1250 ; sets acceleration (S) and retract acceleration (R), mm/sec^2
M205 X8.00 Y8.00 Z0.40 E4.50 ; sets the jerk limits, mm/sec
M205 S0 T0 ; sets the minimum extruding and travel feed rate, mm/sec

; printing object Bithalter.stl id:0 copy 0
; stop printing object Bithalter.stl id:0 copy 0

;TYPE:Custom
M862.3 P "MK3S" ; printer model check
M862.1 P0.4 ; nozzle diameter check
M115 U3.13.3 ; tell printer latest fw version
G90 ; use absolute coordinates
M83 ; extruder relative mode
M104 S215 ; set extruder temp
M140 S60 ; set bed temp
M190 S60 ; wait for bed temp
M109 S215 ; wait for extruder temp
G28 W ; home all without mesh bed level
G80 X105.781 Y65.633 W36.1214 H81.7417 ; mesh bed levelling

G1 Z0.2 F720
G1 Y-3 F1000 ; go outside print area
G92 E0
G1 X60 E9 F1000 ; intro line
G1 X100 E12.5 F1000 ; intro line

G92 E0
M221 S95

; Don't change E values below. Excessive value can damage the printer.

M907 E538 ; set extruder motor current
G21 ; set units to millimeters
G90 ; use absolute coordinates
M83 ; use relative distances for extrusion

M900 K0.05 ; Filament gcode LA 1.5
M900 K30 ; Filament gcode LA 1.0




M107
;LAYER_CHANGE
;Z:0.2
;HEIGHT:0.2
G1 E-.8 F2100
G1 Z.6 F720
G1 X111.137 Y82.093 F10800
G1 Z.2 F720
G1 E.8 F2100
M204 S800
;TYPE:Skirt/Brim
;WIDTH:0.42
G1 F1200
G1 X118.508 Y73.598 E.35264
G1 X125.685 Y66.414 E.3184
G1 X126.844 Y65.807 E.04102
G1 X128.324 Y66.064 E.0471
G1 X140.617 Y73.138 E.4447
G1 X141.504 Y74.1 E.04103
G1 X141.714 Y75.035 E.03005
G1 X141.714 Y142.682 E2.12102
G1 X141.073 Y144.23 E.05253
G1 X138.758 Y146.545 E.10265
G1 X137.21 Y147.186 E.05253
G1 X126.684 Y147.186 E.33004
G1 X125.048 Y146.452 E.05622
G1 X106.523 Y125.611 E.87429
G1 X105.97 Y124.157 E.04878
M73 P0 R101
G1 X106.013 Y106.254 E.56134
G1 X110.644 Y83.098 E.74042
G1 X111.11 Y82.147 E.03321
M204 S1000
;WIPE_START
G1 F8640
G1 X111.137 Y82.093 E-.01394
G1 X113.368 Y79.522 E-.78606
;WIPE_END
G1 Z.6 F720
; printing object Bithalter.stl id:0 copy 0
G1 X139.526 Y142.682 F10800
G1 Z.2 F720
G1 E.8 F2100
M204 S800
;TYPE:Support material
G1 F1200
G1 X137.21 Y142.682 E.07262
G1 X137.21 Y144.998 E.07262
G1 X126.684 Y144.998 E.33004
G1 X126.684 Y138.761 E.19556
G1 X130.532 Y142.609 E.17063
G1 X131.004 Y142.609 E.0148
G1 X138.409 Y135.204 E.32835
G1 X138.409 Y134.732 E.0148
G1 X137.319 Y133.642 E.04833
G1 X139.526 Y131.435 E.09786
G1 X139.526 Y142.625 E.35085
M204 S1000
G1 X139.526 Y142.625 F10800
G1 X138.826 Y142.512
M204 S800
G1 F1200
G1 X138.826 Y132.615 E.31031
G1 X138.407 Y133.034 E.01858
G1 X138.407 Y134.25 E.03813
G1 X137.988 Y133.831 E.01858
G1 X137.988 Y133.213 E.01938
M204 S1000
;WIPE_START
G1 F8640
G1 X137.988 Y133.831 E-.1427
G1 X138.407 Y134.25 E-.13682
G1 X138.407 Y133.034 E-.28078
G1 X138.826 Y132.615 E-.13682
G1 X138.826 Y133.061 E-.10288
;WIPE_END
G1 Z.6 F720
G1 X138.407 Y142.512 F10800
G1 Z.2 F720
G1 E.8 F2100
M204 S800
G1 F1200
G1 X138.407 Y135.685 E.21406
G1 X137.988 Y136.104 E.01858
G1 X137.988 Y142.343 E.19562
G1 X137.569 Y142.343 E.01314
G1 X137.569 Y136.523 E.18248
G1 X137.15 Y136.942 E.01858
G1 X137.15 Y142.343 E.16934
G1 X136.871 Y142.343 E.00875
G1 X136.871 Y144.658 E.07259
G1 X136.731 Y144.658 E.00439
G1 X136.731 Y137.361 E.22879
G1 X136.312 Y137.78 E.01858
G1 X136.312 Y144.658 E.21565
G1 X135.893 Y144.658 E.01314
G1 X135.893 Y138.199 E.20252
G1 X135.474 Y138.618 E.01858
G1 X135.474 Y144.658 E.18938
G1 X135.055 Y144.658 E.01314
G1 X135.055 Y139.037 E.17624
G1 X134.636 Y139.456 E.01858
G1 X134.636 Y144.658 E.16311
G1 X134.217 Y144.658 E.01314
G1 X134.217 Y139.875 E.14997
G1 X133.799 Y140.294 E.01856
G1 X133.799 Y144.658 E.13683
G1 X133.38 Y144.658 E.01314
G1 X133.38 Y140.713 E.12369
G1 X132.961 Y141.132 E.01858
G1 X132.961 Y144.658 E.11056
G1 X132.542 Y144.658 E.01314
G1 X132.542 Y141.551 E.09742
G1 X132.123 Y141.97 E.01858
G1 X132.123 Y144.658 E.08428
G1 X131.704 Y144.658 E.01314
G1 X131.704 Y142.389 E.07114
G1 X131.285 Y142.808 E.01858
G1 X131.285 Y144.658 E.05801
G1 X130.866 Y144.658 E.01314
G1 X130.866 Y142.948 E.05362
G1 X130.447 Y142.948 E.01314
G1 X130.447 Y144.658 E.05362
G1 X130.028 Y144.658 E.01314
G1 X130.028 Y142.585 E.065
G1 X129.609 Y142.166 E.01858
G1 X129.609 Y144.658 E.07813
G1 X129.19 Y144.658 E.01314
G1 X129.19 Y141.747 E.09127
G1 X128.771 Y141.328 E.01858
G1 X128.771 Y144.658 E.10441
G1 X128.352 Y144.658 E.01314
G1 X128.352 Y140.909 E.11755
G1 X127.933 Y140.49 E.01858
G1 X127.933 Y144.658 E.13068
G1 X127.514 Y144.658 E.01314
G1 X127.514 Y140.071 E.14382
G1 X127.095 Y139.652 E.01858
G1 X127.095 Y144.828 E.16229
M204 S1000
;WIPE_START
G1 F8640
G1 X127.095 Y141.363 E-.8
;WIPE_END
G1 Z.6 F720
G1 X139.526 Y128.788 F10800
G1 Z.2 F720
G1 E.8 F2100
M204 S800
G1 F1200
G1 X137.21 Y128.788 E.07262
G1 X137.21 Y131.104 E.07262
G1 X134.781 Y131.104 E.07616
G1 X131.595 Y127.918 E.14127
G1 X138.409 Y121.104 E.30214
G1 X138.409 Y120.632 E.0148
G1 X137.319 Y119.542 E.04833
G1 X139.526 Y117.335 E.09786
G1 X139.526 Y128.732 E.35734
M204 S1000
G1 X139.526 Y128.732 F10800
G1 X138.826 Y128.619
M204 S800
G1 F1200
G1 X138.826 Y118.515 E.3168
G1 X138.407 Y118.934 E.01858
G1 X138.407 Y120.15 E.03813
G1 X137.988 Y119.731 E.01858
G1 X137.988 Y119.113 E.01938
M204 S1000
;WIPE_START
G1 F8640
G1 X137.988 Y119.731 E-.1427
G1 X138.407 Y120.15 E-.13682
G1 X138.407 Y118.934 E-.28078
G1 X138.826 Y118.515 E-.13682
G1 X138.826 Y118.961 E-.10288
;WIPE_END
G1 Z.6 F720
G1 X138.407 Y128.619 F10800
G1 Z.2 F720
G1 E.8 F2100
M204 S800
G1 F1200
G1 X138.407 Y121.585 E.22055
G1 X137.988 Y122.004 E.01858
G1 X137.988 Y128.449 E.20208
G1 X137.569 Y128.449 E.01314
G1 X137.569 Y122.423 E.18894
G1 X137.15 Y122.842 E.01858
G1 X137.15 Y128.449 E.1758
G1 X136.871 Y128.449 E.00875
G1 X136.871 Y130.765 E.07262
G1 X136.731 Y130.765 E.00439
G1 X136.731 Y123.261 E.23528
G1 X136.312 Y123.68 E.01858
G1 X136.312 Y130.765 E.22215
G1 X135.893 Y130.765 E.01314
G1 X135.893 Y124.099 E.20901
G1 X135.474 Y124.518 E.01858
G1 X135.474 Y130.765 E.19587
G1 X135.055 Y130.765 E.01314
G1 X135.055 Y124.937 E.18273
G1 X134.636 Y125.356 E.01858
G1 X134.636 Y130.479 E.16063
G1 X134.217 Y130.06 E.01858
G1 X134.217 Y125.775 E.13435
G1 X133.799 Y126.194 E.01856
G1 X133.799 Y129.641 E.10808
G1 X133.38 Y129.222 E.01858
G1 X133.38 Y126.613 E.0818
G1 X132.961 Y127.032 E.01858
G1 X132.961 Y128.803 E.05553
G1 X132.542 Y128.384 E.01858
G1 X132.542 Y127.451 E.02925
G1 X132.123 Y127.87 E.01858
G1 X132.123 Y128.205 E.0105
M204 S1000
;WIPE_START
G1 F8640
G1 X132.123 Y127.87 E-.07735
G1 X132.542 Y127.451 E-.13682
G1 X132.542 Y128.384 E-.21543
G1 X132.961 Y128.803 E-.13682
G1 X132.961 Y127.791 E-.23358
;WIPE_END
G1 Z.6 F720
G1 X139.526 Y114.895 F10800
G1 Z.2 F720
G1 E.8 F2100
M204 S800
G1 F1200
G1 X137.21 Y114.895 E.07262
G1 X137.21 Y117.21 E.07259
G1 X134.987 Y117.21 E.0697
G1 X131.595 Y113.818 E.15041
G1 X138.409 Y107.004 E.30214
G1 X138.409 Y106.532 E.0148
G1 X137.319 Y105.442 E.04833
G1 X139.526 Y103.235 E.09786
G1 X139.526 Y114.838 E.3638
M204 S1000
G1 X139.526 Y114.838 F10800
G1 X138.826 Y114.725
M204 S800
G1 F1200
G1 X138.826 Y104.415 E.32326
G1 X138.407 Y104.834 E.01858
G1 X138.407 Y106.05 E.03813
G1 X137.988 Y105.631 E.01858
G1 X137.988 Y105.013 E.01938
M204 S1000
;WIPE_START
G1 F8640
G1 X137.988 Y105.631 E-.1427
G1 X138.407 Y106.05 E-.13682
G1 X138.407 Y104.834 E-.28078
G1 X138.826 Y104.415 E-.13682
G1 X138.826 Y104.861 E-.10288
;WIPE_END
G1 Z.6 F720
G1 X138.407 Y114.725 F10800
G1 Z.2 F720
G1 E.8 F2100
M204 S800
G1 F1200
G1 X138.407 Y107.485 E.22701
G1 X137.988 Y107.904 E.01858
G1 X137.988 Y114.555 E.20854
G1 X137.569 Y114.555 E.01314
G1 X137.569 Y108.323 E.1954
G1 X137.15 Y108.742 E.01858
G1 X137.15 Y114.555 E.18226
G1 X136.871 Y114.555 E.00875
G1 X136.871 Y116.871 E.07262
G1 X136.731 Y116.871 E.00439
G1 X136.731 Y109.161 E.24174
G1 X136.312 Y109.58 E.01858
G1 X136.312 Y116.871 E.2286
G1 X135.893 Y116.871 E.01314
G1 X135.893 Y109.999 E.21547
G1 X135.474 Y110.418 E.01858
G1 X135.474 Y116.871 E.20233
G1 X135.128 Y116.871 E.01085
G1 X135.055 Y116.798 E.00324
G1 X135.055 Y110.837 E.1869
G1 X134.636 Y111.256 E.01858
G1 X134.636 Y116.379 E.16063
G1 X134.217 Y115.96 E.01858
G1 X134.217 Y111.675 E.13435
G1 X133.799 Y112.094 E.01856
G1 X133.799 Y115.541 E.10808
G1 X133.38 Y115.122 E.01858
G1 X133.38 Y112.513 E.0818
G1 X132.961 Y112.932 E.01858
G1 X132.961 Y114.703 E.05553
G1 X132.542 Y114.284 E.01858
G1 X132.542 Y113.351 E.02925
G1 X132.123 Y113.77 E.01858
G1 X132.123 Y114.105 E.0105
M204 S1000
;WIPE_START
G1 F8640
G1 X132.123 Y113.77 E-.07735
G1 X132.542 Y113.351 E-.13682
G1 X132.542 Y114.284 E-.21543
G1 X132.961 Y114.703 E-.13682
G1 X132.961 Y113.691 E-.23358
;WIPE_END
G1 Z.6 F720
G1 X139.526 Y101.001 F10800
G1 Z.2 F720
G1 E.8 F2100
M204 S800
G1 F1200
G1 X137.21 Y101.001 E.07262
G1 X137.21 Y103.316 E.07259
G1 X135.194 Y103.316 E.06321
G1 X131.595 Y99.718 E.15956
G1 X138.409 Y92.904 E.30214
G1 X138.409 Y92.432 E.0148
G1 X137.319 Y91.342 E.04833
G1 X139.526 Y89.135 E.09786
G1 X139.526 Y100.944 E.37026
M204 S1000
G1 X139.526 Y100.944 F10800
G1 X138.826 Y100.831
M204 S800
G1 F1200
G1 X138.826 Y90.315 E.32972
G1 X138.407 Y90.734 E.01858
G1 X138.407 Y91.95 E.03813
G1 X137.988 Y91.531 E.01858
G1 X137.988 Y90.913 E.01938
M204 S1000
;WIPE_START
G1 F8640
G1 X137.988 Y91.531 E-.1427
G1 X138.407 Y91.95 E-.13682
G1 X138.407 Y90.734 E-.28078
G1 X138.826 Y90.315 E-.13682
G1 X138.826 Y90.761 E-.10288
;WIPE_END
G1 Z.6 F720
G1 X138.407 Y100.831 F10800
G1 Z.2 F720
G1 E.8 F2100
M204 S800
G1 F1200
G1 X138.407 Y93.385 E.23346
G1 X137.988 Y93.804 E.01858
G1 X137.988 Y100.661 E.215
G1 X137.569 Y100.661 E.01314
G1 X137.569 Y94.223 E.20186
G1 X137.15 Y94.642 E.01858
G1 X137.15 Y100.661 E.18872
G1 X136.871 Y100.661 E.00875
G1 X136.871 Y102.977 E.07262
G1 X136.731 Y102.977 E.00439
G1 X136.731 Y95.061 E.2482
G1 X136.312 Y95.48 E.01858
M73 Q0 S101
G1 X136.312 Y102.977 E.23506
G1 X135.893 Y102.977 E.01314
G1 X135.893 Y95.899 E.22193
G1 X135.474 Y96.318 E.01858
G1 X135.474 Y102.977 E.20879
G1 X135.334 Y102.977 E.00439
G1 X135.055 Y102.698 E.01237
G1 X135.055 Y96.737 E.1869
G1 X134.636 Y97.156 E.01858
G1 X134.636 Y102.279 E.16063
G1 X134.217 Y101.86 E.01858
G1 X134.217 Y97.575 E.13435
G1 X133.799 Y97.994 E.01856
G1 X133.799 Y101.441 E.10808
G1 X133.38 Y101.022 E.01858
G1 X133.38 Y98.413 E.0818
G1 X132.961 Y98.832 E.01858
G1 X132.961 Y100.603 E.05553
G1 X132.542 Y100.184 E.01858
G1 X132.542 Y99.251 E.02925
G1 X132.123 Y99.67 E.01858
G1 X132.123 Y100.005 E.0105
M204 S1000
;WIPE_START
G1 F8640
G1 X132.123 Y99.67 E-.07735
G1 X132.542 Y99.251 E-.13682
G1 X132.542 Y100.184 E-.21543
G1 X132.961 Y100.603 E-.13682
G1 X132.961 Y99.591 E-.23358
;WIPE_END
G1 Z.6 F720
G1 X119.591 Y99.899 F10800
G1 Z.2 F720
G1 E.8 F2100
M204 S800
G1 F1200
G1 X119.464 Y100.264 E.01212
G1 X119.227 Y100.409 E.00871
G1 X116.04 Y100.422 E.09993
G1 X115.82 Y100.52 E.00755
G1 X114.844 Y101.676 E.04744
G1 X114.591 Y102.13 E.0163
G1 X114.643 Y104.501 E.07436
G1 X115.82 Y105.945 E.05841
G1 X116.04 Y106.043 E.00755
G1 X119.227 Y106.055 E.09993
G1 X119.462 Y106.198 E.00863
G1 X119.583 Y106.463 E.00913
G1 X119.591 Y110.263 E.11915
G1 X118.685 Y110.263 E.02841
G1 X118.685 Y111.315 E.03298
G1 X119.591 Y111.315 E.02841
G1 X119.591 Y124.157 E.40265
G1 X108.159 Y124.157 E.35844
G1 X108.159 Y106.684 E.54785
G1 X110.474 Y106.684 E.07259
G1 X110.474 Y97.421 E.29043
G1 X119.591 Y97.421 E.28586
G1 X119.591 Y99.842 E.07591
M204 S1000
;WIPE_START
G1 F8640
G1 X119.591 Y97.421 E-.55902
G1 X118.547 Y97.421 E-.24098
;WIPE_END
G1 Z.6 F720
G1 X119.134 Y123.987 F10800
G1 Z.2 F720
G1 E.8 F2100
M204 S800
G1 F1200
G1 X119.134 Y111.654 E.38669
G1 X118.715 Y111.654 E.01314
M73 Q1 S101
G1 X118.715 Y123.818 E.38139
G1 X118.296 Y123.818 E.01314
M73 P1 R101
G1 X118.296 Y106.382 E.54669
G1 X118.715 Y106.382 E.01314
G1 X118.715 Y109.924 E.11106
G1 X119.134 Y109.924 E.01314
G1 X119.134 Y106.215 E.11629
M204 S1000
;WIPE_START
G1 F8640
G1 X119.134 Y109.68 E-.8
;WIPE_END
G1 Z.6 F720
G1 X119.134 Y100.25 F10800
G1 Z.2 F720
G1 E.8 F2100
M204 S800
G1 F1200
G1 X119.134 Y97.76 E.07807
G1 X118.715 Y97.76 E.01314
G1 X118.715 Y100.082 E.0728
G1 X118.296 Y100.082 E.01314
G1 X118.296 Y97.76 E.0728
G1 X117.877 Y97.76 E.01314
G1 X117.877 Y100.082 E.0728
G1 X117.458 Y100.082 E.01314
G1 X117.458 Y97.76 E.0728
G1 X117.039 Y97.76 E.01314
G1 X117.039 Y100.082 E.0728
G1 X116.62 Y100.082 E.01314
G1 X116.62 Y97.76 E.0728
G1 X116.201 Y97.76 E.01314
G1 X116.201 Y100.082 E.0728
G1 X115.783 Y100.165 E.01336
G1 X115.783 Y97.76 E.07541
G1 X115.364 Y97.76 E.01314
G1 X115.364 Y100.518 E.08648
G1 X114.945 Y101.004 E.02012
G1 X114.945 Y97.76 E.10171
G1 X114.526 Y97.76 E.01314
G1 X114.526 Y101.538 E.11846
G1 X114.252 Y102.078 E.01899
G1 X114.252 Y104.387 E.0724
G1 X114.526 Y104.926 E.01896
G1 X114.526 Y123.818 E.59235
G1 X114.945 Y123.818 E.01314
G1 X114.945 Y105.46 E.5756
G1 X115.364 Y105.947 E.02014
G1 X115.364 Y123.818 E.56033
G1 X115.783 Y123.818 E.01314
G1 X115.783 Y106.3 E.54926
G1 X116.201 Y106.382 E.01336
G1 X116.201 Y123.818 E.54669
G1 X116.62 Y123.818 E.01314
G1 X116.62 Y106.382 E.54669
G1 X117.039 Y106.382 E.01314
G1 X117.039 Y123.818 E.54669
G1 X117.458 Y123.818 E.01314
G1 X117.458 Y106.382 E.54669
G1 X117.877 Y106.382 E.01314
G1 X117.877 Y123.987 E.55199
M204 S1000
G1 X117.877 Y123.987 F10800
G1 X114.107 Y123.987
M204 S800
G1 F1200
G1 X114.107 Y97.76 E.82233
G1 X113.688 Y97.76 E.01314
M73 P1 R100
G1 X113.688 Y123.818 E.81703
G1 X113.269 Y123.818 E.01314
G1 X113.269 Y97.76 E.81703
G1 X112.85 Y97.76 E.01314
G1 X112.85 Y123.818 E.81703
G1 X112.431 Y123.818 E.01314
G1 X112.431 Y97.76 E.81703
G1 X112.012 Y97.76 E.01314
G1 X112.012 Y123.818 E.81703
G1 X111.593 Y123.818 E.01314
G1 X111.593 Y97.76 E.81703
G1 X111.174 Y97.76 E.01314
G1 X111.174 Y123.818 E.81703
G1 X110.755 Y123.818 E.01314
G1 X110.755 Y107.023 E.5266
G1 X110.336 Y107.023 E.01314
G1 X110.336 Y123.818 E.5266
G1 X109.917 Y123.818 E.01314
G1 X109.917 Y107.023 E.5266
G1 X109.498 Y107.023 E.01314
G1 X109.498 Y123.818 E.5266
G1 X109.079 Y123.818 E.01314
G1 X109.079 Y107.023 E.5266
G1 X108.66 Y107.023 E.01314
G1 X108.66 Y123.987 E.53189
M204 S1000
;WIPE_START
G1 F8640
G1 X108.66 Y120.522 E-.8
;WIPE_END
G1 Z.6 F720
G1 X119.591 Y94.054 F10800
G1 Z.2 F720
G1 E.8 F2100
M204 S800
G1 F1200
G1 X112.79 Y94.054 E.21324
G1 X112.79 Y83.527 E.33007
G1 X115.105 Y83.527 E.07259
G1 X115.105 Y81.212 E.07259
G1 X119.591 Y81.212 E.14066
G1 X119.591 Y93.997 E.40086
M204 S1000
G1 X119.591 Y93.997 F10800
G1 X119.134 Y93.884
M204 S800
G1 F1200
G1 X119.134 Y81.551 E.38669
G1 X118.715 Y81.551 E.01314
G1 X118.715 Y93.715 E.38139
G1 X118.296 Y93.715 E.01314
G1 X118.296 Y81.551 E.38139
G1 X117.877 Y81.551 E.01314
G1 X117.877 Y93.715 E.38139
G1 X117.458 Y93.715 E.01314
G1 X117.458 Y81.551 E.38139
G1 X117.039 Y81.551 E.01314
G1 X117.039 Y93.715 E.38139
G1 X116.62 Y93.715 E.01314
G1 X116.62 Y81.551 E.38139
G1 X116.201 Y81.551 E.01314
G1 X116.201 Y93.715 E.38139
G1 X115.783 Y93.715 E.01311
G1 X115.783 Y81.551 E.38139
G1 X115.445 Y81.551 E.0106
G1 X115.445 Y83.867 E.07262
G1 X115.364 Y83.867 E.00254
G1 X115.364 Y93.715 E.30878
G1 X114.945 Y93.715 E.01314
G1 X114.945 Y83.867 E.30878
G1 X114.526 Y83.867 E.01314
G1 X114.526 Y93.715 E.30878
G1 X114.107 Y93.715 E.01314
G1 X114.107 Y83.867 E.30878
G1 X113.688 Y83.867 E.01314
G1 X113.688 Y93.715 E.30878
G1 X113.269 Y93.715 E.01314
G1 X113.269 Y83.697 E.31411
M204 S1000
;WIPE_START
G1 F8640
G1 X113.269 Y87.162 E-.8
;WIPE_END
G1 Z.6 F720
G1 X139.526 Y87.107 F10800
G1 Z.2 F720
G1 E.8 F2100
M204 S800
G1 F1200
G1 X137.21 Y87.107 E.07262
G1 X137.21 Y89.423 E.07262
G1 X135.4 Y89.423 E.05675
G1 X131.595 Y85.618 E.16872
