; generated by PrusaSlicer 2.8.0+win64 on 2024-10-30 at 06:55:16 UTC


;
;
; 

; external perimeters extrusion width = 0.60mm
; perimeters extrusion width = 0.50mm
; infill extrusion width = 0.50mm
; solid infill extrusion width = 0.50mm
; top infill extrusion width = 0.45mm
; first layer extrusion width = 0.42mm

M73 P0 R27
M73 Q0 S27
M201 X1000 Y1000 Z200 E5000 ; sets maximum accelerations, mm/sec^2
M203 X200 Y200 Z12 E120 ; sets maximum feedrates, mm / sec
M204 S1250 T1250 ; sets acceleration (S) and retract acceleration (R), mm/sec^2
M205 X8.00 Y8.00 Z0.40 E4.50 ; sets the jerk limits, mm/sec
M205 S0 T0 ; sets the minimum extruding and travel feed rate, mm/sec

; printing object Schieblehre_Halter_17mm_x_6.5mm.stl id:0 copy 0
; stop printing object Schieblehre_Halter_17mm_x_6.5mm.stl id:0 copy 0

;TYPE:Custom
M862.3 P "MK3S" ; printer model check
M862.1 P0.4 ; nozzle diameter check
M115 U3.13.3 ; tell printer latest fw version
G90 ; use absolute coordinates
M83 ; extruder relative mode
M104 S215 ; set extruder temp
M140 S60 ; set bed temp
M190 S60 ; wait for bed temp
M109 S215 ; wait for extruder temp
G28 W ; home all without mesh bed level
G80 X112.445 Y80.6948 W25.1169 H48.6105 ; mesh bed levelling

G1 Z0.2 F720
G1 Y-3 F1000 ; go outside print area
G92 E0
G1 X60 E9 F1000 ; intro line
G1 X100 E12.5 F1000 ; intro line

G92 E0
M221 S95

; Don't change E values below. Excessive value can damage the printer.

M907 E538 ; set extruder motor current
G21 ; set units to millimeters
G90 ; use absolute coordinates
M83 ; use relative distances for extrusion

M900 K0.05 ; Filament gcode LA 1.5
M900 K30 ; Filament gcode LA 1.0




M107
;LAYER_CHANGE
;Z:0.2
;HEIGHT:0.2
G1 E-.8 F2100
G1 Z.6 F720
G1 X120.449 Y84 F10800
G1 Z.2 F720
G1 E.8 F2100
M204 S800
;TYPE:Skirt/Brim
;WIDTH:0.42
G1 F1200
G1 X121.642 Y82.29 E.06537
G1 X122.486 Y81.43 E.03778
G1 X123.28 Y81.043 E.0277
G1 X124.064 Y80.891 E.02504
G1 X134.436 Y80.891 E.32521
G1 X135.466 Y81.133 E.03317
G1 X136.213 Y81.579 E.02728
G1 X136.659 Y82.021 E.01969
G1 X137.117 Y82.784 E.0279
G1 X137.359 Y83.814 E.03317
G1 X137.326 Y126.483 E1.33786
G1 X137.117 Y127.216 E.0239
G1 X136.82 Y127.764 E.01954
G1 X136.229 Y128.409 E.02743
G1 X135.466 Y128.867 E.0279
G1 X134.733 Y129.076 E.0239
G1 X123.767 Y129.076 E.34383
G1 X123.034 Y128.867 E.0239
G1 X122.487 Y128.57 E.01952
G1 X121.841 Y127.979 E.02745
G1 X113.352 Y115.823 E.46488
G1 X112.874 Y114.873 E.03334
G1 X112.681 Y114.091 E.02525
G1 X112.633 Y113.5 E.01859
G1 X112.633 Y96.5 E.53302
G1 X112.765 Y95.489 E.03197
G1 X113.038 Y94.73 E.02529
G1 X113.352 Y94.177 E.01994
G1 X120.415 Y84.049 E.38715
M204 S1000
;WIPE_START
G1 F8640
G1 X120.449 Y84 E-.01377
G1 X121.642 Y82.29 E-.48144
G1 X122.486 Y81.43 E-.27823
G1 X122.589 Y81.38 E-.02656
;WIPE_END
G1 Z.6 F720
; printing object Schieblehre_Halter_17mm_x_6.5mm.stl id:0 copy 0
G1 X116.377 Y96.134 F10800
G1 Z.2 F720
G1 E.8 F2100
M204 S800
;TYPE:External perimeter
;WIDTH:0.478808
G1 F1200
G1 X116.408 Y96.099 E.00169
;WIDTH:0.503206
G1 X116.529 Y96.048 E.00503
;WIDTH:0.530449
G1 X116.808 Y96.035 E.01132
G1 X121.254 Y96.035 E.18023
;WIDTH:0.562228
G1 X121.887 Y96.019 E.02734
G1 X122.075 Y96.043 E.00818
;WIDTH:0.514819
G1 X122.264 Y96.066 E.00747
;WIDTH:0.467409
G1 X122.452 Y96.09 E.00669
;WIDTH:0.419999
G1 X123.471 Y96.09 E.03195
G1 X123.554 Y96.109 E.00267
G1 X123.66 Y96.279 E.00628
G1 X123.66 Y113.721 E.54688
G1 X123.553 Y113.891 E.0063
G1 X122.694 Y113.91 E.02694
;WIDTH:0.422149
G1 X122.137 Y113.911 E.01756
;WIDTH:0.46291
G1 X121.983 Y113.931 E.00542
;WIDTH:0.503671
G1 X121.829 Y113.952 E.00595
;WIDTH:0.544431
G1 X121.675 Y113.972 E.00648
G1 X121.258 Y113.965 E.01739
;WIDTH:0.530448
G1 X116.808 Y113.965 E.18039
G1 X116.624 Y113.943 E.00751
;WIDTH:0.504628
G1 X116.441 Y113.921 E.00708
;WIDTH:0.478808
G1 X116.349 Y113.842 E.0044
;WIDTH:0.503206
G1 X116.298 Y113.721 E.00503
;WIDTH:0.530449
G1 X116.285 Y113.442 E.01132
G1 X116.285 Y96.558 E.68445
G1 X116.307 Y96.374 E.00751
M73 P1 R27
M73 Q1 S27
;WIDTH:0.504629
G1 X116.329 Y96.191 E.00708
;WIDTH:0.478808
G1 X116.338 Y96.18 E.00052
M204 S1000
;WIPE_START
G1 F8640
G1 X116.377 Y96.134 E-.01393
G1 X116.408 Y96.099 E-.0108
G1 X116.529 Y96.048 E-.03032
G1 X116.808 Y96.035 E-.06449
G1 X119.755 Y96.035 E-.68046
;WIPE_END
G1 Z.6 F720
G1 X124.619 Y124.026 F10800
G1 Z.2 F720
G1 E.8 F2100
M204 S800
;TYPE:Perimeter
;WIDTH:0.419999
G1 F1200
G1 X125.028 Y124.369 E.01674
G1 X133.88 Y124.37 E.27755
G1 X133.88 Y125.63 E.03951
G1 X124.62 Y125.63 E.29034
G1 X124.619 Y124.086 E.04841
M204 S1000
;WIPE_START
G1 F8640
G1 X124.619 Y124.026 E-.01385
G1 X125.028 Y124.369 E-.12325
G1 X127.899 Y124.369 E-.6629
;WIPE_END
G1 Z.6 F720
G1 X124.62 Y86.04 F10800
G1 Z.2 F720
G1 E.8 F2100
M204 S800
G1 F1200
G1 X124.62 Y84.369 E.05239
G1 X133.88 Y84.37 E.29034
G1 X133.881 Y85.62 E.03919
G1 X125.028 Y85.631 E.27758
G1 X124.662 Y85.997 E.01623
M204 S1000
;WIPE_START
G1 F8640
G1 X124.62 Y86.04 E-.01388
G1 X124.62 Y84.369 E-.38584
G1 X126.354 Y84.369 E-.40028
;WIPE_END
G1 Z.6 F720
G1 X122.245 Y95.713 F10800
G1 Z.2 F720
G1 E.8 F2100
M204 S800
G1 F1200
G1 X122.796 Y95.493 E.0186
G1 X123.198 Y95.248 E.01476
G1 X123.561 Y94.95 E.01473
G1 X123.88 Y94.605 E.01473
G1 X124.187 Y94.15 E.01721
G1 X124.463 Y93.494 E.02231
G1 X124.463 Y95.303 E.05672
;WIDTH:0.444381
G1 X124.451 Y113.721 E.61482
;WIDTH:0.450279
G1 X124.463 Y114.701 E.0332
M73 P1 R26
;WIDTH:0.419999
G1 X124.463 Y116.488 E.05603
G1 X124.295 Y116.059 E.01445
G1 X124.02 Y115.584 E.01721
G1 X123.58 Y115.075 E.0211
G1 X123.068 Y114.664 E.02059
G1 X122.656 Y114.439 E.01472
G1 X122.255 Y114.287 E.01345
G1 X123.471 Y114.287 E.03813
G1 X123.716 Y114.231 E.00788
;WIDTH:0.450279
G1 X124.043 Y113.822 E.01774
G1 X124.049 Y113.721 E.00343
;WIDTH:0.444381
G1 X124.049 Y96.279 E.58224
G1 X123.718 Y95.77 E.02027
;WIDTH:0.419999
G1 X123.471 Y95.713 E.00795
G1 X122.305 Y95.713 E.03656
M204 S1000
;WIPE_START
G1 F8640
G1 X122.245 Y95.713 E-.01385
G1 X122.796 Y95.493 E-.13699
G1 X123.198 Y95.248 E-.1087
G1 X123.561 Y94.95 E-.10844
G1 X123.88 Y94.605 E-.1085
G1 X124.187 Y94.15 E-.12674
G1 X124.463 Y93.494 E-.16433
G1 X124.463 Y93.635 E-.03245
;WIPE_END
G1 Z.6 F720
G1 X124.928 Y86.086 F10800
G1 Z.2 F720
G1 E.8 F2100
M204 S800
;TYPE:External perimeter
;WIDTH:0.493429
G1 F1200
G1 X124.866 Y86.134 E.00294
;WIDTH:0.530143
G1 X124.785 Y86.197 E.00416
;WIDTH:0.530449
G1 X124.785 Y92.506 E.25576
;WIDTH:0.53228
G1 X124.784 Y92.566 E.00244
;WIDTH:0.573809
G1 X124.763 Y93.243 E.0299
G1 X124.782 Y93.367 E.00554
;WIDTH:0.535357
G1 X124.802 Y93.49 E.0051
;WIDTH:0.496904
G1 X124.821 Y93.614 E.00474
;WIDTH:0.458452
G1 X124.84 Y93.737 E.0043
;WIDTH:0.419999
G1 X124.84 Y116.417 E.71111
;WIDTH:0.456333
G1 X124.822 Y116.574 E.00543
;WIDTH:0.492667
G1 X124.804 Y116.731 E.00591
;WIDTH:0.529001
G1 X124.786 Y116.888 E.00639
;WIDTH:0.531329
G1 X124.785 Y123.803 E.28083
;WIDTH:0.534032
G1 X124.787 Y123.846 E.00176
G1 X124.867 Y123.895 E.00383
;WIDTH:0.496021
G1 X124.948 Y123.943 E.00355
;WIDTH:0.45801
G1 X125.029 Y123.992 E.00327
;WIDTH:0.419999
G1 X134.252 Y123.993 E.28918
G1 X134.257 Y126.002 E.06299
G1 X124.248 Y126.007 E.31382
G1 X124.243 Y124.778 E.03853
;WIDTH:0.456779
G1 X124.261 Y124.453 E.0112
;WIDTH:0.493559
G1 X124.279 Y124.128 E.0122
;WIDTH:0.530339
G1 X124.297 Y123.804 E.01315
;WIDTH:0.531329
G1 X124.296 Y117.396 E.26024
G1 X124.247 Y116.954 E.01806
;WIDTH:0.529001
G1 X124.147 Y116.703 E.01092
;WIDTH:0.492667
G1 X124.046 Y116.452 E.01012
;WIDTH:0.456333
G1 X123.945 Y116.2 E.00933
;WIDTH:0.419999
G1 X123.723 Y115.816 E.01391
G1 X123.318 Y115.347 E.01943
G1 X122.847 Y114.97 E.01892
G1 X122.455 Y114.761 E.01393
;WIDTH:0.463117
G1 X122.201 Y114.666 E.00948
;WIDTH:0.506235
G1 X121.947 Y114.571 E.01045
;WIDTH:0.549353
G1 X121.693 Y114.476 E.01142
G1 X121.258 Y114.453 E.01834
;WIDTH:0.530448
G1 X116.808 Y114.453 E.18039
G1 X116.426 Y114.398 E.01565
;WIDTH:0.499378
G1 X116.098 Y114.212 E.01431
G1 X115.886 Y113.907 E.0141
;WIDTH:0.530449
G1 X115.797 Y113.465 E.01828
G1 X115.797 Y96.558 E.68538
G1 X115.852 Y96.176 E.01565
;WIDTH:0.499378
G1 X116.038 Y95.848 E.01431
G1 X116.343 Y95.636 E.0141
;WIDTH:0.530449
G1 X116.785 Y95.547 E.01828
G1 X121.254 Y95.547 E.18117
;WIDTH:0.531781
G1 X121.279 Y95.547 E.00102
;WIDTH:0.544554
G1 X121.902 Y95.484 E.02612
G1 X122.149 Y95.372 E.01131
;WIDTH:0.503036
G1 X122.396 Y95.26 E.01038
;WIDTH:0.461518
G1 X122.643 Y95.148 E.00944
;WIDTH:0.419999
G1 X122.998 Y94.928 E.01309
G1 X123.319 Y94.661 E.01309
G1 X123.6 Y94.352 E.0131
G1 X123.848 Y93.985 E.01389
;WIDTH:0.458452
G1 X123.944 Y93.791 E.00748
;WIDTH:0.496904
G1 X124.041 Y93.598 E.00815
;WIDTH:0.535357
G1 X124.138 Y93.404 E.00888
;WIDTH:0.573809
G1 X124.234 Y93.211 E.00952
G1 X124.297 Y92.506 E.03125
;WIDTH:0.530449
G1 X124.298 Y86.197 E.25576
;WIDTH:0.530143
G1 X124.279 Y85.872 E.01319
;WIDTH:0.493429
G1 X124.261 Y85.548 E.01216
;WIDTH:0.456714
G1 X124.243 Y85.223 E.0112
;WIDTH:0.419999
G1 X124.243 Y84.042 E.03703
G1 X124.284 Y83.992 E.00203
G1 X134.257 Y83.998 E.3127
G1 X134.24 Y85.997 E.06268
G1 X125.028 Y86.008 E.28884
;WIDTH:0.456714
G1 X124.975 Y86.049 E.00231
M204 S1000
;WIPE_START
G1 F8640
G1 X124.928 Y86.086 E-.01381
G1 X124.866 Y86.134 E-.0181
G1 X124.785 Y86.197 E-.02369
G1 X124.785 Y89.421 E-.7444
;WIPE_END
G1 Z.6 F720
G1 X133.711 Y85.307 F10800
G1 Z.2 F720
G1 E.8 F2100
M204 S800
;TYPE:Solid infill
;WIDTH:0.422194
G1 F1200
G1 X133.113 Y84.709 E.02667
G1 X132.577 Y84.709 E.0169
G1 X133.149 Y85.282 E.02553
G1 X132.613 Y85.282 E.0169
G1 X132.04 Y84.709 E.02556
G1 X131.504 Y84.709 E.0169
G1 X132.078 Y85.283 E.0256
G1 X131.542 Y85.284 E.0169
G1 X130.968 Y84.709 E.02562
G1 X130.431 Y84.709 E.01694
G1 X131.006 Y85.284 E.02564
G1 X130.471 Y85.285 E.01687
G1 X129.895 Y84.709 E.02569
G1 X129.358 Y84.709 E.01694
G1 X129.935 Y85.285 E.02571
G1 X129.399 Y85.286 E.0169
G1 X128.822 Y84.709 E.02573
G1 X128.285 Y84.709 E.01694
G1 X128.863 Y85.287 E.02578
G1 X128.328 Y85.287 E.01687
G1 X127.749 Y84.709 E.0258
G1 X127.213 Y84.709 E.0169
G1 X127.792 Y85.288 E.02582
G1 X127.256 Y85.289 E.0169
G1 X126.676 Y84.709 E.02587
G1 X126.14 Y84.709 E.0169
G1 X126.721 Y85.289 E.02589
G1 X126.185 Y85.29 E.0169
G1 X125.603 Y84.709 E.02593
G1 X125.067 Y84.709 E.0169
G1 X125.649 Y85.291 E.02596
G1 X125.113 Y85.291 E.0169
G1 X124.79 Y84.968 E.01441
M204 S1000
;WIPE_START
G1 F8640
G1 X125.113 Y85.291 E-.10547
G1 X125.649 Y85.291 E-.12376
G1 X125.067 Y84.709 E-.19005
G1 X125.603 Y84.709 E-.12376
G1 X126.185 Y85.29 E-.18989
G1 X126.475 Y85.29 E-.06707
;WIPE_END
G1 Z.6 F720
M73 Q2 S27
G1 X124.29 Y95.415 F10800
G1 Z.2 F720
M73 P2 R26
G1 E.8 F2100
M204 S800
;WIDTH:0.429983
G1 F1200
G1 X123.93 Y95.054 E.01641
G1 X123.648 Y95.32 E.01248
G1 X124.277 Y95.949 E.02863
M204 S1000
;WIPE_START
G1 F8640
G1 X123.648 Y95.32 E-.2054
G1 X123.93 Y95.054 E-.08951
G1 X124.29 Y95.415 E-.11772
;WIPE_END
G1 E-.38737 F2100
G1 Z.6 F720
G1 X123.87 Y114.284 F10800
G1 Z.2 F720
G1 E.8 F2100
M204 S800
;WIDTH:0.484528
G1 F1200
G1 X124.117 Y114.532 E.01285
G1 X124.124 Y115.163 E.02317
G1 X123.414 Y114.453 E.03687
M204 S1000
;WIPE_START
G1 F8640
G1 X124.124 Y115.163 E-.23185
G1 X124.117 Y114.532 E-.14571
G1 X123.87 Y114.284 E-.08082
;WIPE_END
G1 E-.34162 F2100
G1 Z.6 F720
G1 X132.921 Y124.54 F10800
G1 Z.2 F720
G1 E.8 F2100
M204 S800
;WIDTH:0.432491
G1 F1200
G1 X133.541 Y125.159 E.02838
G1 X133.541 Y125.291 E.00428
G1 X133.122 Y125.291 E.01357
G1 X132.54 Y124.709 E.02666
G1 X131.989 Y124.709 E.01785
G1 X132.571 Y125.291 E.02666
G1 X132.02 Y125.291 E.01785
G1 X131.438 Y124.709 E.02666
G1 X130.887 Y124.709 E.01785
G1 X131.469 Y125.291 E.02666
G1 X130.918 Y125.291 E.01785
G1 X130.336 Y124.709 E.02666
G1 X129.785 Y124.709 E.01785
G1 X130.367 Y125.291 E.02666
G1 X129.816 Y125.291 E.01785
G1 X129.234 Y124.709 E.02666
G1 X128.683 Y124.709 E.01785
G1 X129.265 Y125.291 E.02666
G1 X128.714 Y125.291 E.01785
G1 X128.132 Y124.709 E.02666
G1 X127.581 Y124.709 E.01785
G1 X128.163 Y125.291 E.02666
G1 X127.612 Y125.291 E.01785
G1 X127.03 Y124.709 E.02666
G1 X126.479 Y124.709 E.01785
G1 X127.061 Y125.291 E.02666
G1 X126.51 Y125.291 E.01785
G1 X125.928 Y124.709 E.02666
G1 X125.377 Y124.708 E.01785
G1 X125.959 Y125.291 E.02668
G1 X125.408 Y125.291 E.01785
G1 X124.789 Y124.671 E.02838
M204 S1000
M106 S84.15
;LAYER_CHANGE
;Z:0.5
;HEIGHT:0.3
;BEFORE_LAYER_CHANGE
G92 E0.0
;0.5


;WIPE_START
G1 F8640
G1 X125.408 Y125.291 E-.2023
G1 X125.959 Y125.291 E-.12723
G1 X125.377 Y124.708 E-.19021
G1 X125.928 Y124.709 E-.12723
G1 X126.397 Y125.177 E-.15303
;WIPE_END
G1 Z.5 F720
;AFTER_LAYER_CHANGE
;0.5
M104 S210 ; set temperature
; stop printing object Schieblehre_Halter_17mm_x_6.5mm.stl id:0 copy 0
G1 Z.9
G1 X126.397 Y129.076 F10800
G1 Z.5 F720
G1 E.8 F2100
;TYPE:Skirt/Brim
;WIDTH:0.42
G1 F2700
G1 X123.767 Y129.076 E.11665
G1 X123.034 Y128.867 E.03381
G1 X122.487 Y128.57 E.02761
G1 X121.841 Y127.979 E.03884
G1 X113.352 Y115.823 E.65764
G1 X112.874 Y114.873 E.04717
G1 X112.681 Y114.091 E.03573
G1 X112.633 Y113.5 E.0263
G1 X112.633 Y96.5 E.75403
G1 X112.765 Y95.489 E.04522
G1 X113.038 Y94.73 E.03578
G1 X113.352 Y94.177 E.02821
G1 X121.642 Y82.29 E.6428
G1 X122.486 Y81.43 E.05345
M73 Q2 S26
G1 X123.28 Y81.043 E.03918
G1 X124.064 Y80.891 E.03542
G1 X134.436 Y80.891 E.46005
G1 X135.466 Y81.133 E.04693
G1 X136.213 Y81.579 E.03859
G1 X136.659 Y82.021 E.02785
G1 X137.117 Y82.784 E.03947
G1 X137.359 Y83.814 E.04693
G1 X137.326 Y126.483 E1.89258
G1 X137.117 Y127.216 E.03381
G1 X136.82 Y127.764 E.02765
G1 X136.229 Y128.409 E.0388
G1 X135.466 Y128.867 E.03947
G1 X134.733 Y129.076 E.03381
G1 X126.457 Y129.076 E.36708
;WIPE_START
G1 F8640
G1 X126.397 Y129.076 E-.01385
G1 X123.767 Y129.076 E-.60727
G1 X123.034 Y128.867 E-.176
G1 X123.023 Y128.861 E-.00288
;WIPE_END
G1 Z.9 F720
; printing object Schieblehre_Halter_17mm_x_6.5mm.stl id:0 copy 0
G1 X116.237 Y95.981 F10800
G1 Z.5 F720
G1 E.8 F2100
M204 S800
;TYPE:Perimeter
;WIDTH:0.365091
G1 F2340.026
G1 X116.469 Y95.829 E.0104
;WIDTH:0.372062
G1 F2305.942
G1 X116.794 Y95.778 E.01262
;WIDTH:0.374775
G1 F2331.93
G1 X121.41 Y95.777 E.1787
;WIDTH:0.416516
G1 F2300.814
G1 X121.681 Y95.756 E.01194
;WIDTH:0.458258
G1 F2301.542
G1 X121.951 Y95.735 E.0133
;WIDTH:0.5
G1 F2326.88
G1 X122.222 Y95.714 E.01477
G1 F2494.906
G1 X123.282 Y95.714 E.05759
G1 F2659.677
G1 X123.558 Y95.767 E.01527
G1 F2733.432
G1 X123.879 Y96.008 E.02181
G1 F2802.679
G1 X124.034 Y96.468 E.02637
;WIDTH:0.496572
G1 F3000
G1 X124.034 Y113.532 E.91984
;WIDTH:0.503904
G1 F2938.987
G1 X124.026 Y113.663 E.00719
G1 F2913.212
G1 X123.88 Y113.991 E.01968
;WIDTH:0.5
G1 F2878.211
G1 X123.533 Y114.243 E.0233
G1 F2859.664
G1 X123.282 Y114.286 E.01384
G1 F2873.362
G1 X122.443 Y114.286 E.04559
G1 F2903.15
G1 X122.125 Y114.27 E.0173
;WIDTH:0.468305
G1 F2948.531
G1 X121.808 Y114.254 E.01599
;WIDTH:0.436611
G1 F2983.553
G1 X121.529 Y114.238 E.01297
;WIDTH:0.404323
G1 F2999.859
G1 X121.251 Y114.222 E.01181
;WIDTH:0.372035
G1 F2858.314
G1 X116.793 Y114.222 E.17106
G1 F2322.873
G1 X116.469 Y114.171 E.01259
;WIDTH:0.36509
G1 F2323.113
G1 X116.233 Y114.017 E.01057
G1 F2339.473
G1 X116.079 Y113.781 E.01057
;WIDTH:0.372036
G1 F2305.37
G1 X116.028 Y113.457 E.01259
G1 F2339.464
G1 X116.028 Y96.543 E.64903
G1 F2322.288
G1 X116.079 Y96.219 E.01259
;WIDTH:0.365091
G1 F2324.458
G1 X116.203 Y96.029 E.00851
M204 S1000
G1 X116.203 Y96.029 F10800
G1 X116.537 Y96.283
M204 S800
;TYPE:External perimeter
;WIDTH:0.6
G1 F1821.508
G1 X116.674 Y96.204 E.01056
G1 F1818.66
G1 X116.794 Y96.2 E.00802
G1 F1830.988
G1 X122.384 Y96.2 E.37344
G1 F1901.131
G1 X123.282 Y96.2 E.05999
G1 F1938.649
G1 X123.38 Y96.219 E.00667
G1 F1948.614
G1 X123.494 Y96.304 E.0095
G1 F1959.875
G1 X123.55 Y96.468 E.01158
G1 F1985.903
G1 X123.55 Y97.366 E.05999
G1 F2100
G1 X123.55 Y112.634 E1.01998
G1 F2067.732
G1 X123.55 Y113.532 E.05999
G1 F2043.89
G1 X123.495 Y113.695 E.01149
G1 F2037.46
G1 X123.298 Y113.8 E.01491
G1 F2038.049
G1 X122.718 Y113.8 E.03875
G1 F2044.044
G1 X122.443 Y113.8 E.01837
G1 F2055.034
G1 X121.543 Y113.8 E.06012
G1 F1997.291
G1 X117.616 Y113.8 E.26234
G1 F1835.593
G1 X116.718 Y113.8 E.05999
G1 F1824.259
