; generated by PrusaSlicer 2.8.0+win64 on 2024-10-30 at 06:54:43 UTC


;
;
; 

; external perimeters extrusion width = 0.60mm
; perimeters extrusion width = 0.50mm
; infill extrusion width = 0.50mm
; solid infill extrusion width = 0.50mm
; top infill extrusion width = 0.45mm
; first layer extrusion width = 0.42mm

M73 P0 R27
M73 Q0 S27
M201 X1000 Y1000 Z200 E5000 ; sets maximum accelerations, mm/sec^2
M203 X200 Y200 Z12 E120 ; sets maximum feedrates, mm / sec
M204 S1250 T1250 ; sets acceleration (S) and retract acceleration (R), mm/sec^2
M205 X8.00 Y8.00 Z0.40 E4.50 ; sets the jerk limits, mm/sec
M205 S0 T0 ; sets the minimum extruding and travel feed rate, mm/sec

; printing object Schieblehre_Halter_17mm_x_2mm.stl id:0 copy 0
; stop printing object Schieblehre_Halter_17mm_x_2mm.stl id:0 copy 0

;TYPE:Custom
M862.3 P "MK3S" ; printer model check
M862.1 P0.4 ; nozzle diameter check
M115 U3.13.3 ; tell printer latest fw version
G90 ; use absolute coordinates
M83 ; extruder relative mode
M104 S215 ; set extruder temp
M140 S60 ; set bed temp
M190 S60 ; wait for bed temp
M109 S215 ; wait for extruder temp
G28 W ; home all without mesh bed level
G80 X100.318 Y93.3177 W49.3646 H23.3711 ; mesh bed levelling

G1 Z0.2 F720
G1 Y-3 F1000 ; go outside print area
G92 E0
G1 X60 E9 F1000 ; intro line
G1 X100 E12.5 F1000 ; intro line

G92 E0
M221 S95

; Don't change E values below. Excessive value can damage the printer.

M907 E538 ; set extruder motor current
G21 ; set units to millimeters
G90 ; use absolute coordinates
M83 ; use relative distances for extrusion

M900 K0.05 ; Filament gcode LA 1.5
M900 K30 ; Filament gcode LA 1.0




M107
;LAYER_CHANGE
;Z:0.2
;HEIGHT:0.2
G1 E-.8 F2100
G1 Z.6 F720
G1 X101.221 Y100.917 F10800
G1 Z.2 F720
M73 P0 R26
G1 E.8 F2100
M204 S800
;TYPE:Skirt/Brim
;WIDTH:0.42
G1 F1200
G1 X102.001 Y100.135 E.03463
G1 X114.636 Y93.913 E.44159
G1 X115.379 Y93.654 E.02467
G1 X116.5 Y93.506 E.03545
G1 X133.752 Y93.519 E.54092
G1 X134.621 Y93.654 E.02757
G1 X135.364 Y93.913 E.02467
G1 X147.584 Y99.881 E.4264
G1 X148.188 Y100.276 E.02263
G1 X148.865 Y101.001 E.0311
G1 X149.311 Y101.9 E.03147
G1 X149.485 Y102.782 E.02819
G1 X149.485 Y113.218 E.32721
G1 X149.311 Y114.1 E.02819
G1 X148.873 Y114.988 E.03105
G1 X147.988 Y115.873 E.03924
G1 X147.1 Y116.311 E.03105
G1 X146.008 Y116.494 E.03472
G1 X104 Y116.494 E1.31713
G1 X103.47 Y116.45 E.01667
G1 X102.654 Y116.22 E.02658
G1 X101.812 Y115.724 E.03064
G1 X101.127 Y114.988 E.03153
G1 X100.689 Y114.1 E.03105
G1 X100.515 Y113.218 E.02819
G1 X100.515 Y102.782 E.32721
G1 X100.689 Y101.9 E.02819
G1 X101.127 Y101.012 E.03105
G1 X101.179 Y100.96 E.00231
M204 S1000
G1 X101.179 Y100.96 F10800
G1 X101.443 Y101.223
M204 S800
G1 F1200
G1 X102.228 Y100.437 E.03483
G1 X114.802 Y94.252 E.43936
G1 X115.489 Y94.015 E.02279
G1 X116.5 Y93.883 E.03197
G1 X133.715 Y93.894 E.53976
G1 X134.511 Y94.015 E.02524
G1 X135.198 Y94.252 E.02279
G1 X147.419 Y100.22 E.42643
G1 X147.964 Y100.579 E.02046
M73 Q1 S27
G1 X148.563 Y101.228 E.02769
G1 X148.957 Y102.03 E.02802
G1 X149.109 Y102.814 E.02504
G1 X149.109 Y113.186 E.32521
M73 P1 R26
G1 X148.957 Y113.97 E.02504
G1 X148.57 Y114.764 E.0277
G1 X147.764 Y115.57 E.03574
G1 X146.97 Y115.957 E.0277
G1 X146.007 Y116.117 E.03061
G1 X104 Y116.117 E1.3171
G1 X103.517 Y116.076 E.0152
G1 X102.784 Y115.867 E.0239
G1 X102.037 Y115.421 E.02728
G1 X101.43 Y114.764 E.02805
G1 X101.043 Y113.97 E.0277
G1 X100.891 Y113.186 E.02504
G1 X100.891 Y102.814 E.32521
G1 X101.043 Y102.03 E.02504
G1 X101.412 Y101.274 E.02638
M204 S1000
;WIPE_START
G1 F8640
G1 X101.443 Y101.223 E-.01378
G1 X102.228 Y100.437 E-.2565
G1 X104.287 Y99.424 E-.52972
;WIPE_END
G1 Z.6 F720
; printing object Schieblehre_Halter_17mm_x_2mm.stl id:0 copy 0
G1 X116.127 Y97.634 F10800
G1 Z.2 F720
G1 E.8 F2100
M73 Q1 S26
M204 S800
;TYPE:External perimeter
;WIDTH:0.478849
G1 F1200
G1 X116.158 Y97.599 E.00169
;WIDTH:0.503206
G1 X116.279 Y97.548 E.00503
;WIDTH:0.530449
G1 X116.558 Y97.535 E.01132
G1 X133.442 Y97.535 E.68445
G1 X133.751 Y97.552 E.01255
;WIDTH:0.499315
G1 X133.901 Y97.658 E.00697
;WIDTH:0.503205
G1 X133.952 Y97.779 E.00503
;WIDTH:0.530523
G1 X133.965 Y98.059 E.01136
;WIDTH:0.533839
G1 X133.967 Y100.201 E.08744
;WIDTH:0.544554
G1 X133.972 Y100.729 E.02202
G1 X133.952 Y100.886 E.0066
;WIDTH:0.503036
G1 X133.931 Y101.044 E.0061
;WIDTH:0.461518
G1 X133.91 Y101.202 E.00555
;WIDTH:0.419999
G1 X133.91 Y102.221 E.03195
G1 X133.891 Y102.304 E.00267
G1 X133.721 Y102.41 E.00628
G1 X116.279 Y102.41 E.54688
G1 X116.099 Y102.278 E.007
G1 X116.09 Y101.835 E.01389
G1 X116.09 Y100.887 E.02972
;WIDTH:0.461477
G1 X116.069 Y100.733 E.00541
;WIDTH:0.502955
G1 X116.049 Y100.579 E.00594
;WIDTH:0.544432
G1 X116.028 Y100.425 E.00648
G1 X116.035 Y100.008 E.01739
;WIDTH:0.530449
G1 X116.035 Y98.058 E.07905
G1 X116.057 Y97.874 E.00751
;WIDTH:0.504649
G1 X116.079 Y97.691 E.00708
;WIDTH:0.478849
G1 X116.088 Y97.68 E.00052
M204 S1000
;WIPE_START
G1 F8640
G1 X116.127 Y97.634 E-.01393
G1 X116.158 Y97.599 E-.0108
G1 X116.279 Y97.548 E-.03032
G1 X116.558 Y97.535 E-.06449
G1 X119.505 Y97.535 E-.68046
;WIPE_END
G1 Z.6 F720
G1 X143.96 Y103.37 F10800
G1 Z.2 F720
G1 E.8 F2100
M204 S800
;TYPE:Perimeter
;WIDTH:0.419999
G1 F1200
G1 X145.631 Y103.37 E.05239
G1 X145.63 Y112.63 E.29034
G1 X144.38 Y112.631 E.03919
G1 X144.369 Y103.778 E.27758
G1 X144.003 Y103.412 E.01623
M204 S1000
;WIPE_START
G1 F8640
G1 X143.96 Y103.37 E-.01388
G1 X145.631 Y103.37 E-.38584
G1 X145.631 Y105.104 E-.40028
;WIPE_END
G1 Z.6 F720
G1 X115.713 Y101.005 F10800
G1 Z.2 F720
G1 E.8 F2100
M204 S800
G1 F1200
G1 X115.713 Y102.221 E.03813
G1 X115.768 Y102.465 E.00784
;WIDTH:0.444381
G1 X116.279 Y102.799 E.02038
G1 X133.721 Y102.799 E.58224
;WIDTH:0.45028
G1 X133.822 Y102.793 E.00343
G1 X134.23 Y102.468 E.01767
;WIDTH:0.419999
G1 X134.287 Y102.221 E.00795
G1 X134.287 Y100.995 E.03844
G1 X134.507 Y101.546 E.0186
G1 X134.798 Y102.012 E.01723
G1 X135.128 Y102.388 E.01569
G1 X135.71 Y102.846 E.02322
G1 X136.183 Y103.098 E.0168
G1 X136.506 Y103.213 E.01075
G1 X134.697 Y103.213 E.05672
;WIDTH:0.444381
G1 X115.296 Y103.213 E.64764
;WIDTH:0.419999
G1 X113.512 Y103.213 E.05594
G1 X114.038 Y102.994 E.01786
G1 X114.57 Y102.647 E.01992
G1 X114.933 Y102.312 E.01549
G1 X115.336 Y101.818 E.01999
G1 X115.561 Y101.406 E.01472
G1 X115.692 Y101.061 E.01157
M204 S1000
;WIPE_START
G1 F8640
G1 X115.713 Y101.005 E-.01381
G1 X115.713 Y102.221 E-.28078
G1 X115.768 Y102.465 E-.05775
G1 X116.279 Y102.799 E-.14096
G1 X117.607 Y102.799 E-.3067
;WIPE_END
G1 Z.6 F720
G1 X105.975 Y103.369 F10800
G1 Z.2 F720
G1 E.8 F2100
M204 S800
G1 F1200
G1 X105.631 Y103.778 E.01676
G1 X105.63 Y112.63 E.27755
G1 X104.369 Y112.63 E.03954
G1 X104.37 Y103.369 E.29037
G1 X105.915 Y103.369 E.04844
M204 S1000
G1 X105.915 Y103.369 F10800
G1 X106.07 Y103.675
M204 S800
;TYPE:External perimeter
;WIDTH:0.496246
G1 F1200
G1 X106.057 Y103.698 E.001
;WIDTH:0.458123
G1 X106.008 Y103.779 E.00327
;WIDTH:0.419999
G1 X106.007 Y113.002 E.28918
G1 X104.028 Y113.007 E.06205
G1 X103.992 Y112.975 E.00151
G1 X103.993 Y103.027 E.31191
G1 X104.024 Y102.992 E.00147
G1 X105.221 Y102.992 E.03753
;WIDTH:0.456891
G1 X105.546 Y103.01 E.0112
;WIDTH:0.493782
G1 X105.871 Y103.029 E.0122
;WIDTH:0.530673
G1 X106.196 Y103.047 E.0132
;WIDTH:0.531328
G1 X112.604 Y103.046 E.26024
;WIDTH:0.542963
G1 X113.047 Y103.004 E.0185
G1 X113.309 Y102.895 E.0118
;WIDTH:0.501975
G1 X113.571 Y102.787 E.01082
;WIDTH:0.460987
G1 X113.832 Y102.678 E.00983
;WIDTH:0.419999
G1 X114.364 Y102.331 E.01992
G1 X114.672 Y102.04 E.01329
G1 X115.03 Y101.597 E.01786
G1 X115.239 Y101.205 E.01393
;WIDTH:0.460605
G1 X115.333 Y100.951 E.00941
;WIDTH:0.501211
G1 X115.427 Y100.696 E.01036
;WIDTH:0.541816
G1 X115.521 Y100.442 E.01124
G1 X115.547 Y100.008 E.01804
;WIDTH:0.530449
G1 X115.547 Y98.058 E.07905
G1 X115.602 Y97.676 E.01565
;WIDTH:0.499379
G1 X115.788 Y97.348 E.01431
G1 X116.093 Y97.136 E.0141
;WIDTH:0.530448
G1 X116.535 Y97.047 E.01828
G1 X133.442 Y97.047 E.68538
G1 X133.824 Y97.102 E.01565
;WIDTH:0.499377
G1 X134.144 Y97.282 E.01394
G1 X134.364 Y97.593 E.01446
;WIDTH:0.530523
G1 X134.453 Y98.035 E.01828
;WIDTH:0.533839
G1 X134.458 Y100.2 E.08838
;WIDTH:0.544554
G1 X134.516 Y100.652 E.01901
M73 Q2 S26
G1 X134.628 Y100.899 E.01131
;WIDTH:0.503036
G1 X134.74 Y101.146 E.01038
;WIDTH:0.461518
G1 X134.852 Y101.393 E.00944
;WIDTH:0.419999
G1 X135.072 Y101.748 E.01309
G1 X135.365 Y102.095 E.01424
G1 X135.888 Y102.513 E.02099
;WIDTH:0.458452
G1 X136.114 Y102.631 E.00881
;WIDTH:0.496904
G1 X136.339 Y102.749 E.00959
M73 P2 R26
;WIDTH:0.535356
G1 X136.564 Y102.866 E.01038
;WIDTH:0.573808
G1 X136.789 Y102.984 E.01122
G1 X137.494 Y103.047 E.03125
;WIDTH:0.530448
G1 X143.803 Y103.048 E.25576
;WIDTH:0.530143
G1 X144.128 Y103.029 E.01319
;WIDTH:0.493429
G1 X144.452 Y103.011 E.01216
;WIDTH:0.456714
G1 X144.777 Y102.993 E.0112
;WIDTH:0.419999
G1 X145.993 Y102.993 E.03813
G1 X146.008 Y103.043 E.00164
G1 X146.003 Y113.007 E.31241
G1 X144.003 Y112.99 E.06271
G1 X143.992 Y103.778 E.28884
;WIDTH:0.456714
G1 X143.929 Y103.697 E.00353
;WIDTH:0.493429
G1 X143.866 Y103.616 E.00384
;WIDTH:0.530143
G1 X143.803 Y103.535 E.00416
;WIDTH:0.530448
G1 X137.494 Y103.535 E.25576
;WIDTH:0.53228
G1 X137.434 Y103.534 E.00244
;WIDTH:0.573808
G1 X136.757 Y103.513 E.0299
G1 X136.633 Y103.532 E.00554
;WIDTH:0.535356
G1 X136.51 Y103.552 E.0051
;WIDTH:0.496904
G1 X136.386 Y103.571 E.00474
;WIDTH:0.458452
G1 X136.263 Y103.59 E.0043
;WIDTH:0.419999
G1 X113.583 Y103.59 E.71111
;WIDTH:0.460987
G1 X113.426 Y103.57 E.0055
;WIDTH:0.501975
G1 X113.269 Y103.549 E.00605
;WIDTH:0.542963
G1 X113.112 Y103.529 E.00658
G1 X112.604 Y103.534 E.02112
;WIDTH:0.531328
G1 X106.197 Y103.535 E.2602
;WIDTH:0.534369
G1 X106.154 Y103.537 E.00176
G1 X106.105 Y103.617 E.00383
;WIDTH:0.496246
G1 X106.101 Y103.624 E.0003
M204 S1000
G1 X106.101 Y103.624 F10800
G1 X105.461 Y104.073
M204 S800
;TYPE:Solid infill
;WIDTH:0.420613
G1 F1200
G1 X105.096 Y103.708 E.01621
G1 X104.709 Y103.708 E.01215
G1 X104.709 Y103.855 E.00462
G1 X105.291 Y104.437 E.02585
G1 X105.291 Y104.972 E.0168
G1 X104.709 Y104.389 E.02587
G1 X104.709 Y104.923 E.01677
G1 X105.291 Y105.506 E.02587
G1 X105.291 Y106.04 E.01677
G1 X104.709 Y105.457 E.02587
G1 X104.709 Y105.992 E.0168
G1 X105.291 Y106.574 E.02585
G1 X105.291 Y107.108 E.01677
G1 X104.709 Y106.526 E.02585
G1 X104.709 Y107.06 E.01677
G1 X105.291 Y107.642 E.02585
G1 X105.291 Y108.176 E.01677
G1 X104.709 Y107.594 E.02585
G1 X104.709 Y108.128 E.01677
G1 X105.291 Y108.71 E.02585
G1 X105.291 Y109.244 E.01677
G1 X104.709 Y108.662 E.02585
G1 X104.709 Y109.196 E.01677
G1 X105.291 Y109.778 E.02585
G1 X105.291 Y110.312 E.01677
G1 X104.709 Y109.73 E.02585
G1 X104.709 Y110.264 E.01677
G1 X105.291 Y110.846 E.02585
G1 X105.291 Y111.381 E.0168
G1 X104.709 Y110.798 E.02587
G1 X104.709 Y111.333 E.0168
G1 X105.291 Y111.915 E.02585
G1 X105.291 Y112.291 E.01181
G1 X105.133 Y112.291 E.00496
G1 X104.539 Y111.697 E.02638
M204 S1000
;WIPE_START
G1 F8640
G1 X105.133 Y112.291 E-.19397
G1 X105.291 Y112.291 E-.03648
G1 X105.291 Y111.915 E-.08682
G1 X104.709 Y111.333 E-.19005
G1 X104.709 Y110.798 E-.12353
G1 X105.226 Y111.316 E-.16915
;WIPE_END
G1 Z.6 F720
G1 X115.527 Y103.028 F10800
G1 Z.2 F720
G1 E.8 F2100
M204 S800
;WIDTH:0.495279
G1 F1200
G1 X114.991 Y102.492 E.02851
M204 S1000
;WIPE_START
G1 F8640
G1 X115.527 Y103.028 E-.17503
;WIPE_END
G1 E-.62497 F2100
G1 Z.6 F720
G1 X134.74 Y103.043 F10800
G1 Z.2 F720
G1 E.8 F2100
M204 S800
;WIDTH:0.495415
G1 F1200
G1 X134.303 Y102.606 E.02325
M204 S1000
;WIPE_START
G1 F8640
G1 X134.74 Y103.043 E-.1427
;WIPE_END
G1 E-.6573 F2100
G1 Z.6 F720
G1 X144.673 Y103.539 F10800
G1 Z.2 F720
G1 E.8 F2100
M204 S800
;WIDTH:0.432163
G1 F1200
G1 X145.291 Y104.158 E.02831
G1 X145.291 Y104.708 E.0178
G1 X144.709 Y104.126 E.02664
G1 X144.71 Y104.677 E.01783
G1 X145.291 Y105.259 E.02662
G1 X145.291 Y105.809 E.0178
G1 X144.71 Y105.228 E.02659
G1 X144.711 Y105.779 E.01783
G1 X145.291 Y106.36 E.02657
G1 X145.291 Y106.91 E.0178
G1 X144.712 Y106.33 E.02652
G1 X144.712 Y106.882 E.01787
G1 X145.291 Y107.46 E.02648
G1 X145.291 Y108.011 E.01783
G1 X144.713 Y107.433 E.02646
G1 X144.714 Y107.984 E.01783
G1 X145.291 Y108.561 E.02641
G1 X145.291 Y109.112 E.01783
G1 X144.714 Y108.535 E.02641
G1 X144.715 Y109.086 E.01783
G1 X145.291 Y109.662 E.02636
G1 X145.291 Y110.213 E.01783
G1 X144.716 Y109.637 E.02634
G1 X144.716 Y110.188 E.01783
G1 X145.291 Y110.763 E.02632
G1 X145.291 Y111.313 E.0178
G1 X144.717 Y110.74 E.02625
G1 X144.718 Y111.291 E.01783
G1 X145.291 Y111.864 E.02623
G1 X145.291 Y112.291 E.01382
G1 X145.167 Y112.291 E.00401
G1 X144.549 Y111.672 E.02831
M204 S1000
M106 S84.15
;LAYER_CHANGE
;Z:0.5
;HEIGHT:0.3
;BEFORE_LAYER_CHANGE
G92 E0.0
;0.5


;WIPE_START
G1 F8640
G1 X145.167 Y112.291 E-.20197
G1 X145.291 Y112.291 E-.02863
G1 X145.291 Y111.864 E-.0986
G1 X144.718 Y111.291 E-.18711
G1 X144.717 Y110.74 E-.12723
G1 X145.196 Y111.219 E-.15646
;WIPE_END
G1 Z.5 F720
;AFTER_LAYER_CHANGE
;0.5
M104 S210 ; set temperature
; stop printing object Schieblehre_Halter_17mm_x_2mm.stl id:0 copy 0
G1 Z.9
G1 X149.485 Y111.219 F10800
G1 Z.5 F720
G1 E.8 F2100
;TYPE:Skirt/Brim
;WIDTH:0.42
G1 F2700
G1 X149.485 Y113.218 E.08867
G1 X149.311 Y114.1 E.03987
G1 X148.873 Y114.988 E.04392
G1 X147.988 Y115.873 E.05551
G1 X147.1 Y116.311 E.04392
G1 X146.008 Y116.494 E.04911
G1 X104 Y116.494 E1.86326
G1 X103.47 Y116.45 E.02359
G1 X102.654 Y116.22 E.0376
G1 X101.812 Y115.724 E.04334
G1 X101.127 Y114.988 E.0446
G1 X100.689 Y114.1 E.04392
G1 X100.515 Y113.218 E.03987
G1 X100.515 Y102.782 E.46289
G1 X100.689 Y101.9 E.03987
G1 X101.127 Y101.012 E.04392
G1 X102.001 Y100.135 E.05492
G1 X114.636 Y93.913 E.62469
G1 X115.379 Y93.654 E.0349
G1 X116.5 Y93.506 E.05015
G1 X133.752 Y93.519 E.76521
G1 X134.621 Y93.654 E.03901
G1 X135.364 Y93.913 E.0349
G1 X147.584 Y99.881 E.6032
G1 X148.188 Y100.276 E.03201
G1 X148.865 Y101.001 E.044
G1 X149.311 Y101.9 E.04451
G1 X149.485 Y102.782 E.03987
G1 X149.485 Y111.159 E.37156
G1 X149.485 Y111.159 F10800
G1 X149.109 Y111.159
G1 F2700
G1 X149.109 Y113.186 E.08991
G1 X148.957 Y113.97 E.03542
G1 X148.57 Y114.764 E.03918
G1 X147.764 Y115.57 E.05056
G1 X146.97 Y115.957 E.03918
G1 X146.007 Y116.117 E.0433
G1 X104 Y116.117 E1.86321
G1 X103.517 Y116.076 E.0215
G1 X102.784 Y115.867 E.03381
G1 X102.037 Y115.421 E.03859
G1 X101.43 Y114.764 E.03967
G1 X101.043 Y113.97 E.03918
G1 X100.891 Y113.186 E.03542
G1 X100.891 Y102.814 E.46005
G1 X101.043 Y102.03 E.03542
G1 X101.43 Y101.236 E.03918
G1 X102.228 Y100.437 E.05009
G1 X114.802 Y94.252 E.62154
G1 X115.489 Y94.015 E.03223
G1 X116.5 Y93.883 E.04522
G1 X133.715 Y93.894 E.76357
G1 X134.511 Y94.015 E.03571
G1 X135.198 Y94.252 E.03223
G1 X147.419 Y100.22 E.60324
G1 X147.964 Y100.579 E.02895
G1 X148.563 Y101.228 E.03917
G1 X148.957 Y102.03 E.03963
G1 X149.109 Y102.814 E.03542
G1 X149.109 Y111.099 E.36748
;WIPE_START
G1 F8640
G1 X149.109 Y111.159 E-.01385
G1 X149.109 Y113.186 E-.46804
G1 X148.957 Y113.97 E-.1844
G1 X148.703 Y114.49 E-.13371
;WIPE_END
G1 Z.9 F720
; printing object Schieblehre_Halter_17mm_x_2mm.stl id:0 copy 0
G1 X115.981 Y97.487 F10800
G1 Z.5 F720
G1 E.8 F2100
M204 S800
;TYPE:Perimeter
;WIDTH:0.365091
G1 F2323.208
G1 X115.983 Y97.483 E.00017
;WIDTH:0.363272
G1 F2336.888
G1 X116.034 Y97.439 E.00251
;WIDTH:0.363841
G1 F2328.561
G1 X116.269 Y97.312 E.00998
;WIDTH:0.372023
G1 F2303.464
G1 X116.543 Y97.278 E.01059
G1 F2346.799
G1 X133.532 Y97.281 E.65188
;WIDTH:0.367112
G1 F2328.598
G1 X133.781 Y97.329 E.00957
;WIDTH:0.36509
G1 F2325.423
G1 X134.017 Y97.483 E.01057
G1 F2342.391
G1 X134.171 Y97.719 E.01057
;WIDTH:0.372089
G1 F2308.421
G1 X134.222 Y98.044 E.01263
;WIDTH:0.374777
G1 F2355.312
G1 X134.223 Y100.161 E.08196
;WIDTH:0.416518
G1 F2325.32
G1 X134.244 Y100.432 E.01194
;WIDTH:0.458259
G1 F2326.015
G1 X134.265 Y100.702 E.0133
;WIDTH:0.5
G1 F2350.389
G1 X134.286 Y100.972 E.01471
G1 F2512.482
G1 X134.286 Y102.032 E.05759
G1 F2671.501
G1 X134.233 Y102.308 E.01527
G1 F2742.685
G1 X133.992 Y102.629 E.02181
;WIDTH:0.503905
G1 F2800.33
G1 X133.663 Y102.776 E.01975
G1 F2829.22
G1 X133.532 Y102.784 E.00719
