; generated by PrusaSlicer 2.4.1+win64 on 2023-03-17 at 11:03:32 UTC


;
;
; 

; external perimeters extrusion width = 0.60mm
; perimeters extrusion width = 0.50mm
; infill extrusion width = 0.50mm
; solid infill extrusion width = 0.50mm
; top infill extrusion width = 0.45mm
; support material extrusion width = 0.38mm
; first layer extrusion width = 0.42mm

M73 P0 R102
M73 Q0 S103
M201 X1000 Y1000 Z200 E5000 ; sets maximum accelerations, mm/sec^2
M203 X200 Y200 Z12 E120 ; sets maximum feedrates, mm / sec
M204 P1250 R1250 T1250 ; sets acceleration (P, T) and retract acceleration (R), mm/sec^2
M205 X8.00 Y8.00 Z0.40 E4.50 ; sets the jerk limits, mm/sec
M205 S0 T0 ; sets the minimum extruding and travel feed rate, mm/sec
M107
;TYPE:Custom
M862.3 P "MK3S" ; printer model check
M862.1 P0.4 ; nozzle diameter check
M115 U3.11.0 ; tell printer latest fw version
G90 ; use absolute coordinates
M83 ; extruder relative mode
M104 S215 ; set extruder temp
M140 S60 ; set bed temp
M190 S60 ; wait for bed temp
M109 S215 ; wait for extruder temp
G28 W ; home all without mesh bed level
G80 ; mesh bed leveling

G1 Z0.2 F720
G1 Y-3 F1000 ; go outside print area
G92 E0
G1 X60 E9 F1000 ; intro line
G1 X100 E12.5 F1000 ; intro line

G92 E0
M221 S95

; Don't change E values below. Excessive value can damage the printer.

M907 E538 ; set extruder motor current
G21 ; set units to millimeters
G90 ; use absolute coordinates
M83 ; use relative distances for extrusion
M900 K0.05 ; Filament gcode LA 1.5
M900 K30 ; Filament gcode LA 1.0
M107
;LAYER_CHANGE
;Z:0.2
;HEIGHT:0.2
;BEFORE_LAYER_CHANGE
G92 E0.0
;0.2


G1 E-.8 F2100
G1 Z.4 F720
;AFTER_LAYER_CHANGE
;0.2
G1 X103.531 Y91.977 F10800
G1 Z.2 F720
G1 E.8 F2100
M204 S800
;TYPE:Skirt/Brim
;WIDTH:0.42
G1 F1200
G1 X105.847 Y89.662 E.10268
G1 X107.313 Y88.975 E.05074
G1 X132.785 Y86.66 E.80194
G1 X140.895 Y86.65 E.2543
G1 X141.617 Y86.762 E.02291
G1 X148.88 Y89.078 E.23901
G1 X150.284 Y90.279 E.05794
G1 X152.599 Y94.911 E.16235
G1 X152.85 Y95.974 E.03425
G1 X152.85 Y106.5 E.33006
G1 X152.479 Y107.777 E.04168
G1 X136.269 Y133.248 E.94665
G1 X135.237 Y134.141 E.04278
G1 X134.264 Y134.349 E.03121
G1 X119.106 Y134.349 E.47527
G1 X117.799 Y133.958 E.04278
G1 X117.028 Y133.127 E.03554
G1 X105.45 Y112.286 E.74751
G1 X103.059 Y107.193 E.17642
G1 X102.835 Y106.185 E.03237
G1 X102.835 Y93.658 E.39276
G1 X103.509 Y92.033 E.05516
M204 S1000
; printing object Cap_Windmill.stl id:0 copy 0
;WIPE_START
G1 F8640
G1 X105.82 Y89.689 E-.76
;WIPE_END
G1 E-.04 F2100
G1 Z.6 F720
G1 X113.958 Y93.922 F10800
G1 Z.2 F720
G1 E.8 F2100
M204 S800
;TYPE:Support material
G1 F1200
G1 X113.162 Y93.922 E.02499
G1 X113.078 Y94.234 E.01011
G1 X113.603 Y94.537 E.01902
G1 X113.597 Y94.548 E.0004
G1 X111.613 Y93.403 E.07183
G1 X111.157 Y93.525 E.01481
G1 X106.585 Y101.444 E.28671
G1 X106.707 Y101.9 E.01481
G1 X115.423 Y106.933 E.31557
G1 X115.423 Y106.947 E.00047
G1 X108.906 Y103.185 E.23596
G1 X107.792 Y103.185 E.03493
G1 X107.792 Y106.236 E.09568
G1 X112.423 Y106.236 E.14521
G1 X112.423 Y108.552 E.0726
G1 X115.423 Y108.552 E.09406
G1 X115.423 Y111.132 E.08089
G1 X107.528 Y111.132 E.24756
G1 X107.528 Y106.185 E.15511
G1 X105.212 Y106.185 E.0726
G1 X105.212 Y93.658 E.39276
G1 X107.528 Y93.658 E.0726
G1 X107.528 Y91.343 E.0726
G1 X115.448 Y91.343 E.24832
G1 X113.987 Y93.873 E.09163
M204 S1000
;WIPE_START
G1 F8640
G1 X115.448 Y91.343 E-.67477
G1 X115.079 Y91.343 E-.08523
;WIPE_END
G1 E-.04 F2100
G1 Z.6 F720
G1 X114.954 Y110.962 F10800
G1 Z.2 F720
G1 E.8 F2100
M204 S800
G1 F1200
G1 X114.954 Y108.891 E.06493
G1 X114.535 Y108.891 E.01314
G1 X114.535 Y110.792 E.05961
G1 X114.116 Y110.792 E.01314
G1 X114.116 Y108.891 E.05961
G1 X113.697 Y108.891 E.01314
G1 X113.697 Y110.792 E.05961
G1 X113.278 Y110.792 E.01314
G1 X113.278 Y108.891 E.05961
G1 X112.859 Y108.891 E.01314
G1 X112.859 Y110.792 E.05961
G1 X112.44 Y110.792 E.01314
G1 X112.44 Y108.891 E.05961
G1 X112.084 Y108.891 E.01116
G1 X112.084 Y106.576 E.0726
G1 X112.021 Y106.576 E.00198
G1 X112.021 Y110.792 E.13221
G1 X111.602 Y110.792 E.01314
G1 X111.602 Y106.576 E.13221
G1 X111.183 Y106.576 E.01314
G1 X111.183 Y110.792 E.13221
G1 X110.764 Y110.792 E.01314
G1 X110.764 Y106.576 E.13221
G1 X110.345 Y106.576 E.01314
G1 X110.345 Y110.792 E.13221
G1 X109.926 Y110.792 E.01314
G1 X109.926 Y106.576 E.13221
G1 X109.507 Y106.576 E.01314
G1 X109.507 Y110.792 E.13221
G1 X109.088 Y110.792 E.01314
G1 X109.088 Y106.576 E.13221
G1 X108.669 Y106.576 E.01314
G1 X108.669 Y110.792 E.13221
G1 X108.25 Y110.792 E.01314
G1 X108.25 Y106.406 E.13753
M204 S1000
;WIPE_START
G1 F8640
G1 X108.25 Y109.697 E-.76
;WIPE_END
G1 E-.04 F2100
G1 Z.6 F720
G1 X114.535 Y92.585 F10800
G1 Z.2 F720
G1 E.8 F2100
M204 S800
G1 F1200
G1 X114.535 Y91.682 E.02831
G1 X114.116 Y91.682 E.01314
G1 X114.116 Y92.971 E.04042
G1 X113.762 Y93.583 E.02215
G1 X113.697 Y93.583 E.00206
G1 X113.697 Y91.682 E.05961
G1 X113.278 Y91.682 E.01314
G1 X113.278 Y93.583 E.05961
G1 X112.901 Y93.583 E.01181
G1 X112.861 Y93.732 E.00483
G1 X112.859 Y91.682 E.06427
G1 X112.44 Y91.682 E.01314
G1 X112.44 Y93.488 E.05664
G1 X112.021 Y93.246 E.01517
G1 X112.021 Y91.682 E.04905
G1 X111.602 Y91.682 E.01314
G1 X111.602 Y93.054 E.04304
G1 X111.183 Y93.167 E.0136
G1 X111.183 Y91.682 E.04656
G1 X110.764 Y91.682 E.01314
G1 X110.764 Y93.527 E.05785
G1 X110.345 Y94.253 E.02627
G1 X110.345 Y91.682 E.0806
G1 X109.926 Y91.682 E.01314
G1 X109.926 Y94.978 E.10336
G1 X109.507 Y95.704 E.02627
G1 X109.507 Y91.682 E.12611
G1 X109.088 Y91.682 E.01314
G1 X109.088 Y96.43 E.14886
G1 X108.669 Y97.155 E.02627
G1 X108.669 Y91.682 E.17162
G1 X108.25 Y91.682 E.01314
G1 X108.25 Y97.881 E.19437
G1 X107.831 Y98.607 E.02627
M73 Q0 S102
G1 X107.831 Y93.998 E.14452
G1 X107.412 Y93.998 E.01314
G1 X107.412 Y99.332 E.16727
G1 X106.993 Y100.058 E.02627
G1 X106.993 Y93.998 E.19003
G1 X106.574 Y93.998 E.01314
G1 X106.574 Y100.784 E.21278
G1 X106.221 Y101.396 E.02217
G1 X106.416 Y102.124 E.02362
G1 X106.574 Y102.215 E.00574
G1 X106.574 Y105.845 E.11382
G1 X106.993 Y105.845 E.01314
G1 X106.993 Y102.457 E.10623
G1 X107.412 Y102.699 E.01517
G1 X107.412 Y106.015 E.10397
M204 S1000
G1 X106.155 Y106.015 F10800
M204 S800
G1 F1200
G1 X106.155 Y93.998 E.3768
G1 X105.736 Y93.998 E.01314
G1 X105.736 Y106.015 E.3768
M204 S1000
;WIPE_START
G1 F8640
G1 X105.736 Y102.724 E-.76
;WIPE_END
G1 E-.04 F2100
G1 Z.6 F720
G1 X108.481 Y105.868 F10800
G1 Z.2 F720
G1 E.8 F2100
M204 S800
;TYPE:Support material interface
;WIDTH:0.38
G1 F1200
G1 X108.16 Y105.868 E.00898
G1 X108.16 Y103.553 E.0649
G1 X108.638 Y103.553 E.01341
G1 X108.638 Y105.868 E.0649
G1 X109.154 Y105.868 E.01445
G1 X109.154 Y103.753 E.0593
G1 X109.67 Y104.05 E.01669
G1 X109.67 Y105.868 E.05095
G1 X110.185 Y105.868 E.01445
G1 X110.185 Y104.348 E.04261
G1 X110.701 Y104.646 E.01669
G1 X110.701 Y105.868 E.03427
G1 X111.216 Y105.868 E.01445
G1 X111.216 Y104.943 E.02592
G1 X111.732 Y105.241 E.01669
G1 X111.732 Y105.868 E.01758
G1 X112.248 Y105.868 E.01445
G1 X112.248 Y105.539 E.00924
G1 X112.627 Y105.758 E.01226
M204 S1000
;WIPE_START
G1 F8640
G1 X112.248 Y105.539 E-.10104
G1 X112.248 Y105.868 E-.07609
G1 X111.732 Y105.868 E-.11906
G1 X111.732 Y105.241 E-.14483
G1 X111.216 Y104.943 E-.13748
G1 X111.216 Y105.73 E-.18151
;WIPE_END
G1 E-.04 F2100
G1 Z.6 F720
G1 X112.791 Y108.184 F10800
G1 Z.2 F720
G1 E.8 F2100
M204 S800
G1 F1200
G1 X112.791 Y105.868 E.0649
G1 X112.763 Y105.868 E.00078
G1 X112.763 Y105.837 E.00089
G1 X113.279 Y106.134 E.01669
G1 X113.279 Y108.184 E.05745
G1 X113.795 Y108.184 E.01445
G1 X113.795 Y106.432 E.04911
G1 X114.31 Y106.73 E.01669
G1 X114.31 Y108.184 E.04076
G1 X114.826 Y108.184 E.01445
G1 X114.826 Y107.027 E.03242
G1 X115.341 Y107.325 E.01669
G1 X115.341 Y108.184 E.02408
G1 X115.857 Y108.184 E.01445
G1 X115.857 Y107.623 E.01573
G1 X116.168 Y107.802 E.01006
G1 X116.208 Y108.184 E.01076
G1 X116.015 Y108.184 E.00541
M204 S1000
;WIPE_START
G1 F8640
G1 X116.208 Y108.184 E-.04459
G1 X116.168 Y107.802 E-.08867
G1 X115.857 Y107.623 E-.08286
G1 X115.857 Y108.184 E-.12961
G1 X115.341 Y108.184 E-.11906
G1 X115.341 Y107.325 E-.19835
G1 X114.978 Y107.115 E-.09688
;WIPE_END
G1 E-.04 F2100
G1 Z.6 F720
G1 X119.854 Y115.74 F10800
G1 Z.2 F720
G1 E.8 F2100
M204 S800
G1 F1200
G1 X119.738 Y115.655 E.00402
G1 X119.738 Y116.303 E.01816
M204 S1000
;WIPE_START
G1 F8640
G1 X119.738 Y115.655 E-.14965
G1 X119.854 Y115.74 E-.03315
;WIPE_END
G1 E-.6172 F2100
G1 Z.6 F720
G1 X119.738 Y126.238 F10800
G1 Z.2 F720
G1 E.8 F2100
M204 S800
G1 F1200
G1 X119.738 Y126.709 E.0132
G1 X119.982 Y126.709 E.00683
G1 X119.982 Y115.833 E.30485
G1 X120.498 Y116.207 E.01786
G1 X120.498 Y126.709 E.29435
G1 X121.013 Y126.709 E.01445
G1 X121.013 Y116.582 E.28385
G1 X121.398 Y116.862 E.01334
G1 X121.398 Y126.709 E.27601
G1 X121.171 Y126.709 E.00637
M204 S1000
;WIPE_START
G1 F8640
G1 X121.398 Y126.709 E-.05246
G1 X121.398 Y123.645 E-.70754
;WIPE_END
G1 E-.04 F2100
G1 Z.6 F720
G1 X119.37 Y127.077 F10800
G1 Z.2 F720
G1 E.8 F2100
M204 S800
;TYPE:Support material
;WIDTH:0.42
G1 F1200
G1 X121.766 Y127.077 E.07512
G1 X121.766 Y125.34 E.05447
G1 X121.779 Y125.34 E.0004
G1 X121.779 Y128.006 E.08359
G1 X122.113 Y128.34 E.01481
G1 X131.257 Y128.34 E.28671
G1 X131.591 Y128.006 E.01481
G1 X131.591 Y125.34 E.08359
G1 X131.604 Y125.34 E.0004
G1 X131.604 Y127.077 E.05447
G1 X134 Y127.077 E.07512
G1 X134 Y125.34 E.05447
G1 X134.264 Y125.34 E.00828
G1 X134.264 Y131.972 E.20796
G1 X119.106 Y131.972 E.47527
G1 X119.106 Y125.34 E.20796
G1 X119.37 Y125.34 E.00828
G1 X119.37 Y127.02 E.05269
M204 S1000
;WIPE_START
G1 F8640
G1 X119.37 Y125.34 E-.38805
G1 X119.106 Y125.34 E-.061
G1 X119.106 Y126.686 E-.31095
;WIPE_END
G1 E-.04 F2100
G1 Z.6 F720
G1 X133.808 Y131.803 F10800
G1 Z.2 F720
G1 E.8 F2100
M204 S800
G1 F1200
G1 X133.808 Y127.416 E.13753
G1 X133.389 Y127.416 E.01314
G1 X133.389 Y131.633 E.13221
G1 X132.97 Y131.633 E.01314
G1 X132.97 Y127.416 E.13221
G1 X132.551 Y127.416 E.01314
G1 X132.551 Y131.633 E.13221
G1 X132.132 Y131.633 E.01314
G1 X132.132 Y127.416 E.13221
G1 X131.93 Y127.416 E.00631
G1 X131.93 Y128.146 E.02289
G1 X131.713 Y128.364 E.00965
G1 X131.713 Y131.633 E.1025
G1 X131.294 Y131.633 E.01314
G1 X131.294 Y128.679 E.09262
G1 X130.875 Y128.679 E.01314
G1 X130.875 Y131.633 E.09262
G1 X130.456 Y131.633 E.01314
G1 X130.456 Y128.679 E.09262
G1 X130.037 Y128.679 E.01314
G1 X130.037 Y131.633 E.09262
G1 X129.618 Y131.633 E.01314
G1 X129.618 Y128.679 E.09262
G1 X129.199 Y128.679 E.01314
G1 X129.199 Y131.633 E.09262
G1 X128.78 Y131.633 E.01314
G1 X128.78 Y128.679 E.09262
G1 X128.361 Y128.679 E.01314
G1 X128.361 Y131.633 E.09262
G1 X127.942 Y131.633 E.01314
G1 X127.942 Y128.679 E.09262
G1 X127.523 Y128.679 E.01314
G1 X127.523 Y131.633 E.09262
G1 X127.104 Y131.633 E.01314
G1 X127.104 Y128.679 E.09262
G1 X126.685 Y128.679 E.01314
G1 X126.685 Y131.633 E.09262
G1 X126.266 Y131.633 E.01314
G1 X126.266 Y128.679 E.09262
G1 X125.847 Y128.679 E.01314
G1 X125.847 Y131.633 E.09262
G1 X125.428 Y131.633 E.01314
G1 X125.428 Y128.679 E.09262
G1 X125.009 Y128.679 E.01314
G1 X125.009 Y131.633 E.09262
G1 X124.59 Y131.633 E.01314
G1 X124.59 Y128.679 E.09262
G1 X124.171 Y128.679 E.01314
G1 X124.171 Y131.633 E.09262
G1 X123.752 Y131.633 E.01314
G1 X123.752 Y128.679 E.09262
G1 X123.333 Y128.679 E.01314
G1 X123.333 Y131.633 E.09262
G1 X122.914 Y131.633 E.01314
G1 X122.914 Y128.679 E.09262
G1 X122.495 Y128.679 E.01314
G1 X122.495 Y131.633 E.09262
G1 X122.076 Y131.633 E.01314
G1 X122.076 Y128.679 E.09262
G1 X121.972 Y128.679 E.00326
G1 X121.657 Y128.364 E.01397
G1 X121.657 Y131.633 E.1025
G1 X121.238 Y131.633 E.01314
G1 X121.238 Y127.416 E.13221
G1 X120.819 Y127.416 E.01314
G1 X120.819 Y131.633 E.13221
G1 X120.4 Y131.633 E.01314
G1 X120.4 Y127.416 E.13221
G1 X119.981 Y127.416 E.01314
G1 X119.981 Y131.633 E.13221
G1 X119.562 Y131.633 E.01314
G1 X119.562 Y127.246 E.13753
M204 S1000
;WIPE_START
G1 F8640
G1 X119.562 Y130.538 E-.76
;WIPE_END
G1 E-.04 F2100
G1 Z.6 F720
G1 X131.604 Y120.021 F10800
G1 Z.2 F720
G1 E.8 F2100
M204 S800
G1 F1200
G1 X131.604 Y120.079 E.00179
G1 X131.591 Y120.079 E.0004
G1 X131.591 Y117.096 E.09353
G1 X131.604 Y117.09 E.00044
G1 X131.604 Y119.965 E.09014
M204 S1000
;WIPE_START
G1 F8640
G1 X131.604 Y117.09 E-.66381
G1 X131.591 Y117.096 E-.00326
G1 X131.591 Y117.498 E-.09294
;WIPE_END
G1 E-.04 F2100
G1 Z.6 F720
G1 X132.199 Y117.446 F10800
G1 Z.2 F720
G1 E.8 F2100
M204 S800
;TYPE:Support material interface
;WIDTH:0.38
G1 F1200
G1 X131.972 Y117.446 E.00637
G1 X131.972 Y126.709 E.25961
G1 X132.357 Y126.709 E.01079
G1 X132.357 Y117.446 E.25961
G1 X132.872 Y117.446 E.01445
G1 X132.872 Y126.709 E.25961
G1 X133.388 Y126.709 E.01445
G1 X133.388 Y117.446 E.25961
G1 X133.632 Y117.446 E.00683
G1 X133.632 Y117.917 E.0132
M204 S1000
;WIPE_START
G1 F8640
G1 X133.632 Y117.446 E-.10875
G1 X133.388 Y117.446 E-.0563
G1 X133.388 Y120.023 E-.59495
;WIPE_END
G1 E-.04 F2100
G1 Z.6 F720
G1 X136.58 Y112.487 F10800
G1 Z.2 F720
G1 E.8 F2100
M204 S800
;TYPE:Support material
;WIDTH:0.42
G1 F1200
G1 X136.58 Y120.079 E.23804
G1 X134 Y120.079 E.08089
G1 X134 Y117.079 E.09406
G1 X131.629 Y117.078 E.07432
G1 X131.996 Y116.909 E.01266
G1 X133.78 Y115.605 E.06928
G1 X135.219 Y114.007 E.06742
G1 X136.167 Y112.376 E.05915
G1 X136.525 Y112.472 E.01161
M204 S1000
G1 X135.902 Y119.909 F10800
M204 S800
G1 F1200
G1 X135.902 Y113.514 E.20052
G1 X135.484 Y114.22 E.02574
G1 X135.484 Y119.739 E.17306
G1 X135.065 Y119.739 E.01314
G1 X135.065 Y114.685 E.15847
G1 X134.646 Y115.15 E.01963
G1 X134.646 Y119.739 E.14388
G1 X134.339 Y119.739 E.00961
G1 X134.339 Y116.739 E.09406
G1 X134.227 Y116.739 E.00353
G1 X134.227 Y115.616 E.03522
G1 X134.02 Y115.845 E.00967
G1 X133.808 Y116.012 E.00847
G1 X133.808 Y116.739 E.02281
G1 X133.389 Y116.739 E.01314
G1 X133.389 Y116.316 E.01326
G1 X132.97 Y116.621 E.01624
G1 X132.97 Y116.909 E.00904
M204 S1000
;WIPE_START
G1 F8640
G1 X132.97 Y116.621 E-.06657
G1 X133.389 Y116.316 E-.11958
G1 X133.389 Y116.739 E-.09768
G1 X133.808 Y116.739 E-.09674
G1 X133.808 Y116.012 E-.16796
G1 X134.02 Y115.845 E-.06239
G1 X134.227 Y115.616 E-.07121
G1 X134.227 Y115.953 E-.07786
;WIPE_END
G1 E-.04 F2100
G1 Z.6 F720
G1 X138.408 Y107.106 F10800
G1 Z.2 F720
G1 E.8 F2100
M204 S800
;TYPE:Support material interface
;WIDTH:0.38
G1 F1200
G1 X138.263 Y107.19 E.00468
G1 X138.263 Y108.184 E.02787
G1 X138.544 Y108.184 E.00788
G1 X138.544 Y107.027 E.03242
G1 X139.06 Y106.73 E.01669
G1 X139.06 Y108.184 E.04076
G1 X139.575 Y108.184 E.01445
G1 X139.575 Y106.432 E.04911
G1 X140.091 Y106.134 E.01669
G1 X140.091 Y108.184 E.05745
G1 X140.579 Y108.184 E.01367
G1 X140.579 Y105.868 E.0649
G1 X140.607 Y105.868 E.00078
G1 X140.607 Y105.837 E.00089
G1 X141.122 Y105.539 E.01669
G1 X141.122 Y105.868 E.00924
G1 X141.638 Y105.868 E.01445
G1 X141.638 Y105.241 E.01758
G1 X142.154 Y104.943 E.01669
G1 X142.154 Y105.868 E.02592
G1 X142.669 Y105.868 E.01445
G1 X142.669 Y104.646 E.03427
G1 X143.185 Y104.348 E.01669
G1 X143.185 Y105.868 E.04261
G1 X143.7 Y105.868 E.01445
G1 X143.7 Y104.05 E.05095
G1 X144.216 Y103.753 E.01669
G1 X144.216 Y105.868 E.0593
G1 X144.732 Y105.868 E.01445
G1 X144.732 Y103.455 E.06764
G1 X145.21 Y103.179 E.01548
G1 X145.21 Y105.868 E.07538
G1 X144.889 Y105.868 E.00898
M204 S1000
;WIPE_START
G1 F8640
G1 X145.21 Y105.868 E-.074
G1 X145.21 Y103.179 E-.62101
G1 X144.966 Y103.32 E-.06498
;WIPE_END
G1 E-.04 F2100
G1 Z.6 F720
G1 X140.228 Y93.846 F10800
G1 Z.2 F720
G1 E.8 F2100
M204 S800
M73 P0 R101
G1 F1200
G1 X140.579 Y93.643 E.01136
G1 X140.579 Y91.975 E.04677
G1 X140.091 Y91.975 E.01367
G1 X140.091 Y93.925 E.05466
G1 X139.575 Y94.223 E.01669
G1 X139.575 Y91.975 E.06301
G1 X139.06 Y91.975 E.01445
G1 X139.06 Y94.52 E.07135
G1 X138.544 Y94.818 E.01669
G1 X138.544 Y91.975 E.0797
G1 X138.263 Y91.975 E.00788
G1 X138.263 Y94.29 E.0649
G1 X138.029 Y94.29 E.00657
G1 X138.029 Y95.116 E.02314
G1 X137.513 Y95.413 E.01669
G1 X137.513 Y94.29 E.03148
G1 X136.997 Y94.29 E.01445
G1 X136.997 Y95.711 E.03982
G1 X136.482 Y96.009 E.01669
G1 X136.482 Y94.29 E.04817
G1 X135.966 Y94.29 E.01445
G1 X135.966 Y96.306 E.05651
G1 X135.451 Y96.604 E.01669
G1 X135.451 Y94.29 E.06486
