; generated by PrusaSlicer 2.4.1+win64 on 2023-12-12 at 12:48:16 UTC


;
;
; 

; external perimeters extrusion width = 0.60mm
; perimeters extrusion width = 0.50mm
; infill extrusion width = 0.50mm
; solid infill extrusion width = 0.50mm
; top infill extrusion width = 0.45mm
; first layer extrusion width = 0.42mm

M73 P0 R39
M73 Q0 S39
M201 X1000 Y1000 Z200 E5000 ; sets maximum accelerations, mm/sec^2
M203 X200 Y200 Z12 E120 ; sets maximum feedrates, mm / sec
M204 P1250 R1250 T1250 ; sets acceleration (P, T) and retract acceleration (R), mm/sec^2
M205 X8.00 Y8.00 Z0.40 E4.50 ; sets the jerk limits, mm/sec
M205 S0 T0 ; sets the minimum extruding and travel feed rate, mm/sec
M107
;TYPE:Custom
M862.3 P "MK3S" ; printer model check
M862.1 P0.4 ; nozzle diameter check
M115 U3.11.0 ; tell printer latest fw version
G90 ; use absolute coordinates
M83 ; extruder relative mode
M104 S215 ; set extruder temp
M140 S60 ; set bed temp
M190 S60 ; wait for bed temp
M109 S215 ; wait for extruder temp
G28 W ; home all without mesh bed level
G80 ; mesh bed leveling

G1 Z0.2 F720
G1 Y-3 F1000 ; go outside print area
G92 E0
G1 X60 E9 F1000 ; intro line
G1 X100 E12.5 F1000 ; intro line

G92 E0
M221 S95

; Don't change E values below. Excessive value can damage the printer.

M907 E538 ; set extruder motor current
G21 ; set units to millimeters
G90 ; use absolute coordinates
M83 ; use relative distances for extrusion
M900 K0.05 ; Filament gcode LA 1.5
M900 K30 ; Filament gcode LA 1.0
M107
;LAYER_CHANGE
;Z:0.2
;HEIGHT:0.2
;BEFORE_LAYER_CHANGE
G92 E0.0
;0.2


G1 E-.8 F2100
G1 Z.4 F720
;AFTER_LAYER_CHANGE
;0.2
G1 X82.273 Y49.695 F10800
G1 Z.2 F720
G1 E.8 F2100
M204 S800
;TYPE:Skirt/Brim
;WIDTH:0.42
G1 F1200
G1 X83.871 Y49.077 E.05373
G1 X166.129 Y49.077 E2.57914
G1 X167.436 Y49.469 E.04278
G1 X168.432 Y50.864 E.05373
G1 X169.666 Y55.681 E.15592
G1 X170.728 Y60.539 E.15592
G1 X171.604 Y65.348 E.15328
G1 X172.323 Y70.269 E.15592
G1 X172.869 Y75.24 E.15681
G1 X176.522 Y112.681 E1.17948
G1 X175.856 Y114.572 E.06287
G1 X173.386 Y117.099 E.11081
G1 X128.889 Y159.352 E1.92395
G1 X127.853 Y160.149 E.04098
M73 P0 R38
G1 X126.66 Y160.682 E.04098
G1 X125.93 Y160.857 E.02355
G1 X125.376 Y160.923 E.0175
G1 X124.07 Y160.857 E.04098
G1 X122.816 Y160.489 E.04098
G1 X121.682 Y159.839 E.04098
G1 X121.016 Y159.266 E.02755
G1 X76.614 Y117.099 E1.91995
G1 X74.144 Y114.572 E.11081
G1 X73.478 Y112.681 E.06287
G1 X77.131 Y75.24 E1.17948
G1 X77.667 Y70.353 E.15417
G1 X78.382 Y65.432 E.15592
M73 P1 R38
M73 Q1 S39
G1 X79.272 Y60.539 E.15592
G1 X80.334 Y55.681 E.15592
G1 X81.568 Y50.864 E.15592
G1 X82.242 Y49.746 E.0409
M204 S1000
; printing object Krippe_01.stl id:0 copy 0
;WIPE_START
G1 F8640
G1 X83.871 Y49.077 E-.40672
G1 X85.401 Y49.077 E-.35328
;WIPE_END
G1 E-.04 F2100
G1 Z.6 F720
G1 X106.775 Y120.2 F10800
G1 Z.2 F720
G1 E.8 F2100
M204 S800
;TYPE:Perimeter
G1 F1200
G1 X106.418 Y120.075 E.01185
G1 X105.197 Y119.746 E.03967
G1 X105.098 Y120.55 E.0254
G1 X103.617 Y119.396 E.05886
G1 X102.603 Y118.408 E.04442
G1 X102.146 Y117.852 E.02254
G1 X101.324 Y116.922 E.03893
G1 X100.498 Y117.157 E.02694
G1 X100.404 Y116.519 E.02021
G1 X100.283 Y116.617 E.00489
G1 X100.102 Y116.586 E.00575
G1 X99.769 Y116.015 E.02071
G1 X100.488 Y115.697 E.02466
G1 X101.107 Y115.971 E.02125
G1 X100.943 Y116.201 E.00884
G1 X101.914 Y116.853 E.03668
G1 X102.953 Y117.494 E.03825
G1 X104.428 Y118.204 E.05134
G1 X105.977 Y118.765 E.05164
G1 X106.392 Y118.854 E.01331
G1 X106.078 Y119.861 E.03308
G1 X106.721 Y120.173 E.02242
M204 S1000
;WIPE_START
G1 F8640
G1 X106.418 Y120.075 E-.07353
G1 X105.197 Y119.746 E-.29215
G1 X105.098 Y120.55 E-.18705
G1 X104.39 Y119.998 E-.20726
;WIPE_END
G1 E-.04 F2100
G1 Z.6 F720
G1 X123.796 Y153.287 F10800
G1 Z.2 F720
G1 E.8 F2100
M204 S800
;TYPE:External perimeter
G1 F1200
G1 X124.378 Y153.044 E.01978
G1 X124.958 Y152.962 E.01834
G1 X125.62 Y153.044 E.02092
G1 X126.204 Y153.287 E.01984
G1 X126.7 Y153.668 E.0196
G1 X127.081 Y154.164 E.0196
G1 X127.323 Y154.747 E.0198
G1 X127.407 Y155.367 E.01962
G1 X127.327 Y155.99 E.01969
G1 X127.086 Y156.573 E.01979
G1 X126.701 Y157.07 E.0197
G1 X126.204 Y157.45 E.01962
G1 X125.62 Y157.69 E.0198
G1 X125 Y157.771 E.0196
G1 X124.38 Y157.69 E.0196
G1 X123.796 Y157.45 E.0198
G1 X123.299 Y157.07 E.01962
G1 X122.914 Y156.573 E.0197
G1 X122.673 Y155.99 E.01979
G1 X122.593 Y155.367 E.01969
G1 X122.677 Y154.747 E.01962
G1 X122.919 Y154.164 E.0198
G1 X123.3 Y153.668 E.0196
G1 X123.748 Y153.323 E.01772
M204 S1000
G1 X123.795 Y152.887 F10800
;WIPE_START
G1 F8640
G1 X124.378 Y153.044 E-.1591
G1 X124.958 Y152.962 E-.13506
G1 X125.62 Y153.044 E-.15407
G1 X126.204 Y153.287 E-.14613
G1 X126.7 Y153.668 E-.14438
G1 X126.756 Y153.741 E-.02126
;WIPE_END
G1 E-.04 F2100
G1 Z.6 F720
G1 X124.32 Y141.225 F10800
G1 Z.2 F720
G1 E.8 F2100
M204 S800
;TYPE:Perimeter
G1 F1200
G1 X123.267 Y136.154 E.16239
G1 X117.521 Y135.004 E.18374
M73 Q1 S38
G1 X117.521 Y133.634 E.04298
G1 X123.267 Y132.484 E.18374
G1 X124.32 Y127.413 E.16239
G1 X125.68 Y127.413 E.04267
G1 X126.733 Y132.484 E.16239
G1 X132.479 Y133.634 E.18374
G1 X132.479 Y135.004 E.04298
G1 X126.733 Y136.154 E.18374
G1 X125.68 Y141.225 E.16239
G1 X124.38 Y141.225 E.04078
M204 S1000
G1 X124.626 Y140.848 F10800
M204 S800
;TYPE:External perimeter
G1 F1200
G1 X123.586 Y135.833 E.16059
G1 X117.898 Y134.695 E.18187
G1 X117.898 Y133.943 E.0236
G1 X123.586 Y132.805 E.18187
G1 X124.626 Y127.79 E.16059
G1 X125.374 Y127.79 E.02342
G1 X126.414 Y132.805 E.16059
G1 X132.102 Y133.943 E.18187
G1 X132.102 Y134.695 E.0236
G1 X126.414 Y135.833 E.18187
G1 X125.374 Y140.848 E.16059
G1 X124.686 Y140.848 E.02154
M204 S1000
G1 X124.285 Y141.056 F10800
;WIPE_START
G1 F8640
G1 X123.981 Y137.633 E-.76
;WIPE_END
G1 E-.04 F2100
G1 Z.6 F720
G1 X125 Y67.049 F10800
G1 Z.2 F720
G1 E.8 F2100
M204 S800
;TYPE:Perimeter
G1 F1200
G1 X117.819 Y59.183 E.33396
G1 X118.233 Y58.244 E.03217
G1 X131.767 Y58.244 E.42436
G1 X132.181 Y59.183 E.03217
G1 X125.04 Y67.004 E.33208
M204 S1000
G1 X125 Y66.489 F10800
M204 S800
;TYPE:External perimeter
G1 F1200
G1 X118.263 Y59.11 E.3133
G1 X118.479 Y58.621 E.01676
G1 X131.521 Y58.621 E.40894
G1 X131.737 Y59.11 E.01676
G1 X125.04 Y66.445 E.31142
M204 S1000
G1 X124.717 Y66.773 F10800
;WIPE_START
G1 F8640
G1 X122.807 Y64.028 E-.76
;WIPE_END
G1 E-.04 F2100
G1 Z.6 F720
G1 X122.168 Y81.515 F10800
G1 Z.2 F720
G1 E.8 F2100
M204 S800
;TYPE:Perimeter
G1 F1200
G1 X122.358 Y82.928 E.0447
G1 X122.561 Y83.507 E.01923
G1 X122.884 Y84.02 E.01901
G1 X123.312 Y84.449 E.01901
G1 X123.825 Y84.771 E.01901
G1 X124.398 Y84.971 E.01901
G1 X125 Y85.039 E.01901
G1 X125.602 Y84.971 E.01901
G1 X126.175 Y84.771 E.01901
G1 X126.688 Y84.449 E.01901
G1 X127.116 Y84.02 E.01901
G1 X127.439 Y83.507 E.01901
G1 X127.64 Y82.932 E.01909
G1 X127.838 Y81.515 E.04485
G1 X128.978 Y81.623 E.0359
G1 X129.53 Y81.836 E.01858
G1 X130.257 Y81.622 E.02377
G1 X130.793 Y81.556 E.01691
G1 X132.989 Y81.549 E.06886
G1 X125.821 Y70.69 E.40794
G1 X134.297 Y58.214 E.47292
G1 X135.444 Y58.52 E.03723
G1 X135.971 Y65.546 E.22093
G1 X136.63 Y72.096 E.2064
G1 X137.457 Y78.627 E.2064
G1 X138.449 Y85.134 E.20639
G1 X139.607 Y91.614 E.2064
G1 X141.088 Y98.831 E.23099
G1 X139.514 Y99.181 E.05057
G1 X138.794 Y99.468 E.0243
G1 X138.13 Y99.867 E.0243
G1 X137.538 Y100.368 E.0243
G1 X137.035 Y100.957 E.0243
G1 X136.633 Y101.62 E.0243
G1 X136.208 Y102.673 E.03561
G1 X135.296 Y103.13 E.03197
G1 X134.766 Y103.517 E.0206
G1 X134.306 Y103.987 E.0206
G1 X133.931 Y104.525 E.0206
G1 X133.649 Y105.119 E.0206
G1 X133.458 Y105.791 E.0219
G1 X133.343 Y106.315 E.01681
G1 X133.36 Y106.773 E.01439
G1 X133.459 Y107.1 E.01069
G1 X133.529 Y107.028 E.00316
G1 X134.251 Y106.55 E.02714
G1 X135.056 Y106.233 E.02714
G1 X135.702 Y106.126 E.02051
G1 X136.059 Y105.938 E.01266
G1 X136.39 Y105.648 E.01379
G1 X136.645 Y105.289 E.01379
G1 X136.809 Y104.884 E.01373
G1 X137 Y103.584 E.04118
G1 X137.327 Y102.766 E.02763
G1 X137.84 Y102.047 E.02769
G1 X138.509 Y101.471 E.02769
G1 X139.296 Y101.07 E.02769
G1 X140.156 Y100.868 E.02769
G1 X141.558 Y100.882 E.04398
G1 X142.482 Y104.737 E.12431
G1 X143.304 Y107.98 E.10488
G1 X144.253 Y111.532 E.11527
G1 X143.787 Y112.336 E.02914
G1 X143.616 Y112.834 E.01651
G1 X143.544 Y113.356 E.01651
G1 X143.606 Y114.474 E.03511
G1 X142.683 Y114.937 E.03239
G1 X141.732 Y114.142 E.03886
G1 X141.165 Y113.808 E.02065
G1 X140.551 Y113.569 E.02065
G1 X139.785 Y113.408 E.02455
G1 X139.524 Y113.31 E.00874
G1 X139.837 Y113.864 E.01995
G1 X140.122 Y114.654 E.02632
G1 X140.245 Y115.331 E.02158
G1 X140.327 Y115.528 E.00671
G1 X140.397 Y115.904 E.01199
G1 X140.387 Y116.286 E.01199
G1 X140.297 Y116.658 E.01199
G1 X140.12 Y117.024 E.01274
G1 X139.75 Y117.446 E.0176
G1 X139.566 Y117.771 E.01169
G1 X139.453 Y118.126 E.01169
G1 X139.355 Y119.067 E.02965
G1 X138.608 Y119.34 E.02495
G1 X138.844 Y119.792 E.01599
G1 X138.596 Y120.644 E.02781
G1 X138.539 Y121.145 E.01581
G1 X138.568 Y121.648 E.0158
G1 X138.685 Y122.15 E.01616
G1 X138.883 Y122.66 E.01715
G1 X139.172 Y123.082 E.01605
G1 X139.55 Y123.428 E.01605
G1 X139.996 Y123.678 E.01605
G1 X141.015 Y123.972 E.03323
G1 X140.972 Y125.273 E.04083
G1 X138.308 Y125.853 E.08548
G1 X136.172 Y126.244 E.0681
G1 X135.188 Y126.392 E.03117
G1 X134.725 Y126.45 E.01466
G1 X134.21 Y126.46 E.01614
G1 X133.587 Y126.364 E.01977
G1 X132.974 Y126.62 E.02083
G1 X132.426 Y126.745 E.01761
G1 X131.424 Y126.866 E.03166
G1 X129.474 Y127.023 E.06132
G1 X126.851 Y127.159 E.08236
G1 X125 Y117.468 E.30936
M73 Q2 S38
G1 X123.149 Y127.159 E.30936
M73 P2 R38
G1 X120.526 Y127.023 E.08236
G1 X118.576 Y126.866 E.06132
G1 X117.574 Y126.745 E.03166
G1 X117.026 Y126.62 E.01761
G1 X116.416 Y126.365 E.02074
G1 X115.772 Y126.455 E.02039
G1 X115.242 Y126.44 E.0166
G1 X112.897 Y126.083 E.0744
G1 X109.726 Y125.429 E.1015
G1 X106.592 Y124.625 E.10146
G1 X103.498 Y123.673 E.10149
G1 X100.964 Y122.748 E.08457
G1 X100.27 Y122.394 E.02443
G1 X100.243 Y122.227 E.00532
G1 X99.571 Y122.134 E.02127
G1 X99.032 Y121.972 E.01765
G1 X98.549 Y121.777 E.01632
G1 X96.629 Y120.953 E.06554
G1 X93.448 Y119.386 E.11117
G1 X90.353 Y117.655 E.11117
G1 X87.086 Y115.596 E.12108
G1 X86.185 Y110.669 E.15705
G1 X85.5 Y106.043 E.14664
G1 X84.971 Y101.396 E.14664
G1 X84.599 Y96.734 E.14664
G1 X84.394 Y92.254 E.14062
G1 X84.329 Y87.385 E.15265
G1 X84.431 Y82.709 E.14665
G1 X84.679 Y78.231 E.14062
G1 X85.106 Y73.382 E.15265
G1 X85.68 Y68.74 E.14665
G1 X86.379 Y64.31 E.14063
G1 X87.435 Y58.802 E.17583
G1 X90.123 Y59.299 E.08573
G1 X92.037 Y59.842 E.06239
G1 X93.892 Y60.562 E.06239
G1 X95.672 Y61.452 E.06239
G1 X97.36 Y62.505 E.06239
G1 X98.942 Y63.712 E.06239
G1 X100.405 Y65.061 E.06239
G1 X101.734 Y66.542 E.06239
G1 X102.836 Y68.029 E.05803
G1 X103.949 Y69.841 E.06667
G1 X104.816 Y71.634 E.06245
G1 X105.51 Y73.499 E.06239
G1 X106.027 Y75.42 E.06239
G1 X106.362 Y77.382 E.06239
G1 X106.556 Y79.946 E.08063
G1 X104.751 Y80.531 E.05949
G1 X103.642 Y81.057 E.03849
G1 X102.61 Y81.722 E.03849
G1 X101.672 Y82.514 E.03849
G1 X100.844 Y83.421 E.03849
G1 X100.14 Y84.427 E.03849
G1 X99.572 Y85.515 E.03849
G1 X99.36 Y86.092 E.01927
G1 X100.309 Y86.637 E.03431
G1 X101.777 Y87.668 E.05624
G1 X103.145 Y88.827 E.05624
G1 X104.404 Y90.106 E.05624
G1 X105.541 Y91.493 E.05624
G1 X106.548 Y92.977 E.05624
G1 X107.477 Y94.655 E.06014
G1 X107.616 Y95.986 E.04197
G1 X107.864 Y97.092 E.03553
G1 X108.239 Y98.161 E.03552
G1 X108.735 Y99.18 E.03552
G1 X109.346 Y100.134 E.03553
G1 X110.063 Y101.011 E.03552
G1 X110.877 Y101.799 E.03552
G1 X111.781 Y102.491 E.0357
G1 X112.249 Y102.779 E.0172
G1 X112.719 Y102.931 E.01551
G1 X113.213 Y102.968 E.01551
G1 X113.701 Y102.888 E.01551
G1 X114.156 Y102.695 E.01551
G1 X114.554 Y102.4 E.01551
G1 X114.87 Y102.019 E.01551
G1 X115.123 Y101.502 E.01806
G1 X115.495 Y100.677 E.02836
G1 X115.701 Y99.856 E.02657
G1 X115.759 Y99.01 E.02657
G1 X115.666 Y98.168 E.02657
G1 X115.427 Y97.355 E.02657
G1 X115.048 Y96.597 E.02657
G1 X114.541 Y95.918 E.02657
G1 X113.922 Y95.339 E.02657
G1 X113.213 Y94.88 E.02649
G1 X112.224 Y94.475 E.03352
G1 X112 Y94.34 E.00819
G1 X111.798 Y94.142 E.00887
G1 X111.645 Y93.904 E.00887
G1 X111.55 Y93.638 E.00887
G1 X111.517 Y93.348 E.00914
G1 X111.641 Y92.443 E.02864
G1 X111.926 Y91.601 E.02789
G1 X112.366 Y90.828 E.02789
G1 X112.863 Y90.246 E.024
G1 X113.15 Y89.811 E.01633
G1 X113.612 Y89.352 E.02042
G1 X114.301 Y88.906 E.02573
G1 X114.405 Y88.794 E.00479
G1 X114.479 Y88.662 E.00476
G1 X114.52 Y88.516 E.00476
G1 X114.523 Y88.364 E.00476
G1 X114.483 Y88.202 E.00524
G1 X114.309 Y88.1 E.00632
G1 X113.974 Y87.984 E.01113
G1 X113.622 Y87.937 E.01113
G1 X112.496 Y88.013 E.03538
G1 X112.137 Y86.167 E.05896
G1 X111.854 Y85.038 E.03651
G1 X111.498 Y83.885 E.03783
G1 X111.38 Y83.42 E.01505
G1 X111.354 Y82.883 E.01685
G1 X111.433 Y82.351 E.01685
G1 X111.598 Y81.894 E.01526
G1 X112.558 Y79.719 E.07452
G1 X113.358 Y77.537 E.07287
G1 X114.018 Y75.309 E.07287
G1 X114.534 Y73.043 E.07287
G1 X114.904 Y70.748 E.07287
G1 X115.126 Y68.435 E.07287
G1 X115.201 Y66.112 E.07287
G1 X115.126 Y63.789 E.07287
G1 X114.904 Y61.475 E.07287
G1 X114.458 Y58.712 E.08777
G1 X115.705 Y58.216 E.04207
G1 X124.179 Y70.69 E.47281
G1 X117.011 Y81.549 E.40794
G1 X119.207 Y81.556 E.06886
G1 X119.743 Y81.622 E.01691
G1 X120.47 Y81.836 E.02377
G1 X121.022 Y81.623 E.01858
G1 X122.108 Y81.52 E.0342
M204 S1000
G1 X121.843 Y81.924 F10800
M204 S800
;TYPE:External perimeter
G1 F1200
G1 X121.99 Y83.016 E.03454
G1 X122.219 Y83.671 E.02176
G1 X122.587 Y84.257 E.02167
G1 X123.076 Y84.745 E.02167
G1 X123.661 Y85.113 E.02167
G1 X124.313 Y85.341 E.02167
G1 X125 Y85.419 E.02167
G1 X125.687 Y85.341 E.02167
G1 X126.339 Y85.113 E.02167
G1 X126.924 Y84.745 E.02167
G1 X127.413 Y84.257 E.02167
G1 X127.781 Y83.671 E.02167
G1 X128.01 Y83.018 E.02171
G1 X128.159 Y81.924 E.0346
G1 X128.89 Y81.994 E.02302
G1 X129.41 Y82.194 E.01746
G1 X129.299 Y83.246 E.03316
G1 X129.015 Y84.12 E.02881
G1 X128.556 Y84.916 E.02881
G1 X127.941 Y85.599 E.02881
G1 X127.198 Y86.139 E.02881
G1 X126.358 Y86.512 E.02881
G1 X125.459 Y86.703 E.02881
G1 X124.541 Y86.703 E.02881
G1 X123.642 Y86.512 E.02881
G1 X122.802 Y86.139 E.02881
G1 X122.059 Y85.599 E.02881
G1 X121.444 Y84.916 E.02881
G1 X120.985 Y84.12 E.02881
G1 X120.701 Y83.246 E.02881
G1 X120.59 Y82.194 E.03316
G1 X121.11 Y81.994 E.01746
G1 X121.783 Y81.93 E.02121
M204 S1000
G1 X122.238 Y81.861 F10800
;WIPE_START
G1 F8640
G1 X121.99 Y83.016 E-.25531
G1 X122.219 Y83.671 E-.16028
G1 X122.587 Y84.257 E-.1596
G1 X123.076 Y84.745 E-.15959
G1 X123.168 Y84.803 E-.02522
;WIPE_END
G1 E-.04 F2100
G1 Z.6 F720
G1 X120.271 Y82.171 F10800
G1 Z.2 F720
G1 E.8 F2100
M204 S800
G1 F1200
G1 X120.367 Y83.198 E.03235
G1 X120.605 Y84.035 E.02727
G1 X120.992 Y84.814 E.02727
G1 X121.517 Y85.508 E.02727
G1 X122.159 Y86.094 E.02727
G1 X122.899 Y86.552 E.02727
G1 X123.71 Y86.866 E.02727
G1 X124.565 Y87.026 E.02727
G1 X125.435 Y87.026 E.02727
G1 X126.29 Y86.866 E.02727
G1 X127.101 Y86.552 E.02727
G1 X127.841 Y86.094 E.02727
G1 X128.483 Y85.508 E.02727
G1 X129.008 Y84.814 E.02727
G1 X129.395 Y84.035 E.02727
G1 X129.633 Y83.198 E.02727
G1 X129.729 Y82.171 E.03235
G1 X130.334 Y81.992 E.0198
G1 X130.816 Y81.933 E.01523
G1 X133.688 Y81.923 E.09004
G1 X126.275 Y70.693 E.42191
G1 X134.458 Y58.647 E.4566
G1 X135.088 Y58.815 E.02044
G1 X135.595 Y65.579 E.21268
G1 X136.256 Y72.138 E.2067
G1 X137.083 Y78.679 E.2067
G1 X138.077 Y85.196 E.2067
G1 X139.237 Y91.685 E.2067
G1 X140.644 Y98.543 E.21951
G1 X139.402 Y98.819 E.0399
G1 X138.626 Y99.129 E.02621
G1 X137.909 Y99.56 E.02621
G1 X137.271 Y100.1 E.02621
G1 X136.729 Y100.736 E.02621
G1 X136.295 Y101.45 E.02621
G1 X135.911 Y102.4 E.0321
G1 X135.099 Y102.807 E.02848
G1 X134.518 Y103.231 E.02256
G1 X134.015 Y103.745 E.02256
G1 X133.603 Y104.336 E.02256
G1 X133.295 Y104.986 E.02256
G1 X133.092 Y105.699 E.02324
G1 X132.964 Y106.281 E.01868
G1 X132.985 Y106.836 E.01742
G1 X133.146 Y107.368 E.01742
G1 X133.368 Y107.731 E.01334
G1 X133.771 Y107.32 E.01805
G1 X134.426 Y106.886 E.02464
G1 X135.157 Y106.599 E.02464
G1 X135.824 Y106.488 E.02119
G1 X136.274 Y106.25 E.01597
G1 X136.671 Y105.902 E.01656
G1 X136.977 Y105.472 E.01656
