; generated by PrusaSlicer 2.6.0+win64 on 2023-12-07 at 09:40:52 UTC


;
;
; 

; external perimeters extrusion width = 0.60mm
; perimeters extrusion width = 0.50mm
; infill extrusion width = 0.50mm
; solid infill extrusion width = 0.50mm
; top infill extrusion width = 0.45mm
; first layer extrusion width = 0.42mm

M73 P0 R29
M73 Q0 S29
M201 X1000 Y1000 Z200 E5000 ; sets maximum accelerations, mm/sec^2
M203 X200 Y200 Z12 E120 ; sets maximum feedrates, mm / sec
M204 S1250 T1250 ; sets acceleration (S) and retract acceleration (R), mm/sec^2
M205 X8.00 Y8.00 Z0.40 E4.50 ; sets the jerk limits, mm/sec
M205 S0 T0 ; sets the minimum extruding and travel feed rate, mm/sec
;TYPE:Custom
M862.3 P "MK3S" ; printer model check
M862.1 P0.4 ; nozzle diameter check
M115 U3.12.2 ; tell printer latest fw version
G90 ; use absolute coordinates
M83 ; extruder relative mode
M104 S215 ; set extruder temp
M140 S60 ; set bed temp
M190 S60 ; wait for bed temp
M109 S215 ; wait for extruder temp
G28 W ; home all without mesh bed level
G80 ; mesh bed leveling

G1 Z0.2 F720
G1 Y-3 F1000 ; go outside print area
G92 E0
G1 X60 E9 F1000 ; intro line
G1 X100 E12.5 F1000 ; intro line

G92 E0
M221 S95

; Don't change E values below. Excessive value can damage the printer.

M907 E538 ; set extruder motor current
G21 ; set units to millimeters
G90 ; use absolute coordinates
M83 ; use relative distances for extrusion
M900 K0.05 ; Filament gcode LA 1.5
M900 K30 ; Filament gcode LA 1.0
M107
;LAYER_CHANGE
;Z:0.2
;HEIGHT:0.2
;BEFORE_LAYER_CHANGE
G92 E0.0
;0.2


G1 E-.8 F2100
G1 Z.4 F720
;AFTER_LAYER_CHANGE
;0.2
G1 X82.975 Y76.576 F10800
G1 Z.2 F720
G1 E.8 F2100
M204 S800
;TYPE:Skirt/Brim
;WIDTH:0.42
G1 F1200
G1 X83.772 Y75.825 E.03434
G1 X123.811 Y52.708 E1.44961
G1 X125.139 Y52.394 E.04279
G1 X126.189 Y52.708 E.03436
G1 X166.228 Y75.825 E1.44961
G1 X167.164 Y76.817 E.04276
G1 X167.416 Y77.883 E.03434
G1 X167.416 Y124.117 E1.44963
G1 X167.025 Y125.424 E.04277
G1 X166.539 Y125.961 E.02271
G1 X129.77 Y155.86 E1.48591
G1 X128.582 Y156.675 E.04517
G1 X127.392 Y157.205 E.04084
G1 X126.127 Y157.518 E.04086
G1 X124.827 Y157.602 E.04085
G1 X123.532 Y157.457 E.04086
G1 X122.283 Y157.085 E.04086
G1 X121.12 Y156.5 E.04082
G1 X120.268 Y155.892 E.03282
G1 X83.461 Y125.961 E1.48747
G1 X82.694 Y124.833 E.04277
M73 P1 R29
M73 Q1 S29
G1 X82.584 Y124.117 E.02271
G1 X82.584 Y77.883 E1.44963
G1 X82.958 Y76.634 E.04088
M204 S1000
; printing object Schneeflocke_Herz_konfex.stl id:0 copy 0
;WIPE_START
G1 F8640
G1 X83.772 Y75.825 E-.26499
G1 X85.779 Y74.666 E-.53501
;WIPE_END
G1 Z.6 F720
G1 X127.602 Y147.479 F10800
G1 Z.2 F720
G1 E.8 F2100
M204 S800
;TYPE:Perimeter
;WIDTH:0.452193
G1 F1200
G1 X127.652 Y147.52 E.0022
;WIDTH:0.437741
G1 X128.133 Y148.093 E.02456
;WIDTH:0.445464
G1 X128.528 Y148.838 E.02822
;WIDTH:0.451729
G1 X128.707 Y149.472 E.02239
G1 X128.775 Y149.859 E.01336
;WIDTH:0.437007
G1 X128.775 Y150.608 E.02454
;WIDTH:0.44372
G1 X128.591 Y151.469 E.02934
;WIDTH:0.451075
G1 X128.311 Y152.068 E.02244
G1 X128.132 Y152.373 E.012
;WIDTH:0.436464
G1 X127.651 Y152.947 E.02451
;WIDTH:0.442087
G1 X126.956 Y153.487 E.02921
;WIDTH:0.450226
G1 X126.321 Y153.782 E.02371
G1 X126.024 Y153.886 E.01066
;WIDTH:0.436113
G1 X125.287 Y154.016 E.02447
;WIDTH:0.440648
G1 X124.407 Y153.982 E.02912
;WIDTH:0.449187
G1 X123.694 Y153.79 E.02494
;WIDTH:0.452537
G1 X123.1 Y153.505 E.02244
G1 X122.681 Y153.237 E.01694
;WIDTH:0.4394
G1 X122.136 Y152.724 E.02467
;WIDTH:0.447955
G1 X121.692 Y152.085 E.02621
;WIDTH:0.452396
G1 X121.429 Y151.482 E.0224
G1 X121.293 Y151.043 E.01565
;WIDTH:0.438067
G1 X121.206 Y150.3 E.02458
;WIDTH:0.446527
G1 X121.282 Y149.487 E.0274
;WIDTH:0.45206
G1 X121.475 Y148.857 E.02242
G1 X121.64 Y148.472 E.01425
;WIDTH:0.437478
G1 X122.051 Y147.846 E.02457
;WIDTH:0.444905
G1 X122.661 Y147.245 E.02862
;WIDTH:0.451536
G1 X123.219 Y146.894 E.0224
G1 X123.559 Y146.724 E.01292
;WIDTH:0.436806
G1 X124.276 Y146.51 E.02451
;WIDTH:0.474593
G1 X124.798 Y146.445 E.01888
G1 X125.169 Y146.431 E.01333
;WIDTH:0.465908
G1 X126.016 Y146.578 E.03024
;WIDTH:0.447024
G1 X126.77 Y146.88 E.02729
;WIDTH:0.452193
G1 X127.319 Y147.244 E.02242
G1 X127.556 Y147.441 E.01049
M204 S1000
G1 X127.371 Y147.785 F10800
M204 S800
;TYPE:External perimeter
;WIDTH:0.419999
G1 F1200
G1 X127.837 Y148.341 E.02275
G1 X128.18 Y149.013 E.02366
G1 X128.39 Y149.859 E.02733
G1 X128.39 Y150.608 E.02348
G1 X128.212 Y151.379 E.02481
G1 X127.96 Y151.892 E.01792
G1 X127.837 Y152.126 E.00829
G1 X127.356 Y152.699 E.02346
G1 X126.724 Y153.176 E.02483
G1 X126.166 Y153.422 E.01912
G1 X125.957 Y153.507 E.00707
G1 X125.22 Y153.637 E.02346
G1 X124.429 Y153.596 E.02483
G1 X123.629 Y153.356 E.02619
G1 X122.981 Y152.982 E.02346
G1 X122.402 Y152.442 E.02482
G1 X122.019 Y151.87 E.02158
G1 X121.798 Y151.347 E.0178
G1 X121.677 Y150.999 E.01155
G1 X121.59 Y150.255 E.02349
G1 X121.669 Y149.532 E.0228
G1 X121.962 Y148.683 E.02816
G1 X122.374 Y148.058 E.02347
G1 X122.928 Y147.528 E.02404
G1 X123.669 Y147.093 E.02694
G1 X124.386 Y146.879 E.02346
G1 X125.018 Y146.837 E.01986
G1 X125.954 Y146.96 E.0296
G1 X126.615 Y147.239 E.0225
G1 X127.326 Y147.745 E.02736
M204 S1000
G1 X127.754 Y147.671 F10800
;WIPE_START
G1 F8640
G1 X127.837 Y148.341 E-.18128
G1 X128.18 Y149.013 E-.17421
G1 X128.39 Y149.859 E-.20127
G1 X128.39 Y150.608 E-.17295
G1 X128.322 Y150.905 E-.07029
;WIPE_END
G1 Z.6 F720
G1 X124.979 Y145.902 F10800
G1 Z.2 F720
G1 E.8 F2100
M204 S800
;TYPE:Perimeter
;WIDTH:0.503216
G1 F1200
G1 X125.082 Y145.983 E.00502
G1 X125.313 Y146.03 E.00902
;WIDTH:0.460863
G1 X126.308 Y146.248 E.0354
;WIDTH:0.442308
G1 X127.133 Y146.629 E.03018
;WIDTH:0.452193
G1 X127.58 Y146.929 E.01832
G1 X128.122 Y147.435 E.02523
;WIDTH:0.451178
G1 X128.561 Y148.01 E.02456
;WIDTH:0.445464
G1 X128.888 Y148.656 E.02424
G1 X128.968 Y148.896 E.00847
;WIDTH:0.451807
G1 X129.109 Y149.401 E.01783
G1 X129.191 Y150.138 E.02521
G1 X129.15 Y150.86 E.02459
;WIDTH:0.445698
G1 X128.98 Y151.562 E.02419
;WIDTH:0.44372
G1 X128.899 Y151.762 E.00719
;WIDTH:0.437862
G1 X128.545 Y152.461 E.02573
;WIDTH:0.452243
G1 X128.246 Y152.886 E.01769
G1 X127.73 Y153.418 E.02522
;WIDTH:0.447227
G1 X127.003 Y153.913 E.02957
;WIDTH:0.438819
G1 X126.283 Y154.22 E.02577
;WIDTH:0.452483
G1 X125.741 Y154.359 E.01906
G1 X125.003 Y154.427 E.02524
;WIDTH:0.448563
G1 X124.167 Y154.341 E.02835
;WIDTH:0.439967
G1 X123.418 Y154.112 E.02586
;WIDTH:0.452537
G1 X122.88 Y153.85 E.02038
G1 X122.276 Y153.421 E.02523
;WIDTH:0.449708
G1 X121.719 Y152.844 E.02713
;WIDTH:0.447955
G1 X121.356 Y152.311 E.02172
G1 X121.24 Y152.078 E.00877
;WIDTH:0.452396
G1 X121.038 Y151.602 E.01761
G1 X120.86 Y150.894 E.02486
;WIDTH:0.449949
G1 X120.806 Y150.122 E.02619
;WIDTH:0.442841
G1 X120.936 Y149.221 E.03027
;WIDTH:0.45206
G1 X121.1 Y148.696 E.01871
G1 X121.431 Y148.034 E.02518
;WIDTH:0.451412
G1 X121.858 Y147.45 E.02457
;WIDTH:0.444905
G1 X122.385 Y146.952 E.02424
G1 X122.582 Y146.815 E.00802
;WIDTH:0.451536
G1 X123.036 Y146.529 E.01823
;WIDTH:0.451974
G1 X123.719 Y146.242 E.0252
G1 X124.351 Y146.091 E.0221
;WIDTH:0.472342
G1 X124.614 Y146.037 E.00959
;WIDTH:0.503216
G1 X124.877 Y145.984 E.01027
G1 X124.932 Y145.94 E.0027
M204 S1000
;WIPE_START
G1 F8640
G1 X125.082 Y145.983 E-.03603
G1 X125.313 Y146.03 E-.05443
G1 X126.308 Y146.248 E-.2352
G1 X127.133 Y146.629 E-.20983
G1 X127.58 Y146.929 E-.1243
G1 X128.024 Y147.343 E-.14021
;WIPE_END
G1 Z.6 F720
G1 X124.997 Y142.254 F10800
G1 Z.2 F720
G1 E.8 F2100
M204 S800
;WIDTH:0.419999
G1 F1200
G1 X125.406 Y142.494 E.01487
G1 X125.596 Y142.682 E.00838
G1 X125.59 Y142.871 E.00593
G1 X124.971 Y144.778 E.06286
G1 X124.326 Y142.945 E.06093
G1 X124.294 Y142.725 E.00697
G1 X124.405 Y142.556 E.00634
G1 X124.945 Y142.284 E.01896
M204 S1000
;WIPE_START
G1 F8640
G1 X125.406 Y142.494 E-.11697
G1 X125.596 Y142.682 E-.06172
G1 X125.59 Y142.871 E-.04366
G1 X124.971 Y144.778 E-.46295
G1 X124.806 Y144.309 E-.1147
;WIPE_END
G1 Z.6 F720
G1 X124.999 Y139.665 F10800
G1 Z.2 F720
G1 E.8 F2100
M204 S800
;WIDTH:0.377575
G1 F1200
G1 X125.294 Y139.941 E.01124
;WIDTH:0.375587
G1 X125.209 Y139.974 E.00252
G1 X124.988 Y140.142 E.00768
;WIDTH:0.374424
G1 X124.89 Y140.047 E.00376
G1 X124.689 Y139.954 E.0061
;WIDTH:0.377575
G1 X124.955 Y139.706 E.01012
M204 S1000
;WIPE_START
G1 F8640
G1 X125.294 Y139.941 E-.09524
G1 X125.209 Y139.974 E-.02105
G1 X124.988 Y140.142 E-.0641
G1 X124.89 Y140.047 E-.03152
G1 X124.689 Y139.954 E-.05114
G1 X124.955 Y139.706 E-.08397
;WIPE_END
G1 E-.45298 F2100
G1 Z.6 F720
G1 X124.998 Y137.583 F10800
G1 Z.2 F720
G1 E.8 F2100
M204 S800
;WIDTH:0.431421
G1 F1200
G1 X125.339 Y137.905 E.01515
G1 X125.129 Y138.023 E.00778
;WIDTH:0.43172
G1 X124.991 Y138.224 E.00788
G1 X124.859 Y138.035 E.00745
G1 X124.691 Y137.933 E.00635
G1 X124.958 Y137.628 E.0131
M204 S1000
;WIPE_START
G1 F8640
G1 X125.339 Y137.905 E-.10877
G1 X125.129 Y138.023 E-.05562
G1 X124.991 Y138.224 E-.0563
G1 X124.859 Y138.035 E-.05323
G1 X124.691 Y137.933 E-.04538
G1 X124.958 Y137.628 E-.0936
;WIPE_END
G1 E-.3871 F2100
G1 Z.6 F720
G1 X126.27 Y131.407 F10800
G1 Z.2 F720
G1 E.8 F2100
M204 S800
;TYPE:External perimeter
;WIDTH:0.608378
G1 F1200
G1 X126.157 Y131.299 E.00735
M204 S1000
;WIPE_START
G1 F8640
G1 X126.27 Y131.407 E-.03609
;WIPE_END
G1 E-.76391 F2100
G1 Z.6 F720
G1 X136.427 Y120.762 F10800
G1 Z.2 F720
G1 E.8 F2100
M204 S800
;WIDTH:0.79567
G1 F1200
G1 X136.405 Y120.727 E.00259
;WIDTH:0.749809
G1 X136.383 Y120.692 E.00243
;WIDTH:0.703948
G1 X136.362 Y120.658 E.0022
;WIDTH:0.658087
G1 X136.34 Y120.623 E.00211
;WIDTH:0.612226
G1 X136.318 Y120.588 E.00196
;WIDTH:0.566365
G1 X136.296 Y120.554 E.00176
;WIDTH:0.520504
G1 X136.275 Y120.519 E.00162
;WIDTH:0.474643
G1 X136.253 Y120.484 E.00148
;WIDTH:0.428782
G1 X136.231 Y120.45 E.0013
;WIDTH:0.410057
G1 X135.823 Y119.743 E.02492
;WIDTH:0.437194
G1 X135.415 Y119.037 E.02673
M204 S1000
;WIPE_START
G1 F8640
G1 X135.823 Y119.743 E-.18828
G1 X136.231 Y120.45 E-.18848
G1 X136.253 Y120.484 E-.00935
G1 X136.275 Y120.519 E-.00955
G1 X136.296 Y120.554 E-.00942
G1 X136.318 Y120.588 E-.00935
G1 X136.34 Y120.623 E-.00955
G1 X136.362 Y120.658 E-.00955
G1 X136.383 Y120.692 E-.00923
G1 X136.405 Y120.727 E-.00955
G1 X136.427 Y120.762 E-.00955
;WIPE_END
G1 E-.33814 F2100
G1 Z.6 F720
G1 X134.847 Y118.054 F10800
G1 Z.2 F720
G1 E.8 F2100
M204 S800
;WIDTH:0.587839
G1 F1200
G1 X134.624 Y117.667 E.02024
;WIDTH:0.627426
G1 X134.4 Y117.281 E.02169
;WIDTH:0.627892
G1 X134.398 Y117.277 E.00022
M204 S1000
;WIPE_START
G1 F8640
G1 X134.4 Y117.281 E-.00103
G1 X134.624 Y117.667 E-.10305
G1 X134.847 Y118.054 E-.10313
;WIPE_END
G1 E-.59279 F2100
G1 Z.6 F720
G1 X135.612 Y118.742 F10800
G1 Z.2 F720
G1 E.8 F2100
M204 S800
;WIDTH:0.454173
G1 F1200
G1 X135.446 Y118.825 E.00635
;WIDTH:0.437194
G1 X135.415 Y119.037 E.00702
G1 X135.266 Y118.954 E.00559
;WIDTH:0.425514
G1 X135.087 Y119.048 E.00643
;WIDTH:0.419999
G1 X134.777 Y119.571 E.01906
G1 X134.652 Y119.563 E.00393
G1 X134.614 Y119.477 E.00295
G1 X134.661 Y118.883 E.01868
;WIDTH:0.46275
G1 X134.723 Y118.607 E.00987
;WIDTH:0.505501
G1 X134.785 Y118.33 E.01092
;WIDTH:0.548252
G1 X134.847 Y118.054 E.01189
G1 X134.916 Y118.087 E.00321
;WIDTH:0.516236
G1 X134.985 Y118.12 E.00301
;WIDTH:0.484219
G1 X135.721 Y118.348 E.02827
;WIDTH:0.451773
G1 X136.332 Y118.504 E.02144
;WIDTH:0.425777
G1 X136.763 Y118.741 E.01566
G1 X136.821 Y118.817 E.00304
G1 X136.753 Y118.892 E.00322
G1 X136.245 Y118.877 E.01618
;WIDTH:0.454173
G1 X135.671 Y118.755 E.02007
M204 S1000
G1 X135.161 Y118.521 F10800
M204 S800
;TYPE:Perimeter
;WIDTH:0.466846
G1 F1200
G1 X135.108 Y118.521 E.00187
G1 X135.082 Y118.567 E.00186
G1 X135.108 Y118.612 E.00183
G1 X135.161 Y118.612 E.00187
G1 X135.188 Y118.567 E.00185
M204 S1000
;WIPE_START
G1 F8640
G1 X135.161 Y118.612 E-.01212
G1 X135.108 Y118.612 E-.01224
G1 X135.082 Y118.567 E-.012
G1 X135.108 Y118.521 E-.0122
G1 X135.161 Y118.521 E-.01224
;WIPE_END
G1 E-.7392 F2100
G1 Z.6 F720
G1 X144.692 Y100.999 F10800
G1 Z.2 F720
G1 E.8 F2100
M204 S800
;TYPE:External perimeter
;WIDTH:0.587837
G1 F1200
G1 X144.245 Y101 E.02025
;WIDTH:0.627426
G1 X143.799 Y101 E.02168
;WIDTH:0.627892
G1 X143.795 Y101 E.00019
M204 S1000
G1 X144.755 Y100.956 F10800
M204 S800
;WIDTH:0.516233
G1 F1200
G1 X144.818 Y100.912 E.00302
;WIDTH:0.484218
G1 X145.384 Y100.389 E.02828
;WIDTH:0.451773
G1 X145.824 Y99.938 E.02142
;WIDTH:0.425776
G1 X146.245 Y99.683 E.01567
G1 X146.34 Y99.672 E.00304
G1 X146.37 Y99.768 E.0032
G1 X146.103 Y100.2 E.01617
;WIDTH:0.454173
G1 X145.669 Y100.682 E.02218
G1 X145.659 Y100.866 E.0063
;WIDTH:0.438208
G1 X145.82 Y100.999 E.00686
G1 X145.68 Y101.086 E.00542
;WIDTH:0.426177
G1 X145.673 Y101.288 E.00644
;WIDTH:0.419999
G1 X145.971 Y101.818 E.01906
G1 X145.901 Y101.923 E.00396
G1 X145.807 Y101.913 E.00296
G1 X145.317 Y101.575 E.01866
;WIDTH:0.462749
G1 X145.108 Y101.383 E.00991
;WIDTH:0.505499
G1 X144.9 Y101.191 E.01089
;WIDTH:0.548248
G1 X144.692 Y100.999 E.01189
G1 X144.705 Y100.99 E.00066
M204 S1000
G1 X145.306 Y100.961 F10800
M204 S800
;TYPE:Perimeter
;WIDTH:0.466842
G1 F1200
G1 X145.253 Y100.961 E.00187
G1 X145.227 Y101.006 E.00183
G1 X145.253 Y101.052 E.00186
G1 X145.306 Y101.052 E.00187
G1 X145.333 Y101.006 E.00188
M204 S1000
;WIPE_START
G1 F8640
G1 X145.306 Y101.052 E-.01232
G1 X145.253 Y101.052 E-.01224
G1 X145.227 Y101.006 E-.0122
G1 X145.253 Y100.961 E-.012
G1 X145.306 Y100.961 E-.01224
;WIPE_END
G1 E-.739 F2100
G1 Z.6 F720
G1 X147.828 Y100.985 F10800
G1 Z.2 F720
G1 E.8 F2100
M204 S800
;TYPE:External perimeter
;WIDTH:0.794712
G1 F1200
G1 X147.787 Y100.986 E.00256
;WIDTH:0.748958
G1 X147.746 Y100.988 E.00241
;WIDTH:0.703203
G1 X147.705 Y100.989 E.00225
;WIDTH:0.657448
G1 X147.664 Y100.991 E.0021
;WIDTH:0.611694
G1 X147.623 Y100.992 E.00194
;WIDTH:0.565939
G1 X147.582 Y100.994 E.00179
;WIDTH:0.520184
G1 X147.541 Y100.995 E.00163
;WIDTH:0.47443
G1 X147.5 Y100.997 E.00147
;WIDTH:0.428675
G1 X147.459 Y100.998 E.00132
;WIDTH:0.410564
G1 X146.639 Y100.999 E.02507
;WIDTH:0.438208
G1 X145.82 Y100.999 E.02692
M204 S1000
;WIPE_START
G1 F8640
G1 X146.639 Y100.999 E-.18911
G1 X147.459 Y100.998 E-.18934
G1 X147.5 Y100.997 E-.00947
G1 X147.541 Y100.995 E-.00948
G1 X147.582 Y100.994 E-.00947
G1 X147.623 Y100.992 E-.00948
G1 X147.664 Y100.991 E-.00947
G1 X147.705 Y100.989 E-.00948
G1 X147.746 Y100.988 E-.00947
G1 X147.787 Y100.986 E-.00948
G1 X147.828 Y100.985 E-.00947
;WIPE_END
G1 E-.33628 F2100
G1 Z.6 F720
G1 X150.698 Y84.697 F10800
G1 Z.2 F720
G1 E.8 F2100
M204 S800
;WIDTH:0.608376
G1 F1200
G1 X150.661 Y84.848 E.00731
M204 S1000
;WIPE_START
G1 F8640
G1 X150.698 Y84.697 E-.0359
;WIPE_END
G1 E-.7641 F2100
G1 Z.6 F720
G1 X156.683 Y82.71 F10800
G1 Z.2 F720
G1 E.8 F2100
M204 S800
;TYPE:Perimeter
;WIDTH:0.431421
G1 F1200
G1 X156.791 Y82.254 E.01514
G1 X156.998 Y82.377 E.00778
;WIDTH:0.431719
G1 X157.241 Y82.396 E.00788
G1 X157.144 Y82.604 E.00742
G1 X157.14 Y82.801 E.00637
G1 X156.742 Y82.722 E.01312
M204 S1000
;WIPE_START
G1 F8640
G1 X156.791 Y82.254 E-.10865
G1 X156.998 Y82.377 E-.0556
G1 X157.241 Y82.396 E-.05628
G1 X157.144 Y82.604 E-.05299
G1 X157.14 Y82.801 E-.0455
G1 X156.742 Y82.722 E-.09369
;WIPE_END
G1 E-.38729 F2100
G1 Z.6 F720
G1 X158.483 Y81.67 F10800
G1 Z.2 F720
G1 E.8 F2100
M204 S800
;WIDTH:0.375586
G1 F1200
G1 X158.576 Y81.275 E.01122
G1 X158.648 Y81.332 E.00254
G1 X158.904 Y81.44 E.00769
;WIDTH:0.374423
G1 X158.871 Y81.572 E.00375
G1 X158.89 Y81.792 E.00609
;WIDTH:0.375586
G1 X158.541 Y81.687 E.01008
M204 S1000
;WIPE_START
G1 F8640
G1 X158.576 Y81.275 E-.09547
G1 X158.648 Y81.332 E-.0212
G1 X158.904 Y81.44 E-.06416
G1 X158.871 Y81.572 E-.03142
G1 X158.89 Y81.792 E-.05099
G1 X158.541 Y81.687 E-.08415
;WIPE_END
G1 E-.45261 F2100
G1 Z.6 F720
G1 X160.729 Y80.376 F10800
G1 Z.2 F720
G1 E.8 F2100
M204 S800
;WIDTH:0.419999
G1 F1200
G1 X160.732 Y79.902 E.01486
G1 X160.8 Y79.643 E.0084
G1 X160.968 Y79.553 E.00598
G1 X162.991 Y79.099 E.06501
G1 X161.8 Y80.454 E.05656
G1 X161.488 Y80.749 E.01346
G1 X161.287 Y80.738 E.00631
G1 X160.78 Y80.406 E.019
M204 S1000
;WIPE_START
G1 F8640
G1 X160.732 Y79.902 E-.1169
G1 X160.8 Y79.643 E-.06183
G1 X160.968 Y79.553 E-.04401
G1 X162.991 Y79.099 E-.47873
