; generated by PrusaSlicer 2.4.1+win64 on 2023-12-22 at 08:47:57 UTC


;
;
; 

; external perimeters extrusion width = 0.60mm
; perimeters extrusion width = 0.50mm
; infill extrusion width = 0.50mm
; solid infill extrusion width = 0.50mm
; top infill extrusion width = 0.45mm
; first layer extrusion width = 0.42mm

M73 P0 R100
M73 Q0 S101
M201 X1000 Y1000 Z200 E5000 ; sets maximum accelerations, mm/sec^2
M203 X200 Y200 Z12 E120 ; sets maximum feedrates, mm / sec
M204 P1250 R1250 T1250 ; sets acceleration (P, T) and retract acceleration (R), mm/sec^2
M205 X8.00 Y8.00 Z0.40 E4.50 ; sets the jerk limits, mm/sec
M205 S0 T0 ; sets the minimum extruding and travel feed rate, mm/sec
M107
;TYPE:Custom
M862.3 P "MK3S" ; printer model check
M862.1 P0.4 ; nozzle diameter check
M115 U3.11.0 ; tell printer latest fw version
G90 ; use absolute coordinates
M83 ; extruder relative mode
M104 S215 ; set extruder temp
M140 S60 ; set bed temp
M190 S60 ; wait for bed temp
M109 S215 ; wait for extruder temp
G28 W ; home all without mesh bed level
G80 ; mesh bed leveling

G1 Z0.2 F720
G1 Y-3 F1000 ; go outside print area
G92 E0
G1 X60 E9 F1000 ; intro line
G1 X100 E12.5 F1000 ; intro line

G92 E0
M221 S95

; Don't change E values below. Excessive value can damage the printer.

M907 E538 ; set extruder motor current
G21 ; set units to millimeters
G90 ; use absolute coordinates
M83 ; use relative distances for extrusion
M900 K0.05 ; Filament gcode LA 1.5
M900 K30 ; Filament gcode LA 1.0
M107
;LAYER_CHANGE
;Z:0.2
;HEIGHT:0.2
;BEFORE_LAYER_CHANGE
G92 E0.0
;0.2


G1 E-.8 F2100
G1 Z.4 F720
;AFTER_LAYER_CHANGE
;0.2
G1 X74.516 Y79.943 F10800
G1 Z.2 F720
G1 E.8 F2100
M204 S800
;TYPE:Skirt/Brim
;WIDTH:0.42
G1 F1200
G1 X75.561 Y79.067 E.04278
G1 X76.501 Y78.873 E.03008
G1 X173.499 Y78.873 E3.0413
G1 X174.806 Y79.265 E.04278
M73 Q0 S100
G1 X175.682 Y80.31 E.04278
G1 X175.876 Y81.25 E.03008
G1 X175.873 Y107.365 E.81882
G1 X174.89 Y126.901 E.61332
G1 X174.614 Y127.994 E.03533
G1 X174.12 Y128.947 E.03364
G1 X173.218 Y129.963 E.04262
G1 X172.302 Y130.578 E.03459
G1 X171.269 Y130.972 E.03467
G1 X170.059 Y131.127 E.03824
G1 X80.001 Y131.127 E2.82371
G1 X78.816 Y130.977 E.03745
G1 X77.514 Y130.442 E.04414
G1 X76.473 Y129.612 E.04175
G1 X75.671 Y128.491 E.04322
G1 X75.357 Y127.736 E.02565
G1 X75.145 Y126.682 E.03372
G1 X74.124 Y107.248 E.61017
G1 X74.124 Y81.25 E.81515
G1 X74.498 Y80 E.0409
M204 S1000
; printing object skadis_allenhexkey.stl id:0 copy 0
;WIPE_START
G1 F8640
G1 X75.561 Y79.067 E-.32671
G1 X76.501 Y78.873 E-.22155
G1 X77.418 Y78.873 E-.21174
;WIPE_END
G1 E-.04 F2100
G1 Z.6 F720
G1 X122.6 Y113.375 F10800
G1 Z.2 F720
G1 E.8 F2100
M204 S800
;TYPE:Perimeter
G1 F1200
G1 X122.859 Y113.199 E.0098
G1 X123.133 Y113.069 E.00953
G1 X123.441 Y112.985 E.01
G1 X123.717 Y112.963 E.00868
G1 X126.283 Y112.963 E.08045
G1 X126.56 Y112.985 E.00872
G1 X126.864 Y113.069 E.00988
G1 X127.14 Y113.198 E.00955
G1 X127.4 Y113.375 E.00986
G1 X127.619 Y113.597 E.00979
G1 X127.802 Y113.853 E.00986
G1 X127.932 Y114.141 E.0099
G1 X128.012 Y114.435 E.00955
G1 X128.038 Y114.714 E.00878
G1 X128.038 Y122.784 E.25304
G1 X128.012 Y123.063 E.00878
G1 X127.932 Y123.357 E.00956
G1 X127.802 Y123.645 E.0099
G1 X127.619 Y123.901 E.00987
G1 X127.4 Y124.123 E.00978
G1 X127.14 Y124.3 E.00986
G1 X126.864 Y124.429 E.00956
G1 X126.56 Y124.513 E.00988
G1 X126.283 Y124.535 E.00872
G1 X123.717 Y124.535 E.08045
G1 X123.441 Y124.513 E.00868
G1 X123.133 Y124.429 E.01
G1 X122.858 Y124.299 E.00954
G1 X122.6 Y124.123 E.0098
G1 X122.379 Y123.898 E.0099
G1 X122.201 Y123.645 E.0097
G1 X122.069 Y123.361 E.00981
G1 X121.988 Y123.063 E.00969
G1 X121.962 Y122.784 E.00878
G1 X121.962 Y114.714 E.25304
G1 X121.988 Y114.435 E.00878
G1 X122.069 Y114.137 E.00969
G1 X122.201 Y113.853 E.00981
G1 X122.379 Y113.6 E.0097
G1 X122.558 Y113.418 E.00802
M204 S1000
G1 X122.631 Y113.897 F10800
M204 S800
;TYPE:External perimeter
G1 F1200
G1 X122.843 Y113.666 E.00984
G1 X123.047 Y113.527 E.00772
G1 X123.264 Y113.424 E.00756
G1 X123.506 Y113.358 E.00785
G1 X123.732 Y113.34 E.00711
G1 X126.268 Y113.34 E.07949
G1 X126.494 Y113.358 E.00713
G1 X126.733 Y113.424 E.00776
G1 X126.953 Y113.527 E.0076
G1 X127.157 Y113.666 E.00775
G1 X127.33 Y113.841 E.00771
G1 X127.474 Y114.042 E.00776
G1 X127.576 Y114.269 E.0078
G1 X127.64 Y114.503 E.00759
G1 X127.661 Y114.731 E.0072
G1 X127.661 Y122.767 E.25195
G1 X127.64 Y122.995 E.0072
G1 X127.576 Y123.229 E.0076
G1 X127.474 Y123.456 E.00779
G1 X127.329 Y123.657 E.00777
G1 X127.157 Y123.832 E.00771
G1 X126.953 Y123.971 E.00775
G1 X126.733 Y124.074 E.0076
G1 X126.494 Y124.14 E.00776
G1 X126.268 Y124.158 E.00713
G1 X123.732 Y124.158 E.07949
G1 X123.506 Y124.14 E.00711
G1 X123.264 Y124.074 E.00785
G1 X123.047 Y123.971 E.00756
G1 X122.843 Y123.832 E.00772
G1 X122.669 Y123.656 E.00777
G1 X122.528 Y123.456 E.00766
G1 X122.425 Y123.231 E.00776
G1 X122.36 Y122.995 E.00766
G1 X122.339 Y122.767 E.0072
G1 X122.339 Y114.731 E.25195
G1 X122.36 Y114.503 E.0072
G1 X122.425 Y114.267 E.00766
G1 X122.528 Y114.042 E.00776
G1 X122.596 Y113.946 E.00369
M204 S1000
G1 X122.514 Y113.606 F10800
;WIPE_START
G1 F8640
G1 X122.843 Y113.666 E-.08622
G1 X123.047 Y113.527 E-.05687
G1 X123.264 Y113.424 E-.05567
G1 X123.506 Y113.358 E-.05784
G1 X123.732 Y113.34 E-.05238
G1 X125.686 Y113.34 E-.45103
;WIPE_END
G1 E-.04 F2100
G1 Z.6 F720
G1 X128.038 Y92.661 F10800
G1 Z.2 F720
G1 E.8 F2100
M204 S800
;TYPE:Perimeter
G1 F1200
G1 X128.038 Y97.184 E.14183
G1 X128.012 Y97.463 E.00877
G1 X127.932 Y97.758 E.00958
G1 X127.802 Y98.045 E.00988
G1 X127.618 Y98.301 E.0099
G1 X127.4 Y98.523 E.00975
G1 X127.14 Y98.7 E.00987
G1 X126.864 Y98.829 E.00955
G1 X126.56 Y98.913 E.00988
G1 X126.282 Y98.935 E.00874
G1 X123.717 Y98.935 E.08042
G1 X123.442 Y98.913 E.00866
G1 X123.133 Y98.829 E.01001
G1 X122.858 Y98.699 E.00954
G1 X122.6 Y98.523 E.0098
G1 X122.379 Y98.298 E.0099
G1 X122.2 Y98.045 E.00971
G1 X122.069 Y97.761 E.00981
G1 X121.988 Y97.463 E.00968
G1 X121.962 Y97.184 E.00879
G1 X121.962 Y92.661 E.14182
G1 X127.978 Y92.661 E.18863
M204 S1000
G1 X127.661 Y93.038 F10800
M204 S800
;TYPE:External perimeter
G1 F1200
G1 X127.661 Y97.167 E.12946
G1 X127.64 Y97.395 E.00719
G1 X127.576 Y97.63 E.00762
G1 X127.474 Y97.856 E.00777
G1 X127.329 Y98.058 E.0078
G1 X127.157 Y98.232 E.00768
G1 X126.952 Y98.371 E.00777
G1 X126.733 Y98.474 E.00759
G1 X126.494 Y98.54 E.00777
G1 X126.267 Y98.558 E.00716
G1 X123.732 Y98.558 E.07946
G1 X123.507 Y98.54 E.0071
G1 X123.264 Y98.474 E.00787
G1 X123.047 Y98.371 E.00756
G1 X122.843 Y98.232 E.00772
G1 X122.669 Y98.056 E.00776
G1 X122.528 Y97.856 E.00767
G1 X122.425 Y97.631 E.00776
G1 X122.36 Y97.396 E.00766
G1 X122.339 Y97.167 E.0072
G1 X122.339 Y93.038 E.12946
G1 X127.601 Y93.038 E.16499
M204 S1000
G1 X128.051 Y92.951 F10800
;WIPE_START
G1 F8640
G1 X127.649 Y96.329 E-.76
;WIPE_END
G1 E-.04 F2100
G1 Z.6 F720
G1 X161.962 Y92.661 F10800
G1 Z.2 F720
G1 E.8 F2100
M204 S800
;TYPE:Perimeter
G1 F1200
G1 X168.036 Y92.661 E.19045
G1 X168.036 Y97.18 E.14169
G1 X168.014 Y97.459 E.00877
G1 X167.932 Y97.757 E.00969
G1 X167.804 Y98.042 E.00979
G1 X167.621 Y98.301 E.00994
G1 X167.399 Y98.523 E.00985
G1 X167.142 Y98.7 E.00978
G1 X166.863 Y98.829 E.00965
G1 X166.563 Y98.913 E.00978
G1 X166.282 Y98.935 E.00884
G1 X163.719 Y98.935 E.08034
G1 X163.442 Y98.913 E.00872
G1 X163.135 Y98.83 E.00996
G1 X162.856 Y98.699 E.00968
G1 X162.601 Y98.523 E.0097
G1 X162.376 Y98.298 E.01
G1 X162.201 Y98.045 E.00963
G1 X162.066 Y97.761 E.00986
G1 X161.987 Y97.459 E.0098
G1 X161.962 Y97.184 E.00864
G1 X161.962 Y92.721 E.13994
M204 S1000
G1 X162.339 Y93.038 F10800
M204 S800
;TYPE:External perimeter
G1 F1200
G1 X167.659 Y93.038 E.1668
G1 X167.659 Y97.165 E.12939
M73 P0 R99
G1 X167.641 Y97.393 E.00719
G1 X167.576 Y97.629 E.00766
G1 X167.475 Y97.854 E.00774
G1 X167.332 Y98.057 E.00779
G1 X167.157 Y98.232 E.00776
G1 X166.955 Y98.371 E.00769
G1 X166.733 Y98.474 E.00767
G1 X166.497 Y98.54 E.00768
G1 X166.267 Y98.558 E.00724
G1 X163.734 Y98.558 E.07939
G1 X163.507 Y98.54 E.00716
G1 X163.266 Y98.474 E.00784
G1 X163.044 Y98.371 E.00766
G1 X162.844 Y98.232 E.00764
G1 X162.667 Y98.055 E.00785
G1 X162.529 Y97.856 E.00761
G1 X162.422 Y97.631 E.0078
G1 X162.36 Y97.393 E.00771
G1 X162.339 Y97.167 E.00712
G1 X162.339 Y93.098 E.12758
M204 S1000
G1 X162.338 Y92.638 F10800
;WIPE_START
G1 F8640
G1 X165.63 Y93.061 E-.76
;WIPE_END
G1 E-.04 F2100
G1 Z.6 F720
G1 X163.408 Y112.994 F10800
G1 Z.2 F720
G1 E.8 F2100
M204 S800
;TYPE:Perimeter
G1 F1200
G1 X163.719 Y112.963 E.00982
G1 X166.283 Y112.963 E.08037
G1 X166.563 Y112.985 E.00882
G1 X166.863 Y113.069 E.00977
G1 X167.143 Y113.198 E.00965
G1 X167.399 Y113.375 E.00977
G1 X167.621 Y113.597 E.00987
G1 X167.804 Y113.856 E.00993
G1 X167.932 Y114.141 E.00979
G1 X168.014 Y114.439 E.0097
G1 X168.036 Y114.718 E.00878
G1 X168.036 Y122.78 E.25275
G1 X168.014 Y123.059 E.00878
G1 X167.932 Y123.357 E.0097
G1 X167.804 Y123.642 E.00978
G1 X167.621 Y123.901 E.00993
G1 X167.399 Y124.123 E.00987
G1 X167.143 Y124.3 E.00977
G1 X166.863 Y124.429 E.00966
G1 X166.563 Y124.513 E.00977
G1 X166.283 Y124.535 E.00882
G1 X163.719 Y124.535 E.08037
G1 X163.441 Y124.513 E.00874
G1 X163.135 Y124.43 E.00995
G1 X162.856 Y124.299 E.00967
G1 X162.601 Y124.123 E.00971
G1 X162.376 Y123.898 E.00999
G1 X162.201 Y123.645 E.00964
G1 X162.066 Y123.361 E.00986
G1 X161.987 Y123.059 E.0098
G1 X161.962 Y122.784 E.00864
G1 X161.962 Y114.714 E.25304
G1 X161.987 Y114.439 E.00864
G1 X162.066 Y114.137 E.0098
G1 X162.201 Y113.853 E.00986
G1 X162.376 Y113.6 E.00964
G1 X162.601 Y113.375 E.00999
G1 X162.856 Y113.199 E.00971
G1 X163.135 Y113.068 E.00967
G1 X163.35 Y113.01 E.00697
M204 S1000
G1 X163.506 Y113.358 F10800
M204 S800
;TYPE:External perimeter
G1 F1200
G1 X163.735 Y113.34 E.00718
G1 X166.267 Y113.34 E.07942
G1 X166.497 Y113.358 E.00721
G1 X166.733 Y113.424 E.00768
G1 X166.955 Y113.527 E.00768
G1 X167.157 Y113.666 E.00768
G1 X167.332 Y113.841 E.00777
G1 X167.475 Y114.044 E.00778
G1 X167.576 Y114.269 E.00773
G1 X167.641 Y114.505 E.00767
G1 X167.659 Y114.734 E.00719
G1 X167.659 Y122.764 E.2518
G1 X167.641 Y122.993 E.0072
G1 X167.576 Y123.229 E.00767
G1 X167.475 Y123.454 E.00773
G1 X167.332 Y123.657 E.00778
G1 X167.157 Y123.832 E.00777
G1 X166.955 Y123.971 E.00768
G1 X166.733 Y124.074 E.00768
G1 X166.497 Y124.14 E.00768
G1 X166.267 Y124.158 E.00721
G1 X163.735 Y124.158 E.07942
G1 X163.506 Y124.14 E.00718
G1 X163.265 Y124.074 E.00783
G1 X163.044 Y123.971 E.00766
G1 X162.843 Y123.832 E.00765
G1 X162.667 Y123.656 E.00784
G1 X162.529 Y123.456 E.00761
G1 X162.422 Y123.231 E.0078
G1 X162.36 Y122.993 E.00771
G1 X162.339 Y122.767 E.00713
G1 X162.339 Y114.731 E.25195
G1 X162.36 Y114.505 E.00713
G1 X162.422 Y114.267 E.00771
G1 X162.529 Y114.042 E.0078
G1 X162.667 Y113.842 E.00761
G1 X162.843 Y113.666 E.00784
G1 X163.044 Y113.527 E.00765
G1 X163.265 Y113.424 E.00766
G1 X163.448 Y113.374 E.00595
M204 S1000
G1 X163.586 Y113.144 F10800
;WIPE_START
G1 F8640
G1 X163.735 Y113.34 E-.06652
G1 X166.267 Y113.34 E-.58486
G1 X166.497 Y113.358 E-.05313
G1 X166.728 Y113.423 E-.05549
;WIPE_END
G1 E-.04 F2100
G1 Z.6 F720
G1 X87.943 Y114.171 F10800
G1 Z.2 F720
G1 E.8 F2100
M204 S800
;TYPE:Perimeter
G1 F1200
G1 X88.013 Y114.439 E.00869
G1 X88.038 Y114.714 E.00864
G1 X88.038 Y122.784 E.25304
G1 X88.013 Y123.059 E.00864
G1 X87.934 Y123.361 E.0098
G1 X87.797 Y123.648 E.00998
G1 X87.621 Y123.898 E.00957
G1 X87.4 Y124.123 E.0099
G1 X87.141 Y124.299 E.0098
G1 X86.867 Y124.429 E.00953
G1 X86.559 Y124.513 E.01
G1 X86.283 Y124.535 E.00868
G1 X83.717 Y124.535 E.08045
G1 X83.44 Y124.513 E.00872
G1 X83.136 Y124.429 E.00988
G1 X82.86 Y124.3 E.00956
G1 X82.6 Y124.123 E.00986
G1 X82.381 Y123.901 E.00979
G1 X82.198 Y123.645 E.00986
G1 X82.068 Y123.357 E.0099
G1 X81.988 Y123.063 E.00955
G1 X81.962 Y122.784 E.00878
G1 X81.962 Y114.714 E.25304
G1 X81.988 Y114.435 E.00878
G1 X82.068 Y114.141 E.00956
G1 X82.198 Y113.853 E.0099
G1 X82.381 Y113.597 E.00987
G1 X82.6 Y113.375 E.00979
G1 X82.86 Y113.198 E.00986
G1 X83.136 Y113.069 E.00955
G1 X83.44 Y112.985 E.00988
G1 X83.717 Y112.963 E.00872
G1 X86.283 Y112.963 E.08045
G1 X86.559 Y112.985 E.00868
G1 X86.867 Y113.069 E.01
G1 X87.142 Y113.199 E.00954
G1 X87.4 Y113.375 E.0098
G1 X87.621 Y113.6 E.0099
G1 X87.797 Y113.85 E.00957
G1 X87.923 Y114.115 E.0092
M204 S1000
G1 X87.578 Y114.267 F10800
M204 S800
;TYPE:External perimeter
G1 F1200
G1 X87.64 Y114.505 E.00771
G1 X87.661 Y114.731 E.00713
G1 X87.661 Y122.767 E.25195
G1 X87.64 Y122.993 E.00713
G1 X87.578 Y123.231 E.00771
G1 X87.47 Y123.457 E.00786
G1 X87.331 Y123.656 E.0076
G1 X87.157 Y123.832 E.00777
G1 X86.953 Y123.971 E.00772
G1 X86.736 Y124.074 E.00756
G1 X86.494 Y124.14 E.00785
G1 X86.268 Y124.158 E.00711
G1 X83.732 Y124.158 E.07949
G1 X83.506 Y124.14 E.00713
G1 X83.267 Y124.074 E.00776
G1 X83.047 Y123.971 E.0076
G1 X82.843 Y123.832 E.00775
G1 X82.67 Y123.657 E.00771
G1 X82.526 Y123.456 E.00776
G1 X82.424 Y123.229 E.0078
G1 X82.36 Y122.995 E.00759
G1 X82.339 Y122.767 E.0072
G1 X82.339 Y114.731 E.25195
G1 X82.36 Y114.502 E.0072
G1 X82.424 Y114.269 E.0076
G1 X82.526 Y114.042 E.00779
G1 X82.671 Y113.841 E.00777
G1 X82.843 Y113.666 E.00771
G1 X83.047 Y113.527 E.00775
G1 X83.267 Y113.424 E.0076
G1 X83.506 Y113.358 E.00776
G1 X83.732 Y113.34 E.00713
G1 X86.268 Y113.34 E.07949
G1 X86.494 Y113.358 E.00711
G1 X86.736 Y113.424 E.00785
G1 X86.953 Y113.527 E.00756
G1 X87.157 Y113.666 E.00772
G1 X87.331 Y113.842 E.00777
G1 X87.47 Y114.041 E.0076
G1 X87.552 Y114.213 E.00598
M204 S1000
G1 X87.82 Y114.31 F10800
;WIPE_START
G1 F8640
G1 X87.64 Y114.505 E-.07045
G1 X87.661 Y114.731 E-.05249
G1 X87.661 Y117.49 E-.63705
;WIPE_END
G1 E-.04 F2100
G1 Z.6 F720
G1 X88.038 Y92.661 F10800
G1 Z.2 F720
G1 E.8 F2100
M204 S800
;TYPE:Perimeter
G1 F1200
G1 X88.038 Y97.184 E.14183
G1 X88.013 Y97.458 E.00862
G1 X87.934 Y97.761 E.00982
G1 X87.797 Y98.049 E.00999
G1 X87.621 Y98.298 E.00956
G1 X87.4 Y98.523 E.00989
G1 X87.141 Y98.699 E.00981
G1 X86.867 Y98.829 E.00953
G1 X86.559 Y98.913 E.01001
G1 X86.282 Y98.935 E.0087
G1 X83.717 Y98.935 E.08042
G1 X83.44 Y98.913 E.0087
G1 X83.136 Y98.829 E.0099
G1 X82.86 Y98.7 E.00955
G1 X82.6 Y98.523 E.00986
G1 X82.381 Y98.301 E.00978
G1 X82.197 Y98.045 E.00989
G1 X82.068 Y97.757 E.00988
G1 X81.988 Y97.463 E.00956
G1 X81.962 Y97.184 E.00879
G1 X81.962 Y92.661 E.14182
G1 X87.978 Y92.661 E.18863
M204 S1000
G1 X87.661 Y93.038 F10800
M204 S800
;TYPE:External perimeter
G1 F1200
G1 X87.661 Y97.167 E.12946
G1 X87.64 Y97.393 E.00711
G1 X87.578 Y97.631 E.00773
G1 X87.47 Y97.858 E.00787
G1 X87.331 Y98.056 E.00759
G1 X87.157 Y98.232 E.00776
G1 X86.953 Y98.371 E.00773
G1 X86.736 Y98.474 E.00756
G1 X86.494 Y98.54 E.00786
G1 X86.267 Y98.558 E.00714
G1 X83.732 Y98.558 E.07946
G1 X83.506 Y98.54 E.00712
G1 X83.267 Y98.474 E.00778
G1 X83.047 Y98.371 E.00759
G1 X82.843 Y98.232 E.00776
G1 X82.671 Y98.057 E.00771
G1 X82.526 Y97.855 E.00778
G1 X82.424 Y97.629 E.00778
G1 X82.36 Y97.396 E.00759
G1 X82.339 Y97.167 E.0072
G1 X82.339 Y93.038 E.12946
G1 X87.601 Y93.038 E.16499
M204 S1000
G1 X88.051 Y92.951 F10800
;WIPE_START
G1 F8640
G1 X87.649 Y96.329 E-.76
;WIPE_END
G1 E-.04 F2100
G1 Z.6 F720
G1 X158.288 Y110.461 F10800
G1 Z.2 F720
G1 E.8 F2100
M204 S800
;TYPE:Perimeter
G1 F1200
G1 X131.714 Y110.461 E.83321
G1 X131.714 Y126.225 E.49426
G1 X131.7 Y126.438 E.00671
G1 X131.616 Y126.816 E.01215
G1 X131.544 Y126.989 E.00588
G1 X131.339 Y127.316 E.01208
G1 X131.067 Y127.588 E.01208
G1 X130.74 Y127.793 E.01208
G1 X130.567 Y127.865 E.00588
G1 X130.189 Y127.949 E.01214
G1 X129.974 Y127.963 E.00677
G1 X120.026 Y127.963 E.31189
G1 X119.811 Y127.949 E.00676
G1 X119.434 Y127.865 E.01213
G1 X119.089 Y127.699 E.012
G1 X118.789 Y127.459 E.01205
G1 X118.552 Y127.161 E.01194
G1 X118.385 Y126.814 E.01207
G1 X118.331 Y126.629 E.00603
G1 X118.288 Y126.23 E.01259
G1 X118.288 Y110.461 E.49443
G1 X91.712 Y110.461 E.83328
G1 X91.712 Y126.23 E.49443
G1 X91.701 Y126.441 E.00662
G1 X91.615 Y126.816 E.01208
G1 X91.543 Y126.992 E.00594
G1 X91.338 Y127.317 E.01207
G1 X91.067 Y127.588 E.01201
G1 X90.743 Y127.792 E.01201
G1 X90.383 Y127.917 E.01194
G1 X89.974 Y127.963 E.0129
