; generated by PrusaSlicer 2.6.0+win64 on 2023-12-06 at 08:58:39 UTC


;
;
; 

; external perimeters extrusion width = 0.60mm
; perimeters extrusion width = 0.50mm
; infill extrusion width = 0.50mm
; solid infill extrusion width = 0.50mm
; top infill extrusion width = 0.45mm
; first layer extrusion width = 0.42mm

M73 P0 R28
M73 Q0 S28
M201 X1000 Y1000 Z200 E5000 ; sets maximum accelerations, mm/sec^2
M203 X200 Y200 Z12 E120 ; sets maximum feedrates, mm / sec
M204 S1250 T1250 ; sets acceleration (S) and retract acceleration (R), mm/sec^2
M205 X8.00 Y8.00 Z0.40 E4.50 ; sets the jerk limits, mm/sec
M205 S0 T0 ; sets the minimum extruding and travel feed rate, mm/sec
;TYPE:Custom
M862.3 P "MK3S" ; printer model check
M862.1 P0.4 ; nozzle diameter check
M115 U3.12.2 ; tell printer latest fw version
G90 ; use absolute coordinates
M83 ; extruder relative mode
M104 S215 ; set extruder temp
M140 S60 ; set bed temp
M190 S60 ; wait for bed temp
M109 S215 ; wait for extruder temp
G28 W ; home all without mesh bed level
G80 ; mesh bed leveling

G1 Z0.2 F720
G1 Y-3 F1000 ; go outside print area
G92 E0
G1 X60 E9 F1000 ; intro line
G1 X100 E12.5 F1000 ; intro line

G92 E0
M221 S95

; Don't change E values below. Excessive value can damage the printer.

M907 E538 ; set extruder motor current
G21 ; set units to millimeters
G90 ; use absolute coordinates
M83 ; use relative distances for extrusion
M900 K0.05 ; Filament gcode LA 1.5
M900 K30 ; Filament gcode LA 1.0
M107
;LAYER_CHANGE
;Z:0.2
;HEIGHT:0.2
;BEFORE_LAYER_CHANGE
G92 E0.0
;0.2


G1 E-.8 F2100
G1 Z.4 F720
;AFTER_LAYER_CHANGE
;0.2
G1 X83.183 Y68.967 F10800
G1 Z.2 F720
G1 E.8 F2100
M204 S800
;TYPE:Skirt/Brim
;WIDTH:0.42
G1 F1200
G1 X85 Y68.123 E.06282
G1 X165 Y68.123 E2.50834
G1 X166.307 Y68.515 E.04278
G1 X167.183 Y69.56 E.04275
G1 X167.126 Y71.563 E.06283
G1 X157.126 Y91.563 E.7011
G1 X147.104 Y110.607 E.67475
G1 X126.978 Y140.819 E1.13822
G1 X125.927 Y141.689 E.04278
G1 X124.571 Y141.838 E.04277
G1 X123.022 Y140.819 E.05813
G1 X102.896 Y110.607 E1.13822
G1 X92.874 Y91.563 E.67475
M73 P1 R28
M73 Q1 S28
G1 X82.874 Y71.563 E.7011
G1 X82.64 Y70.219 E.04277
G1 X83.159 Y69.022 E.04091
M204 S1000
; printing object Wheinachtsbaum4Led.stl id:0 copy 0
;WIPE_START
G1 F8640
G1 X85 Y68.123 E-.47307
G1 X86.416 Y68.123 E-.32693
;WIPE_END
G1 Z.6 F720
G1 X112.174 Y91.024 F10800
G1 Z.2 F720
G1 E.8 F2100
M204 S800
;TYPE:Perimeter
;WIDTH:0.419999
G1 F1200
G1 X112.251 Y90.9 E.00458
G1 X112.404 Y90.351 E.01787
G1 X112.346 Y90.102 E.00802
G1 X112.177 Y89.899 E.00828
G1 X87.857 Y71.66 E.95315
G1 X87.267 Y71.262 E.02231
G1 X87.977 Y71.286 E.02227
G1 X161.025 Y71.287 E2.29036
G1 X162.733 Y71.262 E.05356
M73 P1 R27
G1 X162.153 Y71.653 E.02193
G1 X138.484 Y89.403 E.92762
G1 X137.705 Y90.019 E.03114
M73 Q1 S27
G1 X137.602 Y90.271 E.00854
G1 X137.626 Y90.53 E.00816
G1 X137.819 Y91.041 E.01713
G1 X138.029 Y91.226 E.00877
G1 X138.286 Y91.287 E.00828
G1 X152.04 Y91.283 E.43125
G1 X152.62 Y91.28 E.01819
G1 X153.243 Y91.22 E.01962
G1 X153.113 Y91.319 E.00512
G1 X152.333 Y92.055 E.03363
G1 X135.336 Y109.051 E.75365
G1 X135.188 Y109.317 E.00954
G1 X135.198 Y109.614 E.00932
G1 X135.422 Y110.089 E.01647
G1 X135.622 Y110.238 E.00782
G1 X135.852 Y110.287 E.00737
G1 X143.529 Y110.287 E.24071
G1 X125 Y138.081 E1.04736
G1 X106.471 Y110.287 E1.04736
G1 X114.243 Y110.279 E.24369
G1 X114.457 Y110.195 E.00721
G1 X114.622 Y110.03 E.00732
G1 X114.822 Y109.523 E.01709
G1 X114.786 Y109.238 E.00901
G1 X114.661 Y109.048 E.00713
G1 X97.667 Y92.055 E.75352
G1 X96.779 Y91.237 E.03786
M73 P2 R27
M73 Q2 S27
G1 X97.434 Y91.283 E.02059
G1 X111.714 Y91.287 E.44774
G1 X111.887 Y91.26 E.00549
G1 X112.109 Y91.127 E.00811
G1 X112.142 Y91.075 E.00193
M204 S1000
G1 X111.875 Y90.821 F10800
M204 S800
;TYPE:External perimeter
G1 F1200
G1 X112.024 Y90.321 E.01636
G1 X111.951 Y90.201 E.0044
G1 X87.631 Y71.961 E.95317
G1 X86.787 Y71.394 E.03188
G1 X86.323 Y71.171 E.01614
G1 X85.653 Y70.718 E.02536
G1 X86.464 Y70.758 E.02546
G1 X86.968 Y70.858 E.01611
G1 X87.467 Y70.901 E.0157
G1 X87.978 Y70.909 E.01602
G1 X161.025 Y70.91 E2.29033
G1 X162.533 Y70.901 E.04728
G1 X163.032 Y70.858 E.0157
G1 X163.536 Y70.758 E.01611
G1 X164.347 Y70.718 E.02546
G1 X163.694 Y71.161 E.02474
G1 X163.233 Y71.382 E.01603
G1 X162.379 Y71.954 E.03223
G1 X138.042 Y90.206 E.95382
G1 X137.974 Y90.355 E.00514
G1 X138.14 Y90.842 E.01613
G1 X138.285 Y90.91 E.00502
G1 X152.584 Y90.905 E.44833
G1 X153.546 Y90.812 E.0303
G1 X154.01 Y90.718 E.01484
G1 X154.488 Y90.712 E.01499
G1 X154.163 Y91.04 E.01448
G1 X153.743 Y91.313 E.01571
G1 X153.342 Y91.619 E.01582
G1 X152.599 Y92.321 E.03205
G1 X135.605 Y109.315 E.75354
G1 X135.551 Y109.463 E.00494
G1 X135.709 Y109.844 E.01293
G1 X135.852 Y109.91 E.00494
G1 X144.234 Y109.91 E.26281
G1 X125 Y138.761 E1.0872
G1 X105.766 Y109.91 E1.0872
G1 X114.148 Y109.91 E.26281
G1 X114.29 Y109.845 E.0049
G1 X114.45 Y109.444 E.01354
G1 X114.395 Y109.315 E.0044
G1 X97.401 Y92.321 E.75354
G1 X96.606 Y91.579 E.0341
G1 X95.853 Y91.05 E.02885
M73 Q3 S27
G1 X95.512 Y90.712 E.01505
G1 X95.984 Y90.715 E.0148
G1 X96.934 Y90.88 E.03023
M73 P3 R27
G1 X97.434 Y90.905 E.0157
G1 X111.715 Y90.91 E.44777
G1 X111.754 Y90.906 E.00123
G1 X111.826 Y90.855 E.00277
M204 S1000
G1 X112.275 Y90.83 F10800
;WIPE_START
G1 F8640
G1 X112.024 Y90.321 E-.13151
G1 X111.951 Y90.201 E-.03243
G1 X109.747 Y88.548 E-.63606
;WIPE_END
G1 Z.6 F720
G1 X127.974 Y77.104 F10800
G1 Z.2 F720
G1 E.8 F2100
M204 S800
;TYPE:Perimeter
G1 F1200
G1 X127.847 Y78.062 E.0303
G1 X127.39 Y79.019 E.03325
G1 X126.662 Y79.786 E.03316
G1 X125.73 Y80.292 E.03325
G1 X124.688 Y80.485 E.03323
G1 X123.638 Y80.347 E.03321
G1 X122.681 Y79.89 E.03325
G1 X121.914 Y79.162 E.03316
G1 X121.387 Y78.183 E.03486
G1 X121.214 Y77.189 E.03163
G1 X121.353 Y76.138 E.03324
G1 X121.81 Y75.181 E.03325
G1 X122.538 Y74.414 E.03316
G1 X123.47 Y73.908 E.03325
G1 X124.511 Y73.714 E.0332
G1 X125.562 Y73.853 E.03324
G1 X126.519 Y74.31 E.03325
G1 X127.286 Y75.038 E.03316
G1 X127.792 Y75.97 E.03325
G1 X127.981 Y77.044 E.03419
M204 S1000
G1 X127.609 Y77.047 F10800
M204 S800
;TYPE:External perimeter
G1 F1200
G1 X127.474 Y78.003 E.03027
G1 X127.054 Y78.847 E.02956
G1 X126.395 Y79.52 E.02953
G1 X125.559 Y79.956 E.02956
G1 X124.629 Y80.112 E.02957
G1 X123.697 Y79.974 E.02954
G1 X122.853 Y79.554 E.02956
G1 X122.18 Y78.895 E.02953
G1 X121.737 Y78.043 E.03011
G1 X121.587 Y77.13 E.02901
G1 X121.726 Y76.197 E.02958
G1 X122.146 Y75.353 E.02956
G1 X122.805 Y74.68 E.02953
G1 X123.641 Y74.244 E.02956
G1 X124.57 Y74.087 E.02954
G1 X125.503 Y74.226 E.02958
G1 X126.347 Y74.646 E.02956
G1 X127.02 Y75.305 E.02953
G1 X127.456 Y76.141 E.02956
G1 X127.599 Y76.987 E.0269
M204 S1000
G1 X127.959 Y77.241 F10800
;WIPE_START
G1 F8640
G1 X127.474 Y78.003 E-.23637
G1 X127.054 Y78.847 E-.21768
G1 X126.395 Y79.52 E-.21749
G1 X125.902 Y79.777 E-.12846
;WIPE_END
G1 Z.6 F720
G1 X127.618 Y94.818 F10800
G1 Z.2 F720
G1 E.8 F2100
M204 S800
;TYPE:Perimeter
G1 F1200
G1 X127.519 Y94.89 E.00384
G1 X126.73 Y95.292 E.02776
G1 X125.694 Y95.484 E.03304
G1 X125.506 Y95.484 E.00589
G1 X124.638 Y95.347 E.02755
G1 X123.681 Y94.89 E.03325
G1 X122.914 Y94.162 E.03316
G1 X122.408 Y93.23 E.03325
G1 X122.214 Y92.189 E.0332
G1 X122.353 Y91.138 E.03324
G1 X122.81 Y90.181 E.03325
G1 X123.538 Y89.414 E.03316
G1 X124.47 Y88.908 E.03325
G1 X125.18 Y88.767 E.0227
G1 X125.689 Y88.714 E.01605
G1 X126.562 Y88.853 E.02772
G1 X127.519 Y89.31 E.03325
G1 X128.286 Y90.038 E.03316
G1 X128.792 Y90.97 E.03325
G1 X128.955 Y91.817 E.02704
G1 X128.986 Y92.189 E.0117
G1 X128.847 Y93.062 E.02772
G1 X128.39 Y94.019 E.03325
G1 X127.666 Y94.782 E.03298
M204 S1000
G1 X127.412 Y94.503 F10800
M204 S800
;TYPE:External perimeter
G1 F1200
G1 X127.347 Y94.554 E.00259
G1 X126.559 Y94.956 E.02774
G1 X125.635 Y95.112 E.02938
G1 X124.697 Y94.974 E.02973
G1 X123.853 Y94.554 E.02956
G1 X123.18 Y93.895 E.02953
G1 X122.744 Y93.059 E.02956
G1 X122.587 Y92.13 E.02954
G1 X122.726 Y91.197 E.02958
G1 X123.146 Y90.353 E.02956
G1 X123.805 Y89.68 E.02953
G1 X124.641 Y89.244 E.02956
G1 X125.63 Y89.087 E.0314
G1 X126.503 Y89.226 E.02772
G1 X127.347 Y89.646 E.02956
G1 X128.02 Y90.305 E.02953
G1 X128.456 Y91.141 E.02956
G1 X128.613 Y92.13 E.0314
G1 X128.474 Y93.003 E.02772
G1 X128.054 Y93.847 E.02956
G1 X127.454 Y94.46 E.02689
M204 S1000
G1 X127.432 Y94.583 F10800
;WIPE_START
G1 F8640
G1 X127.347 Y94.554 E-.03289
G1 X126.559 Y94.956 E-.20426
G1 X125.635 Y95.112 E-.21637
G1 X124.697 Y94.974 E-.21892
G1 X124.202 Y94.728 E-.12756
;WIPE_END
G1 Z.6 F720
G1 X128.326 Y109.086 F10800
G1 Z.2 F720
G1 E.8 F2100
M204 S800
;TYPE:Perimeter
G1 F1200
G1 X127.662 Y109.786 E.03025
G1 X126.73 Y110.292 E.03325
G1 X125.688 Y110.485 E.03323
G1 X124.584 Y110.335 E.03493
G1 X123.681 Y109.89 E.03156
G1 X122.914 Y109.162 E.03316
G1 X122.408 Y108.23 E.03325
G1 X122.214 Y107.189 E.0332
G1 X122.284 Y106.575 E.01938
G1 X122.375 Y106.048 E.01677
G1 X122.81 Y105.181 E.03041
G1 X123.538 Y104.414 E.03316
G1 X124.47 Y103.908 E.03325
G1 X125.511 Y103.714 E.0332
G1 X126.556 Y103.852 E.03305
G1 X126.73 Y103.908 E.00573
G1 X127.519 Y104.31 E.02776
G1 X128.286 Y105.038 E.03316
G1 X128.792 Y105.97 E.03325
G1 X128.982 Y106.985 E.03238
G1 X128.986 Y107.189 E.0064
G1 X128.847 Y108.062 E.02772
G1 X128.368 Y109.043 E.03423
M204 S1000
G1 X128.065 Y108.826 F10800
M204 S800
;TYPE:External perimeter
G1 F1200
G1 X127.395 Y109.52 E.03025
G1 X126.559 Y109.956 E.02956
G1 X125.629 Y110.112 E.02957
G1 X124.697 Y109.975 E.02954
G1 X123.853 Y109.554 E.02957
G1 X123.18 Y108.895 E.02953
G1 X122.744 Y108.059 E.02956
G1 X122.587 Y107.13 E.02954
G1 X122.744 Y106.141 E.0314
G1 X123.146 Y105.353 E.02774
G1 X123.805 Y104.68 E.02953
G1 X124.641 Y104.244 E.02956
G1 X125.57 Y104.087 E.02954
G1 X126.497 Y104.225 E.02939
G1 X127.347 Y104.646 E.02974
G1 X128.02 Y105.305 E.02953
G1 X128.456 Y106.141 E.02956
G1 X128.609 Y107.045 E.02875
G1 X128.474 Y108.003 E.03033
G1 X128.092 Y108.772 E.02692
M204 S1000
G1 X128.234 Y109.188 F10800
;WIPE_START
G1 F8640
G1 X127.395 Y109.52 E-.23608
G1 X126.559 Y109.956 E-.21771
G1 X125.629 Y110.112 E-.21774
G1 X125.079 Y110.031 E-.12847
;WIPE_END
G1 Z.6 F720
G1 X124.426 Y121.788 F10800
G1 Z.2 F720
G1 E.8 F2100
M204 S800
;TYPE:Perimeter
G1 F1200
G1 X125.362 Y121.615 E.02984
G1 X126.396 Y121.75 E.0327
G1 X127.339 Y122.2 E.03276
G1 X128.096 Y122.918 E.03271
G1 X128.595 Y123.834 E.03271
G1 X128.786 Y124.861 E.03275
G1 X128.65 Y125.897 E.03276
G1 X128.2 Y126.839 E.03273
G1 X127.482 Y127.596 E.03271
G1 X126.565 Y128.095 E.03273
G1 X125.538 Y128.285 E.03275
G1 X124.504 Y128.15 E.0327
G1 X123.561 Y127.7 E.03276
G1 X122.804 Y126.982 E.03271
G1 X122.305 Y126.066 E.03271
G1 X122.114 Y125.039 E.03275
G1 X122.25 Y124.003 E.03276
G1 X122.305 Y123.834 E.00557
G1 X122.7 Y123.061 E.02722
G1 X123.418 Y122.304 E.03271
G1 X124.367 Y121.799 E.03371
M204 S1000
G1 X124.483 Y122.153 F10800
M204 S800
;TYPE:External perimeter
G1 F1200
G1 X125.421 Y121.988 E.02986
G1 X126.338 Y122.122 E.02906
G1 X127.168 Y122.536 E.02908
G1 X127.83 Y123.185 E.02907
G1 X128.259 Y124.006 E.02904
G1 X128.413 Y124.92 E.02906
G1 X128.277 Y125.838 E.0291
G1 X127.864 Y126.668 E.02907
G1 X127.215 Y127.33 E.02907
G1 X126.394 Y127.759 E.02904
G1 X125.479 Y127.912 E.02909
G1 X124.562 Y127.778 E.02906
G1 X123.732 Y127.364 E.02908
G1 X123.07 Y126.715 E.02907
G1 X122.641 Y125.894 E.02904
G1 X122.487 Y124.98 E.02906
G1 X122.641 Y124.006 E.03092
G1 X123.036 Y123.232 E.02725
G1 X123.685 Y122.57 E.02907
G1 X124.43 Y122.181 E.02635
M204 S1000
G1 X124.56 Y121.76 F10800
;WIPE_START
G1 F8640
G1 X125.421 Y121.988 E-.23312
G1 X126.338 Y122.122 E-.21399
G1 X127.168 Y122.536 E-.21417
G1 X127.597 Y122.957 E-.13872
;WIPE_END
G1 Z.6 F720
G1 X161.07 Y71.451 F10800
G1 Z.2 F720
G1 E.8 F2100
M204 S800
;TYPE:Solid infill
;WIDTH:0.421134
G1 F1200
G1 X161.408 Y71.788 E.01501
G1 X161.102 Y72.018 E.01204
G1 X160.705 Y71.62 E.01768
G1 X160.17 Y71.621 E.01683
G1 X160.796 Y72.247 E.02784
G1 X160.491 Y72.476 E.01199
G1 X159.635 Y71.621 E.03805
G1 X159.101 Y71.621 E.01679
G1 X160.185 Y72.705 E.04821
G1 X159.879 Y72.934 E.01202
G1 X158.566 Y71.621 E.0584
G1 X158.031 Y71.621 E.01683
G1 X159.574 Y73.164 E.06863
G1 X159.268 Y73.393 E.01202
G1 X157.496 Y71.621 E.07881
G1 X156.961 Y71.621 E.01683
G1 X158.962 Y73.622 E.08899
G1 X158.657 Y73.851 E.01199
G1 X156.427 Y71.621 E.09918
G1 X155.892 Y71.621 E.01683
G1 X158.351 Y74.08 E.10936
G1 X158.045 Y74.31 E.01204
G1 X155.357 Y71.621 E.11957
G1 X154.822 Y71.621 E.01683
G1 X157.74 Y74.539 E.12978
G1 X157.434 Y74.768 E.01202
G1 X154.287 Y71.621 E.13996
G1 X153.752 Y71.621 E.01683
G1 X157.128 Y74.997 E.15015
G1 X156.823 Y75.227 E.01201
G1 X153.218 Y71.621 E.16035
G1 X152.683 Y71.621 E.01683
G1 X156.517 Y75.456 E.17054
G1 X156.212 Y75.685 E.01199
G1 X152.148 Y71.622 E.18072
G1 X151.613 Y71.622 E.01683
G1 X155.906 Y75.914 E.19091
G1 X155.6 Y76.143 E.01202
G1 X151.078 Y71.622 E.20109
G1 X150.544 Y71.622 E.01679
G1 X155.295 Y76.373 E.2113
G1 X154.989 Y76.602 E.01202
G1 X150.009 Y71.622 E.22149
G1 X149.474 Y71.622 E.01683
M73 Q4 S27
G1 X154.683 Y76.831 E.23167
G1 X154.378 Y77.06 E.01199
M73 P4 R27
G1 X148.939 Y71.622 E.24188
G1 X148.404 Y71.622 E.01683
G1 X154.072 Y77.29 E.25208
G1 X153.766 Y77.519 E.01202
G1 X147.87 Y71.622 E.26225
G1 X147.335 Y71.622 E.01683
G1 X153.461 Y77.748 E.27245
G1 X153.155 Y77.977 E.01202
G1 X146.8 Y71.622 E.28264
G1 X146.265 Y71.622 E.01683
G1 X152.849 Y78.206 E.29282
G1 X152.544 Y78.436 E.01201
G1 X145.73 Y71.622 E.30305
G1 X145.196 Y71.622 E.01679
G1 X152.238 Y78.665 E.31322
G1 X151.932 Y78.894 E.01202
G1 X144.661 Y71.622 E.3234
G1 X144.126 Y71.623 E.01683
G1 X151.627 Y79.123 E.33359
G1 X151.321 Y79.352 E.01202
G1 X143.591 Y71.623 E.34377
G1 X143.056 Y71.623 E.01683
G1 X151.015 Y79.582 E.35398
G1 X150.71 Y79.811 E.01199
G1 X142.522 Y71.623 E.36416
G1 X141.987 Y71.623 E.01683
G1 X150.404 Y80.04 E.37435
G1 X150.098 Y80.269 E.01202
G1 X141.452 Y71.623 E.38453
G1 X140.917 Y71.623 E.01683
G1 X149.793 Y80.499 E.39476
G1 X149.487 Y80.728 E.01202
G1 X140.382 Y71.623 E.40495
G1 X139.847 Y71.623 E.01683
G1 X149.181 Y80.957 E.41513
G1 X148.876 Y81.186 E.01199
G1 X139.313 Y71.623 E.42532
G1 X138.778 Y71.623 E.01683
G1 X148.57 Y81.415 E.4355
G1 X148.264 Y81.645 E.01204
G1 X138.243 Y71.623 E.44571
G1 X137.708 Y71.623 E.01683
G1 X147.959 Y81.874 E.45591
G1 X147.653 Y82.103 E.01202
G1 X137.173 Y71.623 E.4661
G1 X136.639 Y71.623 E.01679
G1 X147.347 Y82.332 E.47626
G1 X147.042 Y82.561 E.01199
M73 P4 R26
G1 X136.104 Y71.624 E.48645
G1 X135.569 Y71.624 E.01683
G1 X146.736 Y82.791 E.49665
G1 X146.43 Y83.02 E.01202
G1 X135.034 Y71.624 E.50684
G1 X134.499 Y71.624 E.01683
M73 P5 R26
M73 Q5 S27
G1 X146.125 Y83.249 E.51704
G1 X145.819 Y83.478 E.01202
M73 Q5 S26
G1 X133.965 Y71.624 E.52721
G1 X133.43 Y71.624 E.01683
G1 X145.513 Y83.708 E.53741
G1 X145.208 Y83.937 E.01199
G1 X132.895 Y71.624 E.54762
G1 X132.36 Y71.624 E.01683
G1 X144.902 Y84.166 E.55781
G1 X144.596 Y84.395 E.01202
G1 X131.825 Y71.624 E.56799
G1 X131.291 Y71.624 E.01679
G1 X144.291 Y84.624 E.57818
G1 X143.985 Y84.854 E.01204
G1 X130.756 Y71.624 E.58838
G1 X130.221 Y71.624 E.01683
G1 X143.68 Y85.083 E.59859
G1 X143.374 Y85.312 E.01202
G1 X129.686 Y71.624 E.60877
G1 X129.151 Y71.624 E.01683
G1 X143.068 Y85.541 E.61896
G1 X142.763 Y85.771 E.01201
G1 X128.617 Y71.624 E.62917
G1 X128.082 Y71.625 E.01683
G1 X142.457 Y86 E.63933
G1 X142.151 Y86.229 E.01202
G1 X127.547 Y71.625 E.64951
G1 X127.012 Y71.625 E.01683
G1 X141.846 Y86.458 E.65972
G1 X141.54 Y86.687 E.01202
G1 X126.477 Y71.625 E.66991
G1 X125.942 Y71.625 E.01683
G1 X141.234 Y86.917 E.68011
G1 X140.929 Y87.146 E.01199
M73 Q6 S26
G1 X125.408 Y71.625 E.6903
G1 X124.873 Y71.625 E.01683
M73 P6 R26
G1 X140.623 Y87.375 E.70048
G1 X140.317 Y87.604 E.01202
G1 X124.338 Y71.625 E.71067
G1 X123.803 Y71.625 E.01683
G1 X125.732 Y73.554 E.08579
G1 X125.627 Y73.52 E.00347
G1 X125.075 Y73.432 E.01758
G1 X123.268 Y71.625 E.08037
G1 X122.734 Y71.625 E.01679
G1 X124.486 Y73.377 E.07792
G1 X124.022 Y73.448 E.01476
G1 X122.199 Y71.625 E.08108
G1 X121.664 Y71.625 E.01683
G1 X123.561 Y73.522 E.08437
G1 X123.326 Y73.6 E.00779
