; generated by PrusaSlicer 2.4.1+win64 on 2024-02-20 at 16:48:08 UTC


;
;
; 

; external perimeters extrusion width = 0.60mm
; perimeters extrusion width = 0.50mm
; infill extrusion width = 0.50mm
; solid infill extrusion width = 0.50mm
; top infill extrusion width = 0.45mm
; first layer extrusion width = 0.42mm

M73 P0 R7
M73 Q0 S7
M201 X1000 Y1000 Z200 E5000 ; sets maximum accelerations, mm/sec^2
M203 X200 Y200 Z12 E120 ; sets maximum feedrates, mm / sec
M204 P1250 R1250 T1250 ; sets acceleration (P, T) and retract acceleration (R), mm/sec^2
M205 X8.00 Y8.00 Z0.40 E4.50 ; sets the jerk limits, mm/sec
M205 S0 T0 ; sets the minimum extruding and travel feed rate, mm/sec
M107
;TYPE:Custom
M862.3 P "MK3S" ; printer model check
M862.1 P0.4 ; nozzle diameter check
M115 U3.11.0 ; tell printer latest fw version
G90 ; use absolute coordinates
M83 ; extruder relative mode
M104 S215 ; set extruder temp
M140 S60 ; set bed temp
M190 S60 ; wait for bed temp
M109 S215 ; wait for extruder temp
G28 W ; home all without mesh bed level
G80 ; mesh bed leveling

G1 Z0.2 F720
G1 Y-3 F1000 ; go outside print area
G92 E0
G1 X60 E9 F1000 ; intro line
G1 X100 E12.5 F1000 ; intro line

G92 E0
M221 S95

; Don't change E values below. Excessive value can damage the printer.

M907 E538 ; set extruder motor current
G21 ; set units to millimeters
G90 ; use absolute coordinates
M83 ; use relative distances for extrusion
M900 K0.05 ; Filament gcode LA 1.5
M900 K30 ; Filament gcode LA 1.0
M107
;LAYER_CHANGE
;Z:0.2
;HEIGHT:0.2
;BEFORE_LAYER_CHANGE
G92 E0.0
;0.2


G1 E-.8 F2100
M73 P1 R7
M73 Q1 S7
G1 Z.4 F720
;AFTER_LAYER_CHANGE
;0.2
G1 X113.532 Y95.977 F10800
G1 Z.2 F720
G1 E.8 F2100
M204 S800
;TYPE:Skirt/Brim
;WIDTH:0.42
G1 F1200
G1 X114.419 Y95.036 E.04053
G1 X115.443 Y94.32 E.03918
G1 X116.437 Y93.872 E.03418
G1 X117.695 Y93.574 E.04053
G1 X131.58 Y93.522 E.43537
G1 X132.665 Y93.631 E.03418
G1 X133.563 Y93.872 E.02917
G1 X134.378 Y94.223 E.02782
G1 X135.298 Y94.807 E.03418
G1 X136.103 Y95.542 E.03418
G1 X136.768 Y96.406 E.03417
G1 X137.21 Y97.225 E.02918
G1 X137.566 Y98.255 E.03417
G1 X137.754 Y99.775 E.04803
M73 Q2 S7
G1 X137.738 Y110.668 E.34155
G1 X137.603 Y111.589 E.02918
M73 P2 R7
G1 X137.348 Y112.439 E.02781
G1 X136.955 Y113.282 E.02917
G1 X136.468 Y114.023 E.02782
G1 X135.581 Y114.964 E.04053
G1 X134.378 Y115.777 E.04552
G1 X133.153 Y116.255 E.04124
G1 X131.784 Y116.472 E.04346
G1 X118.057 Y116.463 E.4304
G1 X117.136 Y116.328 E.02917
G1 X116.286 Y116.073 E.02782
G1 X115.443 Y115.68 E.02917
G1 X114.702 Y115.193 E.02781
G1 X113.761 Y114.306 E.04053
G1 X113.013 Y113.224 E.04124
G1 X112.487 Y111.942 E.04346
G1 X112.262 Y110.668 E.04054
G1 X112.262 Y99.332 E.35546
G1 X112.397 Y98.411 E.02918
G1 X112.652 Y97.561 E.02781
G1 X113.045 Y96.718 E.02917
G1 X113.499 Y96.027 E.02594
M204 S1000
G1 X113.816 Y96.249 F10800
M204 S800
G1 F1200
G1 X113.954 Y96.051 E.00757
G1 X114.67 Y95.318 E.03212
G1 X115.622 Y94.652 E.03643
G1 X116.555 Y94.23 E.03212
G1 X117.749 Y93.947 E.03847
G1 X131.569 Y93.899 E.43332
G1 X132.588 Y94 E.03212
G1 X133.575 Y94.277 E.03212
G1 X134.498 Y94.721 E.03212
G1 X135.224 Y95.229 E.0278
G1 X135.957 Y95.945 E.03212
G1 X136.554 Y96.777 E.03211
G1 X136.923 Y97.511 E.02576
G1 X137.234 Y98.487 E.03212
G1 X137.377 Y99.775 E.04063
G1 X137.362 Y110.636 E.34052
G1 X137.234 Y111.513 E.0278
M73 P3 R7
M73 Q3 S7
G1 X136.923 Y112.489 E.03212
G1 X136.554 Y113.223 E.02576
G1 X136.046 Y113.949 E.02779
G1 X135.064 Y114.897 E.04278
G1 X134.075 Y115.507 E.03643
G1 X132.922 Y115.927 E.03847
G1 X131.773 Y116.095 E.03643
G1 X118.089 Y116.087 E.42903
G1 X117.212 Y115.959 E.0278
G1 X116.425 Y115.723 E.02575
G1 X115.622 Y115.348 E.0278
G1 X114.776 Y114.771 E.03212
G1 X113.954 Y113.949 E.03643
G1 X113.28 Y112.924 E.03848
G1 X112.798 Y111.648 E.04278
G1 X112.63 Y110.498 E.03644
G1 X112.656 Y99.162 E.35543
G1 X112.798 Y98.353 E.02576
G1 X113.077 Y97.511 E.02779
G1 X113.446 Y96.777 E.02576
G1 X113.781 Y96.298 E.01834
M204 S1000
; printing object Clip.stl id:0 copy 0
;WIPE_START
G1 F8640
G1 X113.954 Y96.051 E-.06957
G1 X114.67 Y95.318 E-.23652
G1 X115.622 Y94.652 E-.26829
G1 X116.354 Y94.32 E-.18561
;WIPE_END
G1 E-.04 F2100
G1 Z.6 F720
G1 X116.259 Y98.256 F10800
G1 Z.2 F720
G1 E.8 F2100
M204 S800
;TYPE:Perimeter
G1 F1200
G1 X116.528 Y97.915 E.01364
G1 X116.891 Y97.593 E.01522
G1 X117.144 Y97.427 E.00949
G1 X117.418 Y97.289 E.00962
G1 X117.875 Y97.137 E.01508
G1 X118.351 Y97.068 E.01509
G1 X131.479 Y97.062 E.41161
G1 X131.971 Y97.106 E.01548
G1 X132.427 Y97.228 E.01482
G1 X132.855 Y97.428 E.01481
G1 X133.242 Y97.699 E.01481
G1 X133.576 Y98.033 E.01481
G1 X133.847 Y98.42 E.01481
G1 X134.047 Y98.848 E.01481
G1 X134.169 Y99.304 E.01481
G1 X134.213 Y99.803 E.01571
G1 X134.207 Y110.374 E.33144
G1 X134.138 Y110.85 E.01509
M73 Q4 S7
G1 X133.989 Y111.299 E.01481
G1 X133.765 Y111.714 E.01481
M73 P4 R7
G1 X133.472 Y112.085 E.01482
G1 X133.112 Y112.405 E.01508
G1 X132.856 Y112.574 E.00962
G1 X132.574 Y112.715 E.00989
G1 X132.278 Y112.823 E.00989
G1 X131.979 Y112.894 E.00962
G1 X131.472 Y112.938 E.01598
G1 X118.351 Y112.932 E.41139
G1 X117.875 Y112.863 E.01509
G1 X117.426 Y112.714 E.01481
G1 X117.011 Y112.49 E.01481
G1 X116.64 Y112.197 E.01482
G1 X116.32 Y111.837 E.01508
G1 X116.151 Y111.581 E.00962
G1 X116.01 Y111.299 E.00989
G1 X115.902 Y111.003 E.00989
G1 X115.831 Y110.704 E.00962
G1 X115.787 Y110.197 E.01598
G1 X115.793 Y99.626 E.33144
G1 X115.862 Y99.15 E.01509
G1 X116.011 Y98.701 E.01482
G1 X116.225 Y98.305 E.0141
M204 S1000
G1 X115.963 Y98.022 F10800
M204 S800
;TYPE:External perimeter
G1 F1200
G1 X116.253 Y97.655 E.01468
G1 X116.661 Y97.293 E.01711
G1 X116.955 Y97.099 E.01104
G1 X117.274 Y96.939 E.01117
G1 X117.788 Y96.769 E.01698
G1 X118.323 Y96.691 E.01698
G1 X131.495 Y96.685 E.41299
G1 X132.036 Y96.733 E.01703
G1 X132.557 Y96.872 E.01689
G1 X133.045 Y97.1 E.01688
G1 X133.486 Y97.409 E.01688
G1 X133.866 Y97.789 E.01688
G1 X134.175 Y98.23 E.01688
G1 X134.403 Y98.718 E.01688
G1 X134.542 Y99.239 E.01688
G1 X134.59 Y99.787 E.01726
G1 X134.584 Y110.402 E.33281
G1 X134.506 Y110.937 E.01698
G1 X134.336 Y111.449 E.01688
G1 X134.081 Y111.922 E.01688
G1 X133.747 Y112.345 E.01688
G1 X133.342 Y112.705 E.01698
G1 X133.045 Y112.901 E.01117
G1 X132.724 Y113.062 E.01126
G1 X132.386 Y113.185 E.01127
G1 X132.04 Y113.267 E.01117
G1 X131.488 Y113.315 E.01736
G1 X118.323 Y113.309 E.41276
G1 X117.788 Y113.231 E.01698
M73 Q5 S7
G1 X117.276 Y113.061 E.01688
G1 X116.803 Y112.806 E.01688
G1 X116.38 Y112.472 E.01688
G1 X116.02 Y112.067 E.01698
M73 P4 R6
G1 X115.824 Y111.77 E.01117
G1 X115.663 Y111.449 E.01126
G1 X115.54 Y111.111 E.01127
G1 X115.458 Y110.765 E.01117
G1 X115.41 Y110.213 E.01736
G1 X115.416 Y99.598 E.33281
G1 X115.494 Y99.063 E.01698
M73 P5 R6
M73 Q5 S6
G1 X115.664 Y98.551 E.01688
G1 X115.926 Y98.069 E.0172
M204 S1000
G1 X116.362 Y98.048 F10800
;WIPE_START
G1 F8640
G1 X116.253 Y97.655 E-.12193
G1 X116.661 Y97.293 E-.12603
G1 X116.955 Y97.099 E-.08127
G1 X117.274 Y96.939 E-.08225
G1 X117.788 Y96.769 E-.12504
G1 X118.323 Y96.691 E-.12506
G1 X118.75 Y96.69 E-.09842
;WIPE_END
G1 E-.04 F2100
G1 Z.6 F720
G1 X133.865 Y98.725 F10800
G1 Z.2 F720
G1 E.8 F2100
M204 S800
;TYPE:Solid infill
;WIDTH:0.42542
G1 F1200
G1 X133.047 Y97.907 E.0368
G1 X132.713 Y97.673 E.01295
G1 X132.33 Y97.495 E.01345
G1 X132.007 Y97.408 E.01063
G1 X133.867 Y99.268 E.08365
G1 X133.89 Y99.353 E.00282
G1 X133.93 Y99.872 E.01654
G1 X131.403 Y97.345 E.11366
G1 X130.862 Y97.345 E.0172
G1 X133.93 Y100.413 E.13796
G1 X133.929 Y100.953 E.0172
G1 X130.322 Y97.346 E.16227
G1 X129.781 Y97.346 E.0172
G1 X133.929 Y101.494 E.18658
G1 X133.929 Y102.035 E.0172
G1 X129.24 Y97.346 E.21089
G1 X128.7 Y97.346 E.0172
G1 X133.929 Y102.575 E.2352
G1 X133.928 Y103.116 E.0172
G1 X128.159 Y97.346 E.2595
G1 X127.618 Y97.347 E.0172
G1 X133.928 Y103.657 E.28381
G1 X133.928 Y104.197 E.0172
M73 Q6 S6
G1 X127.077 Y97.347 E.30812
G1 X126.537 Y97.347 E.0172
M73 P6 R6
G1 X133.927 Y104.738 E.33243
G1 X133.927 Y105.279 E.0172
G1 X125.996 Y97.347 E.35674
G1 X125.455 Y97.348 E.0172
G1 X133.927 Y105.819 E.38104
G1 X133.927 Y106.36 E.0172
G1 X124.915 Y97.348 E.40535
G1 X124.374 Y97.348 E.0172
G1 X133.926 Y106.9 E.42966
G1 X133.926 Y107.441 E.0172
G1 X123.833 Y97.348 E.45397
G1 X123.292 Y97.348 E.0172
M73 Q7 S6
G1 X133.926 Y107.982 E.47827
G1 X133.925 Y108.522 E.0172
M73 P7 R6
G1 X122.752 Y97.349 E.50258
G1 X122.211 Y97.349 E.0172
G1 X133.925 Y109.063 E.52689
G1 X133.925 Y109.604 E.0172
G1 X121.67 Y97.349 E.5512
G1 X121.13 Y97.349 E.0172
G1 X133.925 Y110.144 E.57551
G1 X133.924 Y110.353 E.00664
M73 Q8 S6
G1 X133.882 Y110.643 E.00931
G1 X120.589 Y97.35 E.59791
G1 X120.048 Y97.35 E.0172
M73 P8 R6
G1 X133.767 Y111.069 E.61707
G1 X133.728 Y111.186 E.00393
G1 X133.594 Y111.436 E.00903
G1 X119.507 Y97.35 E.63358
G1 X118.967 Y97.35 E.0172
G1 X133.372 Y111.755 E.64793
G1 X133.265 Y111.89 E.00547
G1 X133.107 Y112.031 E.00674
G1 X118.426 Y97.35 E.66033
G1 X117.947 Y97.413 E.01535
M73 P9 R6
M73 Q9 S6
G1 X132.804 Y112.269 E.66824
G1 X132.452 Y112.458 E.0127
G1 X117.54 Y97.546 E.67073
G1 X117.188 Y97.736 E.0127
G1 X132.041 Y112.588 E.66806
G1 X131.558 Y112.646 E.01547
G1 X116.887 Y97.975 E.65991
G1 X116.735 Y98.11 E.00647
M73 P10 R6
M73 Q10 S6
G1 X116.623 Y98.252 E.00575
G1 X131.026 Y112.655 E.64784
G1 X130.485 Y112.655 E.01721
G1 X116.402 Y98.572 E.63342
G1 X116.272 Y98.814 E.00873
G1 X116.23 Y98.941 E.00425
G1 X129.943 Y112.654 E.61683
G1 X129.402 Y112.654 E.01721
G1 X116.116 Y99.368 E.59759
G1 X116.076 Y99.647 E.00895
M73 P11 R6
M73 Q11 S6
G1 X116.075 Y99.868 E.00705
G1 X128.861 Y112.654 E.57509
G1 X128.32 Y112.654 E.01721
G1 X116.075 Y100.409 E.55076
G1 X116.075 Y100.95 E.0172
G1 X127.779 Y112.654 E.52643
G1 X127.238 Y112.653 E.01721
G1 X116.075 Y101.49 E.50211
G1 X116.074 Y102.031 E.0172
G1 X126.696 Y112.653 E.47778
G1 X126.155 Y112.653 E.01721
M73 P12 R6
M73 Q12 S6
G1 X116.074 Y102.571 E.45345
G1 X116.074 Y103.112 E.0172
G1 X125.614 Y112.653 E.42912
G1 X125.073 Y112.652 E.01721
G1 X116.073 Y103.653 E.40479
G1 X116.073 Y104.193 E.0172
G1 X124.532 Y112.652 E.38046
G1 X123.991 Y112.652 E.01721
G1 X116.073 Y104.734 E.35614
G1 X116.073 Y105.275 E.0172
G1 X123.449 Y112.652 E.33181
G1 X122.908 Y112.651 E.01721
G1 X116.072 Y105.815 E.30748
G1 X116.072 Y106.356 E.0172
M73 P13 R6
M73 Q13 S6
G1 X122.367 Y112.651 E.28315
G1 X121.826 Y112.651 E.01721
G1 X116.072 Y106.897 E.25882
G1 X116.071 Y107.437 E.0172
G1 X121.285 Y112.651 E.23449
G1 X120.744 Y112.651 E.01721
G1 X116.071 Y107.978 E.21017
G1 X116.071 Y108.519 E.0172
G1 X120.202 Y112.65 E.18584
G1 X119.661 Y112.65 E.01721
G1 X116.07 Y109.059 E.16151
G1 X116.07 Y109.6 E.0172
G1 X119.12 Y112.65 E.13718
G1 X118.579 Y112.65 E.01721
G1 X116.07 Y110.141 E.11285
G1 X116.131 Y110.743 E.01925
G1 X117.981 Y112.592 E.08319
G1 X117.539 Y112.453 E.01473
G1 X117.167 Y112.252 E.01345
G1 X116.849 Y112.001 E.01289
G1 X116.126 Y111.279 E.03249
M204 S1000
; stop printing object Clip.stl id:0 copy 0
M106 S84.15
;LAYER_CHANGE
;Z:0.5
;HEIGHT:0.3
;BEFORE_LAYER_CHANGE
G92 E0.0
;0.5


;WIPE_START
G1 F8640
G1 X116.849 Y112.001 E-.23585
G1 X117.167 Y112.252 E-.09357
G1 X117.539 Y112.453 E-.09767
G1 X117.981 Y112.592 E-.10694
G1 X117.289 Y111.9 E-.22598
;WIPE_END
G1 E-.04 F2100
G1 Z.6 F720
;AFTER_LAYER_CHANGE
;0.5
M104 S210 ; set temperature
G1 X114.427 Y114.933 F10800
G1 Z.5 F720
G1 E.8 F2100
;TYPE:Skirt/Brim
;WIDTH:0.42
G1 F2700
G1 X113.761 Y114.306 E.04058
G1 X113.013 Y113.224 E.05834
G1 X112.487 Y111.942 E.06148
G1 X112.262 Y110.668 E.05735
G1 X112.262 Y99.332 E.50284
G1 X112.397 Y98.411 E.04127
G1 X112.652 Y97.561 E.03935
G1 X113.045 Y96.718 E.04126
G1 X113.532 Y95.977 E.03935
G1 X114.419 Y95.036 E.05734
G1 X115.443 Y94.32 E.05542
G1 X116.437 Y93.872 E.04835
G1 X117.695 Y93.574 E.05734
G1 X131.58 Y93.522 E.6159
M73 Q14 S6
G1 X132.665 Y93.631 E.04835
M73 P14 R6
G1 X133.563 Y93.872 E.04127
G1 X134.378 Y94.223 E.03935
G1 X135.298 Y94.807 E.04835
G1 X136.103 Y95.542 E.04835
G1 X136.768 Y96.406 E.04834
G1 X137.21 Y97.225 E.04128
G1 X137.566 Y98.255 E.04834
G1 X137.754 Y99.775 E.06794
G1 X137.738 Y110.668 E.48317
G1 X137.603 Y111.589 E.04127
G1 X137.348 Y112.439 E.03935
G1 X136.955 Y113.282 E.04126
G1 X136.468 Y114.023 E.03935
G1 X135.581 Y114.964 E.05734
G1 X134.378 Y115.777 E.0644
G1 X133.153 Y116.255 E.05834
G1 X131.784 Y116.472 E.06148
G1 X118.057 Y116.463 E.60886
G1 X117.136 Y116.328 E.04127
G1 X116.286 Y116.073 E.03935
G1 X115.443 Y115.68 E.04127
G1 X114.702 Y115.193 E.03935
G1 X114.47 Y114.975 E.0141
G1 X114.725 Y114.72 F10800
G1 F2700
G1 X113.954 Y113.949 E.04835
G1 X113.28 Y112.924 E.05443
G1 X112.798 Y111.648 E.06051
G1 X112.63 Y110.498 E.05155
G1 X112.656 Y99.162 E.50281
G1 X112.798 Y98.353 E.03644
G1 X113.077 Y97.511 E.03932
G1 X113.446 Y96.777 E.03644
G1 X113.954 Y96.051 E.03931
G1 X114.67 Y95.318 E.04543
G1 X115.622 Y94.652 E.05154
G1 X116.555 Y94.23 E.04544
G1 X117.749 Y93.947 E.05442
G1 X131.569 Y93.899 E.61298
G1 X132.588 Y94 E.04543
G1 X133.575 Y94.277 E.04544
G1 X134.498 Y94.721 E.04543
G1 X135.224 Y95.229 E.03932
G1 X135.957 Y95.945 E.04544
G1 X136.554 Y96.777 E.04542
G1 X136.923 Y97.511 E.03644
G1 X137.234 Y98.487 E.04543
G1 X137.377 Y99.775 E.05747
G1 X137.362 Y110.636 E.48172
G1 X137.234 Y111.513 E.03933
G1 X136.923 Y112.489 E.04543
G1 X136.554 Y113.223 E.03644
G1 X136.046 Y113.949 E.03932
G1 X135.064 Y114.897 E.06052
G1 X134.075 Y115.507 E.05154
G1 X132.922 Y115.927 E.05443
G1 X131.773 Y116.095 E.05154
G1 X118.089 Y116.087 E.60692
G1 X117.212 Y115.959 E.03932
G1 X116.425 Y115.723 E.03643
G1 X115.622 Y115.348 E.03932
G1 X114.768 Y114.762 E.04595
; printing object Clip.stl id:0 copy 0
;WIPE_START
G1 F8640
G1 X113.954 Y113.949 E-.26555
G1 X113.28 Y112.924 E-.28335
G1 X112.957 Y112.069 E-.21109
;WIPE_END
G1 E-.04 F2100
G1 Z.9 F720
G1 X116.639 Y112.197 F10800
G1 Z.5 F720
G1 E.8 F2100
M204 S800
;TYPE:Perimeter
;WIDTH:0.5
G1 F3000
G1 X116.317 Y111.836 E.0263
G1 X116.15 Y111.582 E.01652
G1 X116.014 Y111.31 E.01652
G1 X115.858 Y110.839 E.02693
G1 X115.805 Y110.54 E.01652
G1 X115.786 Y110.202 E.01837
G1 X115.792 Y99.629 E.57449
G1 X115.862 Y99.15 E.02632
G1 X116.01 Y98.701 E.02568
G1 X116.235 Y98.285 E.02568
G1 X116.528 Y97.914 E.02568
G1 X116.889 Y97.592 E.0263
G1 X117.143 Y97.425 E.01652
G1 X117.415 Y97.289 E.01652
G1 X117.875 Y97.137 E.0263
G1 X118.354 Y97.067 E.02631
G1 X131.5 Y97.062 E.71427
G1 X131.969 Y97.104 E.02561
G1 X132.427 Y97.227 E.02576
G1 X132.856 Y97.427 E.02568
G1 X133.243 Y97.698 E.02568
G1 X133.577 Y98.032 E.02568
G1 X133.848 Y98.419 E.02568
G1 X134.048 Y98.848 E.02568
G1 X134.17 Y99.304 E.02568
G1 X134.214 Y99.809 E.02754
M73 Q15 S6
G1 X134.208 Y110.371 E.57386
G1 X134.138 Y110.85 E.02632
G1 X133.99 Y111.299 E.02568
G1 X133.765 Y111.715 E.02568
G1 X133.472 Y112.086 E.02568
G1 X133.111 Y112.408 E.0263
G1 X132.857 Y112.575 E.01652
M73 P15 R6
G1 X132.585 Y112.711 E.01652
G1 X132.114 Y112.867 E.02693
G1 X131.815 Y112.92 E.01652
G1 X131.477 Y112.939 E.01837
G1 X118.354 Y112.933 E.71303
G1 X117.875 Y112.863 E.02631
G1 X117.426 Y112.715 E.02568
G1 X117.01 Y112.49 E.02568
G1 X116.686 Y112.234 E.02242
M204 S1000
G1 X116.305 Y112.552 F10800
M204 S800
;TYPE:External perimeter
;WIDTH:0.6
G1 F2100
G1 X115.931 Y112.132 E.03754
G1 X115.729 Y111.825 E.02456
G1 X115.564 Y111.496 E.02456
G1 X115.386 Y110.959 E.03784
G1 X115.322 Y110.596 E.02456
G1 X115.3 Y110.216 E.02543
G1 X115.306 Y99.593 E.70967
G1 X115.387 Y99.037 E.03755
G1 X115.563 Y98.508 E.03725
G1 X115.827 Y98.017 E.03725
G1 X116.173 Y97.58 E.03725
G1 X116.593 Y97.206 E.03754
G1 X116.9 Y97.004 E.02456
G1 X117.229 Y96.839 E.02456
G1 X117.762 Y96.662 E.03754
G1 X118.318 Y96.581 E.03755
G1 X131.522 Y96.576 E.88208
G1 X132.055 Y96.625 E.03575
G1 X132.594 Y96.769 E.03729
G1 X133.099 Y97.005 E.03725
G1 X133.556 Y97.325 E.03725
G1 X133.95 Y97.719 E.03725
G1 X134.27 Y98.176 E.03725
G1 X134.506 Y98.681 E.03725
G1 X134.65 Y99.22 E.03725
G1 X134.7 Y99.788 E.03812
G1 X134.694 Y110.407 E.70938
G1 X134.613 Y110.963 E.03755
G1 X134.437 Y111.492 E.03725
G1 X134.173 Y111.983 E.03725
G1 X133.827 Y112.42 E.03725
G1 X133.407 Y112.794 E.03754
G1 X133.1 Y112.996 E.02456
