; generated by PrusaSlicer 2.4.1+win64 on 2024-02-20 at 16:48:44 UTC


;
;
; 

; external perimeters extrusion width = 0.60mm
; perimeters extrusion width = 0.50mm
; infill extrusion width = 0.50mm
; solid infill extrusion width = 0.50mm
; top infill extrusion width = 0.45mm
; first layer extrusion width = 0.42mm

; external perimeters extrusion width = 0.60mm
; perimeters extrusion width = 0.50mm
; infill extrusion width = 0.50mm
; solid infill extrusion width = 0.50mm
; top infill extrusion width = 0.45mm
; first layer extrusion width = 0.42mm

M73 P0 R13
M73 Q0 S13
M201 X1000 Y1000 Z200 E5000 ; sets maximum accelerations, mm/sec^2
M203 X200 Y200 Z12 E120 ; sets maximum feedrates, mm / sec
M204 P1250 R1250 T1250 ; sets acceleration (P, T) and retract acceleration (R), mm/sec^2
M205 X8.00 Y8.00 Z0.40 E4.50 ; sets the jerk limits, mm/sec
M205 S0 T0 ; sets the minimum extruding and travel feed rate, mm/sec
M107
;TYPE:Custom
M862.3 P "MK3S" ; printer model check
M862.1 P0.4 ; nozzle diameter check
M115 U3.11.0 ; tell printer latest fw version
G90 ; use absolute coordinates
M83 ; extruder relative mode
M104 S215 ; set extruder temp
M140 S60 ; set bed temp
M190 S60 ; wait for bed temp
M109 S215 ; wait for extruder temp
G28 W ; home all without mesh bed level
G80 ; mesh bed leveling

G1 Z0.2 F720
G1 Y-3 F1000 ; go outside print area
G92 E0
G1 X60 E9 F1000 ; intro line
G1 X100 E12.5 F1000 ; intro line

G92 E0
M221 S95

; Don't change E values below. Excessive value can damage the printer.

M907 E538 ; set extruder motor current
G21 ; set units to millimeters
G90 ; use absolute coordinates
M83 ; use relative distances for extrusion
M900 K0.05 ; Filament gcode LA 1.5
M900 K30 ; Filament gcode LA 1.0
M107
;LAYER_CHANGE
;Z:0.2
;HEIGHT:0.2
;BEFORE_LAYER_CHANGE
G92 E0.0
;0.2


G1 E-.8 F2100
G1 Z.4 F720
;AFTER_LAYER_CHANGE
;0.2
G1 X113.954 Y96.051 F10800
G1 Z.2 F720
G1 E.8 F2100
M204 S800
;TYPE:Skirt/Brim
;WIDTH:0.42
G1 F1200
G1 X114.67 Y95.318 E.03212
G1 X115.622 Y94.652 E.03643
G1 X116.555 Y94.23 E.03212
G1 X117.749 Y93.947 E.03847
G1 X131.51 Y93.898 E.43145
G1 X156.021 Y94.002 E.76854
M73 Q1 S13
G1 X156.836 Y94.097 E.02575
M73 P1 R13
G1 X157.693 Y94.327 E.0278
G1 X159.035 Y95 E.04708
G1 X160.07 Y95.89 E.04278
G1 X160.871 Y96.994 E.04278
G1 X161.397 Y98.253 E.04278
G1 X161.61 Y99.461 E.03848
G1 X161.61 Y110.732 E.3534
G1 X161.482 Y111.61 E.0278
G1 X161.293 Y112.267 E.02143
G1 X160.619 Y113.608 E.04707
G1 X159.73 Y114.643 E.04279
G1 X158.626 Y115.445 E.04278
G1 X157.823 Y115.82 E.0278
G1 X157.17 Y116.024 E.02143
G1 X155.817 Y116.198 E.04278
G1 X118.227 Y116.095 E1.17861
G1 X117.212 Y115.959 E.03212
G1 X116.425 Y115.723 E.02575
G1 X115.622 Y115.348 E.0278
G1 X114.776 Y114.771 E.03212
G1 X113.954 Y113.949 E.03643
G1 X113.28 Y112.924 E.03848
G1 X112.798 Y111.648 E.04278
G1 X112.63 Y110.498 E.03644
G1 X112.656 Y99.162 E.35543
G1 X112.798 Y98.353 E.02576
G1 X113.077 Y97.511 E.02779
G1 X113.446 Y96.777 E.02576
G1 X113.92 Y96.1 E.02591
M204 S1000
; printing object Clip.stl id:1 copy 0
;WIPE_START
G1 F8640
G1 X114.67 Y95.318 E-.2502
G1 X115.622 Y94.652 E-.26829
G1 X116.555 Y94.23 E-.23653
G1 X116.576 Y94.225 E-.00498
;WIPE_END
G1 E-.04 F2100
G1 Z.6 F720
G1 X140.041 Y99.723 F10800
G1 Z.2 F720
G1 E.8 F2100
M204 S800
;TYPE:Perimeter
G1 F1200
G1 X140.11 Y99.247 E.01509
G1 X140.259 Y98.798 E.01482
G1 X140.483 Y98.382 E.01481
G1 X140.776 Y98.012 E.01481
G1 X141.139 Y97.69 E.01522
G1 X141.392 Y97.523 E.00949
G1 X141.666 Y97.386 E.00962
G1 X142.123 Y97.234 E.01508
G1 X142.599 Y97.165 E.01509
G1 X155.727 Y97.159 E.41161
G1 X156.219 Y97.202 E.01548
G1 X156.675 Y97.325 E.01482
G1 X157.103 Y97.524 E.01481
G1 X157.49 Y97.795 E.01481
G1 X157.824 Y98.13 E.01481
G1 X158.095 Y98.517 E.01481
G1 X158.295 Y98.945 E.01481
G1 X158.417 Y99.401 E.01481
G1 X158.461 Y99.9 E.01571
G1 X158.455 Y110.471 E.33144
G1 X158.386 Y110.947 E.01509
G1 X158.237 Y111.395 E.01481
G1 X158.013 Y111.811 E.01481
G1 X157.72 Y112.182 E.01482
G1 X157.36 Y112.502 E.01508
G1 X157.104 Y112.67 E.00962
G1 X156.822 Y112.812 E.00989
G1 X156.526 Y112.92 E.00989
G1 X156.227 Y112.991 E.00962
G1 X155.72 Y113.035 E.01598
G1 X142.599 Y113.029 E.41139
G1 X142.123 Y112.959 E.01509
M73 P2 R13
M73 Q2 S13
G1 X141.674 Y112.811 E.01481
G1 X141.259 Y112.587 E.01481
G1 X140.888 Y112.294 E.01482
G1 X140.568 Y111.934 E.01508
G1 X140.399 Y111.678 E.00962
G1 X140.258 Y111.396 E.00989
G1 X140.15 Y111.1 E.00989
G1 X140.079 Y110.801 E.00962
G1 X140.035 Y110.294 E.01598
G1 X140.041 Y99.783 E.32955
M204 S1000
G1 X139.664 Y99.695 F10800
M204 S800
;TYPE:External perimeter
G1 F1200
G1 X139.742 Y99.16 E.01698
G1 X139.912 Y98.648 E.01688
G1 X140.167 Y98.174 E.01688
G1 X140.501 Y97.752 E.01688
G1 X140.909 Y97.39 E.01711
G1 X141.203 Y97.196 E.01104
G1 X141.522 Y97.036 E.01117
G1 X142.036 Y96.866 E.01698
G1 X142.571 Y96.788 E.01698
G1 X155.743 Y96.782 E.41299
G1 X156.284 Y96.83 E.01703
G1 X156.805 Y96.969 E.01689
G1 X157.293 Y97.197 E.01688
G1 X157.734 Y97.506 E.01688
G1 X158.114 Y97.886 E.01688
G1 X158.423 Y98.327 E.01688
G1 X158.651 Y98.815 E.01688
G1 X158.79 Y99.335 E.01688
G1 X158.838 Y99.884 E.01726
G1 X158.832 Y110.498 E.33281
G1 X158.754 Y111.034 E.01698
G1 X158.584 Y111.545 E.01688
G1 X158.329 Y112.019 E.01688
G1 X157.995 Y112.442 E.01688
G1 X157.59 Y112.802 E.01698
G1 X157.293 Y112.998 E.01117
G1 X156.972 Y113.159 E.01126
G1 X156.634 Y113.282 E.01127
G1 X156.288 Y113.364 E.01117
G1 X155.736 Y113.412 E.01736
G1 X142.571 Y113.406 E.41276
G1 X142.036 Y113.328 E.01698
G1 X141.524 Y113.158 E.01688
G1 X141.051 Y112.903 E.01688
G1 X140.628 Y112.569 E.01688
G1 X140.268 Y112.164 E.01698
G1 X140.072 Y111.867 E.01117
G1 X139.911 Y111.546 E.01126
G1 X139.788 Y111.208 E.01127
G1 X139.706 Y110.861 E.01117
G1 X139.658 Y110.31 E.01736
G1 X139.664 Y99.755 E.33093
M204 S1000
G1 X140.028 Y99.529 F10800
;WIPE_START
G1 F8640
G1 X139.742 Y99.16 E-.13878
G1 X139.912 Y98.648 E-.12434
G1 X140.167 Y98.174 E-.12433
G1 X140.501 Y97.752 E-.12431
G1 X140.909 Y97.39 E-.12603
G1 X141.203 Y97.196 E-.08127
G1 X141.362 Y97.117 E-.04093
;WIPE_END
G1 E-.04 F2100
G1 Z.6 F720
G1 X158.113 Y98.822 F10800
G1 Z.2 F720
G1 E.8 F2100
M204 S800
;TYPE:Solid infill
;WIDTH:0.42542
G1 F1200
G1 X157.295 Y98.004 E.0368
G1 X156.961 Y97.77 E.01295
G1 X156.578 Y97.592 E.01345
G1 X156.255 Y97.505 E.01063
G1 X158.115 Y99.365 E.08365
G1 X158.138 Y99.45 E.00282
G1 X158.178 Y99.969 E.01654
G1 X155.651 Y97.442 E.11366
G1 X155.11 Y97.442 E.0172
G1 X158.178 Y100.51 E.13796
G1 X158.177 Y101.05 E.0172
G1 X154.57 Y97.442 E.16227
G1 X154.029 Y97.443 E.0172
G1 X158.177 Y101.591 E.18658
G1 X158.177 Y102.132 E.0172
G1 X153.488 Y97.443 E.21089
G1 X152.948 Y97.443 E.0172
G1 X158.177 Y102.672 E.2352
G1 X158.176 Y103.213 E.0172
G1 X152.407 Y97.443 E.2595
G1 X151.866 Y97.444 E.0172
G1 X158.176 Y103.753 E.28381
G1 X158.176 Y104.294 E.0172
G1 X151.325 Y97.444 E.30812
G1 X150.785 Y97.444 E.0172
M73 P3 R13
M73 Q3 S13
G1 X158.175 Y104.835 E.33243
G1 X158.175 Y105.375 E.0172
G1 X150.244 Y97.444 E.35674
G1 X149.703 Y97.444 E.0172
G1 X158.175 Y105.916 E.38104
G1 X158.175 Y106.457 E.0172
G1 X149.163 Y97.445 E.40535
G1 X148.622 Y97.445 E.0172
G1 X158.174 Y106.997 E.42966
G1 X158.174 Y107.538 E.0172
G1 X148.081 Y97.445 E.45397
G1 X147.54 Y97.445 E.0172
G1 X158.174 Y108.079 E.47827
G1 X158.173 Y108.619 E.0172
G1 X147 Y97.446 E.50258
G1 X146.459 Y97.446 E.0172
G1 X158.173 Y109.16 E.52689
G1 X158.173 Y109.701 E.0172
G1 X145.918 Y97.446 E.5512
G1 X145.378 Y97.446 E.0172
G1 X158.173 Y110.241 E.57551
G1 X158.172 Y110.45 E.00664
M73 P4 R13
M73 Q4 S13
G1 X158.13 Y110.74 E.00931
G1 X144.837 Y97.447 E.59791
G1 X144.296 Y97.447 E.0172
G1 X158.015 Y111.166 E.61707
G1 X157.976 Y111.283 E.00393
G1 X157.842 Y111.533 E.00903
G1 X143.755 Y97.447 E.63358
G1 X143.215 Y97.447 E.0172
G1 X157.62 Y111.852 E.64793
G1 X157.513 Y111.987 E.00547
G1 X157.355 Y112.128 E.00674
G1 X142.674 Y97.447 E.66033
G1 X142.195 Y97.51 E.01535
G1 X157.052 Y112.366 E.66824
G1 X156.7 Y112.555 E.0127
G1 X141.788 Y97.643 E.67073
G1 X141.436 Y97.833 E.0127
G1 X156.289 Y112.685 E.66806
G1 X155.806 Y112.743 E.01547
M73 P5 R13
M73 Q5 S13
G1 X141.135 Y98.072 E.65991
G1 X140.983 Y98.207 E.00647
G1 X140.871 Y98.349 E.00575
G1 X155.274 Y112.752 E.64784
G1 X154.733 Y112.752 E.01721
G1 X140.65 Y98.669 E.63342
G1 X140.52 Y98.911 E.00873
G1 X140.478 Y99.038 E.00425
G1 X154.191 Y112.751 E.61683
G1 X153.65 Y112.751 E.01721
G1 X140.364 Y99.465 E.59759
G1 X140.324 Y99.744 E.00895
G1 X140.323 Y99.965 E.00705
G1 X153.109 Y112.751 E.57509
G1 X152.568 Y112.751 E.01721
G1 X140.323 Y100.506 E.55076
G1 X140.323 Y101.046 E.0172
G1 X152.027 Y112.75 E.52643
G1 X151.486 Y112.75 E.01721
G1 X140.323 Y101.587 E.50211
G1 X140.322 Y102.128 E.0172
M73 P6 R13
M73 Q6 S13
G1 X150.944 Y112.75 E.47778
G1 X150.403 Y112.75 E.01721
G1 X140.322 Y102.668 E.45345
G1 X140.322 Y103.209 E.0172
G1 X149.862 Y112.749 E.42912
G1 X149.321 Y112.749 E.01721
G1 X140.321 Y103.75 E.40479
G1 X140.321 Y104.29 E.0172
G1 X148.78 Y112.749 E.38046
G1 X148.239 Y112.749 E.01721
M73 P6 R12
G1 X140.321 Y104.831 E.35614
G1 X140.321 Y105.372 E.0172
G1 X147.697 Y112.749 E.33181
G1 X147.156 Y112.748 E.01721
G1 X140.32 Y105.912 E.30748
G1 X140.32 Y106.453 E.0172
G1 X146.615 Y112.748 E.28315
G1 X146.074 Y112.748 E.01721
G1 X140.32 Y106.994 E.25882
G1 X140.319 Y107.534 E.0172
G1 X145.533 Y112.748 E.23449
G1 X144.992 Y112.747 E.01721
G1 X140.319 Y108.075 E.21017
G1 X140.319 Y108.616 E.0172
G1 X144.45 Y112.747 E.18584
G1 X143.909 Y112.747 E.01721
M73 Q6 S12
G1 X140.318 Y109.156 E.16151
G1 X140.318 Y109.697 E.0172
G1 X143.368 Y112.747 E.13718
G1 X142.827 Y112.746 E.01721
M73 P7 R12
M73 Q7 S12
G1 X140.318 Y110.237 E.11285
G1 X140.379 Y110.84 E.01925
G1 X142.229 Y112.689 E.08319
G1 X141.787 Y112.55 E.01473
G1 X141.415 Y112.349 E.01345
G1 X141.097 Y112.098 E.01289
G1 X140.374 Y111.376 E.03249
M204 S1000
; stop printing object Clip.stl id:1 copy 0
; printing object Clip.stl id:0 copy 0
;WIPE_START
G1 F8640
G1 X141.097 Y112.098 E-.23585
G1 X141.415 Y112.349 E-.09357
G1 X141.787 Y112.55 E-.09767
G1 X142.229 Y112.689 E-.10694
G1 X141.537 Y111.997 E-.22598
;WIPE_END
G1 E-.04 F2100
G1 Z.6 F720
G1 X134.138 Y110.85 F10800
G1 Z.2 F720
G1 E.8 F2100
M204 S800
;TYPE:Perimeter
;WIDTH:0.42
G1 F1200
G1 X133.989 Y111.299 E.01481
G1 X133.765 Y111.714 E.01481
G1 X133.472 Y112.085 E.01482
G1 X133.112 Y112.405 E.01508
G1 X132.856 Y112.574 E.00962
G1 X132.574 Y112.715 E.00989
G1 X132.278 Y112.823 E.00989
G1 X131.979 Y112.894 E.00962
G1 X131.472 Y112.938 E.01598
G1 X118.351 Y112.932 E.41139
G1 X117.875 Y112.863 E.01509
G1 X117.426 Y112.714 E.01481
G1 X117.011 Y112.49 E.01481
G1 X116.64 Y112.197 E.01482
G1 X116.32 Y111.837 E.01508
G1 X116.151 Y111.581 E.00962
G1 X116.01 Y111.299 E.00989
G1 X115.902 Y111.003 E.00989
G1 X115.831 Y110.704 E.00962
G1 X115.787 Y110.197 E.01598
G1 X115.793 Y99.626 E.33144
G1 X115.862 Y99.15 E.01509
G1 X116.011 Y98.701 E.01482
G1 X116.235 Y98.286 E.01481
G1 X116.528 Y97.915 E.01481
G1 X116.891 Y97.593 E.01522
G1 X117.144 Y97.427 E.00949
G1 X117.418 Y97.289 E.00962
G1 X117.875 Y97.137 E.01508
G1 X118.351 Y97.068 E.01509
G1 X131.479 Y97.062 E.41161
G1 X131.971 Y97.106 E.01548
G1 X132.427 Y97.228 E.01482
G1 X132.855 Y97.428 E.01481
G1 X133.242 Y97.699 E.01481
G1 X133.576 Y98.033 E.01481
G1 X133.847 Y98.42 E.01481
G1 X134.047 Y98.848 E.01481
G1 X134.169 Y99.304 E.01481
G1 X134.213 Y99.803 E.01571
G1 X134.207 Y110.374 E.33144
G1 X134.146 Y110.791 E.01321
M204 S1000
G1 X134.506 Y110.937 F10800
M204 S800
;TYPE:External perimeter
G1 F1200
G1 X134.336 Y111.449 E.01688
G1 X134.081 Y111.922 E.01688
G1 X133.747 Y112.345 E.01688
G1 X133.342 Y112.705 E.01698
G1 X133.045 Y112.901 E.01117
G1 X132.724 Y113.062 E.01126
G1 X132.386 Y113.185 E.01127
G1 X132.04 Y113.267 E.01117
G1 X131.488 Y113.315 E.01736
G1 X118.323 Y113.309 E.41276
G1 X117.788 Y113.231 E.01698
G1 X117.276 Y113.061 E.01688
G1 X116.803 Y112.806 E.01688
G1 X116.38 Y112.472 E.01688
G1 X116.02 Y112.067 E.01698
G1 X115.824 Y111.77 E.01117
G1 X115.663 Y111.449 E.01126
G1 X115.54 Y111.111 E.01127
G1 X115.458 Y110.765 E.01117
G1 X115.41 Y110.213 E.01736
G1 X115.416 Y99.598 E.33281
G1 X115.494 Y99.063 E.01698
G1 X115.664 Y98.551 E.01688
G1 X115.919 Y98.078 E.01688
G1 X116.253 Y97.655 E.01688
G1 X116.661 Y97.293 E.01711
G1 X116.955 Y97.099 E.01104
G1 X117.274 Y96.939 E.01117
G1 X117.788 Y96.769 E.01698
G1 X118.323 Y96.691 E.01698
G1 X131.495 Y96.685 E.41299
G1 X132.036 Y96.733 E.01703
G1 X132.557 Y96.872 E.01689
G1 X133.045 Y97.1 E.01688
G1 X133.486 Y97.409 E.01688
G1 X133.866 Y97.789 E.01688
G1 X134.175 Y98.23 E.01688
G1 X134.403 Y98.718 E.01688
G1 X134.542 Y99.239 E.01688
G1 X134.59 Y99.787 E.01726
G1 X134.584 Y110.402 E.33281
G1 X134.515 Y110.878 E.0151
M204 S1000
G1 X134.125 Y111.059 F10800
;WIPE_START
G1 F8640
G1 X134.336 Y111.449 E-.138
G1 X134.081 Y111.922 E-.12433
G1 X133.747 Y112.345 E-.12434
G1 X133.342 Y112.705 E-.12504
G1 X133.045 Y112.901 E-.08225
G1 X132.724 Y113.062 E-.08296
G1 X132.386 Y113.185 E-.08296
G1 X132.386 Y113.185 E-.00012
;WIPE_END
G1 E-.04 F2100
G1 Z.6 F720
G1 X133.865 Y98.725 F10800
G1 Z.2 F720
G1 E.8 F2100
M204 S800
;TYPE:Solid infill
;WIDTH:0.42542
G1 F1200
G1 X133.047 Y97.907 E.0368
G1 X132.713 Y97.673 E.01295
G1 X132.33 Y97.495 E.01345
G1 X132.007 Y97.408 E.01063
G1 X133.867 Y99.268 E.08365
M73 Q8 S12
G1 X133.89 Y99.353 E.00282
M73 P8 R12
G1 X133.93 Y99.872 E.01654
G1 X131.403 Y97.345 E.11366
G1 X130.862 Y97.345 E.0172
G1 X133.93 Y100.413 E.13796
G1 X133.929 Y100.953 E.0172
G1 X130.322 Y97.346 E.16227
G1 X129.781 Y97.346 E.0172
G1 X133.929 Y101.494 E.18658
G1 X133.929 Y102.035 E.0172
G1 X129.24 Y97.346 E.21089
G1 X128.7 Y97.346 E.0172
G1 X133.929 Y102.575 E.2352
G1 X133.928 Y103.116 E.0172
G1 X128.159 Y97.346 E.2595
G1 X127.618 Y97.347 E.0172
G1 X133.928 Y103.657 E.28381
G1 X133.928 Y104.197 E.0172
G1 X127.077 Y97.347 E.30812
G1 X126.537 Y97.347 E.0172
G1 X133.927 Y104.738 E.33243
G1 X133.927 Y105.279 E.0172
G1 X125.996 Y97.347 E.35674
G1 X125.455 Y97.348 E.0172
G1 X133.927 Y105.819 E.38104
G1 X133.927 Y106.36 E.0172
G1 X124.915 Y97.348 E.40535
G1 X124.374 Y97.348 E.0172
G1 X133.926 Y106.9 E.42966
G1 X133.926 Y107.441 E.0172
G1 X123.833 Y97.348 E.45397
G1 X123.292 Y97.348 E.0172
G1 X133.926 Y107.982 E.47827
G1 X133.925 Y108.522 E.0172
G1 X122.752 Y97.349 E.50258
G1 X122.211 Y97.349 E.0172
M73 P9 R12
M73 Q9 S12
G1 X133.925 Y109.063 E.52689
G1 X133.925 Y109.604 E.0172
G1 X121.67 Y97.349 E.5512
G1 X121.13 Y97.349 E.0172
G1 X133.925 Y110.144 E.57551
G1 X133.924 Y110.353 E.00664
G1 X133.882 Y110.643 E.00931
G1 X120.589 Y97.35 E.59791
G1 X120.048 Y97.35 E.0172
G1 X133.767 Y111.069 E.61707
G1 X133.728 Y111.186 E.00393
G1 X133.594 Y111.436 E.00903
G1 X119.507 Y97.35 E.63358
G1 X118.967 Y97.35 E.0172
G1 X133.372 Y111.755 E.64793
G1 X133.265 Y111.89 E.00547
G1 X133.107 Y112.031 E.00674
G1 X118.426 Y97.35 E.66033
G1 X117.947 Y97.413 E.01535
M73 P10 R12
M73 Q10 S12
G1 X132.804 Y112.269 E.66824
G1 X132.452 Y112.458 E.0127
G1 X117.54 Y97.546 E.67073
G1 X117.188 Y97.736 E.0127
G1 X132.041 Y112.588 E.66806
G1 X131.558 Y112.646 E.01547
G1 X116.887 Y97.975 E.65991
G1 X116.735 Y98.11 E.00647
G1 X116.623 Y98.252 E.00575
G1 X131.026 Y112.655 E.64784
G1 X130.485 Y112.655 E.01721
G1 X116.402 Y98.572 E.63342
G1 X116.272 Y98.814 E.00873
G1 X116.23 Y98.941 E.00425
G1 X129.943 Y112.654 E.61683
G1 X129.402 Y112.654 E.01721
G1 X116.116 Y99.368 E.59759
G1 X116.076 Y99.647 E.00895
M73 P11 R12
M73 Q11 S12
G1 X116.075 Y99.868 E.00705
G1 X128.861 Y112.654 E.57509
G1 X128.32 Y112.654 E.01721
G1 X116.075 Y100.409 E.55076
G1 X116.075 Y100.95 E.0172
G1 X127.779 Y112.654 E.52643
G1 X127.238 Y112.653 E.01721
G1 X116.075 Y101.49 E.50211
G1 X116.074 Y102.031 E.0172
G1 X126.696 Y112.653 E.47778
G1 X126.155 Y112.653 E.01721
G1 X116.074 Y102.571 E.45345
G1 X116.074 Y103.112 E.0172
G1 X125.614 Y112.653 E.42912
G1 X125.073 Y112.652 E.01721
G1 X116.073 Y103.653 E.40479
G1 X116.073 Y104.193 E.0172
G1 X124.532 Y112.652 E.38046
G1 X123.991 Y112.652 E.01721
G1 X116.073 Y104.734 E.35614
G1 X116.073 Y105.275 E.0172
G1 X123.449 Y112.652 E.33181
G1 X122.908 Y112.651 E.01721
