; generated by PrusaSlicer 2.4.1+win64 on 2024-02-20 at 16:49:43 UTC


;
;
; 

; external perimeters extrusion width = 0.60mm
; perimeters extrusion width = 0.50mm
; infill extrusion width = 0.50mm
; solid infill extrusion width = 0.50mm
; top infill extrusion width = 0.45mm
; first layer extrusion width = 0.42mm

M73 P0 R114
M73 Q0 S115
M201 X1000 Y1000 Z200 E5000 ; sets maximum accelerations, mm/sec^2
M203 X200 Y200 Z12 E120 ; sets maximum feedrates, mm / sec
M204 P1250 R1250 T1250 ; sets acceleration (P, T) and retract acceleration (R), mm/sec^2
M205 X8.00 Y8.00 Z0.40 E4.50 ; sets the jerk limits, mm/sec
M205 S0 T0 ; sets the minimum extruding and travel feed rate, mm/sec
M107
;TYPE:Custom
M862.3 P "MK3S" ; printer model check
M862.1 P0.4 ; nozzle diameter check
M115 U3.11.0 ; tell printer latest fw version
G90 ; use absolute coordinates
M83 ; extruder relative mode
M104 S215 ; set extruder temp
M140 S60 ; set bed temp
M190 S60 ; wait for bed temp
M109 S215 ; wait for extruder temp
G28 W ; home all without mesh bed level
G80 ; mesh bed leveling

G1 Z0.2 F720
G1 Y-3 F1000 ; go outside print area
G92 E0
G1 X60 E9 F1000 ; intro line
G1 X100 E12.5 F1000 ; intro line

G92 E0
M221 S95

; Don't change E values below. Excessive value can damage the printer.

M907 E538 ; set extruder motor current
G21 ; set units to millimeters
G90 ; use absolute coordinates
M83 ; use relative distances for extrusion
M900 K0.05 ; Filament gcode LA 1.5
M900 K30 ; Filament gcode LA 1.0
M107
;LAYER_CHANGE
;Z:0.2
;HEIGHT:0.2
;BEFORE_LAYER_CHANGE
G92 E0.0
;0.2


G1 E-.8 F2100
G1 Z.4 F720
;AFTER_LAYER_CHANGE
;0.2
G1 X55.179 Y86.425 F10800
G1 Z.2 F720
G1 E.8 F2100
M204 S800
;TYPE:Skirt/Brim
;WIDTH:0.42
G1 F1200
G1 X56.088 Y85.977 E.03176
G1 X56.76 Y85.771 E.02204
G1 X58 Y85.623 E.03916
G1 X192.155 Y85.628 E4.20635
G1 X193.24 Y85.771 E.0343
M73 Q0 S114
G1 X194.199 Y86.096 E.03176
G1 X194.821 Y86.425 E.02204
G1 X195.689 Y87.092 E.0343
G1 X196.357 Y87.853 E.03176
G1 X196.904 Y88.801 E.0343
G1 X197.229 Y89.76 E.03176
G1 X197.346 Y90.453 E.02204
G1 X197.377 Y122 E.98914
G1 X196.985 Y123.307 E.04278
G1 X195.94 Y124.183 E.04278
G1 X195 Y124.377 E.03008
G1 X55 Y124.377 E4.3896
G1 X53.693 Y123.985 E.04278
G1 X52.817 Y122.94 E.04278
G1 X52.623 Y122 E.03008
G1 X52.654 Y90.453 E.98914
G1 X52.977 Y89.088 E.04399
G1 X53.425 Y88.179 E.03176
G1 X53.833 Y87.606 E.02204
G1 X54.311 Y87.091 E.02204
G1 X55.132 Y86.462 E.03242
M204 S1000
; printing object Screwdriver%20Holder.stl id:0 copy 0
;WIPE_START
G1 F8640
G1 X56.088 Y85.977 E-.2475
G1 X56.76 Y85.771 E-.16233
G1 X58 Y85.623 E-.28839
G1 X58.268 Y85.623 E-.06178
;WIPE_END
G1 E-.04 F2100
G1 Z.6 F720
G1 X175.912 Y121.037 F10800
G1 Z.2 F720
G1 E.8 F2100
M204 S800
;TYPE:Perimeter
G1 F1200
G1 X175.912 Y117.213 E.1199
G1 X154.088 Y117.213 E.68428
G1 X154.088 Y121.037 E.1199
G1 X161.463 Y121.037 E.23124
G1 X161.463 Y121.213 E.00551
G1 X128.537 Y121.213 E1.03237
G1 X128.537 Y121.037 E.00551
G1 X135.912 Y121.037 E.23124
G1 X135.912 Y117.213 E.1199
G1 X114.088 Y117.213 E.68428
G1 X114.088 Y121.037 E.1199
G1 X121.463 Y121.037 E.23124
G1 X121.463 Y121.213 E.00551
G1 X88.537 Y121.213 E1.03237
G1 X88.537 Y121.037 E.00551
G1 X95.912 Y121.037 E.23124
G1 X95.912 Y117.213 E.1199
G1 X74.088 Y117.213 E.68428
G1 X74.088 Y121.037 E.1199
G1 X81.463 Y121.037 E.23124
G1 X81.463 Y121.213 E.00551
G1 X55.787 Y121.213 E.80505
G1 X55.787 Y91.026 E.9465
G1 X55.808 Y90.711 E.00988
G1 X55.864 Y90.428 E.00907
G1 X55.957 Y90.154 E.00907
G1 X56.085 Y89.894 E.00907
G1 X56.246 Y89.654 E.00907
G1 X56.436 Y89.436 E.00907
G1 X56.654 Y89.246 E.00907
G1 X56.894 Y89.085 E.00907
G1 X57.154 Y88.957 E.00907
G1 X57.428 Y88.864 E.00907
G1 X57.711 Y88.808 E.00907
G1 X58.026 Y88.787 E.00988
G1 X63.236 Y88.787 E.16336
G1 X63.791 Y88.811 E.01743
G1 X64.329 Y88.882 E.01699
G1 X64.858 Y88.999 E.01699
G1 X65.375 Y89.162 E.01699
G1 X65.875 Y89.37 E.01699
G1 X66.356 Y89.62 E.01699
G1 X66.813 Y89.911 E.01699
G1 X67.243 Y90.241 E.01699
G1 X67.643 Y90.607 E.01699
G1 X68.009 Y91.007 E.01699
G1 X68.339 Y91.437 E.01699
G1 X68.63 Y91.894 E.01699
G1 X68.88 Y92.375 E.01699
G1 X69.088 Y92.875 E.01699
G1 X69.25 Y93.392 E.01699
G1 X69.368 Y93.921 E.01699
G1 X69.439 Y94.459 E.01699
G1 X69.463 Y95.017 E.01753
G1 X69.463 Y105.274 E.32159
G1 X69.493 Y105.767 E.01549
G1 X69.586 Y106.276 E.01624
G1 X69.74 Y106.771 E.01624
G1 X69.953 Y107.243 E.01624
G1 X70.221 Y107.686 E.01624
G1 X70.54 Y108.094 E.01624
G1 X70.906 Y108.46 E.01624
G1 X71.314 Y108.779 E.01624
G1 X71.757 Y109.047 E.01624
G1 X72.229 Y109.26 E.01624
G1 X72.724 Y109.414 E.01624
G1 X73.233 Y109.507 E.01624
G1 X73.726 Y109.537 E.01549
G1 X74.274 Y109.537 E.01717
G1 X74.767 Y109.507 E.01549
G1 X75.276 Y109.414 E.01624
G1 X75.771 Y109.26 E.01624
G1 X76.243 Y109.047 E.01624
G1 X76.686 Y108.779 E.01624
G1 X77.094 Y108.46 E.01624
G1 X77.46 Y108.094 E.01624
G1 X77.779 Y107.686 E.01624
G1 X78.047 Y107.243 E.01624
G1 X78.26 Y106.771 E.01624
G1 X78.414 Y106.276 E.01624
G1 X78.507 Y105.767 E.01624
G1 X78.537 Y105.274 E.01549
G1 X78.537 Y95.017 E.32159
G1 X78.561 Y94.459 E.01753
G1 X78.632 Y93.921 E.01699
G1 X78.749 Y93.392 E.01699
G1 X78.912 Y92.875 E.01699
G1 X79.12 Y92.375 E.01699
G1 X79.37 Y91.894 E.01699
G1 X79.661 Y91.437 E.01699
G1 X79.991 Y91.007 E.01699
G1 X80.357 Y90.607 E.01699
G1 X80.757 Y90.241 E.01699
G1 X81.187 Y89.911 E.01699
G1 X81.644 Y89.62 E.01699
G1 X82.125 Y89.37 E.01699
G1 X82.625 Y89.162 E.01699
G1 X83.142 Y89 E.01699
G1 X83.671 Y88.882 E.01699
G1 X84.209 Y88.811 E.01699
G1 X84.767 Y88.787 E.01753
G1 X97.233 Y88.787 E.39085
G1 X97.791 Y88.811 E.01753
G1 X98.329 Y88.882 E.01699
G1 X98.858 Y89 E.01699
G1 X99.375 Y89.162 E.01699
G1 X99.875 Y89.37 E.01699
G1 X100.356 Y89.62 E.01699
G1 X100.813 Y89.911 E.01699
G1 X101.243 Y90.241 E.01699
G1 X101.643 Y90.607 E.01699
G1 X102.009 Y91.007 E.01699
G1 X102.339 Y91.437 E.01699
G1 X102.63 Y91.894 E.01699
G1 X102.88 Y92.375 E.01699
G1 X103.088 Y92.875 E.01699
G1 X103.25 Y93.392 E.01699
G1 X103.368 Y93.921 E.01699
G1 X103.439 Y94.459 E.01699
G1 X103.463 Y95.017 E.01753
G1 X103.463 Y105.274 E.32159
G1 X103.493 Y105.767 E.01549
G1 X103.586 Y106.276 E.01624
G1 X103.74 Y106.771 E.01624
G1 X103.953 Y107.243 E.01624
G1 X104.221 Y107.686 E.01624
G1 X104.54 Y108.094 E.01624
G1 X104.906 Y108.46 E.01624
G1 X105.314 Y108.779 E.01624
G1 X105.757 Y109.047 E.01624
G1 X106.229 Y109.26 E.01624
G1 X106.724 Y109.414 E.01624
G1 X107.233 Y109.507 E.01624
G1 X107.726 Y109.537 E.01549
G1 X108.274 Y109.537 E.01717
G1 X108.767 Y109.507 E.01549
G1 X109.276 Y109.414 E.01624
G1 X109.771 Y109.26 E.01624
G1 X110.243 Y109.047 E.01624
G1 X110.686 Y108.779 E.01624
G1 X111.094 Y108.46 E.01624
G1 X111.46 Y108.094 E.01624
G1 X111.779 Y107.686 E.01624
G1 X112.047 Y107.243 E.01624
G1 X112.26 Y106.771 E.01624
G1 X112.414 Y106.276 E.01624
G1 X112.507 Y105.767 E.01624
G1 X112.537 Y105.274 E.01549
G1 X112.537 Y95.017 E.32159
G1 X112.561 Y94.459 E.01753
G1 X112.632 Y93.921 E.01699
G1 X112.749 Y93.392 E.01699
G1 X112.912 Y92.875 E.01699
G1 X113.12 Y92.375 E.01699
G1 X113.37 Y91.894 E.01699
G1 X113.661 Y91.437 E.01699
G1 X113.991 Y91.007 E.01699
G1 X114.357 Y90.607 E.01699
G1 X114.757 Y90.241 E.01699
G1 X115.187 Y89.911 E.01699
G1 X115.644 Y89.62 E.01699
G1 X116.125 Y89.37 E.01699
G1 X116.625 Y89.162 E.01699
G1 X117.142 Y89 E.01699
G1 X117.671 Y88.882 E.01699
G1 X118.209 Y88.811 E.01699
G1 X118.767 Y88.787 E.01753
G1 X131.233 Y88.787 E.39085
G1 X131.791 Y88.811 E.01753
G1 X132.329 Y88.882 E.01699
G1 X132.858 Y88.999 E.01699
G1 X133.375 Y89.162 E.01699
G1 X133.875 Y89.37 E.01699
G1 X134.356 Y89.62 E.01699
G1 X134.813 Y89.911 E.01699
G1 X135.243 Y90.241 E.01699
G1 X135.643 Y90.607 E.01699
G1 X136.009 Y91.007 E.01699
G1 X136.339 Y91.437 E.01699
G1 X136.63 Y91.894 E.01699
G1 X136.88 Y92.375 E.01699
G1 X137.088 Y92.875 E.01699
G1 X137.25 Y93.392 E.01699
G1 X137.368 Y93.921 E.01699
G1 X137.439 Y94.459 E.01699
G1 X137.463 Y95.017 E.01753
G1 X137.463 Y105.274 E.32159
G1 X137.493 Y105.767 E.01549
G1 X137.586 Y106.276 E.01624
G1 X137.74 Y106.771 E.01624
G1 X137.953 Y107.243 E.01624
G1 X138.221 Y107.686 E.01624
G1 X138.54 Y108.094 E.01624
G1 X138.906 Y108.46 E.01624
G1 X139.314 Y108.779 E.01624
G1 X139.757 Y109.047 E.01624
G1 X140.229 Y109.26 E.01624
G1 X140.724 Y109.414 E.01624
G1 X141.233 Y109.507 E.01624
G1 X141.726 Y109.537 E.01549
G1 X142.274 Y109.537 E.01717
G1 X142.767 Y109.507 E.01549
G1 X143.276 Y109.414 E.01624
G1 X143.771 Y109.26 E.01624
G1 X144.243 Y109.047 E.01624
G1 X144.686 Y108.779 E.01624
G1 X145.094 Y108.46 E.01624
G1 X145.46 Y108.094 E.01624
G1 X145.779 Y107.686 E.01624
G1 X146.047 Y107.243 E.01624
G1 X146.26 Y106.771 E.01624
G1 X146.414 Y106.276 E.01624
G1 X146.507 Y105.767 E.01624
G1 X146.537 Y105.274 E.01549
G1 X146.537 Y95.017 E.32159
G1 X146.561 Y94.459 E.01753
G1 X146.632 Y93.921 E.01699
G1 X146.75 Y93.392 E.01699
G1 X146.912 Y92.875 E.01699
G1 X147.12 Y92.375 E.01699
G1 X147.37 Y91.894 E.01699
G1 X147.661 Y91.437 E.01699
G1 X147.991 Y91.007 E.01699
G1 X148.357 Y90.607 E.01699
G1 X148.757 Y90.241 E.01699
G1 X149.187 Y89.911 E.01699
G1 X149.644 Y89.62 E.01699
G1 X150.125 Y89.37 E.01699
G1 X150.625 Y89.162 E.01699
G1 X151.142 Y89 E.01699
G1 X151.671 Y88.882 E.01699
G1 X152.209 Y88.811 E.01699
G1 X152.767 Y88.787 E.01753
G1 X165.233 Y88.787 E.39085
G1 X165.791 Y88.811 E.01753
G1 X166.329 Y88.882 E.01699
G1 X166.858 Y89 E.01699
G1 X167.375 Y89.162 E.01699
G1 X167.875 Y89.37 E.01699
G1 X168.356 Y89.62 E.01699
G1 X168.813 Y89.911 E.01699
G1 X169.243 Y90.241 E.01699
G1 X169.643 Y90.607 E.01699
G1 X170.009 Y91.007 E.01699
G1 X170.339 Y91.437 E.01699
G1 X170.63 Y91.894 E.01699
G1 X170.88 Y92.375 E.01699
G1 X171.088 Y92.875 E.01699
G1 X171.25 Y93.392 E.01699
G1 X171.368 Y93.921 E.01699
G1 X171.439 Y94.459 E.01699
G1 X171.463 Y95.017 E.01753
G1 X171.463 Y105.274 E.32159
G1 X171.493 Y105.767 E.01549
G1 X171.586 Y106.276 E.01624
G1 X171.74 Y106.771 E.01624
G1 X171.953 Y107.243 E.01624
G1 X172.221 Y107.686 E.01624
G1 X172.54 Y108.094 E.01624
G1 X172.906 Y108.46 E.01624
G1 X173.314 Y108.779 E.01624
G1 X173.757 Y109.047 E.01624
G1 X174.229 Y109.26 E.01624
G1 X174.724 Y109.414 E.01624
G1 X175.233 Y109.507 E.01624
G1 X175.726 Y109.537 E.01549
G1 X176.274 Y109.537 E.01717
G1 X176.767 Y109.507 E.01549
G1 X177.276 Y109.414 E.01624
G1 X177.771 Y109.26 E.01624
G1 X178.243 Y109.047 E.01624
G1 X178.686 Y108.779 E.01624
G1 X179.094 Y108.46 E.01624
G1 X179.46 Y108.094 E.01624
G1 X179.779 Y107.686 E.01624
G1 X180.047 Y107.243 E.01624
G1 X180.26 Y106.771 E.01624
G1 X180.414 Y106.276 E.01624
G1 X180.507 Y105.767 E.01624
G1 X180.537 Y105.274 E.01549
G1 X180.537 Y95.017 E.32159
G1 X180.561 Y94.459 E.01753
G1 X180.632 Y93.921 E.01699
G1 X180.75 Y93.392 E.01699
G1 X180.912 Y92.875 E.01699
G1 X181.12 Y92.375 E.01699
G1 X181.37 Y91.894 E.01699
G1 X181.661 Y91.437 E.01699
G1 X181.991 Y91.007 E.01699
G1 X182.357 Y90.607 E.01699
G1 X182.757 Y90.241 E.01699
G1 X183.187 Y89.911 E.01699
G1 X183.644 Y89.62 E.01699
G1 X184.125 Y89.37 E.01699
G1 X184.625 Y89.162 E.01699
G1 X185.142 Y89 E.01699
G1 X185.671 Y88.882 E.01699
G1 X186.209 Y88.811 E.01699
G1 X186.767 Y88.787 E.01753
G1 X191.974 Y88.787 E.16326
G1 X192.289 Y88.808 E.00988
G1 X192.572 Y88.864 E.00907
G1 X192.846 Y88.957 E.00907
G1 X193.106 Y89.085 E.00907
G1 X193.346 Y89.246 E.00907
G1 X193.564 Y89.436 E.00907
G1 X193.754 Y89.654 E.00907
G1 X193.915 Y89.894 E.00907
G1 X194.043 Y90.154 E.00907
G1 X194.136 Y90.428 E.00907
G1 X194.192 Y90.711 E.00907
G1 X194.213 Y91.026 E.00988
G1 X194.213 Y121.213 E.9465
G1 X168.537 Y121.213 E.80505
M73 P0 R113
G1 X168.537 Y121.037 E.00551
G1 X175.852 Y121.037 E.22936
M204 S1000
G1 X175.535 Y120.66 F10800
M204 S800
;TYPE:External perimeter
G1 F1200
G1 X175.535 Y117.59 E.09626
G1 X154.465 Y117.59 E.66064
G1 X154.465 Y120.66 E.09626
G1 X161.84 Y120.66 E.23124
G1 X161.84 Y121.59 E.02916
G1 X128.16 Y121.59 E1.05601
G1 X128.16 Y120.66 E.02916
G1 X135.535 Y120.66 E.23124
G1 X135.535 Y117.59 E.09626
G1 X114.465 Y117.59 E.66064
G1 X114.465 Y120.66 E.09626
G1 X121.84 Y120.66 E.23124
G1 X121.84 Y121.59 E.02916
G1 X88.16 Y121.59 E1.05601
G1 X88.16 Y120.66 E.02916
G1 X95.535 Y120.66 E.23124
G1 X95.535 Y117.59 E.09626
G1 X74.465 Y117.59 E.66064
G1 X74.465 Y120.66 E.09626
G1 X81.84 Y120.66 E.23124
G1 X81.84 Y121.59 E.02916
G1 X55.41 Y121.59 E.82869
G1 X55.41 Y91.013 E.95871
G1 X55.433 Y90.662 E.01104
G1 X55.499 Y90.33 E.01062
G1 X55.608 Y90.009 E.01062
G1 X55.758 Y89.705 E.01062
G1 X55.946 Y89.424 E.01062
G1 X56.169 Y89.169 E.01062
G1 X56.424 Y88.946 E.01062
G1 X56.705 Y88.758 E.01062
G1 X57.009 Y88.608 E.01062
G1 X57.33 Y88.499 E.01062
G1 X57.662 Y88.433 E.01062
G1 X58.013 Y88.41 E.01104
M73 Q1 S114
G1 X63.244 Y88.41 E.16401
G1 X63.824 Y88.435 E.0182
G1 X64.394 Y88.511 E.01802
G1 X64.956 Y88.635 E.01802
G1 X65.504 Y88.808 E.01802
G1 X66.035 Y89.028 E.01802
G1 X66.545 Y89.293 E.01802
G1 X67.03 Y89.602 E.01802
G1 X67.486 Y89.952 E.01802
G1 X67.91 Y90.34 E.01802
M73 P1 R113
G1 X68.298 Y90.764 E.01802
G1 X68.648 Y91.22 E.01803
G1 X68.957 Y91.705 E.01802
G1 X69.222 Y92.215 E.01802
G1 X69.442 Y92.746 E.01803
G1 X69.615 Y93.294 E.01802
G1 X69.739 Y93.856 E.01803
G1 X69.815 Y94.426 E.01802
G1 X69.84 Y95.009 E.01831
G1 X69.84 Y105.262 E.32149
G1 X69.868 Y105.721 E.01442
G1 X69.953 Y106.186 E.01481
G1 X70.093 Y106.637 E.01481
G1 X70.287 Y107.067 E.01481
G1 X70.532 Y107.472 E.01481
G1 X70.823 Y107.843 E.01481
G1 X71.157 Y108.177 E.01481
G1 X71.528 Y108.468 E.01481
G1 X71.933 Y108.713 E.01481
G1 X72.363 Y108.907 E.01481
G1 X72.814 Y109.047 E.01481
G1 X73.279 Y109.132 E.01481
G1 X73.738 Y109.16 E.01442
G1 X74.262 Y109.16 E.01645
G1 X74.721 Y109.132 E.01442
G1 X75.186 Y109.047 E.01481
G1 X75.637 Y108.907 E.01481
G1 X76.067 Y108.713 E.01481
G1 X76.472 Y108.468 E.01481
G1 X76.843 Y108.177 E.01481
G1 X77.177 Y107.843 E.01481
G1 X77.468 Y107.472 E.01481
G1 X77.713 Y107.067 E.01481
G1 X77.907 Y106.637 E.01481
G1 X78.047 Y106.186 E.01481
G1 X78.132 Y105.721 E.01481
G1 X78.16 Y105.262 E.01442
G1 X78.16 Y95.009 E.32149
G1 X78.185 Y94.426 E.01831
G1 X78.261 Y93.856 E.01802
G1 X78.385 Y93.294 E.01802
G1 X78.558 Y92.746 E.01802
G1 X78.778 Y92.215 E.01803
G1 X79.043 Y91.705 E.01802
G1 X79.352 Y91.22 E.01802
G1 X79.702 Y90.764 E.01802
G1 X80.09 Y90.34 E.01802
G1 X80.514 Y89.952 E.01802
G1 X80.97 Y89.602 E.01802
G1 X81.455 Y89.293 E.01802
G1 X81.965 Y89.028 E.01802
G1 X82.496 Y88.808 E.01802
G1 X83.044 Y88.635 E.01802
G1 X83.606 Y88.511 E.01802
G1 X84.176 Y88.435 E.01802
G1 X84.759 Y88.41 E.01831
G1 X97.241 Y88.41 E.39137
G1 X97.824 Y88.435 E.01831
G1 X98.394 Y88.511 E.01802
G1 X98.956 Y88.635 E.01802
G1 X99.504 Y88.808 E.01802
G1 X100.035 Y89.028 E.01803
G1 X100.545 Y89.293 E.01802
G1 X101.03 Y89.602 E.01802
G1 X101.486 Y89.952 E.01802
G1 X101.91 Y90.34 E.01802
G1 X102.298 Y90.764 E.01802
G1 X102.648 Y91.22 E.01802
G1 X102.957 Y91.705 E.01803
G1 X103.222 Y92.215 E.01802
G1 X103.442 Y92.746 E.01803
G1 X103.615 Y93.294 E.01802
G1 X103.739 Y93.856 E.01803
G1 X103.815 Y94.426 E.01802
G1 X103.84 Y95.009 E.01831
G1 X103.84 Y105.262 E.32149
G1 X103.868 Y105.721 E.01442
G1 X103.953 Y106.186 E.01481
G1 X104.093 Y106.637 E.01481
G1 X104.287 Y107.067 E.01481
G1 X104.532 Y107.472 E.01481
M73 Q1 S113
G1 X104.823 Y107.843 E.01481
G1 X105.157 Y108.177 E.01481
G1 X105.528 Y108.468 E.01481
G1 X105.933 Y108.713 E.01481
G1 X106.363 Y108.907 E.01481
G1 X106.814 Y109.047 E.01481
G1 X107.279 Y109.132 E.01481
G1 X107.738 Y109.16 E.01442
G1 X108.262 Y109.16 E.01645
G1 X108.721 Y109.132 E.01442
G1 X109.186 Y109.047 E.01481
G1 X109.637 Y108.907 E.01481
G1 X110.067 Y108.713 E.01481
G1 X110.472 Y108.468 E.01481
G1 X110.843 Y108.177 E.01481
G1 X111.177 Y107.843 E.01481
G1 X111.468 Y107.472 E.01481
G1 X111.713 Y107.067 E.01481
G1 X111.907 Y106.637 E.01481
G1 X112.047 Y106.186 E.01481
G1 X112.132 Y105.721 E.01481
G1 X112.16 Y105.262 E.01442
G1 X112.16 Y95.009 E.32149
G1 X112.185 Y94.426 E.01831
G1 X112.261 Y93.856 E.01802
G1 X112.385 Y93.294 E.01802
G1 X112.558 Y92.746 E.01802
G1 X112.778 Y92.215 E.01803
G1 X113.043 Y91.705 E.01802
G1 X113.352 Y91.22 E.01802
G1 X113.702 Y90.764 E.01802
