; generated by PrusaSlicer 2.4.1+win64 on 2023-12-05 at 11:41:36 UTC


;
;
; 

; external perimeters extrusion width = 0.60mm
; perimeters extrusion width = 0.50mm
; infill extrusion width = 0.50mm
; solid infill extrusion width = 0.50mm
; top infill extrusion width = 0.45mm
; first layer extrusion width = 0.42mm

M73 P0 R39
M73 Q0 S39
M201 X1000 Y1000 Z200 E5000 ; sets maximum accelerations, mm/sec^2
M203 X200 Y200 Z12 E120 ; sets maximum feedrates, mm / sec
M204 P1250 R1250 T1250 ; sets acceleration (P, T) and retract acceleration (R), mm/sec^2
M205 X8.00 Y8.00 Z0.40 E4.50 ; sets the jerk limits, mm/sec
M205 S0 T0 ; sets the minimum extruding and travel feed rate, mm/sec
M107
;TYPE:Custom
M862.3 P "MK3S" ; printer model check
M862.1 P0.4 ; nozzle diameter check
M115 U3.11.0 ; tell printer latest fw version
G90 ; use absolute coordinates
M83 ; extruder relative mode
M104 S215 ; set extruder temp
M140 S60 ; set bed temp
M190 S60 ; wait for bed temp
M109 S215 ; wait for extruder temp
G28 W ; home all without mesh bed level
G80 ; mesh bed leveling

G1 Z0.2 F720
G1 Y-3 F1000 ; go outside print area
G92 E0
G1 X60 E9 F1000 ; intro line
G1 X100 E12.5 F1000 ; intro line

G92 E0
M221 S95

; Don't change E values below. Excessive value can damage the printer.

M907 E538 ; set extruder motor current
G21 ; set units to millimeters
G90 ; use absolute coordinates
M83 ; use relative distances for extrusion
M900 K0.05 ; Filament gcode LA 1.5
M900 K30 ; Filament gcode LA 1.0
M107
;LAYER_CHANGE
;Z:0.2
;HEIGHT:0.2
;BEFORE_LAYER_CHANGE
G92 E0.0
;0.2


M73 P0 R38
G1 E-.8 F2100
G1 Z.4 F720
;AFTER_LAYER_CHANGE
;0.2
G1 X85.779 Y78.36 F10800
G1 Z.2 F720
G1 E.8 F2100
M204 S800
;TYPE:Skirt/Brim
;WIDTH:0.42
G1 F1200
G1 X86.617 Y77.793 E.03174
G1 X111.617 Y67.793 E.84424
G1 X131.923 Y62.694 E.65646
G1 X132.5 Y62.623 E.01821
G1 X162.5 Y62.623 E.94063
G1 X163.807 Y63.015 E.04278
G1 X164.683 Y64.06 E.04278
G1 X164.877 Y65 E.03008
G1 X164.877 Y100 E1.0974
G1 X164.806 Y100.577 E.01821
G1 X159.707 Y120.883 E.65646
G1 X149.707 Y145.883 E.84424
M73 Q0 S38
G1 X148.858 Y146.951 E.04278
G1 X147.562 Y147.376 E.04278
G1 X146.46 Y147.138 E.03534
G1 X110.853 Y129.816 E1.24153
G1 X110.212 Y129.359 E.02468
G1 X103.141 Y122.288 E.31354
G1 X102.636 Y121.54 E.02831
G1 X85.314 Y80.933 E1.38421
G1 X85.161 Y79.577 E.04278
G1 X85.752 Y78.414 E.0409
M204 S1000
; printing object Led53Wheinachtsbaum.stl id:0 copy 0
;WIPE_START
G1 F8640
G1 X86.617 Y77.793 E-.24595
G1 X88.684 Y76.966 E-.51405
;WIPE_END
G1 E-.04 F2100
G1 Z.6 F720
G1 X125.959 Y112.822 F10800
G1 Z.2 F720
G1 E.8 F2100
M204 S800
;TYPE:Perimeter
G1 F1200
G1 X126.722 Y112.059 E.03383
G1 X127.684 Y111.569 E.03384
G1 X128.75 Y111.401 E.03384
G1 X129.816 Y111.569 E.03384
G1 X130.778 Y112.059 E.03384
G1 X131.541 Y112.822 E.03383
G1 X132.031 Y113.784 E.03384
G1 X132.199 Y114.85 E.03384
G1 X132.031 Y115.916 E.03384
G1 X131.541 Y116.878 E.03384
G1 X130.778 Y117.641 E.03383
G1 X129.817 Y118.131 E.03383
G1 X128.75 Y118.3 E.03386
G1 X127.683 Y118.131 E.03386
G1 X126.722 Y117.641 E.03383
G1 X125.959 Y116.878 E.03383
G1 X125.469 Y115.917 E.03383
G1 X125.3 Y114.85 E.03386
G1 X125.469 Y113.783 E.03386
G1 X125.932 Y112.876 E.03195
M204 S1000
G1 X126.268 Y113.047 F10800
M204 S800
;TYPE:External perimeter
G1 F1200
G1 X126.947 Y112.368 E.03009
G1 X127.802 Y111.932 E.03009
G1 X128.75 Y111.783 E.0301
G1 X129.698 Y111.932 E.0301
G1 X130.553 Y112.368 E.03009
G1 X131.232 Y113.047 E.03009
G1 X131.668 Y113.902 E.03009
G1 X131.817 Y114.85 E.0301
G1 X131.668 Y115.798 E.0301
G1 X131.232 Y116.653 E.03009
G1 X130.553 Y117.332 E.03009
G1 X129.698 Y117.768 E.03008
G1 X128.75 Y117.918 E.03011
G1 X127.802 Y117.768 E.03011
G1 X126.947 Y117.332 E.03008
G1 X126.268 Y116.653 E.03009
G1 X125.832 Y115.798 E.03008
G1 X125.682 Y114.85 E.03011
G1 X125.832 Y113.902 E.03011
M73 Q1 S38
G1 X126.241 Y113.1 E.0282
M204 S1000
G1 X126.106 Y112.682 F10800
;WIPE_START
G1 F8640
G1 X126.947 Y112.368 E-.23484
G1 X127.802 Y111.932 E-.2216
G1 X128.75 Y111.783 E-.22163
G1 X129.101 Y111.838 E-.08193
;WIPE_END
M73 P1 R38
G1 E-.04 F2100
G1 Z.6 F720
G1 X136.369 Y109.917 F10800
G1 Z.2 F720
G1 E.8 F2100
M204 S800
;TYPE:Perimeter
G1 F1200
G1 X136.2 Y108.85 E.03386
G1 X136.369 Y107.783 E.03386
G1 X136.859 Y106.822 E.03383
G1 X137.622 Y106.059 E.03383
G1 X138.584 Y105.569 E.03384
G1 X139.65 Y105.401 E.03384
G1 X140.716 Y105.569 E.03384
G1 X141.678 Y106.059 E.03384
G1 X142.441 Y106.822 E.03383
G1 X142.931 Y107.784 E.03384
G1 X143.099 Y108.85 E.03384
G1 X142.931 Y109.916 E.03384
G1 X142.441 Y110.878 E.03384
G1 X141.678 Y111.641 E.03383
G1 X140.717 Y112.131 E.03383
G1 X139.65 Y112.3 E.03386
G1 X138.583 Y112.131 E.03386
G1 X137.622 Y111.641 E.03383
G1 X136.859 Y110.878 E.03383
G1 X136.396 Y109.97 E.03195
M204 S1000
G1 X136.732 Y109.798 F10800
M204 S800
;TYPE:External perimeter
G1 F1200
G1 X136.582 Y108.85 E.03011
G1 X136.732 Y107.902 E.03011
G1 X137.168 Y107.047 E.03008
G1 X137.847 Y106.368 E.03009
G1 X138.702 Y105.932 E.03009
G1 X139.65 Y105.783 E.0301
G1 X140.598 Y105.932 E.0301
G1 X141.453 Y106.368 E.03009
G1 X142.132 Y107.047 E.03009
G1 X142.568 Y107.902 E.03009
G1 X142.717 Y108.85 E.0301
G1 X142.568 Y109.798 E.0301
G1 X142.132 Y110.653 E.03009
G1 X141.453 Y111.332 E.03009
G1 X140.598 Y111.768 E.03008
G1 X139.65 Y111.918 E.03011
G1 X138.702 Y111.768 E.03011
G1 X137.847 Y111.332 E.03008
G1 X137.168 Y110.653 E.03009
G1 X136.76 Y109.852 E.0282
M204 S1000
G1 X136.341 Y109.715 F10800
;WIPE_START
G1 F8640
G1 X136.582 Y108.85 E-.23494
G1 X136.732 Y107.902 E-.22173
G1 X137.168 Y107.047 E-.22154
G1 X137.419 Y106.796 E-.0818
;WIPE_END
G1 E-.04 F2100
G1 Z.6 F720
G1 X146.959 Y104.878 F10800
G1 Z.2 F720
G1 E.8 F2100
M204 S800
;TYPE:Perimeter
G1 F1200
G1 X146.469 Y103.917 E.03383
G1 X146.3 Y102.85 E.03386
G1 X146.469 Y101.783 E.03386
G1 X146.959 Y100.822 E.03383
G1 X147.722 Y100.059 E.03383
G1 X148.684 Y99.569 E.03384
G1 X149.75 Y99.401 E.03384
G1 X150.816 Y99.569 E.03384
G1 X151.778 Y100.059 E.03384
G1 X152.541 Y100.822 E.03383
G1 X153.031 Y101.784 E.03384
G1 X153.199 Y102.85 E.03384
G1 X153.031 Y103.916 E.03384
G1 X152.541 Y104.878 E.03384
G1 X151.778 Y105.641 E.03383
G1 X150.817 Y106.131 E.03383
G1 X149.75 Y106.3 E.03386
G1 X148.683 Y106.131 E.03386
G1 X147.722 Y105.641 E.03383
G1 X147.002 Y104.92 E.03195
M204 S1000
G1 X147.268 Y104.653 F10800
M204 S800
;TYPE:External perimeter
G1 F1200
G1 X146.832 Y103.798 E.03008
G1 X146.682 Y102.85 E.03011
G1 X146.832 Y101.902 E.03011
G1 X147.268 Y101.047 E.03008
G1 X147.947 Y100.368 E.03009
G1 X148.802 Y99.932 E.03009
G1 X149.75 Y99.783 E.0301
G1 X150.698 Y99.932 E.0301
G1 X151.553 Y100.368 E.03009
G1 X152.232 Y101.047 E.03009
G1 X152.668 Y101.902 E.03009
G1 X152.817 Y102.85 E.0301
G1 X152.668 Y103.798 E.0301
G1 X152.232 Y104.653 E.03009
G1 X151.553 Y105.332 E.03009
G1 X150.698 Y105.768 E.03008
G1 X149.75 Y105.918 E.03011
G1 X148.802 Y105.768 E.03011
G1 X147.947 Y105.332 E.03008
G1 X147.311 Y104.695 E.02821
M204 S1000
G1 X146.87 Y104.695 F10800
;WIPE_START
G1 F8640
G1 X146.832 Y103.798 E-.23476
G1 X146.682 Y102.85 E-.22173
G1 X146.832 Y101.902 E-.22173
G1 X146.993 Y101.586 E-.08179
;WIPE_END
G1 E-.04 F2100
G1 Z.6 F720
G1 X149.583 Y94.031 F10800
G1 Z.2 F720
G1 E.8 F2100
M204 S800
;TYPE:Perimeter
G1 F1200
G1 X148.622 Y93.541 E.03383
G1 X147.859 Y92.778 E.03383
G1 X147.369 Y91.817 E.03383
G1 X147.2 Y90.75 E.03386
G1 X147.369 Y89.683 E.03386
G1 X147.859 Y88.722 E.03383
G1 X148.622 Y87.959 E.03383
G1 X149.584 Y87.469 E.03384
G1 X150.65 Y87.301 E.03384
G1 X151.716 Y87.469 E.03384
G1 X152.678 Y87.959 E.03384
G1 X153.441 Y88.722 E.03383
G1 X153.931 Y89.684 E.03384
G1 X154.099 Y90.75 E.03384
G1 X153.931 Y91.816 E.03384
G1 X153.441 Y92.778 E.03384
G1 X152.678 Y93.541 E.03383
G1 X151.717 Y94.031 E.03383
G1 X150.65 Y94.2 E.03386
G1 X149.643 Y94.04 E.03198
M204 S1000
G1 X149.702 Y93.668 F10800
M204 S800
;TYPE:External perimeter
G1 F1200
G1 X148.847 Y93.232 E.03008
G1 X148.168 Y92.553 E.03009
G1 X147.732 Y91.698 E.03008
G1 X147.582 Y90.75 E.03011
G1 X147.732 Y89.802 E.03011
G1 X148.168 Y88.947 E.03008
G1 X148.847 Y88.268 E.03009
G1 X149.702 Y87.832 E.03009
G1 X150.65 Y87.683 E.0301
G1 X151.598 Y87.832 E.0301
G1 X152.453 Y88.268 E.03009
G1 X153.132 Y88.947 E.03009
G1 X153.568 Y89.802 E.03009
G1 X153.717 Y90.75 E.0301
G1 X153.568 Y91.698 E.0301
G1 X153.132 Y92.553 E.03009
G1 X152.453 Y93.232 E.03009
G1 X151.598 Y93.668 E.03008
G1 X150.65 Y93.818 E.03011
G1 X149.761 Y93.677 E.02823
M204 S1000
G1 X149.404 Y93.935 F10800
;WIPE_START
G1 F8640
G1 X148.847 Y93.232 E-.23475
G1 X148.168 Y92.553 E-.22162
G1 X147.732 Y91.698 E-.22154
G1 X147.677 Y91.347 E-.08208
;WIPE_END
G1 E-.04 F2100
G1 Z.6 F720
G1 X155.622 Y85.541 F10800
G1 Z.2 F720
G1 E.8 F2100
M204 S800
;TYPE:Perimeter
G1 F1200
G1 X154.859 Y84.778 E.03383
G1 X154.369 Y83.817 E.03383
G1 X154.2 Y82.75 E.03386
G1 X154.369 Y81.683 E.03386
G1 X154.859 Y80.722 E.03383
G1 X155.622 Y79.959 E.03383
G1 X156.584 Y79.469 E.03384
G1 X157.65 Y79.301 E.03384
G1 X158.716 Y79.469 E.03384
G1 X159.678 Y79.959 E.03384
G1 X160.441 Y80.722 E.03383
G1 X160.931 Y81.683 E.03383
G1 X161.1 Y82.75 E.03386
G1 X160.931 Y83.817 E.03386
G1 X160.441 Y84.778 E.03383
G1 X159.678 Y85.541 E.03383
G1 X158.717 Y86.031 E.03383
G1 X157.65 Y86.2 E.03386
G1 X156.583 Y86.031 E.03386
G1 X155.676 Y85.568 E.03195
M204 S1000
G1 X155.847 Y85.232 F10800
M204 S800
;TYPE:External perimeter
G1 F1200
G1 X155.168 Y84.553 E.03009
G1 X154.732 Y83.698 E.03008
G1 X154.582 Y82.75 E.03011
G1 X154.732 Y81.802 E.03011
G1 X155.168 Y80.947 E.03008
G1 X155.847 Y80.268 E.03009
G1 X156.702 Y79.832 E.03009
G1 X157.65 Y79.683 E.0301
G1 X158.598 Y79.832 E.0301
G1 X159.453 Y80.268 E.03009
G1 X160.132 Y80.947 E.03009
G1 X160.568 Y81.802 E.03008
G1 X160.718 Y82.75 E.03011
G1 X160.568 Y83.698 E.03011
G1 X160.132 Y84.553 E.03008
G1 X159.453 Y85.232 E.03009
G1 X158.598 Y85.668 E.03008
G1 X157.65 Y85.818 E.03011
G1 X156.702 Y85.668 E.03011
G1 X155.9 Y85.259 E.0282
M204 S1000
G1 X155.481 Y85.394 F10800
;WIPE_START
G1 F8640
G1 X155.168 Y84.553 E-.23484
G1 X154.732 Y83.698 E-.22154
G1 X154.582 Y82.75 E-.22173
G1 X154.637 Y82.4 E-.0819
;WIPE_END
G1 E-.04 F2100
G1 Z.6 F720
G1 X155.75 Y76 F10800
G1 Z.2 F720
G1 E.8 F2100
M204 S800
;TYPE:Perimeter
G1 F1200
G1 X154.653 Y75.826 E.03484
G1 X153.664 Y75.322 E.03481
G1 X152.878 Y74.536 E.03482
G1 X152.374 Y73.547 E.03481
G1 X152.2 Y72.45 E.03484
G1 X152.374 Y71.353 E.03484
G1 X152.878 Y70.364 E.03481
G1 X153.664 Y69.578 E.03482
G1 X154.653 Y69.074 E.03481
G1 X155.75 Y68.9 E.03484
G1 X156.847 Y69.074 E.03484
G1 X157.836 Y69.578 E.03481
G1 X158.622 Y70.364 E.03482
G1 X159.126 Y71.353 E.03481
G1 X159.3 Y72.45 E.03484
G1 X159.126 Y73.547 E.03484
G1 X158.622 Y74.536 E.03481
G1 X157.836 Y75.322 E.03482
G1 X156.847 Y75.826 E.03481
G1 X155.809 Y75.991 E.03296
M204 S1000
G1 X155.75 Y75.618 F10800
M204 S800
;TYPE:External perimeter
G1 F1200
G1 X154.771 Y75.463 E.03109
G1 X153.888 Y75.013 E.03106
G1 X153.187 Y74.312 E.03107
G1 X152.737 Y73.429 E.03106
G1 X152.582 Y72.45 E.03109
G1 X152.737 Y71.471 E.03109
G1 X153.187 Y70.588 E.03106
G1 X153.888 Y69.887 E.03107
G1 X154.771 Y69.437 E.03106
G1 X155.75 Y69.282 E.03109
G1 X156.729 Y69.437 E.03109
G1 X157.612 Y69.887 E.03106
G1 X158.313 Y70.588 E.03107
G1 X158.763 Y71.471 E.03106
G1 X158.918 Y72.45 E.03109
G1 X158.763 Y73.429 E.03109
G1 X158.313 Y74.312 E.03106
G1 X157.612 Y75.013 E.03107
G1 X156.729 Y75.463 E.03106
G1 X155.809 Y75.609 E.02921
M204 S1000
G1 X155.55 Y75.965 F10800
;WIPE_START
G1 F8640
G1 X154.771 Y75.463 E-.24218
G1 X153.888 Y75.013 E-.22876
G1 X153.187 Y74.312 E-.22883
G1 X153.069 Y74.08 E-.06022
;WIPE_END
G1 E-.04 F2100
G1 Z.6 F720
G1 X142.299 Y77.75 F10800
G1 Z.2 F720
G1 E.8 F2100
M204 S800
;TYPE:Perimeter
G1 F1200
G1 X142.131 Y78.816 E.03384
G1 X141.641 Y79.778 E.03384
G1 X140.878 Y80.541 E.03383
G1 X139.917 Y81.031 E.03383
G1 X138.85 Y81.2 E.03386
G1 X137.783 Y81.031 E.03386
G1 X136.822 Y80.541 E.03383
G1 X136.059 Y79.778 E.03383
G1 X135.569 Y78.817 E.03383
G1 X135.4 Y77.75 E.03386
G1 X135.569 Y76.683 E.03386
G1 X136.059 Y75.722 E.03383
G1 X136.822 Y74.959 E.03383
G1 X137.784 Y74.469 E.03384
G1 X138.85 Y74.301 E.03384
G1 X139.916 Y74.469 E.03384
G1 X140.878 Y74.959 E.03384
G1 X141.641 Y75.722 E.03383
G1 X142.131 Y76.684 E.03384
G1 X142.289 Y77.691 E.03196
M204 S1000
G1 X141.917 Y77.75 F10800
M204 S800
;TYPE:External perimeter
G1 F1200
G1 X141.768 Y78.698 E.0301
G1 X141.332 Y79.553 E.03009
G1 X140.653 Y80.232 E.03009
G1 X139.798 Y80.668 E.03008
G1 X138.85 Y80.818 E.03011
G1 X137.902 Y80.668 E.03011
G1 X137.047 Y80.232 E.03008
G1 X136.368 Y79.553 E.03009
G1 X135.932 Y78.698 E.03008
G1 X135.782 Y77.75 E.03011
G1 X135.932 Y76.802 E.03011
G1 X136.368 Y75.947 E.03008
G1 X137.047 Y75.268 E.03009
G1 X137.902 Y74.832 E.03009
G1 X138.85 Y74.683 E.0301
G1 X139.798 Y74.832 E.0301
G1 X140.653 Y75.268 E.03009
G1 X141.332 Y75.947 E.03009
G1 X141.768 Y76.802 E.03009
G1 X141.908 Y77.691 E.02821
M204 S1000
G1 X142.264 Y77.95 F10800
;WIPE_START
G1 F8640
G1 X141.768 Y78.698 E-.23485
G1 X141.332 Y79.553 E-.2216
G1 X140.653 Y80.232 E-.22162
G1 X140.337 Y80.393 E-.08192
;WIPE_END
G1 E-.04 F2100
G1 Z.6 F720
G1 X130.199 Y76.75 F10800
G1 Z.2 F720
G1 E.8 F2100
M204 S800
;TYPE:Perimeter
G1 F1200
G1 X130.031 Y77.816 E.03384
G1 X129.541 Y78.778 E.03384
G1 X128.778 Y79.541 E.03383
G1 X127.817 Y80.031 E.03383
G1 X126.75 Y80.2 E.03386
G1 X125.683 Y80.031 E.03386
G1 X124.722 Y79.541 E.03383
G1 X123.959 Y78.778 E.03383
G1 X123.469 Y77.817 E.03383
G1 X123.3 Y76.75 E.03386
G1 X123.469 Y75.683 E.03386
G1 X123.959 Y74.722 E.03383
G1 X124.722 Y73.959 E.03383
G1 X125.684 Y73.469 E.03384
G1 X126.75 Y73.301 E.03384
G1 X127.816 Y73.469 E.03384
G1 X128.778 Y73.959 E.03384
G1 X129.541 Y74.722 E.03383
G1 X130.031 Y75.684 E.03384
G1 X130.189 Y76.691 E.03196
M204 S1000
G1 X129.817 Y76.75 F10800
M204 S800
;TYPE:External perimeter
G1 F1200
G1 X129.668 Y77.698 E.0301
G1 X129.232 Y78.553 E.03009
G1 X128.553 Y79.232 E.03009
G1 X127.698 Y79.668 E.03008
G1 X126.75 Y79.818 E.03011
G1 X125.802 Y79.668 E.03011
G1 X124.947 Y79.232 E.03008
G1 X124.268 Y78.553 E.03009
G1 X123.832 Y77.698 E.03008
G1 X123.682 Y76.75 E.03011
G1 X123.832 Y75.802 E.03011
G1 X124.268 Y74.947 E.03008
G1 X124.947 Y74.268 E.03009
G1 X125.802 Y73.832 E.03009
G1 X126.75 Y73.683 E.0301
G1 X127.698 Y73.832 E.0301
G1 X128.553 Y74.268 E.03009
G1 X129.232 Y74.947 E.03009
G1 X129.668 Y75.802 E.03009
G1 X129.808 Y76.691 E.02821
M204 S1000
G1 X130.164 Y76.95 F10800
;WIPE_START
G1 F8640
G1 X129.668 Y77.698 E-.23485
G1 X129.232 Y78.553 E-.2216
G1 X128.553 Y79.232 E-.22162
G1 X128.237 Y79.393 E-.08192
;WIPE_END
G1 E-.04 F2100
G1 Z.6 F720
G1 X122.778 Y85.059 F10800
G1 Z.2 F720
G1 E.8 F2100
M204 S800
;TYPE:Perimeter
G1 F1200
G1 X123.541 Y85.822 E.03383
G1 X124.031 Y86.784 E.03384
G1 X124.199 Y87.85 E.03384
G1 X124.031 Y88.916 E.03384
G1 X123.541 Y89.878 E.03384
G1 X122.778 Y90.641 E.03383
G1 X121.817 Y91.131 E.03383
G1 X120.75 Y91.3 E.03386
G1 X119.683 Y91.131 E.03386
G1 X118.722 Y90.641 E.03383
G1 X117.959 Y89.878 E.03383
G1 X117.469 Y88.917 E.03383
G1 X117.3 Y87.85 E.03386
G1 X117.469 Y86.783 E.03386
G1 X117.959 Y85.822 E.03383
G1 X118.722 Y85.059 E.03383
G1 X119.684 Y84.569 E.03384
G1 X120.75 Y84.401 E.03384
G1 X121.816 Y84.569 E.03384
G1 X122.724 Y85.032 E.03196
M204 S1000
G1 X122.553 Y85.368 F10800
M204 S800
;TYPE:External perimeter
G1 F1200
G1 X123.232 Y86.047 E.03009
G1 X123.668 Y86.902 E.03009
G1 X123.817 Y87.85 E.0301
G1 X123.668 Y88.798 E.0301
G1 X123.232 Y89.653 E.03009
G1 X122.553 Y90.332 E.03009
G1 X121.698 Y90.768 E.03008
G1 X120.75 Y90.918 E.03011
G1 X119.802 Y90.768 E.03011
G1 X118.947 Y90.332 E.03008
G1 X118.268 Y89.653 E.03009
G1 X117.832 Y88.798 E.03008
G1 X117.682 Y87.85 E.03011
G1 X117.832 Y86.902 E.03011
G1 X118.268 Y86.047 E.03008
G1 X118.947 Y85.368 E.03009
G1 X119.802 Y84.932 E.03009
G1 X120.75 Y84.783 E.0301
G1 X121.698 Y84.932 E.0301
G1 X122.5 Y85.341 E.02821
M204 S1000
G1 X122.918 Y85.206 F10800
;WIPE_START
G1 F8640
G1 X123.232 Y86.047 E-.23484
G1 X123.668 Y86.902 E-.2216
G1 X123.817 Y87.85 E-.22163
G1 X123.762 Y88.201 E-.08193
;WIPE_END
G1 E-.04 F2100
