; generated by PrusaSlicer 2.6.0+win64 on 2023-12-01 at 11:27:22 UTC


;
;
; 

; external perimeters extrusion width = 0.60mm
; perimeters extrusion width = 0.50mm
; infill extrusion width = 0.50mm
; solid infill extrusion width = 0.50mm
; top infill extrusion width = 0.45mm
; first layer extrusion width = 0.42mm

M73 P0 R39
M73 Q0 S39
M201 X1000 Y1000 Z200 E5000 ; sets maximum accelerations, mm/sec^2
M203 X200 Y200 Z12 E120 ; sets maximum feedrates, mm / sec
M204 S1250 T1250 ; sets acceleration (S) and retract acceleration (R), mm/sec^2
M205 X8.00 Y8.00 Z0.40 E4.50 ; sets the jerk limits, mm/sec
M205 S0 T0 ; sets the minimum extruding and travel feed rate, mm/sec
;TYPE:Custom
M862.3 P "MK3S" ; printer model check
M862.1 P0.4 ; nozzle diameter check
M115 U3.12.2 ; tell printer latest fw version
G90 ; use absolute coordinates
M83 ; extruder relative mode
M104 S215 ; set extruder temp
M140 S60 ; set bed temp
M190 S60 ; wait for bed temp
M109 S215 ; wait for extruder temp
G28 W ; home all without mesh bed level
G80 ; mesh bed leveling

G1 Z0.2 F720
G1 Y-3 F1000 ; go outside print area
G92 E0
G1 X60 E9 F1000 ; intro line
G1 X100 E12.5 F1000 ; intro line

G92 E0
M221 S95

; Don't change E values below. Excessive value can damage the printer.

M907 E538 ; set extruder motor current
G21 ; set units to millimeters
G90 ; use absolute coordinates
M83 ; use relative distances for extrusion
M900 K0.05 ; Filament gcode LA 1.5
M900 K30 ; Filament gcode LA 1.0
M107
;LAYER_CHANGE
;Z:0.2
;HEIGHT:0.2
;BEFORE_LAYER_CHANGE
G92 E0.0
;0.2


G1 E-.8 F2100
G1 Z.4 F720
;AFTER_LAYER_CHANGE
;0.2
G1 X85.779 Y78.36 F10800
G1 Z.2 F720
G1 E.8 F2100
M204 S800
;TYPE:Skirt/Brim
;WIDTH:0.42
G1 F1200
G1 X86.617 Y77.793 E.03172
G1 X111.617 Y67.793 E.84424
G1 X131.923 Y62.694 E.65645
G1 X132.5 Y62.623 E.01823
G1 X162.5 Y62.623 E.94063
G1 X163.807 Y63.015 E.04278
G1 X164.683 Y64.06 E.04275
G1 X164.877 Y65 E.03009
G1 X164.877 Y100 E1.0974
G1 X164.806 Y100.577 E.01823
G1 X159.707 Y120.883 E.65645
G1 X149.707 Y145.883 E.84424
G1 X148.858 Y146.951 E.04278
G1 X147.562 Y147.376 E.04276
G1 X146.46 Y147.138 E.03535
G1 X110.853 Y129.816 E1.24153
G1 X110.212 Y129.359 E.02468
G1 X103.141 Y122.288 E.31354
G1 X102.636 Y121.54 E.0283
G1 X85.314 Y80.933 E1.38421
G1 X85.161 Y79.577 E.04279
G1 X85.752 Y78.414 E.0409
M204 S1000
; printing object LedWheinachtsbaumstl.stl id:0 copy 0
;WIPE_START
G1 F8640
G1 X86.617 Y77.793 E-.24587
G1 X88.845 Y76.902 E-.55413
;WIPE_END
G1 Z.6 F720
G1 X157.516 Y93.354 F10800
G1 Z.2 F720
G1 E.8 F2100
M204 S800
;TYPE:Perimeter
;WIDTH:0.419999
G1 F1200
G1 X157.406 Y93.364 E.00346
G1 X156.938 Y93.561 E.01592
G1 X156.775 Y93.755 E.00794
G1 X156.713 Y94.012 E.00829
G1 X156.713 Y117.011 E.72112
G1 X156.743 Y118.028 E.0319
G1 X156.089 Y117.256 E.03172
G1 X148.372 Y108.681 E.36171
G1 X147.874 Y108.156 E.02269
G1 X147.721 Y108.085 E.00529
G1 X147.371 Y108.096 E.01098
G1 X147.01 Y108.239 E.01217
G1 X146.814 Y108.415 E.00826
G1 X146.713 Y108.737 E.01058
G1 X146.713 Y142.004 E1.04306
G1 X146.748 Y143.079 E.03372
M73 P1 R39
M73 Q1 S39
G1 X146.046 Y142.265 E.0337
G1 X122.804 Y117.086 E1.07439
G1 X122.388 Y116.67 E.01845
G1 X122.224 Y116.605 E.00553
G1 X121.929 Y116.618 E.00926
G1 X121.701 Y116.757 E.00837
G1 X111.893 Y126.565 E.4349
G1 X105.935 Y120.607 E.26419
G1 X116.013 Y110.529 E.44687
G1 X116.155 Y110.29 E.00872
G1 X116.165 Y110.005 E.00894
G1 X116.029 Y109.746 E.00917
G1 X90.113 Y81.67 E1.198
G1 X89.162 Y80.728 E.04197
G1 X89.487 Y80.764 E.01025
G1 X90.456 Y80.787 E.03039
G1 X121.007 Y80.787 E.9579
G1 X121.813 Y80.761 E.02528
G1 X122.055 Y80.61 E.00894
G1 X122.278 Y80.189 E.01494
G1 X122.312 Y79.832 E.01124
G1 X122.181 Y79.58 E.00891
G1 X114.749 Y71.327 E.34823
G1 X114.114 Y70.724 E.02746
G1 X114.46 Y70.765 E.01092
G1 X114.978 Y70.784 E.01625
G1 X135.771 Y70.787 E.65195
G1 X136.985 Y70.784 E.03806
G1 X137.249 Y70.687 E.00882
G1 X137.419 Y70.502 E.00788
G1 X137.603 Y70.063 E.01492
G1 X137.577 Y69.767 E.00932
G1 X137.475 Y69.595 E.00627
G1 X134.589 Y66.237 E.13883
G1 X134.056 Y65.72 E.02328
G1 X134.859 Y65.776 E.02524
G1 X135.5 Y65.787 E.0201
G1 X142.921 Y65.785 E.23268
G1 X142.682 Y65.933 E.00881
G1 X141.929 Y66.723 E.03422
G1 X141.458 Y67.707 E.0342
G1 X141.314 Y68.789 E.03422
G1 X141.458 Y69.693 E.0287
G1 X141.643 Y70.117 E.0145
G1 X141.974 Y70.751 E.02242
G1 X142.754 Y71.529 E.03454
G1 X143.767 Y72.034 E.03549
G1 X144.297 Y72.12 E.01684
G1 X144.889 Y72.186 E.01868
G1 X145.961 Y71.987 E.03419
G1 X146.92 Y71.467 E.0342
G1 X147.671 Y70.677 E.03418
G1 X148.142 Y69.693 E.0342
G1 X148.285 Y68.612 E.03419
G1 X148.087 Y67.539 E.03421
G1 X147.567 Y66.579 E.03423
G1 X146.933 Y65.948 E.02805
G1 X146.67 Y65.781 E.00977
G1 X161.713 Y65.787 E.47166
G1 X161.713 Y80.436 E.45931
;WIDTH:0.468197
G1 X161.689 Y81.014 E.02046
;WIDTH:0.516394
G1 X161.665 Y81.593 E.02281
G1 X161.682 Y82.158 E.02225
;WIDTH:0.481424
G1 X161.7 Y82.723 E.02061
G1 X161.682 Y83.165 E.01613
;WIDTH:0.516405
G1 X161.665 Y83.607 E.01741
G1 X161.681 Y83.743 E.00539
;WIDTH:0.484995
G1 X161.696 Y83.879 E.00503
;WIDTH:0.453584
G1 X161.713 Y84.764 E.03023
;WIDTH:0.419999
G1 X161.713 Y97 E.38365
G1 X161.746 Y97.961 E.03015
G1 X161.531 Y97.671 E.01132
G1 X157.998 Y93.538 E.17048
G1 X157.874 Y93.43 E.00516
G1 X157.629 Y93.343 E.00815
G1 X157.575 Y93.348 E.0017
M204 S1000
G1 X157.546 Y93.718 F10800
M204 S800
;TYPE:External perimeter
G1 F1200
G1 X157.142 Y93.883 E.01368
G1 X157.09 Y94.012 E.00436
G1 X157.09 Y117.026 E.72159
G1 X157.126 Y118.044 E.03194
G1 X157.287 Y119.008 E.03064
G1 X157.29 Y119.453 E.01395
G1 X156.994 Y119.121 E.01395
G1 X156.452 Y118.273 E.03156
G1 X155.806 Y117.505 E.03147
G1 X147.667 Y108.47 E.38128
G1 X147.499 Y108.45 E.0053
G1 X147.138 Y108.611 E.01239
G1 X147.09 Y108.737 E.00423
G1 X147.09 Y142.038 E1.04413
G1 X147.125 Y143.055 E.03191
G1 X147.287 Y144.01 E.03037
G1 X147.29 Y144.463 E.0142
G1 X147.002 Y144.151 E.01331
G1 X146.729 Y143.713 E.01618
G1 X146.428 Y143.281 E.01651
G1 X145.769 Y142.521 E.03154
G1 X122.239 Y117.029 E1.08773
G1 X122.081 Y116.97 E.00529
G1 X121.967 Y117.024 E.00396
G1 X111.893 Y127.098 E.4467
G1 X105.402 Y120.607 E.28782
G1 X115.746 Y110.263 E.45867
M73 P1 R38
G1 X115.801 Y110.146 E.00405
G1 X115.752 Y110.001 E.0048
G1 X89.836 Y81.926 E1.19798
G1 X89.1 Y81.168 E.03313
M73 P2 R38
M73 Q2 S39
G1 X88.336 Y80.588 E.03008
G1 X87.998 Y80.229 E.01546
G1 X88.484 Y80.215 E.01524
G1 X88.974 Y80.323 E.01573
G1 X89.496 Y80.387 E.01649
G1 X90.456 Y80.41 E.03011
G1 X121.644 Y80.41 E.97788
G1 X121.777 Y80.355 E.00451
G1 X121.933 Y80.035 E.01116
G1 X121.945 Y79.916 E.00375
G1 X121.901 Y79.833 E.00295
G1 X114.469 Y71.579 E.34825
G1 X113.73 Y70.879 E.03192
G1 X113.327 Y70.596 E.01544
G1 X112.981 Y70.214 E.01616
G1 X113.467 Y70.21 E.01524
G1 X113.959 Y70.324 E.01583
G1 X114.474 Y70.389 E.01628
G1 X114.978 Y70.407 E.01581
G1 X136.928 Y70.41 E.68823
G1 X137.059 Y70.357 E.00443
G1 X137.232 Y69.997 E.01252
G1 X137.189 Y69.841 E.00507
G1 X134.327 Y66.508 E.13774
G1 X133.701 Y65.902 E.02732
G1 X133.319 Y65.605 E.01517
G1 X132.966 Y65.217 E.01645
G1 X133.475 Y65.21 E.01596
G1 X133.974 Y65.331 E.0161
G1 X134.495 Y65.393 E.01645
G1 X135.497 Y65.41 E.03142
G1 X143.005 Y65.408 E.23541
;WIDTH:0.427392
G1 X145.002 Y65.321 E.0639
;WIDTH:0.422177
G1 X145.996 Y65.392 E.03143
G1 X146.996 Y65.41 E.03154
;WIDTH:0.419999
G1 X162.09 Y65.41 E.47326
G1 X162.09 Y97.002 E.99054
G1 X162.1 Y97.57 E.01781
G1 X162.142 Y98.11 E.01698
G1 X162.29 Y99.029 E.02919
G1 X162.29 Y99.432 E.01264
G1 X162.046 Y99.147 E.01176
G1 X161.548 Y98.33 E.03
G1 X161.244 Y97.916 E.0161
G1 X157.711 Y93.783 E.17048
G1 X157.67 Y93.747 E.00171
G1 X157.605 Y93.732 E.00209
M204 S1000
G1 X157.302 Y93.401 F10800
;WIPE_START
G1 F8640
G1 X157.142 Y93.883 E-.11245
G1 X157.09 Y94.012 E-.03212
G1 X157.09 Y96.851 E-.65543
;WIPE_END
G1 Z.6 F720
M73 Q2 S38
G1 X151.755 Y105.874 F10800
G1 Z.2 F720
G1 E.8 F2100
M204 S800
;TYPE:Perimeter
G1 F1200
G1 X150.823 Y106.377 E.03321
G1 X149.689 Y106.586 E.03615
G1 X148.937 Y106.494 E.02375
G1 X148.384 Y106.381 E.0177
G1 X147.506 Y105.933 E.03091
G1 X146.769 Y105.237 E.03178
G1 X146.567 Y104.994 E.00991
G1 X146.123 Y104.123 E.03065
G1 X145.914 Y102.989 E.03615
G1 X146.068 Y101.845 E.03619
G1 X146.567 Y100.806 E.03614
G1 X146.944 Y100.389 E.01763
G1 X147.362 Y99.971 E.01853
G1 X147.892 Y99.67 E.01911
G1 X148.377 Y99.423 E.01707
G1 X148.943 Y99.305 E.01813
G1 X149.512 Y99.215 E.01806
G1 X150.009 Y99.266 E.01566
G1 X150.655 Y99.368 E.02051
G1 X151.694 Y99.867 E.03614
G1 X151.838 Y99.971 E.00557
G1 X152.529 Y100.662 E.03064
G1 X153.077 Y101.677 E.03617
G1 X153.285 Y102.812 E.03618
G1 X153.132 Y103.955 E.03616
G1 X152.633 Y104.994 E.03614
G1 X151.808 Y105.845 E.03716
M204 S1000
G1 X151.588 Y105.546 F10800
M204 S800
;TYPE:External perimeter
G1 F1200
G1 X150.652 Y106.041 E.0332
G1 X149.63 Y106.213 E.03249
G1 X148.997 Y106.122 E.02005
G1 X148.548 Y106.041 E.01431
G1 X147.677 Y105.597 E.03065
G1 X146.903 Y104.823 E.03432
G1 X146.458 Y103.95 E.03072
G1 X146.287 Y102.93 E.03243
G1 X146.441 Y101.904 E.03253
G1 X146.903 Y100.977 E.03248
G1 X147.629 Y100.237 E.0325
G1 X148.548 Y99.759 E.03248
G1 X149.571 Y99.588 E.03252
G1 X150.516 Y99.728 E.02995
G1 X150.815 Y99.842 E.01003
G1 X151.523 Y100.203 E.02492
G1 X152.263 Y100.929 E.0325
G1 X152.741 Y101.848 E.03248
G1 X152.912 Y102.871 E.03252
G1 X152.759 Y103.896 E.03249
G1 X152.297 Y104.823 E.03248
G1 X151.63 Y105.503 E.02987
M204 S1000
G1 X151.635 Y105.943 F10800
;WIPE_START
G1 F8640
G1 X150.652 Y106.041 E-.25774
G1 X149.63 Y106.213 E-.2393
G1 X148.997 Y106.122 E-.14766
G1 X148.548 Y106.041 E-.10535
G1 X148.355 Y105.943 E-.04995
;WIPE_END
G1 Z.6 F720
G1 X151.98 Y87.39 F10800
G1 Z.2 F720
G1 E.8 F2100
M204 S800
;TYPE:Perimeter
G1 F1200
G1 X152.839 Y87.8 E.02984
G1 X153.409 Y88.331 E.02443
G1 X153.7 Y88.661 E.0138
G1 X154.095 Y89.435 E.02725
G1 X154.251 Y90.244 E.02583
G1 X154.285 Y90.638 E.0124
G1 X154.15 Y91.496 E.02723
G1 X153.803 Y92.238 E.02568
G1 X153.596 Y92.582 E.01259
G1 X152.982 Y93.196 E.02723
G1 X152.066 Y93.695 E.03271
G1 X151.039 Y93.886 E.03275
G1 X150.54 Y93.835 E.01573
G1 X150.003 Y93.75 E.01705
G1 X149.476 Y93.512 E.01813
G1 X149.012 Y93.272 E.01638
G1 X148.256 Y92.528 E.03326
G1 X147.805 Y91.666 E.0305
G1 X147.685 Y91.086 E.01857
G1 X147.611 Y90.615 E.01495
G1 X147.75 Y89.603 E.03203
G1 X147.963 Y89.126 E.01638
G1 X148.2 Y88.661 E.01636
G1 X148.582 Y88.24 E.01782
G1 X148.95 Y87.875 E.01625
G1 X149.491 Y87.58 E.01932
G1 X149.967 Y87.357 E.01648
G1 X150.862 Y87.215 E.02841
G1 X151.926 Y87.364 E.03369
M204 S1000
G1 X151.814 Y87.719 F10800
M204 S800
;TYPE:External perimeter
G1 F1200
G1 X152.668 Y88.136 E.0298
G1 X153.364 Y88.832 E.03086
G1 X153.759 Y89.606 E.02725
G1 X153.878 Y90.302 E.02214
G1 X153.912 Y90.579 E.00875
G1 X153.778 Y91.438 E.02726
G1 X153.33 Y92.315 E.03088
G1 X152.715 Y92.93 E.02727
G1 X151.894 Y93.359 E.02904
G1 X150.98 Y93.513 E.02906
G1 X150.062 Y93.377 E.0291
G1 X149.232 Y92.964 E.02907
G1 X148.57 Y92.315 E.02907
G1 X148.141 Y91.494 E.02904
G1 X147.986 Y90.572 E.02931
G1 X148.123 Y89.662 E.02885
G1 X148.536 Y88.832 E.02907
G1 X149.185 Y88.17 E.02907
G1 X150.062 Y87.722 E.03088
G1 X150.921 Y87.588 E.02726
G1 X151.754 Y87.71 E.0264
M204 S1000
G1 X152.108 Y87.448 F10800
;WIPE_START
G1 F8640
G1 X152.668 Y88.136 E-.23284
G1 X153.364 Y88.832 E-.22728
G1 X153.759 Y89.606 E-.20065
G1 X153.861 Y90.2 E-.13923
;WIPE_END
G1 Z.6 F720
G1 X160.626 Y84.586 F10800
G1 Z.2 F720
G1 E.8 F2100
M204 S800
;TYPE:Perimeter
G1 F1200
G1 X159.962 Y85.286 E.03025
G1 X159.03 Y85.792 E.03325
G1 X157.989 Y85.986 E.0332
G1 X156.938 Y85.847 E.03324
G1 X155.981 Y85.39 E.03325
G1 X155.214 Y84.662 E.03316
G1 X154.708 Y83.73 E.03325
G1 X154.514 Y82.689 E.0332
G1 X154.571 Y82.151 E.01696
G1 X154.669 Y81.568 E.01854
G1 X155.11 Y80.681 E.03106
G1 X155.449 Y80.303 E.01592
G1 X155.838 Y79.914 E.01725
G1 X156.367 Y79.613 E.01908
G1 X156.841 Y79.378 E.01659
G1 X157.403 Y79.28 E.01789
G1 X157.988 Y79.215 E.01846
G1 X158.862 Y79.353 E.02774
G1 X159.819 Y79.81 E.03325
G1 X160.586 Y80.538 E.03316
;WIDTH:0.449962
G1 X161.105 Y81.463 E.0359
;WIDTH:0.483178
G1 X161.15 Y81.547 E.00349
;WIDTH:0.516394
G1 X161.194 Y81.63 E.0037
G1 X161.247 Y82.07 E.01745
;WIDTH:0.481418
G1 X161.299 Y82.509 E.01612
G1 X161.247 Y83.039 E.01942
;WIDTH:0.516405
G1 X161.194 Y83.57 E.02101
G1 X160.942 Y84.044 E.02113
;WIDTH:0.468202
G1 X160.69 Y84.519 E.01901
;WIDTH:0.419999
G1 X160.668 Y84.543 E.00102
M204 S1000
G1 X160.365 Y84.326 F10800
M204 S800
;TYPE:External perimeter
G1 F1200
G1 X159.695 Y85.02 E.03025
G1 X158.859 Y85.456 E.02956
G1 X157.93 Y85.613 E.02954
G1 X156.997 Y85.474 E.02958
G1 X156.153 Y85.054 E.02956
G1 X155.48 Y84.395 E.02953
G1 X155.044 Y83.559 E.02956
G1 X154.887 Y82.63 E.02954
G1 X155.031 Y81.674 E.03031
G1 X155.446 Y80.853 E.02884
G1 X156.105 Y80.18 E.02953
G1 X156.941 Y79.744 E.02956
G1 X157.462 Y79.652 E.01659
G1 X157.929 Y79.588 E.01478
G1 X158.803 Y79.726 E.02774
G1 X159.647 Y80.146 E.02956
G1 X160.32 Y80.805 E.02953
G1 X160.756 Y81.641 E.02956
G1 X160.913 Y82.57 E.02954
G1 X160.774 Y83.503 E.02958
G1 X160.392 Y84.272 E.02692
M204 S1000
G1 X160.533 Y84.689 F10800
;WIPE_START
G1 F8640
G1 X159.695 Y85.02 E-.23608
G1 X158.859 Y85.456 E-.21771
G1 X157.93 Y85.613 E-.21755
G1 X157.379 Y85.531 E-.12866
;WIPE_END
G1 Z.6 F720
G1 X154.795 Y69.093 F10800
G1 Z.2 F720
G1 E.8 F2100
M204 S800
;TYPE:Perimeter
G1 F1200
G1 X155.761 Y68.914 E.0308
G1 X156.828 Y69.055 E.03375
G1 X157.798 Y69.519 E.03371
G1 X158.577 Y70.259 E.03369
G1 X159.09 Y71.204 E.03371
G1 X159.286 Y72.261 E.03371
G1 X159.145 Y73.328 E.03375
G1 X158.681 Y74.298 E.03371
G1 X157.941 Y75.077 E.03369
G1 X157.381 Y75.394 E.02018
G1 X156.922 Y75.622 E.01607
G1 X155.862 Y75.793 E.03367
G1 X154.872 Y75.645 E.03139
G1 X154.407 Y75.439 E.01595
G1 X153.902 Y75.181 E.01778
G1 X153.236 Y74.554 E.02868
G1 X153.006 Y74.273 E.01139
G1 X152.608 Y73.492 E.02748
G1 X152.414 Y72.439 E.03357
G1 X152.555 Y71.372 E.03375
G1 X153.019 Y70.402 E.03371
G1 X153.759 Y69.623 E.03369
G1 X154.736 Y69.104 E.03469
M204 S1000
G1 X154.854 Y69.457 F10800
M204 S800
;TYPE:External perimeter
G1 F1200
G1 X155.82 Y69.287 E.03075
G1 X156.769 Y69.428 E.03008
G1 X157.627 Y69.855 E.03005
G1 X158.311 Y70.526 E.03004
G1 X158.754 Y71.375 E.03003
G1 X158.913 Y72.32 E.03005
G1 X158.772 Y73.269 E.03008
G1 X158.345 Y74.127 E.03005
G1 X157.674 Y74.811 E.03004
G1 X156.769 Y75.272 E.03184
G1 X155.88 Y75.413 E.02822
G1 X154.931 Y75.272 E.03008
G1 X154.073 Y74.845 E.03005
G1 X153.503 Y74.288 E.02499
G1 X153.342 Y74.101 E.00774
G1 X152.945 Y73.324 E.02736
G1 X152.787 Y72.38 E.03001
G1 X152.928 Y71.431 E.03008
G1 X153.355 Y70.573 E.03005
G1 X154.026 Y69.889 E.03004
G1 X154.8 Y69.485 E.02738
M204 S1000
G1 X154.931 Y69.064 F10800
;WIPE_START
G1 F8640
G1 X155.82 Y69.287 E-.23992
G1 X156.769 Y69.428 E-.22153
G1 X157.627 Y69.855 E-.22129
G1 X157.99 Y70.211 E-.11726
;WIPE_END
G1 Z.6 F720
G1 X144.853 Y71.809 F10800
G1 Z.2 F720
G1 E.8 F2100
M204 S800
G1 F1200
G1 X143.866 Y71.669 E.03126
G1 X143.378 Y71.431 E.01702
G1 X142.947 Y71.201 E.01532
G1 X142.299 Y70.553 E.02873
G1 X141.831 Y69.634 E.03234
G1 X141.687 Y68.73 E.0287
G1 X141.704 Y68.563 E.00526
G1 X141.831 Y67.766 E.0253
G1 X142.265 Y66.895 E.03051
G1 X142.949 Y66.2 E.03057
;WIDTH:0.422256
G1 X143.618 Y65.876 E.02345
;WIDTH:0.427392
G1 X143.891 Y65.758 E.00951
G1 X144.533 Y65.707 E.02059
;WIDTH:0.422076
G1 X144.973 Y65.699 E.01387
;WIDTH:0.426835
G1 X145.709 Y65.759 E.02357
G1 X146.598 Y66.163 E.03117
;WIDTH:0.419999
G1 X147.3 Y66.847 E.03073
G1 X147.751 Y67.71 E.03053
G1 X147.912 Y68.671 E.03055
G1 X147.769 Y69.634 E.03053
G1 X147.335 Y70.505 E.03051
G1 X146.653 Y71.201 E.03055
G1 X145.79 Y71.651 E.03052
G1 X144.913 Y71.799 E.02789
M204 S1000
G1 X144.659 Y72.159 F10800
;WIPE_START
G1 F8640
G1 X143.866 Y71.669 E-.24361
G1 X143.378 Y71.431 E-.12537
G1 X142.947 Y71.201 E-.1128
G1 X142.299 Y70.553 E-.2116
G1 X142.089 Y70.142 E-.10662
;WIPE_END
G1 Z.6 F720
G1 X135.398 Y78.835 F10800
G1 Z.2 F720
G1 E.8 F2100
M204 S800
;TYPE:Perimeter
G1 F1200
G1 X135.214 Y77.839 E.03176
G1 X135.36 Y76.741 E.03473
G1 X135.838 Y75.743 E.0347
