; generated by PrusaSlicer 2.4.1+win64 on 2023-12-05 at 12:54:06 UTC


;
;
; 

; external perimeters extrusion width = 0.60mm
; perimeters extrusion width = 0.50mm
; infill extrusion width = 0.50mm
; solid infill extrusion width = 0.50mm
; top infill extrusion width = 0.45mm
; first layer extrusion width = 0.42mm

M73 P0 R32
M73 Q0 S32
M201 X1000 Y1000 Z200 E5000 ; sets maximum accelerations, mm/sec^2
M203 X200 Y200 Z12 E120 ; sets maximum feedrates, mm / sec
M204 P1250 R1250 T1250 ; sets acceleration (P, T) and retract acceleration (R), mm/sec^2
M205 X8.00 Y8.00 Z0.40 E4.50 ; sets the jerk limits, mm/sec
M205 S0 T0 ; sets the minimum extruding and travel feed rate, mm/sec
M107
;TYPE:Custom
M862.3 P "MK3S" ; printer model check
M862.1 P0.4 ; nozzle diameter check
M115 U3.11.0 ; tell printer latest fw version
G90 ; use absolute coordinates
M83 ; extruder relative mode
M104 S215 ; set extruder temp
M140 S60 ; set bed temp
M190 S60 ; wait for bed temp
M109 S215 ; wait for extruder temp
G28 W ; home all without mesh bed level
G80 ; mesh bed leveling

G1 Z0.2 F720
G1 Y-3 F1000 ; go outside print area
G92 E0
G1 X60 E9 F1000 ; intro line
G1 X100 E12.5 F1000 ; intro line

G92 E0
M221 S95

; Don't change E values below. Excessive value can damage the printer.

M907 E538 ; set extruder motor current
G21 ; set units to millimeters
G90 ; use absolute coordinates
M83 ; use relative distances for extrusion
M900 K0.05 ; Filament gcode LA 1.5
M900 K30 ; Filament gcode LA 1.0
M107
;LAYER_CHANGE
;Z:0.2
;HEIGHT:0.2
;BEFORE_LAYER_CHANGE
G92 E0.0
;0.2


G1 E-.8 F2100
G1 Z.4 F720
;AFTER_LAYER_CHANGE
;0.2
G1 X83.183 Y68.967 F10800
G1 Z.2 F720
G1 E.8 F2100
M204 S800
;TYPE:Skirt/Brim
;WIDTH:0.42
G1 F1200
G1 X85 Y68.123 E.06282
G1 X165 Y68.123 E2.50834
G1 X166.307 Y68.515 E.04278
G1 X167.183 Y69.56 E.04278
G1 X167.126 Y71.563 E.06282
G1 X157.126 Y91.563 E.7011
G1 X147.104 Y110.607 E.67476
G1 X126.978 Y140.819 E1.1382
G1 X125.927 Y141.689 E.04278
G1 X124.571 Y141.838 E.04278
G1 X123.022 Y140.819 E.05813
G1 X102.896 Y110.607 E1.1382
G1 X92.874 Y91.563 E.67476
G1 X82.874 Y71.563 E.7011
M73 P0 R31
G1 X82.64 Y70.219 E.04278
M73 P1 R31
M73 Q1 S32
G1 X83.159 Y69.022 E.0409
M204 S1000
; printing object LedWheinachtsbaum.stl id:0 copy 0
;WIPE_START
G1 F8640
G1 X85 Y68.123 E-.47309
G1 X86.243 Y68.123 E-.28691
;WIPE_END
G1 E-.04 F2100
G1 Z.6 F720
G1 X122.85 Y105.102 F10800
G1 Z.2 F720
G1 E.8 F2100
M204 S800
;TYPE:Perimeter
G1 F1200
G1 X123.602 Y104.35 E.03331
G1 X124.549 Y103.867 E.03336
G1 X125.6 Y103.7 E.03336
G1 X126.651 Y103.867 E.03336
G1 X127.598 Y104.35 E.03336
G1 X128.35 Y105.102 E.03331
G1 X128.833 Y106.049 E.03336
G1 X129 Y107.1 E.03336
G1 X128.833 Y108.151 E.03336
G1 X128.35 Y109.098 E.03336
G1 X127.598 Y109.85 E.03331
G1 X126.65 Y110.333 E.03337
G1 X125.6 Y110.499 E.03333
G1 X124.55 Y110.333 E.03333
G1 X123.602 Y109.85 E.03337
G1 X122.85 Y109.098 E.03331
G1 X122.367 Y108.151 E.03336
G1 X122.2 Y107.1 E.03335
G1 X122.367 Y106.049 E.03336
G1 X122.823 Y105.155 E.03147
M204 S1000
G1 X123.159 Y105.326 F10800
M204 S800
;TYPE:External perimeter
G1 F1200
G1 X123.826 Y104.659 E.02957
G1 X124.668 Y104.23 E.02962
G1 X125.6 Y104.082 E.0296
G1 X126.532 Y104.23 E.0296
G1 X127.374 Y104.659 E.02962
G1 X128.041 Y105.326 E.02957
G1 X128.47 Y106.168 E.02962
G1 X128.618 Y107.1 E.0296
G1 X128.47 Y108.032 E.0296
G1 X128.041 Y108.874 E.02962
G1 X127.374 Y109.541 E.02957
G1 X126.532 Y109.97 E.02962
G1 X125.6 Y110.117 E.02959
G1 X124.668 Y109.97 E.02959
G1 X123.826 Y109.541 E.02962
G1 X123.159 Y108.874 E.02957
G1 X122.73 Y108.032 E.02962
G1 X122.582 Y107.1 E.0296
G1 X122.73 Y106.168 E.0296
G1 X123.132 Y105.379 E.02773
M204 S1000
G1 X122.997 Y104.961 F10800
;WIPE_START
G1 F8640
G1 X123.826 Y104.659 E-.23096
G1 X124.668 Y104.23 E-.2181
G1 X125.6 Y104.082 E-.21802
G1 X125.997 Y104.145 E-.09293
;WIPE_END
G1 E-.04 F2100
G1 Z.6 F720
G1 X128.602 Y112.25 F10800
G1 Z.2 F720
G1 E.8 F2100
M204 S800
;TYPE:Perimeter
G1 F1200
G1 X129.549 Y111.767 E.03336
G1 X130.6 Y111.6 E.03336
G1 X131.651 Y111.767 E.03336
G1 X132.598 Y112.25 E.03336
G1 X133.35 Y113.002 E.03331
G1 X133.833 Y113.949 E.03336
G1 X134 Y115 E.03335
G1 X133.833 Y116.051 E.03336
G1 X133.35 Y116.998 E.03336
G1 X132.598 Y117.75 E.03331
G1 X131.651 Y118.233 E.03336
G1 X130.6 Y118.4 E.03336
G1 X129.549 Y118.233 E.03336
G1 X128.602 Y117.75 E.03336
G1 X127.85 Y116.998 E.03331
G1 X127.367 Y116.05 E.03337
G1 X127.201 Y115 E.03333
G1 X127.367 Y113.95 E.03333
G1 X127.85 Y113.002 E.03337
G1 X128.559 Y112.293 E.03143
M204 S1000
G1 X128.826 Y112.559 F10800
M204 S800
;TYPE:External perimeter
G1 F1200
M73 Q1 S31
G1 X129.668 Y112.13 E.02962
G1 X130.6 Y111.982 E.0296
G1 X131.532 Y112.13 E.0296
G1 X132.374 Y112.559 E.02962
G1 X133.041 Y113.226 E.02957
G1 X133.47 Y114.068 E.02962
G1 X133.618 Y115 E.0296
G1 X133.47 Y115.932 E.0296
G1 X133.041 Y116.774 E.02962
G1 X132.374 Y117.441 E.02957
G1 X131.532 Y117.87 E.02962
G1 X130.6 Y118.018 E.0296
G1 X129.668 Y117.87 E.0296
G1 X128.826 Y117.441 E.02962
G1 X128.159 Y116.774 E.02957
G1 X127.73 Y115.932 E.02962
G1 X127.583 Y115 E.02959
G1 X127.73 Y114.068 E.02959
G1 X128.159 Y113.226 E.02962
G1 X128.784 Y112.602 E.02769
M204 S1000
G1 X128.784 Y112.161 F10800
;WIPE_START
G1 F8640
G1 X129.668 Y112.13 E-.23132
G1 X130.6 Y111.982 E-.21802
G1 X131.532 Y112.13 E-.21802
G1 X131.89 Y112.312 E-.09265
;WIPE_END
G1 E-.04 F2100
G1 Z.6 F720
G1 X126.485 Y121.764 F10800
G1 Z.2 F720
G1 E.8 F2100
M204 S800
;TYPE:Perimeter
G1 F1200
G1 X127.419 Y122.241 E.03286
G1 X128.159 Y122.981 E.03285
G1 X128.636 Y123.914 E.03285
G1 X128.8 Y124.95 E.03288
G1 X128.636 Y125.986 E.03288
G1 X128.159 Y126.919 E.03285
G1 X127.419 Y127.659 E.03285
G1 X126.486 Y128.136 E.03285
G1 X125.45 Y128.3 E.03288
G1 X124.414 Y128.136 E.03288
G1 X123.481 Y127.659 E.03285
G1 X122.741 Y126.919 E.03285
G1 X122.264 Y125.986 E.03285
G1 X122.1 Y124.95 E.03288
G1 X122.264 Y123.914 E.03288
G1 X122.741 Y122.981 E.03285
G1 X123.481 Y122.241 E.03285
G1 X124.415 Y121.764 E.03286
G1 X125.45 Y121.601 E.03286
G1 X126.426 Y121.755 E.03097
M204 S1000
G1 X126.367 Y122.127 F10800
M204 S800
;TYPE:External perimeter
G1 F1200
G1 X127.194 Y122.549 E.02911
G1 X127.851 Y123.206 E.02911
G1 X128.273 Y124.033 E.0291
G1 X128.418 Y124.95 E.02912
G1 X128.273 Y125.867 E.02912
G1 X127.851 Y126.694 E.0291
G1 X127.194 Y127.351 E.02911
G1 X126.367 Y127.773 E.0291
G1 X125.45 Y127.918 E.02912
G1 X124.533 Y127.773 E.02912
G1 X123.706 Y127.351 E.0291
G1 X123.049 Y126.694 E.02911
G1 X122.627 Y125.867 E.0291
G1 X122.482 Y124.95 E.02912
G1 X122.627 Y124.033 E.02912
G1 X123.049 Y123.206 E.0291
G1 X123.706 Y122.549 E.02911
G1 X124.533 Y122.127 E.02911
G1 X125.45 Y121.983 E.02911
G1 X126.308 Y122.118 E.02723
M204 S1000
G1 X126.665 Y121.86 F10800
;WIPE_START
G1 F8640
G1 X127.194 Y122.549 E-.22759
G1 X127.851 Y123.206 E-.21441
G1 X128.273 Y124.033 E-.21432
G1 X128.343 Y124.476 E-.10369
;WIPE_END
G1 E-.04 F2100
G1 Z.6 F720
G1 X122.246 Y117.924 F10800
G1 Z.2 F720
G1 E.8 F2100
M204 S800
;TYPE:Perimeter
G1 F1200
G1 X121.493 Y118.663 E.03308
G1 X120.546 Y119.137 E.03319
G1 X119.5 Y119.3 E.0332
G1 X118.454 Y119.137 E.0332
G1 X117.507 Y118.663 E.03319
G1 X116.754 Y117.924 E.03308
G1 X116.268 Y116.99 E.03301
G1 X116.1 Y115.95 E.03304
G1 X116.268 Y114.91 E.03304
G1 X116.754 Y113.976 E.03301
G1 X117.507 Y113.237 E.03308
G1 X118.454 Y112.763 E.03319
G1 X119.5 Y112.6 E.0332
G1 X120.546 Y112.763 E.0332
G1 X121.493 Y113.237 E.03319
G1 X122.246 Y113.976 E.03308
G1 X122.732 Y114.91 E.03303
G1 X122.899 Y115.95 E.03301
G1 X122.732 Y116.99 E.03301
G1 X122.273 Y117.871 E.03115
M204 S1000
G1 X121.939 Y117.697 F10800
M204 S800
;TYPE:External perimeter
G1 F1200
G1 X121.271 Y118.353 E.02934
G1 X120.43 Y118.773 E.02948
G1 X119.5 Y118.918 E.02952
G1 X118.57 Y118.773 E.02952
G1 X117.729 Y118.353 E.02948
G1 X117.061 Y117.697 E.02934
G1 X116.631 Y116.87 E.02924
G1 X116.482 Y115.95 E.02922
G1 X116.631 Y115.03 E.02922
G1 X117.061 Y114.203 E.02924
G1 X117.729 Y113.547 E.02934
G1 X118.57 Y113.127 E.02948
G1 X119.5 Y112.982 E.02952
G1 X120.43 Y113.127 E.02952
G1 X121.271 Y113.547 E.02948
G1 X121.939 Y114.203 E.02934
G1 X122.369 Y115.03 E.02924
G1 X122.517 Y115.95 E.0292
G1 X122.369 Y116.87 E.0292
G1 X121.966 Y117.644 E.02736
M204 S1000
G1 X122.099 Y118.064 F10800
;WIPE_START
G1 F8640
G1 X121.271 Y118.353 E-.22929
G1 X120.43 Y118.773 E-.21712
G1 X119.5 Y118.918 E-.21736
G1 X119.088 Y118.854 E-.09622
;WIPE_END
G1 E-.04 F2100
G1 Z.6 F720
G1 X112.598 Y100.85 F10800
G1 Z.2 F720
G1 E.8 F2100
M204 S800
;TYPE:Perimeter
G1 F1200
G1 X111.65 Y101.333 E.03337
G1 X110.6 Y101.499 E.03333
G1 X109.55 Y101.333 E.03333
G1 X108.602 Y100.85 E.03337
G1 X107.85 Y100.098 E.03331
G1 X107.367 Y99.151 E.03336
G1 X107.2 Y98.1 E.03335
G1 X107.367 Y97.049 E.03336
G1 X107.85 Y96.102 E.03336
G1 X108.602 Y95.35 E.03331
G1 X109.549 Y94.867 E.03336
G1 X110.6 Y94.7 E.03336
G1 X111.651 Y94.867 E.03336
G1 X112.598 Y95.35 E.03336
G1 X113.35 Y96.102 E.03331
G1 X113.833 Y97.05 E.03337
G1 X113.999 Y98.1 E.03333
G1 X113.833 Y99.15 E.03333
G1 X113.35 Y100.098 E.03337
G1 X112.641 Y100.807 E.03143
M204 S1000
G1 X112.374 Y100.541 F10800
M204 S800
;TYPE:External perimeter
G1 F1200
G1 X111.532 Y100.97 E.02962
G1 X110.6 Y101.117 E.02959
G1 X109.668 Y100.97 E.02959
G1 X108.826 Y100.541 E.02962
G1 X108.159 Y99.874 E.02957
G1 X107.73 Y99.032 E.02962
G1 X107.582 Y98.1 E.0296
G1 X107.73 Y97.168 E.0296
G1 X108.159 Y96.326 E.02962
G1 X108.826 Y95.659 E.02957
G1 X109.668 Y95.23 E.02962
G1 X110.6 Y95.082 E.0296
G1 X111.532 Y95.23 E.0296
G1 X112.374 Y95.659 E.02962
G1 X113.041 Y96.326 E.02957
G1 X113.47 Y97.168 E.02962
G1 X113.617 Y98.1 E.02959
G1 X113.47 Y99.032 E.02959
G1 X113.041 Y99.874 E.02962
G1 X112.416 Y100.498 E.02769
M204 S1000
G1 X112.416 Y100.939 F10800
;WIPE_START
G1 F8640
G1 X111.532 Y100.97 E-.23138
G1 X110.6 Y101.117 E-.21792
G1 X109.668 Y100.97 E-.21792
G1 X109.31 Y100.787 E-.09278
;WIPE_END
G1 E-.04 F2100
G1 Z.6 F720
G1 X122.85 Y94.098 F10800
G1 Z.2 F720
G1 E.8 F2100
M204 S800
;TYPE:Perimeter
G1 F1200
G1 X122.367 Y93.151 E.03336
G1 X122.2 Y92.1 E.03335
G1 X122.367 Y91.049 E.03336
G1 X122.85 Y90.102 E.03336
G1 X123.602 Y89.35 E.03331
G1 X124.549 Y88.867 E.03336
G1 X125.6 Y88.7 E.03336
G1 X126.651 Y88.867 E.03336
G1 X127.598 Y89.35 E.03336
G1 X128.35 Y90.102 E.03331
G1 X128.833 Y91.049 E.03336
G1 X129 Y92.1 E.03335
G1 X128.833 Y93.151 E.03336
G1 X128.35 Y94.098 E.03336
G1 X127.598 Y94.85 E.03331
G1 X126.65 Y95.333 E.03337
G1 X125.6 Y95.499 E.03333
G1 X124.55 Y95.333 E.03333
G1 X123.602 Y94.85 E.03337
G1 X122.893 Y94.141 E.03143
M204 S1000
G1 X123.159 Y93.874 F10800
M204 S800
;TYPE:External perimeter
G1 F1200
G1 X122.73 Y93.032 E.02962
G1 X122.582 Y92.1 E.0296
G1 X122.73 Y91.168 E.0296
G1 X123.159 Y90.326 E.02962
G1 X123.826 Y89.659 E.02957
G1 X124.668 Y89.23 E.02962
G1 X125.6 Y89.082 E.0296
G1 X126.532 Y89.23 E.0296
G1 X127.374 Y89.659 E.02962
G1 X128.041 Y90.326 E.02957
G1 X128.47 Y91.168 E.02962
G1 X128.618 Y92.1 E.0296
G1 X128.47 Y93.032 E.0296
G1 X128.041 Y93.874 E.02962
G1 X127.374 Y94.541 E.02957
G1 X126.532 Y94.97 E.02962
G1 X125.6 Y95.117 E.02959
G1 X124.668 Y94.97 E.02959
G1 X123.826 Y94.541 E.02962
G1 X123.202 Y93.916 E.02769
M204 S1000
G1 X122.761 Y93.916 F10800
;WIPE_START
G1 F8640
G1 X122.73 Y93.032 E-.23132
G1 X122.582 Y92.1 E-.21802
G1 X122.73 Y91.168 E-.21802
G1 X122.912 Y90.81 E-.09265
;WIPE_END
G1 E-.04 F2100
G1 Z.6 F720
G1 X134.367 Y97.05 F10800
G1 Z.2 F720
G1 E.8 F2100
M204 S800
;TYPE:Perimeter
G1 F1200
G1 X134.85 Y96.102 E.03337
G1 X135.602 Y95.35 E.03331
G1 X136.549 Y94.867 E.03336
G1 X137.6 Y94.7 E.03336
G1 X138.651 Y94.867 E.03336
G1 X139.598 Y95.35 E.03336
G1 X140.35 Y96.102 E.03331
G1 X140.833 Y97.049 E.03336
G1 X141 Y98.1 E.03336
G1 X140.833 Y99.151 E.03335
G1 X140.35 Y100.098 E.03336
G1 X139.598 Y100.85 E.03331
G1 X138.65 Y101.333 E.03337
G1 X137.6 Y101.499 E.03333
G1 X136.55 Y101.333 E.03333
G1 X135.602 Y100.85 E.03337
G1 X134.85 Y100.098 E.03331
G1 X134.367 Y99.15 E.03337
G1 X134.201 Y98.1 E.03333
G1 X134.358 Y97.109 E.03145
M204 S1000
G1 X134.73 Y97.168 F10800
M204 S800
;TYPE:External perimeter
G1 F1200
G1 X135.159 Y96.326 E.02962
G1 X135.826 Y95.659 E.02957
G1 X136.668 Y95.23 E.02962
G1 X137.6 Y95.082 E.0296
G1 X138.532 Y95.23 E.0296
G1 X139.374 Y95.659 E.02962
G1 X140.041 Y96.326 E.02957
G1 X140.47 Y97.168 E.02962
G1 X140.618 Y98.1 E.0296
G1 X140.47 Y99.032 E.0296
G1 X140.041 Y99.874 E.02962
G1 X139.374 Y100.541 E.02957
G1 X138.532 Y100.97 E.02962
G1 X137.6 Y101.117 E.02959
G1 X136.668 Y100.97 E.02959
G1 X135.826 Y100.541 E.02962
G1 X135.159 Y99.874 E.02957
G1 X134.73 Y99.032 E.02962
G1 X134.583 Y98.1 E.02959
G1 X134.721 Y97.227 E.02771
M204 S1000
G1 X134.463 Y96.871 F10800
;WIPE_START
G1 F8640
G1 X135.159 Y96.326 E-.23137
G1 X135.826 Y95.659 E-.21774
G1 X136.668 Y95.23 E-.2181
G1 X137.064 Y95.167 E-.09278
;WIPE_END
G1 E-.04 F2100
G1 Z.6 F720
G1 X143.55 Y80.333 F10800
G1 Z.2 F720
G1 E.8 F2100
M204 S800
;TYPE:Perimeter
G1 F1200
G1 X142.602 Y79.85 E.03337
G1 X141.85 Y79.098 E.03331
M73 Q2 S31
G1 X141.367 Y78.15 E.03337
G1 X141.201 Y77.1 E.03333
G1 X141.367 Y76.05 E.03333
G1 X141.85 Y75.102 E.03337
M73 P2 R31
G1 X142.602 Y74.35 E.03331
G1 X143.549 Y73.867 E.03336
G1 X144.6 Y73.7 E.03335
G1 X145.651 Y73.867 E.03335
G1 X146.598 Y74.35 E.03336
G1 X147.35 Y75.102 E.03331
G1 X147.833 Y76.049 E.03336
G1 X148 Y77.1 E.03335
G1 X147.833 Y78.151 E.03336
G1 X147.35 Y79.098 E.03336
G1 X146.598 Y79.85 E.03331
G1 X145.65 Y80.333 E.03337
G1 X144.6 Y80.499 E.03333
G1 X143.609 Y80.342 E.03145
M204 S1000
G1 X143.668 Y79.97 F10800
M204 S800
;TYPE:External perimeter
G1 F1200
G1 X142.826 Y79.541 E.02962
G1 X142.159 Y78.874 E.02957
G1 X141.73 Y78.032 E.02962
G1 X141.583 Y77.1 E.02959
G1 X141.73 Y76.168 E.02959
G1 X142.159 Y75.326 E.02962
G1 X142.826 Y74.659 E.02957
G1 X143.668 Y74.23 E.02962
G1 X144.6 Y74.082 E.0296
G1 X145.532 Y74.23 E.0296
G1 X146.374 Y74.659 E.02962
G1 X147.041 Y75.326 E.02957
G1 X147.47 Y76.168 E.02962
G1 X147.618 Y77.1 E.0296
G1 X147.47 Y78.032 E.0296
G1 X147.041 Y78.874 E.02962
G1 X146.374 Y79.541 E.02957
G1 X145.532 Y79.97 E.02962
G1 X144.6 Y80.117 E.02959
G1 X143.727 Y79.979 E.02771
M204 S1000
G1 X143.371 Y80.237 F10800
;WIPE_START
G1 F8640
G1 X142.826 Y79.541 E-.23137
G1 X142.159 Y78.874 E-.21774
G1 X141.73 Y78.032 E-.21816
G1 X141.668 Y77.636 E-.09272
;WIPE_END
G1 E-.04 F2100
G1 Z.6 F720
G1 X137.833 Y82.049 F10800
G1 Z.2 F720
G1 E.8 F2100
M204 S800
;TYPE:Perimeter
G1 F1200
G1 X138 Y83.1 E.03335
G1 X137.833 Y84.151 E.03336
G1 X137.35 Y85.098 E.03336
G1 X136.598 Y85.85 E.03331
G1 X135.65 Y86.333 E.03337
G1 X134.6 Y86.499 E.03333
G1 X133.55 Y86.333 E.03333
G1 X132.602 Y85.85 E.03337
G1 X131.85 Y85.098 E.03331
G1 X131.367 Y84.15 E.03337
G1 X131.201 Y83.1 E.03333
G1 X131.367 Y82.05 E.03333
G1 X131.85 Y81.102 E.03337
G1 X132.602 Y80.35 E.03331
G1 X133.549 Y79.867 E.03336
G1 X134.6 Y79.7 E.03336
G1 X135.651 Y79.867 E.03335
G1 X136.598 Y80.35 E.03336
G1 X137.35 Y81.102 E.03331
G1 X137.805 Y81.996 E.03147
M204 S1000
G1 X137.47 Y82.168 F10800
M204 S800
;TYPE:External perimeter
G1 F1200
G1 X137.618 Y83.1 E.0296
G1 X137.47 Y84.032 E.0296
G1 X137.041 Y84.874 E.02962
G1 X136.374 Y85.541 E.02957
G1 X135.532 Y85.97 E.02962
G1 X134.6 Y86.117 E.02959
G1 X133.668 Y85.97 E.02959
G1 X132.826 Y85.541 E.02962
G1 X132.159 Y84.874 E.02957
G1 X131.73 Y84.032 E.02962
G1 X131.583 Y83.1 E.02959
G1 X131.73 Y82.168 E.02959
G1 X132.159 Y81.326 E.02962
G1 X132.826 Y80.659 E.02957
G1 X133.668 Y80.23 E.02962
G1 X134.6 Y80.082 E.0296
G1 X135.532 Y80.23 E.0296
G1 X136.374 Y80.659 E.02962
G1 X137.041 Y81.326 E.02957
G1 X137.442 Y82.114 E.02773
M204 S1000
G1 X137.861 Y82.251 F10800
;WIPE_START
G1 F8640
G1 X137.618 Y83.1 E-.23123
G1 X137.47 Y84.032 E-.21802
G1 X137.041 Y84.874 E-.2181
G1 X136.757 Y85.158 E-.09265
;WIPE_END
G1 E-.04 F2100
G1 Z.6 F720
G1 X127.833 Y78.151 F10800
G1 Z.2 F720
G1 E.8 F2100
M204 S800
;TYPE:Perimeter
G1 F1200
G1 X127.35 Y79.098 E.03336
G1 X126.598 Y79.85 E.03331
G1 X125.65 Y80.333 E.03337
G1 X124.6 Y80.499 E.03333
G1 X123.55 Y80.333 E.03333
G1 X122.602 Y79.85 E.03337
G1 X121.85 Y79.098 E.03331
G1 X121.367 Y78.151 E.03336
