; generated by PrusaSlicer 2.4.1+win64 on 2023-12-05 at 12:26:31 UTC


;
;
; 

; external perimeters extrusion width = 0.60mm
; perimeters extrusion width = 0.50mm
; infill extrusion width = 0.50mm
; solid infill extrusion width = 0.50mm
; top infill extrusion width = 0.45mm
; first layer extrusion width = 0.42mm

M73 P0 R7
M73 Q0 S7
M201 X1000 Y1000 Z200 E5000 ; sets maximum accelerations, mm/sec^2
M203 X200 Y200 Z12 E120 ; sets maximum feedrates, mm / sec
M204 P1250 R1250 T1250 ; sets acceleration (P, T) and retract acceleration (R), mm/sec^2
M205 X8.00 Y8.00 Z0.40 E4.50 ; sets the jerk limits, mm/sec
M205 S0 T0 ; sets the minimum extruding and travel feed rate, mm/sec
M107
;TYPE:Custom
M862.3 P "MK3S" ; printer model check
M862.1 P0.4 ; nozzle diameter check
M115 U3.11.0 ; tell printer latest fw version
G90 ; use absolute coordinates
M83 ; extruder relative mode
M104 S215 ; set extruder temp
M140 S60 ; set bed temp
M190 S60 ; wait for bed temp
M109 S215 ; wait for extruder temp
G28 W ; home all without mesh bed level
G80 ; mesh bed leveling

G1 Z0.2 F720
G1 Y-3 F1000 ; go outside print area
G92 E0
G1 X60 E9 F1000 ; intro line
G1 X100 E12.5 F1000 ; intro line

G92 E0
M221 S95

; Don't change E values below. Excessive value can damage the printer.

M907 E538 ; set extruder motor current
G21 ; set units to millimeters
G90 ; use absolute coordinates
M83 ; use relative distances for extrusion
M900 K0.05 ; Filament gcode LA 1.5
M900 K30 ; Filament gcode LA 1.0
M107
;LAYER_CHANGE
;Z:0.2
;HEIGHT:0.2
;BEFORE_LAYER_CHANGE
G92 E0.0
;0.2


G1 E-.8 F2100
M73 P1 R7
M73 Q1 S7
G1 Z.4 F720
;AFTER_LAYER_CHANGE
;0.2
G1 X107.755 Y88.405 F10800
G1 Z.2 F720
G1 E.8 F2100
M204 S800
;TYPE:Skirt/Brim
;WIDTH:0.42
G1 F1200
G1 X108.895 Y87.477 E.04612
G1 X110 Y87.246 E.03538
G1 X140 Y87.246 E.94063
G1 X141.417 Y87.639 E.04612
G1 X142.431 Y88.705 E.04612
G1 X142.751 Y90.14 E.04612
G1 X142.463 Y91.232 E.03538
M73 Q2 S7
G1 X127.463 Y121.232 E1.05166
G1 X126.478 Y122.324 E.04612
M73 P2 R7
G1 X125.071 Y122.753 E.04612
G1 X123.644 Y122.397 E.04612
G1 X122.537 Y121.232 E.05042
G1 X107.537 Y91.232 E1.05166
G1 X107.254 Y89.788 E.04612
G1 X107.734 Y88.462 E.04424
M204 S1000
G1 X108.114 Y88.627 F10800
M204 S800
G1 F1200
G1 X108.183 Y88.467 E.00544
G1 X110 Y87.623 E.06282
G1 X140 Y87.623 E.94063
G1 X141.307 Y88.015 E.04278
M73 P3 R7
M73 Q3 S7
G1 X142.183 Y89.06 E.04278
G1 X142.126 Y91.063 E.06282
G1 X127.126 Y121.063 E1.05166
G1 X126.191 Y122.057 E.04278
G1 X124.864 Y122.373 E.04278
G1 X123.582 Y121.908 E.04278
G1 X122.874 Y121.063 E.03455
G1 X107.874 Y91.063 E1.05166
G1 X107.64 Y89.719 E.04278
M73 Q4 S7
G1 X108.09 Y88.682 E.03546
M204 S1000
; printing object LedWheinachtsbaumTest.stl id:0 copy 0
;WIPE_START
G1 F8640
G1 X108.183 Y88.467 E-.05393
G1 X110 Y87.623 E-.46264
G1 X111.054 Y87.623 E-.24343
;WIPE_END
M73 P4 R7
G1 E-.04 F2100
G1 Z.6 F720
G1 X122.741 Y103.481 F10800
G1 Z.2 F720
G1 E.8 F2100
M204 S800
;TYPE:Perimeter
G1 F1200
G1 X123.481 Y102.741 E.03285
G1 X124.414 Y102.264 E.03285
G1 X125.45 Y102.1 E.03288
G1 X126.486 Y102.264 E.03288
G1 X127.419 Y102.741 E.03285
G1 X128.159 Y103.481 E.03285
G1 X128.636 Y104.414 E.03285
G1 X128.8 Y105.45 E.03288
G1 X128.636 Y106.486 E.03288
G1 X128.159 Y107.419 E.03285
G1 X127.419 Y108.159 E.03285
G1 X126.485 Y108.636 E.03286
G1 X125.45 Y108.799 E.03285
G1 X124.415 Y108.636 E.03285
G1 X123.481 Y108.159 E.03286
G1 X122.741 Y107.419 E.03285
G1 X122.264 Y106.486 E.03285
G1 X122.1 Y105.45 E.03288
G1 X122.264 Y104.414 E.03288
G1 X122.713 Y103.535 E.03097
M204 S1000
G1 X123.049 Y103.706 F10800
M204 S800
;TYPE:External perimeter
G1 F1200
G1 X123.706 Y103.049 E.02911
G1 X124.533 Y102.627 E.0291
G1 X125.45 Y102.482 E.02912
G1 X126.367 Y102.627 E.02912
G1 X127.194 Y103.049 E.0291
G1 X127.851 Y103.706 E.02911
G1 X128.273 Y104.533 E.0291
G1 X128.418 Y105.45 E.02912
G1 X128.273 Y106.367 E.02912
G1 X127.851 Y107.194 E.0291
G1 X127.194 Y107.851 E.02911
G1 X126.367 Y108.273 E.02911
G1 X125.45 Y108.417 E.02911
G1 X124.533 Y108.273 E.02911
G1 X123.706 Y107.851 E.02911
G1 X123.049 Y107.194 E.02911
G1 X122.627 Y106.367 E.0291
G1 X122.482 Y105.45 E.02912
G1 X122.627 Y104.533 E.02912
G1 X123.022 Y103.759 E.02722
M204 S1000
G1 X122.887 Y103.34 F10800
;WIPE_START
G1 F8640
G1 X123.706 Y103.049 E-.22763
G1 X124.533 Y102.627 E-.21432
G1 X125.45 Y102.482 E-.21448
G1 X125.893 Y102.552 E-.10357
;WIPE_END
G1 E-.04 F2100
G1 Z.6 F720
G1 X120.546 Y99.637 F10800
G1 Z.2 F720
G1 E.8 F2100
M204 S800
;TYPE:Perimeter
G1 F1200
G1 X119.5 Y99.798 E.03318
G1 X118.454 Y99.637 E.03318
G1 X117.507 Y99.163 E.03321
G1 X116.754 Y98.424 E.03308
G1 X116.268 Y97.49 E.03301
G1 X116.1 Y96.45 E.03304
G1 X116.268 Y95.41 E.03304
G1 X116.754 Y94.476 E.03301
G1 X117.507 Y93.737 E.03308
G1 X118.454 Y93.263 E.03319
G1 X119.5 Y93.1 E.0332
G1 X120.546 Y93.263 E.0332
G1 X121.493 Y93.737 E.03319
G1 X122.246 Y94.476 E.03308
G1 X122.732 Y95.41 E.03303
G1 X122.899 Y96.45 E.03301
G1 X122.732 Y97.49 E.03301
G1 X122.246 Y98.424 E.03303
G1 X121.493 Y99.163 E.03308
G1 X120.599 Y99.61 E.03133
M204 S1000
G1 X120.43 Y99.273 F10800
M204 S800
;TYPE:External perimeter
G1 F1200
G1 X119.5 Y99.417 E.0295
G1 X118.57 Y99.273 E.0295
G1 X117.729 Y98.853 E.02949
G1 X117.061 Y98.197 E.02934
G1 X116.631 Y97.37 E.02924
G1 X116.482 Y96.45 E.02922
G1 X116.631 Y95.53 E.02922
M73 Q5 S7
G1 X117.061 Y94.703 E.02924
G1 X117.729 Y94.047 E.02934
G1 X118.57 Y93.627 E.02948
G1 X119.5 Y93.482 E.02952
G1 X120.43 Y93.627 E.02952
G1 X121.271 Y94.047 E.02948
M73 P5 R7
G1 X121.939 Y94.703 E.02934
G1 X122.369 Y95.53 E.02924
G1 X122.517 Y96.45 E.0292
G1 X122.369 Y97.37 E.0292
G1 X121.939 Y98.197 E.02924
G1 X121.271 Y98.853 E.02934
G1 X120.484 Y99.247 E.02761
M204 S1000
G1 X120.345 Y99.664 F10800
;WIPE_START
G1 F8640
G1 X119.5 Y99.417 E-.23049
G1 X118.57 Y99.273 E-.21726
G1 X117.729 Y98.853 E-.21718
G1 X117.435 Y98.564 E-.09506
;WIPE_END
G1 E-.04 F2100
G1 Z.6 F720
G1 X127.367 Y96.55 F10800
G1 Z.2 F720
G1 E.8 F2100
M204 S800
;TYPE:Perimeter
G1 F1200
G1 X127.201 Y95.5 E.03333
G1 X127.367 Y94.45 E.03333
G1 X127.85 Y93.502 E.03337
G1 X128.602 Y92.75 E.03331
G1 X129.549 Y92.267 E.03336
G1 X130.6 Y92.1 E.03335
G1 X131.651 Y92.267 E.03335
G1 X132.598 Y92.75 E.03336
G1 X133.35 Y93.502 E.03331
G1 X133.833 Y94.449 E.03336
G1 X134 Y95.5 E.03336
G1 X133.833 Y96.551 E.03336
G1 X133.35 Y97.498 E.03336
G1 X132.598 Y98.25 E.03331
G1 X131.65 Y98.733 E.03337
G1 X130.6 Y98.899 E.03333
G1 X129.55 Y98.733 E.03333
G1 X128.602 Y98.25 E.03337
G1 X127.85 Y97.498 E.03331
G1 X127.394 Y96.604 E.03149
M204 S1000
G1 X127.73 Y96.432 F10800
M204 S800
;TYPE:External perimeter
G1 F1200
G1 X127.583 Y95.5 E.02959
G1 X127.73 Y94.568 E.02959
G1 X128.159 Y93.726 E.02962
G1 X128.826 Y93.059 E.02957
G1 X129.668 Y92.63 E.02962
G1 X130.6 Y92.482 E.0296
G1 X131.532 Y92.63 E.0296
G1 X132.374 Y93.059 E.02962
G1 X133.041 Y93.726 E.02957
G1 X133.47 Y94.568 E.02962
G1 X133.618 Y95.5 E.0296
G1 X133.47 Y96.432 E.0296
G1 X133.041 Y97.274 E.02962
G1 X132.374 Y97.941 E.02957
G1 X131.532 Y98.37 E.02962
G1 X130.6 Y98.517 E.02959
G1 X129.668 Y98.37 E.02959
G1 X128.826 Y97.941 E.02962
G1 X128.159 Y97.274 E.02957
G1 X127.757 Y96.486 E.02774
M204 S1000
G1 X127.339 Y96.349 F10800
;WIPE_START
G1 F8640
G1 X127.583 Y95.5 E-.23113
G1 X127.73 Y94.568 E-.21792
G1 X128.159 Y93.726 E-.21816
G1 X128.443 Y93.442 E-.09279
;WIPE_END
G1 E-.04 F2100
G1 Z.6 F720
G1 X138.726 Y90.787 F10800
G1 Z.2 F720
G1 E.8 F2100
M204 S800
;TYPE:Perimeter
G1 F1200
G1 X125.407 Y117.428 E.93389
G1 X125.179 Y117.907 E.01664
M73 P6 R7
M73 Q6 S7
G1 X125 Y118.397 E.01635
G1 X124.828 Y117.925 E.01574
G1 X124.603 Y117.449 E.01652
G1 X111.273 Y90.787 E.93461
G1 X138.666 Y90.787 E.85889
M204 S1000
G1 X139.337 Y90.41 F10800
M204 S800
;TYPE:External perimeter
G1 F1200
G1 X125.746 Y117.593 E.9529
G1 X125.528 Y118.054 E.01598
M73 P7 R7
M73 Q7 S7
G1 X125.346 Y118.547 E.0165
G1 X125.245 Y119.04 E.01578
G1 X125 Y119.509 E.01657
G1 X124.759 Y119.048 E.01629
G1 X124.658 Y118.56 E.01562
G1 X124.48 Y118.07 E.01635
G1 X124.264 Y117.613 E.01585
G1 X110.663 Y90.41 E.9536
G1 X139.277 Y90.41 E.89715
M204 S1000
G1 X139.153 Y90.765 F10800
;WIPE_START
G1 F8640
G1 X137.81 Y93.357 E-.76
;WIPE_END
G1 E-.04 F2100
G1 Z.6 F720
G1 X137.788 Y90.9 F10800
G1 Z.2 F720
G1 E.8 F2100
M204 S800
;TYPE:Solid infill
;WIDTH:0.42216
G1 F1200
G1 X138.165 Y91.277 E.01681
G1 X137.987 Y91.635 E.01261
G1 X137.422 Y91.07 E.02519
G1 X136.885 Y91.07 E.01691
G1 X137.808 Y91.992 E.04114
G1 X137.629 Y92.35 E.01261
G1 X136.349 Y91.07 E.05708
G1 X135.813 Y91.07 E.01691
G1 X137.45 Y92.707 E.07303
G1 X137.271 Y93.065 E.01261
G1 X135.276 Y91.07 E.08897
M73 Q8 S7
G1 X134.74 Y91.07 E.01691
G1 X137.093 Y93.423 E.10492
G1 X136.914 Y93.78 E.01261
M73 P8 R7
G1 X134.204 Y91.07 E.12086
G1 X133.667 Y91.07 E.01691
G1 X136.735 Y94.138 E.13681
G1 X136.556 Y94.495 E.01261
G1 X133.131 Y91.07 E.15276
G1 X132.595 Y91.07 E.01691
G1 X136.378 Y94.853 E.1687
G1 X136.199 Y95.21 E.01261
G1 X132.058 Y91.07 E.18465
G1 X131.522 Y91.07 E.01691
G1 X136.02 Y95.568 E.20059
G1 X135.841 Y95.925 E.01261
G1 X133.927 Y94.011 E.08539
G1 X133.581 Y93.333 E.02398
G1 X132.767 Y92.519 E.03633
G1 X132.089 Y92.173 E.02398
G1 X130.986 Y91.07 E.04921
G1 X130.449 Y91.07 E.01691
G1 X131.305 Y91.926 E.03818
G1 X130.668 Y91.824 E.02037
G1 X129.913 Y91.07 E.03365
G1 X129.377 Y91.07 E.01691
G1 X130.186 Y91.88 E.03611
G1 X129.724 Y91.953 E.01477
G1 X128.84 Y91.07 E.03939
G1 X128.304 Y91.07 E.01691
G1 X129.307 Y92.073 E.04474
G1 X128.952 Y92.254 E.01257
G1 X127.768 Y91.07 E.05282
G1 X127.231 Y91.07 E.01691
G1 X128.597 Y92.435 E.06089
G1 X128.433 Y92.519 E.00579
G1 X128.289 Y92.663 E.00645
G1 X126.695 Y91.07 E.07106
G1 X126.159 Y91.07 E.01691
G1 X128.02 Y92.932 E.08302
G1 X127.752 Y93.2 E.01196
G1 X125.622 Y91.07 E.09498
G1 X125.086 Y91.07 E.01691
G1 X127.528 Y93.512 E.10889
G1 X127.347 Y93.867 E.01257
G1 X124.55 Y91.07 E.12473
G1 X124.013 Y91.07 E.01691
G1 X127.166 Y94.222 E.14058
G1 X127.095 Y94.361 E.00493
G1 X127.05 Y94.643 E.00899
G1 X123.477 Y91.07 E.15934
G1 X122.941 Y91.07 E.01691
M73 Q9 S7
G1 X126.977 Y95.106 E.18
G1 X126.915 Y95.5 E.01257
M73 P9 R7
G1 X126.93 Y95.595 E.00304
G1 X122.404 Y91.07 E.20181
G1 X121.868 Y91.07 E.01691
G1 X127.235 Y96.436 E.23932
M204 S1000
;WIPE_START
G1 F8640
G1 X124.907 Y94.109 E-.76
;WIPE_END
G1 E-.04 F2100
G1 Z.6 F720
G1 X133.97 Y94.59 F10800
G1 Z.2 F720
G1 E.8 F2100
M204 S800
G1 F1200
M73 P9 R6
G1 X135.663 Y96.283 E.07549
G1 X135.484 Y96.641 E.01261
G1 X134.276 Y95.432 E.05388
G1 X134.286 Y95.5 E.00216
G1 X134.22 Y95.914 E.01321
G1 X135.305 Y96.998 E.04836
G1 X135.126 Y97.356 E.01261
G1 X134.147 Y96.376 E.04368
G1 X134.105 Y96.639 E.00839
G1 X134.027 Y96.793 E.00543
G1 X134.947 Y97.713 E.04106
G1 X134.769 Y98.071 E.01261
G1 X133.846 Y97.148 E.04116
G1 X133.665 Y97.503 E.01257
G1 X134.59 Y98.428 E.04126
G1 X134.411 Y98.786 E.01261
G1 X133.437 Y97.811 E.04346
G1 X133.168 Y98.08 E.01196
G1 X134.232 Y99.143 E.04745
G1 X134.054 Y99.501 E.01261
M73 Q9 S6
G1 X132.9 Y98.348 E.05143
G1 X132.767 Y98.481 E.00596
G1 X132.588 Y98.572 E.00631
G1 X133.875 Y99.859 E.05737
G1 X133.696 Y100.216 E.01261
G1 X132.233 Y98.753 E.06524
G1 X131.878 Y98.934 E.01257
G1 X133.517 Y100.574 E.07311
G1 X133.339 Y100.931 E.01261
G1 X131.457 Y99.05 E.08391
G1 X130.994 Y99.123 E.01479
G1 X133.16 Y101.289 E.09659
G1 X132.981 Y101.646 E.01261
G1 X130.505 Y99.17 E.11043
G1 X129.868 Y99.069 E.02033
G1 X132.802 Y102.004 E.13086
G1 X132.623 Y102.361 E.01261
G1 X129.065 Y98.803 E.15867
G1 X128.433 Y98.481 E.02238
G1 X127.619 Y97.667 E.03633
G1 X127.297 Y97.035 E.02238
G1 X121.332 Y91.07 E.266
G1 X120.796 Y91.07 E.01691
M73 Q10 S6
G1 X132.445 Y102.719 E.5195
G1 X132.266 Y103.077 E.01261
M73 P10 R6
G1 X120.259 Y91.07 E.53545
G1 X119.723 Y91.07 E.01691
G1 X132.087 Y103.434 E.55139
G1 X131.908 Y103.792 E.01261
G1 X119.187 Y91.07 E.56734
G1 X118.65 Y91.07 E.01691
G1 X120.559 Y92.979 E.08514
G1 X119.924 Y92.88 E.02027
G1 X118.114 Y91.07 E.08073
G1 X117.578 Y91.07 E.01691
G1 X119.346 Y92.838 E.07886
G1 X118.882 Y92.91 E.01481
G1 X117.041 Y91.07 E.08208
G1 X116.505 Y91.07 E.01691
G1 X118.418 Y92.983 E.0853
G1 X118.367 Y92.99 E.00162
G1 X118.048 Y93.15 E.01123
G1 X115.969 Y91.07 E.09275
M73 Q11 S6
G1 X115.432 Y91.07 E.01691
G1 X117.691 Y93.328 E.10072
G1 X117.335 Y93.509 E.01258
M73 P11 R6
G1 X114.896 Y91.07 E.10877
G1 X114.36 Y91.07 E.01691
G1 X117.065 Y93.775 E.12063
G1 X116.794 Y94.041 E.01196
G1 X113.823 Y91.07 E.13248
G1 X113.287 Y91.07 E.01691
G1 X116.524 Y94.307 E.14435
G1 X116.34 Y94.659 E.01254
G1 X112.751 Y91.07 E.16008
G1 X112.214 Y91.07 E.01691
G1 X116.157 Y95.012 E.17581
G1 X115.996 Y95.32 E.01094
G1 X115.987 Y95.379 E.00189
G1 X111.784 Y91.176 E.18743
G1 X112.32 Y92.249 E.03781
G1 X115.912 Y95.84 E.16017
G1 X115.837 Y96.302 E.01474
G1 X112.857 Y93.321 E.13292
G1 X113.393 Y94.394 E.03781
G1 X116.089 Y97.09 E.12023
M204 S1000
;WIPE_START
G1 F8640
G1 X113.761 Y94.762 E-.76
;WIPE_END
G1 E-.04 F2100
G1 Z.6 F720
G1 X122.717 Y95.137 F10800
G1 Z.2 F720
G1 E.8 F2100
M204 S800
G1 F1200
G1 X131.73 Y104.149 E.40193
G1 X131.551 Y104.507 E.01261
G1 X123.126 Y96.082 E.37569
G1 X123.186 Y96.45 E.01174
M73 Q12 S6
G1 X123.154 Y96.646 E.00627
M73 P12 R6
G1 X131.372 Y104.864 E.36649
G1 X131.193 Y105.222 E.01261
G1 X123.08 Y97.108 E.36183
G1 X123.005 Y97.57 E.01476
G1 X131.015 Y105.58 E.35718
G1 X130.836 Y105.937 E.01261
G1 X122.824 Y97.925 E.35729
G1 X122.64 Y98.278 E.01254
G1 X126.313 Y101.95 E.16378
G1 X125.676 Y101.85 E.02035
G1 X122.448 Y98.622 E.14394
G1 X122.177 Y98.888 E.01196
G1 X125.151 Y101.861 E.13261
G1 X124.688 Y101.935 E.01478
G1 X121.907 Y99.153 E.12403
G1 X121.629 Y99.412 E.01197
G1 X124.248 Y102.031 E.11682
G1 X123.893 Y102.213 E.01257
G1 X121.271 Y99.591 E.11694
G1 X120.914 Y99.769 E.01261
G1 X123.538 Y102.394 E.11705
G1 X123.313 Y102.509 E.00798
G1 X123.215 Y102.607 E.00437
G1 X120.533 Y99.925 E.1196
G1 X120.069 Y99.997 E.01483
G1 X122.947 Y102.875 E.12836
G1 X122.679 Y103.143 E.01196
M73 Q13 S6
G1 X119.604 Y100.068 E.13712
G1 X119.5 Y100.085 E.00332
M73 P13 R6
G1 X119.008 Y100.009 E.01571
G1 X122.442 Y103.443 E.15317
G1 X122.261 Y103.798 E.01257
G1 X118.374 Y99.911 E.17337
G1 X117.341 Y99.396 E.03639
G1 X116.524 Y98.594 E.03609
G1 X115.996 Y97.58 E.03605
G1 X115.987 Y97.525 E.00177
G1 X113.929 Y95.466 E.0918
G1 X114.465 Y96.539 E.03781
G1 X122.08 Y104.153 E.33958
G1 X121.992 Y104.326 E.0061
G1 X121.954 Y104.564 E.00761
G1 X115.002 Y97.611 E.31006
G1 X115.538 Y98.684 E.03781
G1 X121.881 Y105.027 E.28287
G1 X121.814 Y105.45 E.01351
G1 X121.822 Y105.505 E.00176
G1 X116.074 Y99.757 E.25636
G1 X116.61 Y100.829 E.03781
G1 X122.128 Y106.346 E.24605
M204 S1000
;WIPE_START
G1 F8640
G1 X119.8 Y104.019 E-.76
;WIPE_END
G1 E-.04 F2100
G1 Z.6 F720
G1 X128.745 Y104.383 F10800
G1 Z.2 F720
G1 E.8 F2100
M204 S800
G1 F1200
G1 X130.657 Y106.295 E.08525
G1 X130.478 Y106.652 E.01261
G1 X129.05 Y105.224 E.06367
G1 X129.086 Y105.45 E.0072
G1 X129.039 Y105.749 E.00955
G1 X130.299 Y107.01 E.05622
M73 Q14 S6
G1 X130.121 Y107.367 E.01261
G1 X128.965 Y106.212 E.05152
G1 X128.908 Y106.574 E.01156
M73 P14 R6
G1 X128.869 Y106.652 E.00274
G1 X129.942 Y107.725 E.04787
G1 X129.763 Y108.082 E.01261
G1 X128.687 Y107.007 E.04798
G1 X128.506 Y107.362 E.01257
G1 X129.584 Y108.44 E.04809
G1 X129.406 Y108.798 E.01261
G1 X128.293 Y107.685 E.04962
G1 X128.025 Y107.953 E.01196
G1 X129.227 Y109.155 E.0536
G1 X129.048 Y109.513 E.01261
G1 X127.757 Y108.221 E.05759
G1 X127.587 Y108.391 E.00757
G1 X127.457 Y108.458 E.00461
G1 X128.869 Y109.87 E.063
G1 X128.691 Y110.228 E.01261
G1 X127.102 Y108.639 E.07086
G1 X126.747 Y108.82 E.01257
G1 X128.512 Y110.585 E.07872
G1 X128.333 Y110.943 E.01261
G1 X126.336 Y108.946 E.08906
G1 X125.872 Y109.019 E.01479
G1 X128.154 Y111.3 E.10176
G1 X127.975 Y111.658 E.01261
G1 X125.394 Y109.076 E.11514
G1 X124.757 Y108.976 E.02031
G1 X127.797 Y112.016 E.13555
G1 X127.618 Y112.373 E.01261
G1 X123.973 Y108.728 E.16257
G1 X123.313 Y108.391 E.02336
G1 X122.509 Y107.587 E.03586
G1 X122.172 Y106.927 E.02336
G1 X117.147 Y101.902 E.22412
G1 X117.683 Y102.974 E.03781
G1 X127.439 Y112.731 E.43509
G1 X127.26 Y113.088 E.01261
